; generated by Slic3r 1.34.1-prusa3d-win64 on 2017-05-22 at 19:51:15

; external perimeters extrusion width = 0.30mm
; perimeters extrusion width = 0.50mm
; infill extrusion width = 0.50mm
; solid infill extrusion width = 0.50mm
; top infill extrusion width = 0.50mm
; support material extrusion width = 0.30mm

M107
M190 S65 ; set bed temperature and wait for it to be reached
M104 S230 ; set temperature
;be sure to home all axis before printing!
;G28 X0 ; home X axis
;G28 Y0 ; home Y axis


M109 S230 ; set temperature and wait for it to be reached
G21 ; set units to millimeters
G90 ; use absolute coordinates
M82 ; use absolute distances for extrusion
G92 E0
G1 Z0.300 F2400.000
G1 E-2.00000 F2400.00000
G92 E0
G1 X68.477 Y74.756 F2400.000
G1 E2.00000 F2400.00000
G1 F1800
G1 X70.266 Y73.243 E2.15657
G1 X72.175 Y71.844 E2.31464
G1 X74.537 Y70.372 E2.50058
G1 X76.695 Y69.249 E2.66308
G1 X78.889 Y68.297 E2.82289
G1 X82.184 Y67.192 E3.05509
G1 X84.556 Y66.620 E3.21810
G1 X86.733 Y66.250 E3.36561
G1 X89.092 Y66.009 E3.52398
G1 X91.313 Y65.936 E3.67248
G1 X128.695 Y65.936 E6.16975
G1 X129.827 Y66.011 E6.24555
G1 X131.966 Y66.369 E6.39047
G1 X133.345 Y66.784 E6.48664
G1 X134.336 Y67.204 E6.55855
G1 X136.205 Y68.212 E6.70041
G1 X137.400 Y69.064 E6.79846
G1 X138.234 Y69.812 E6.87328
G1 X139.729 Y71.441 E7.02100
G1 X140.547 Y72.601 E7.11583
G1 X141.065 Y73.536 E7.18725
G1 X141.930 Y75.505 E7.33094
G1 X142.355 Y76.955 E7.43186
G1 X142.538 Y78.016 E7.50378
G1 X142.714 Y80.244 E7.65312
G1 X142.634 Y81.705 E7.75082
G1 X142.437 Y82.837 E7.82758
G1 X141.960 Y84.712 E7.95685
G1 X141.461 Y85.997 E8.04892
G1 X140.975 Y86.949 E8.12035
G1 X139.965 Y88.528 E8.24558
G1 X119.559 Y119.090 E10.70059
G1 X118.328 Y120.795 E10.84105
G1 X116.936 Y122.485 E10.98733
G1 X115.757 Y123.761 E11.10335
G1 X114.222 Y125.241 E11.24583
G1 X111.824 Y127.223 E11.45363
G1 X110.095 Y128.441 E11.59495
G1 X108.700 Y129.315 E11.70492
G1 X105.985 Y130.758 E11.91032
G1 X102.663 Y132.129 E12.15046
G1 X99.608 Y133.048 E12.36355
G1 X96.052 Y133.737 E12.60552
G1 X92.987 Y134.025 E12.81119
G1 X90.428 Y134.050 E12.98212
G1 X86.853 Y133.767 E13.22170
G1 X83.836 Y133.226 E13.42650
G1 X82.235 Y132.823 E13.53677
G1 X80.248 Y132.205 E13.67579
G1 X77.382 Y131.071 E13.88171
G1 X75.434 Y130.119 E14.02654
G1 X74.055 Y129.349 E14.13207
G1 X71.491 Y127.679 E14.33648
G1 X69.771 Y126.359 E14.48131
G1 X68.553 Y125.313 E14.58858
G1 X66.348 Y123.138 E14.79545
G1 X64.936 Y121.514 E14.93924
G1 X63.968 Y120.266 E15.04477
G1 X62.253 Y117.719 E15.24992
G1 X61.420 Y116.271 E15.36151
G1 X60.483 Y114.414 E15.50047
G1 X59.317 Y111.597 E15.70409
G1 X58.780 Y109.990 E15.81728
G1 X58.232 Y107.982 E15.95637
G1 X57.652 Y104.991 E16.15990
G1 X57.444 Y103.308 E16.27319
G1 X57.306 Y101.230 E16.41231
G1 X57.329 Y98.237 E16.61225
G1 X57.463 Y96.495 E16.72897
G1 X57.732 Y94.497 E16.86367
G1 X58.240 Y91.980 E17.03522
G1 X59.077 Y89.092 E17.23611
G1 X59.795 Y87.163 E17.37360
G1 X60.493 Y85.563 E17.49020
G1 X61.892 Y82.893 E17.69155
G1 X62.976 Y81.147 E17.82885
G1 X63.948 Y79.761 E17.94193
G1 X65.879 Y77.379 E18.14682
G1 X68.445 Y74.788 E18.39041
G1 X68.826 Y75.166 F2400.000
G1 F1800
G1 X70.653 Y73.621 E18.55024
G1 X72.900 Y72.003 E18.73525
G1 X74.859 Y70.805 E18.88864
G1 X76.932 Y69.729 E19.04466
G1 X79.078 Y68.798 E19.20093
G1 X82.338 Y67.705 E19.43064
G1 X84.670 Y67.143 E19.59087
G1 X86.828 Y66.777 E19.73709
G1 X89.127 Y66.544 E19.89147
G1 X91.321 Y66.471 E20.03816
G1 X128.694 Y66.471 E22.53488
G1 X129.770 Y66.544 E22.60688
G1 X131.892 Y66.902 E22.75066
G1 X133.237 Y67.315 E22.84465
G1 X134.217 Y67.745 E22.91619
G1 X135.981 Y68.704 E23.05031
G1 X137.187 Y69.580 E23.14989
G1 X137.970 Y70.310 E23.22142
G1 X139.582 Y72.128 E23.38373
G1 X140.425 Y73.453 E23.48864
G1 X141.295 Y75.362 E23.62879
G1 X141.640 Y76.331 E23.69750
G1 X141.947 Y77.643 E23.78753
G1 X142.160 Y79.807 E23.93275
G1 X142.165 Y80.842 E24.00194
G1 X142.016 Y82.242 E24.09596
G1 X141.559 Y84.162 E24.22780
G1 X141.273 Y85.061 E24.29087
G1 X140.791 Y86.167 E24.37147
G1 X139.575 Y88.146 E24.52664
G1 X119.181 Y118.695 E26.98044
G1 X117.911 Y120.458 E27.12562
G1 X116.536 Y122.129 E27.27019
G1 X115.375 Y123.386 E27.38447
G1 X113.826 Y124.878 E27.52815
G1 X111.502 Y126.795 E27.72944
G1 X109.797 Y127.996 E27.86872
G1 X108.409 Y128.864 E27.97811
G1 X105.742 Y130.281 E28.17989
G1 X102.337 Y131.677 E28.42575
G1 X99.442 Y132.537 E28.62746
G1 X97.427 Y132.973 E28.76520
G1 X95.801 Y133.232 E28.87517
G1 X92.795 Y133.497 E29.07680
G1 X89.257 Y133.463 E29.31316
G1 X86.254 Y133.140 E29.51490
G1 X83.793 Y132.665 E29.68240
G1 X80.375 Y131.682 E29.91996
G1 X77.465 Y130.519 E30.12930
G1 X74.308 Y128.876 E30.36709
G1 X71.785 Y127.230 E30.56836
G1 X70.101 Y125.938 E30.71013
G1 X68.906 Y124.909 E30.81547
G1 X66.717 Y122.747 E31.02100
G1 X64.394 Y119.941 E31.26438
G1 X62.709 Y117.437 E31.46600
G1 X60.965 Y114.179 E31.71288
G1 X59.818 Y111.406 E31.91339
G1 X59.293 Y109.835 E32.02403
G1 X58.751 Y107.848 E32.16158
G1 X58.181 Y104.910 E32.36152
G1 X57.977 Y103.257 E32.47278
G1 X57.841 Y101.210 E32.60989
G1 X57.865 Y98.247 E32.80784
G1 X57.996 Y96.552 E32.92139
G1 X58.262 Y94.574 E33.05473
G1 X58.759 Y92.115 E33.22233
G1 X59.583 Y89.269 E33.42022
G1 X60.293 Y87.362 E33.55617
G1 X60.978 Y85.792 E33.67065
G1 X62.351 Y83.168 E33.86850
G1 X63.424 Y81.440 E34.00434
G1 X64.382 Y80.075 E34.11580
G1 X66.276 Y77.739 E34.31665
G1 X68.795 Y75.198 E34.55568
G1 X69.177 Y75.601 F2400.000
G1 F1800
G1 X69.729 Y75.078 E34.60648
G1 X71.450 Y73.682 E34.75453
G1 X73.387 Y72.326 E34.91249
G1 X75.277 Y71.187 E35.05988
G1 X78.333 Y69.684 E35.28742
G1 X80.534 Y68.829 E35.44513
G1 X82.642 Y68.175 E35.59262
G1 X84.810 Y67.661 E35.74144
G1 X86.962 Y67.299 E35.88721
G1 X89.176 Y67.077 E36.03588
G1 X91.322 Y67.007 E36.17936
G1 X128.694 Y67.007 E38.67600
G1 X129.706 Y67.075 E38.74377
G1 X131.769 Y67.423 E38.88349
G1 X133.054 Y67.818 E38.97333
G1 X133.977 Y68.224 E39.04065
G1 X135.697 Y69.157 E39.17140
G1 X136.855 Y70.000 E39.26709
G1 X137.591 Y70.689 E39.33441
G1 X139.172 Y72.474 E39.49375
G1 X139.964 Y73.728 E39.59277
G1 X140.810 Y75.589 E39.72938
G1 X141.133 Y76.508 E39.79443
G1 X141.425 Y77.773 E39.88121
G1 X141.627 Y79.862 E40.02142
G1 X141.628 Y80.856 E40.08783
G1 X141.481 Y82.186 E40.17720
G1 X141.010 Y84.144 E40.31171
G1 X140.283 Y85.984 E40.44390
G1 X139.118 Y87.867 E40.59186
G1 X118.722 Y118.418 E43.04585
G1 X117.481 Y120.139 E43.18757
G1 X116.081 Y121.835 E43.33450
G1 X114.574 Y123.432 E43.48119
G1 X112.964 Y124.925 E43.62784
G1 X111.719 Y125.952 E43.73569
G1 X110.084 Y127.156 E43.87132
G1 X107.635 Y128.694 E44.06454
G1 X106.150 Y129.486 E44.17696
G1 X104.354 Y130.320 E44.30926
G1 X102.057 Y131.207 E44.47376
G1 X99.298 Y132.021 E44.66590
G1 X97.319 Y132.449 E44.80119
G1 X95.690 Y132.707 E44.91138
G1 X92.743 Y132.963 E45.10899
G1 X90.706 Y132.987 E45.24508
G1 X89.043 Y132.913 E45.35630
G1 X86.150 Y132.581 E45.55082
G1 X82.584 Y131.808 E45.79455
G1 X79.771 Y130.895 E45.99213
G1 X77.904 Y130.131 E46.12690
G1 X76.437 Y129.431 E46.23551
G1 X73.871 Y127.983 E46.43237
G1 X72.179 Y126.853 E46.56827
G1 X70.882 Y125.878 E46.67665
G1 X68.642 Y123.937 E46.87468
G1 X66.202 Y121.358 E47.11189
G1 X64.343 Y118.953 E47.31495
G1 X63.207 Y117.226 E47.45303
G1 X62.412 Y115.852 E47.55905
G1 X61.101 Y113.179 E47.75796
G1 X59.878 Y109.907 E47.99136
G1 X59.090 Y106.927 E48.19728
G1 X58.536 Y103.444 E48.43287
G1 X58.369 Y100.991 E48.59711
G1 X58.414 Y98.039 E48.79434
G1 X58.807 Y94.557 E49.02847
G1 X59.422 Y91.675 E49.22530
G1 X59.865 Y90.130 E49.33270
G1 X60.536 Y88.203 E49.46901
G1 X61.717 Y85.488 E49.66681
G1 X63.503 Y82.303 E49.91076
G1 X65.192 Y79.891 E50.10743
G1 X66.215 Y78.626 E50.21611
G1 X67.585 Y77.112 E50.35258
G1 X69.144 Y75.632 E50.49617
G1 E48.49617 F2400.00000
G92 E0
G1 X67.977 Y77.477 F2400.000
G1 E2.00000 F2400.00000
G1 F1800
G1 X70.112 Y75.454 E2.19646
G1 X71.775 Y74.108 E2.33942
G1 X73.673 Y72.779 E2.49421
G1 X75.529 Y71.659 E2.63900
G1 X78.559 Y70.169 E2.86463
G1 X80.715 Y69.333 E3.01912
G1 X82.784 Y68.691 E3.16380
G1 X84.915 Y68.186 E3.31013
G1 X87.046 Y67.828 E3.45445
G1 X89.211 Y67.612 E3.59982
G1 X91.330 Y67.543 E3.74148
G1 X128.694 Y67.543 E6.23757
G1 X129.637 Y67.607 E6.30072
G1 X131.646 Y67.944 E6.43683
G1 X132.872 Y68.322 E6.52248
G1 X133.743 Y68.706 E6.58607
G1 X135.413 Y69.612 E6.71301
G1 X136.517 Y70.416 E6.80430
G1 X137.207 Y71.063 E6.86745
G1 X138.757 Y72.814 E7.02369
G1 X139.499 Y73.995 E7.11686
G1 X140.324 Y75.815 E7.25036
G1 X140.624 Y76.677 E7.31132
G1 X140.902 Y77.895 E7.39476
G1 X141.094 Y79.910 E7.53003
G1 X141.091 Y80.849 E7.59275
G1 X140.951 Y82.109 E7.67746
G1 X140.474 Y84.073 E7.81244
G1 X139.786 Y85.780 E7.93538
G1 X138.665 Y87.582 E8.07720
G1 X118.275 Y118.123 E10.53043
G1 X117.055 Y119.813 E10.66967
G1 X115.674 Y121.488 E10.81468
G1 X114.191 Y123.058 E10.95897
G1 X112.587 Y124.543 E11.10503
G1 X109.768 Y126.723 E11.34309
G1 X107.316 Y128.259 E11.53636
G1 X104.080 Y129.856 E11.77743
G1 X101.418 Y130.856 E11.96740
G1 X99.837 Y131.327 E12.07758
G1 X97.893 Y131.790 E12.21113
G1 X95.087 Y132.242 E12.40097
G1 X92.667 Y132.430 E12.56313
G1 X89.075 Y132.378 E12.80311
G1 X86.240 Y132.053 E12.99373
G1 X82.727 Y131.292 E13.23387
G1 X79.965 Y130.396 E13.42787
G1 X78.119 Y129.640 E13.56112
G1 X76.674 Y128.951 E13.66811
G1 X74.154 Y127.529 E13.86137
G1 X71.209 Y125.454 E14.10203
G1 X69.010 Y123.548 E14.29649
G1 X66.583 Y120.980 E14.53252
G1 X64.781 Y118.645 E14.72958
G1 X63.662 Y116.942 E14.86567
G1 X62.879 Y115.589 E14.97011
G1 X61.592 Y112.965 E15.16539
G1 X60.383 Y109.730 E15.39605
G1 X59.613 Y106.813 E15.59762
G1 X59.068 Y103.378 E15.82997
G1 X58.904 Y100.977 E15.99076
G1 X58.949 Y98.067 E16.18516
G1 X59.335 Y94.643 E16.41533
G1 X59.939 Y91.815 E16.60853
G1 X61.039 Y88.387 E16.84907
G1 X62.202 Y85.716 E17.04369
G1 X63.960 Y82.583 E17.28366
G1 X65.622 Y80.211 E17.47718
G1 X67.948 Y77.511 E17.71522
G1 X68.353 Y77.861 F2400.000
G1 F1800
G1 X70.488 Y75.838 E17.91169
G1 X72.100 Y74.534 E18.05020
G1 X73.966 Y73.227 E18.20237
G1 X75.781 Y72.132 E18.34402
G1 X78.785 Y70.655 E18.56769
G1 X80.891 Y69.839 E18.71855
G1 X82.932 Y69.206 E18.86130
G1 X85.021 Y68.711 E19.00472
G1 X87.129 Y68.357 E19.14754
G1 X89.247 Y68.146 E19.28967
G1 X91.332 Y68.078 E19.42905
G1 X128.694 Y68.078 E21.92503
G1 X129.575 Y68.139 E21.98405
G1 X131.525 Y68.466 E22.11611
G1 X132.695 Y68.827 E22.19795
G1 X133.503 Y69.185 E22.25698
G1 X135.130 Y70.066 E22.38057
G1 X136.180 Y70.832 E22.46740
G1 X137.779 Y72.462 E22.61997
G1 X138.333 Y73.143 E22.67858
G1 X139.031 Y74.256 E22.76638
G1 X139.835 Y76.034 E22.89673
G1 X140.112 Y76.833 E22.95323
G1 X140.376 Y78.001 E23.03323
G1 X140.560 Y79.951 E23.16406
G1 X140.556 Y80.835 E23.22309
G1 X140.420 Y82.032 E23.30357
G1 X139.940 Y83.990 E23.43829
G1 X139.293 Y85.567 E23.55215
G1 X138.212 Y87.296 E23.68839
G1 X117.831 Y117.822 E26.14043
G1 X116.634 Y119.483 E26.27722
G1 X115.271 Y121.135 E26.42029
G1 X113.812 Y122.679 E26.56216
G1 X112.211 Y124.160 E26.70792
G1 X109.457 Y126.287 E26.94038
G1 X107.050 Y127.794 E27.13006
G1 X103.868 Y129.364 E27.36714
G1 X101.248 Y130.348 E27.55405
G1 X99.698 Y130.810 E27.66210
G1 X97.770 Y131.268 E27.79453
G1 X95.015 Y131.711 E27.98094
G1 X92.658 Y131.894 E28.13884
G1 X89.109 Y131.844 E28.37602
G1 X86.330 Y131.525 E28.56283
G1 X82.870 Y130.776 E28.79938
G1 X80.158 Y129.896 E28.98981
G1 X76.916 Y128.473 E29.22636
G1 X74.443 Y127.078 E29.41601
G1 X71.537 Y125.030 E29.65356
G1 X69.377 Y123.158 E29.84446
G1 X66.966 Y120.604 E30.07916
G1 X65.219 Y118.337 E30.27036
G1 X64.116 Y116.659 E30.40449
G1 X63.339 Y115.315 E30.50817
G1 X62.081 Y112.744 E30.69941
G1 X60.853 Y109.440 E30.93489
G1 X60.133 Y106.681 E31.12539
G1 X59.584 Y103.174 E31.36251
G1 X59.427 Y100.319 E31.55351
G1 X59.576 Y96.916 E31.78110
G1 X59.997 Y93.988 E31.97872
G1 X60.824 Y90.658 E32.20793
G1 X61.594 Y88.435 E32.36510
G1 X62.738 Y85.843 E32.55439
G1 X64.420 Y82.858 E32.78324
G1 X66.055 Y80.525 E32.97358
G1 X68.324 Y77.895 E33.20563
G1 E31.20563 F2400.00000
G92 E0
G1 X89.530 Y101.446 F2400.000
G1 E2.00000 F2400.00000
G1 F1800
G1 X89.530 Y98.985 E2.16446
G1 X89.753 Y98.662 E2.19067
G1 X90.009 Y98.405 E2.21492
G1 X90.307 Y98.197 E2.23916
G1 X90.602 Y98.056 E2.26097
G1 X90.602 Y101.943 E2.52064
G1 X90.844 Y102.020 E2.53763
G1 X91.130 Y102.071 E2.55704
G1 X91.420 Y102.081 E2.57645
G1 X91.673 Y102.056 E2.59338
G1 X91.673 Y97.944 E2.86813
G1 X91.991 Y98.020 E2.89000
G1 X92.261 Y98.128 E2.90940
G1 X92.512 Y98.274 E2.92881
G1 X92.744 Y98.455 E2.94849
G1 X92.744 Y101.856 E3.17569
G1 Z0.300 F2400.000
G1 E1.17569 F2400.00000
G92 E0
G1 X89.099 Y115.875 F2400.000
G1 E2.00000 F2400.00000
G1 F1800
G1 X88.722 Y116.325 E2.03922
G1 X88.312 Y116.658 E2.07450
G1 X87.791 Y116.935 E2.11393
G1 X87.224 Y117.098 E2.15333
G1 X86.713 Y117.142 E2.18763
G1 X86.201 Y117.098 E2.22193
G1 X85.634 Y116.935 E2.26133
G1 X85.113 Y116.658 E2.30077
G1 X84.703 Y116.325 E2.33604
G1 X84.326 Y115.875 E2.37526
G1 X84.044 Y115.345 E2.41542
G1 X83.881 Y114.780 E2.45464
G1 X83.836 Y114.266 E2.48914
G1 X83.881 Y113.751 E2.52365
G1 X84.040 Y113.199 E2.56206
G1 X84.279 Y112.731 E2.59715
G1 X84.642 Y112.266 E2.63654
G1 X85.093 Y111.887 E2.67594
G1 X85.553 Y111.632 E2.71105
G1 X86.114 Y111.450 E2.75042
G1 X86.697 Y111.388 E2.78965
G1 X87.223 Y111.434 E2.82492
G1 X87.791 Y111.597 E2.86435
G1 X88.312 Y111.874 E2.90379
G1 X88.722 Y112.206 E2.93906
G1 X89.099 Y112.656 E2.97829
G1 X89.382 Y113.187 E3.01846
G1 X89.544 Y113.754 E3.05786
G1 X89.589 Y114.266 E3.09220
G1 X89.544 Y114.780 E3.12667
G1 X89.381 Y115.345 E3.16589
G1 X89.120 Y115.836 E3.20304
G1 X88.653 Y115.574 F2400.000
G1 F1800
G1 X88.345 Y115.942 E3.23507
G1 X88.015 Y116.209 E3.26344
G1 X87.589 Y116.436 E3.29565
G1 X87.126 Y116.568 E3.32785
G1 X86.713 Y116.605 E3.35557
G1 X86.299 Y116.568 E3.38330
G1 X85.836 Y116.436 E3.41549
G1 X85.410 Y116.209 E3.44771
G1 X85.080 Y115.942 E3.47608
G1 X84.772 Y115.574 E3.50811
G1 X84.543 Y115.143 E3.54076
G1 X84.410 Y114.682 E3.57279
G1 X84.374 Y114.266 E3.60069
G1 X84.410 Y113.850 E3.62860
G1 X84.541 Y113.396 E3.66014
G1 X84.732 Y113.020 E3.68834
G1 X85.029 Y112.640 E3.72053
G1 X85.398 Y112.330 E3.75272
G1 X85.768 Y112.126 E3.78094
G1 X86.226 Y111.977 E3.81312
G1 X86.703 Y111.926 E3.84515
G1 X87.126 Y111.963 E3.87352
G1 X87.589 Y112.096 E3.90573
G1 X88.015 Y112.322 E3.93795
G1 X88.345 Y112.590 E3.96632
G1 X88.653 Y112.957 E3.99835
G1 X88.882 Y113.389 E4.03102
G1 X89.015 Y113.852 E4.06321
G1 X89.051 Y114.266 E4.09096
G1 X89.015 Y114.682 E4.11884
G1 X88.882 Y115.143 E4.15087
G1 X88.674 Y115.534 E4.18052
G1 X88.206 Y115.273 F2400.000
G1 F1800
G1 X87.967 Y115.558 E4.20536
G1 X87.718 Y115.761 E4.22683
G1 X87.387 Y115.936 E4.25182
G1 X87.028 Y116.039 E4.27680
G1 X86.713 Y116.067 E4.29796
G1 X86.397 Y116.039 E4.31911
G1 X86.038 Y115.936 E4.34409
G1 X85.707 Y115.761 E4.36908
G1 X85.458 Y115.558 E4.39055
G1 X85.219 Y115.273 E4.41539
G1 X85.042 Y114.941 E4.44055
G1 X84.939 Y114.583 E4.46539
G1 X84.911 Y114.266 E4.48669
G1 X84.939 Y113.948 E4.50799
G1 X85.041 Y113.593 E4.53265
G1 X85.186 Y113.309 E4.55397
G1 X85.417 Y113.014 E4.57896
G1 X85.703 Y112.774 E4.60394
G1 X85.982 Y112.619 E4.62527
G1 X86.338 Y112.504 E4.65025
G1 X86.708 Y112.464 E4.67509
G1 X87.028 Y112.492 E4.69656
G1 X87.387 Y112.595 E4.72155
G1 X87.718 Y112.771 E4.74655
G1 X87.967 Y112.973 E4.76802
G1 X88.206 Y113.258 E4.79286
G1 X88.383 Y113.591 E4.81801
G1 X88.486 Y113.950 E4.84300
G1 X88.514 Y114.266 E4.86416
G1 X88.486 Y114.583 E4.88545
G1 X88.383 Y114.941 E4.91029
G1 X88.227 Y115.233 E4.93244
G1 X88.338 Y115.543 F2400.000
G1 E2.93244 F2400.00000
G92 E0
G1 X90.520 Y103.785 F2400.000
G1 E2.00000 F2400.00000
G1 F1800
G1 X89.918 Y103.601 E2.04209
G1 X89.529 Y103.420 E2.07070
G1 X89.182 Y103.211 E2.09778
G1 X88.858 Y102.967 E2.12486
G1 X88.544 Y102.674 E2.15355
G1 X88.149 Y102.186 E2.19552
G1 X87.928 Y101.817 E2.22422
G1 X87.746 Y101.429 E2.25287
G1 X87.563 Y100.828 E2.29486
G1 X87.496 Y100.404 E2.32354
G1 X87.475 Y99.999 E2.35061
G1 X87.496 Y99.594 E2.37769
G1 X87.563 Y99.171 E2.40633
G1 X87.747 Y98.570 E2.44831
G1 X87.928 Y98.182 E2.47690
G1 X88.149 Y97.814 E2.50559
