; G-Code generated by Simplify3D(R) Version 3.1.1
; bre 7, 2017 at 10:32:08 ODP.
; Settings Summary
;   processName,tyre_flex
;   applyToModels,cessna_152_main_LG_tyre
;   profileName,Default (modified)
;   profileVersion,2016-06-08 08:00:00
;   baseProfile,
;   printMaterial,PLA
;   printQuality,Medium
;   printExtruders,
;   extruderName,Primary Extruder
;   extruderToolheadNumber,0
;   extruderDiameter,0.4
;   extruderAutoWidth,0
;   extruderWidth,0.42
;   extrusionMultiplier,1.04
;   extruderUseRetract,1
;   extruderRetractionDistance,0.8
;   extruderExtraRestartDistance,0
;   extruderRetractionZLift,0
;   extruderRetractionSpeed,1302
;   extruderUseCoasting,1
;   extruderCoastingDistance,0.2
;   extruderUseWipe,1
;   extruderWipeDistance,2
;   primaryExtruder,0
;   layerHeight,0.2
;   topSolidLayers,4
;   bottomSolidLayers,3
;   perimeterOutlines,3
;   printPerimetersInsideOut,1
;   startPointOption,2
;   startPointOriginX,0
;   startPointOriginY,0
;   startPointOriginZ,300
;   sequentialIslands,0
;   spiralVaseMode,0
;   firstLayerHeightPercentage,100
;   firstLayerWidthPercentage,100
;   firstLayerUnderspeed,0.6
;   useRaft,0
;   raftExtruder,0
;   raftLayers,3
;   raftOffset,3
;   raftSeparationDistance,0.14
;   raftInfill,85
;   disableRaftBaseLayers,0
;   useSkirt,1
;   skirtExtruder,0
;   skirtLayers,1
;   skirtOutlines,1
;   skirtOffset,1.8
;   usePrimePillar,0
;   primePillarExtruder,999
;   primePillarWidth,12
;   primePillarLocation,7
;   primePillarSpeedMultiplier,1
;   useOozeShield,0
;   oozeShieldExtruder,999
;   oozeShieldOffset,2
;   oozeShieldOutlines,1
;   oozeShieldSidewallShape,1
;   oozeShieldSidewallAngle,30
;   oozeShieldSpeedMultiplier,1
;   infillExtruder,0
;   internalInfillPattern,Triangular
;   externalInfillPattern,Rectilinear
;   infillPercentage,15
;   outlineOverlapPercentage,21
;   infillExtrusionWidthPercentage,100
;   minInfillLength,2
;   infillLayerInterval,1
;   infillAngles,0,60,-60
;   overlapInfillAngles,1
;   generateSupport,0
;   supportExtruder,0
;   supportInfillPercentage,30
;   supportExtraInflation,0
;   denseSupportLayers,0
;   denseSupportInfillPercentage,70
;   supportLayerInterval,1
;   supportHorizontalPartOffset,0.2
;   supportUpperSeparationLayers,1
;   supportLowerSeparationLayers,1
;   supportType,0
;   supportGridSpacing,4
;   maxOverhangAngle,45
;   supportAngles,0
;   temperatureName,Primary Extruder,Heated Bed
;   temperatureNumber,0,1
;   temperatureSetpointCount,1,1
;   temperatureSetpointLayers,1,1
;   temperatureSetpointTemperatures,220,50
;   temperatureStabilizeAtStartup,1,1
;   temperatureHeatedBed,0,1
;   temperatureRelayBetweenLayers,0,0
;   temperatureRelayBetweenLoops,0,0
;   fanLayers,1,2
;   fanSpeeds,0,100
;   blipFanToFullPower,1
;   adjustSpeedForCooling,1
;   minSpeedLayerTime,15
;   minCoolingSpeedSlowdown,20
;   increaseFanForCooling,0
;   minFanLayerTime,45
;   maxCoolingFanSpeed,100
;   increaseFanForBridging,1
;   bridgingFanSpeed,100
;   use5D,1
;   relativeEdistances,1
;   allowEaxisZeroing,1
;   independentExtruderAxes,0
;   includeM10123,0
;   stickySupport,1
;   applyToolheadOffsets,0
;   gcodeXoffset,0
;   gcodeYoffset,0
;   gcodeZoffset,0
;   overrideMachineDefinition,1
;   machineTypeOverride,0
;   strokeXoverride,200
;   strokeYoverride,200
;   strokeZoverride,175
;   originOffsetXoverride,0
;   originOffsetYoverride,0
;   originOffsetZoverride,0
;   homeXdirOverride,-1
;   homeYdirOverride,-1
;   homeZdirOverride,-1
;   flipXoverride,1
;   flipYoverride,-1
;   flipZoverride,1
;   toolheadOffsets,0,0|0,0|0,0|0,0|0,0|0,0
;   overrideFirmwareConfiguration,1
;   firmwareTypeOverride,RepRap (Marlin/Repetier/Sprinter)
;   GPXconfigOverride,r2
;   baudRateOverride,250000
;   overridePrinterModels,1
;   printerModelsOverride
;   startingGcode,G28 ; home all,
;   layerChangeGcode,
;   retractionGcode,
;   toolChangeGcode,
;   endingGcode,M104 S0 ; turn off extruder,M140 S0 ; turn off bed,G91 ; use relative coordinates,G1 Z0.6 F5000 ; lift nozzle by 0.6mm,G90 ; use absolute coordinates,G28 X0 ; home X axis,G1 Y195 ; move Y axis to end position,M84 ; disable motors,M107 ; turn off fan
;   exportFileFormat,gcode
;   celebration,0
;   celebrationSong,Random Song
;   postProcessing,
;   defaultSpeed,2400
;   outlineUnderspeed,1
;   solidInfillUnderspeed,1
;   supportUnderspeed,0.8
;   rapidXYspeed,6000
;   rapidZspeed,1002
;   minBridgingArea,50
;   bridgingExtraInflation,0
;   bridgingExtrusionMultiplier,1
;   bridgingSpeedMultiplier,1
;   filamentDiameter,1.75
;   filamentPricePerKg,215
;   filamentDensity,1.25
;   useMinPrintHeight,0
;   minPrintHeight,0
;   useMaxPrintHeight,0
;   maxPrintHeight,0
;   useDiaphragm,0
;   diaphragmLayerInterval,20
;   robustSlicing,1
;   mergeAllIntoSolid,0
;   onlyRetractWhenCrossingOutline,0
;   retractBetweenLayers,1
;   useRetractionMinTravel,1
;   retractionMinTravel,3
;   retractWhileWiping,1
;   onlyWipeOutlines,1
;   avoidCrossingOutline,0
;   maxMovementDetourFactor,3
;   toolChangeRetractionDistance,12
;   toolChangeExtraRestartDistance,-0.5
;   toolChangeRetractionSpeed,600
;   allowThinWallGapFill,1
;   thinWallAllowedOverlapPercentage,10
;   horizontalSizeCompensation,0
G90
M83
M106 S0
M140 S50
M190 S50
M104 S220 T0
M109 S220 T0
G28 ; home all
G1 E-0.8000 F1302
G1 Z0.200 F1002
; layer 1, Z = 0.2
T0
; tool H0.200 W0.420
; skirt
G1 X74.085 Y74.807 F6000
G1 E0.8000 F391
G1 X76.309 Y72.686 E0.1116 F1440
G1 X76.312 Y72.683 E0.0002
G1 X76.376 Y72.628 E0.0030
G1 X76.379 Y72.625 E0.0002
G1 X78.781 Y70.708 E0.1116
G1 X78.784 Y70.705 E0.0002
G1 X78.851 Y70.656 E0.0030
G1 X78.855 Y70.654 E0.0002
G1 X81.414 Y68.954 E0.1116
G1 X81.418 Y68.951 E0.0002
G1 X81.488 Y68.908 E0.0030
G1 X81.492 Y68.906 E0.0002
G1 X84.188 Y67.434 E0.1116
G1 X84.193 Y67.432 E0.0002
G1 X84.267 Y67.396 E0.0030
G1 X84.271 Y67.394 E0.0002
G1 X87.086 Y66.162 E0.1116
G1 X87.090 Y66.160 E0.0002
G1 X87.168 Y66.130 E0.0030
G1 X87.173 Y66.128 E0.0002
G1 X90.084 Y65.149 E0.1116
G1 X90.089 Y65.148 E0.0002
G1 X90.169 Y65.125 E0.0030
G1 X90.173 Y65.123 E0.0002
G1 X93.159 Y64.401 E0.1116
G1 X93.163 Y64.400 E0.0002
G1 X93.244 Y64.385 E0.0030
G1 X93.249 Y64.384 E0.0002
G1 X96.286 Y63.923 E0.1116
G1 X96.290 Y63.923 E0.0002
G1 X96.373 Y63.914 E0.0030
G1 X96.377 Y63.913 E0.0002
G1 X99.443 Y63.719 E0.1116
G1 X99.448 Y63.719 E0.0002
G1 X99.532 Y63.717 E0.0031
G1 X99.536 Y63.717 E0.0002
G1 X102.607 Y63.793 E0.1116
G1 X102.612 Y63.794 E0.0002
G1 X102.695 Y63.799 E0.0030
G1 X102.699 Y63.800 E0.0002
G1 X105.752 Y64.143 E0.1116
G1 X105.756 Y64.143 E0.0002
G1 X105.838 Y64.156 E0.0030
G1 X105.842 Y64.157 E0.0002
G1 X108.854 Y64.763 E0.1116
G1 X108.858 Y64.764 E0.0002
G1 X108.939 Y64.784 E0.0030
G1 X108.943 Y64.786 E0.0002
G1 X111.891 Y65.652 E0.1116
G1 X111.895 Y65.653 E0.0002
G1 X111.974 Y65.681 E0.0030
G1 X111.979 Y65.682 E0.0002
G1 X114.838 Y66.805 E0.1116
G1 X114.843 Y66.806 E0.0002
G1 X114.919 Y66.840 E0.0030
G1 X114.923 Y66.842 E0.0002
G1 X117.674 Y68.209 E0.1116
G1 X117.678 Y68.211 E0.0002
G1 X117.750 Y68.251 E0.0030
G1 X117.754 Y68.253 E0.0002
G1 X120.376 Y69.854 E0.1116
G1 X120.380 Y69.856 E0.0002
G1 X120.449 Y69.902 E0.0030
G1 X120.453 Y69.905 E0.0002
G1 X122.926 Y71.728 E0.1116
G1 X122.930 Y71.731 E0.0002
G1 X122.995 Y71.783 E0.0030
G1 X122.999 Y71.786 E0.0002
G1 X125.303 Y73.820 E0.1116
G1 X125.306 Y73.823 E0.0002
G1 X125.366 Y73.880 E0.0030
G1 X125.369 Y73.883 E0.0002
G1 X127.487 Y76.110 E0.1116
G1 X127.490 Y76.113 E0.0002
G1 X127.544 Y76.175 E0.0030
G1 X127.547 Y76.179 E0.0002
G1 X129.464 Y78.580 E0.1116
G1 X129.467 Y78.583 E0.0002
G1 X129.516 Y78.650 E0.0030
G1 X129.518 Y78.654 E0.0002
G1 X131.220 Y81.213 E0.1116
G1 X131.222 Y81.217 E0.0002
G1 X131.266 Y81.289 E0.0030
G1 X131.268 Y81.293 E0.0002
G1 X132.737 Y83.992 E0.1116
G1 X132.740 Y83.996 E0.0002
G1 X132.776 Y84.071 E0.0030
G1 X132.778 Y84.075 E0.0002
G1 X134.007 Y86.891 E0.1116
G1 X134.009 Y86.895 E0.0002
G1 X134.039 Y86.972 E0.0030
G1 X134.040 Y86.977 E0.0002
G1 X135.021 Y89.889 E0.1116
G1 X135.022 Y89.893 E0.0002
G1 X135.045 Y89.973 E0.0030
G1 X135.046 Y89.978 E0.0002
G1 X135.770 Y92.964 E0.1116
G1 X135.771 Y92.969 E0.0002
G1 X135.787 Y93.051 E0.0030
G1 X135.788 Y93.056 E0.0002
G1 X136.246 Y96.095 E0.1116
G1 X136.247 Y96.099 E0.0002
G1 X136.256 Y96.182 E0.0030
G1 X136.256 Y96.186 E0.0002
G1 X136.449 Y99.253 E0.1116
G1 X136.449 Y99.258 E0.0002
G1 X136.450 Y99.341 E0.0030
G1 X136.450 Y99.345 E0.0002
G1 X136.376 Y102.417 E0.1116
G1 X136.376 Y102.422 E0.0002
G1 X136.370 Y102.505 E0.0030
G1 X136.370 Y102.509 E0.0002
G1 X136.029 Y105.564 E0.1116
G1 X136.029 Y105.568 E0.0002
G1 X136.016 Y105.651 E0.0030
G1 X136.015 Y105.656 E0.0002
G1 X135.407 Y108.668 E0.1116
G1 X135.406 Y108.673 E0.0002
G1 X135.386 Y108.753 E0.0030
G1 X135.384 Y108.758 E0.0002
G1 X134.517 Y111.706 E0.1116
G1 X134.515 Y111.710 E0.0002
G1 X134.489 Y111.788 E0.0030
G1 X134.487 Y111.792 E0.0002
G1 X133.367 Y114.654 E0.1116
G1 X133.366 Y114.658 E0.0002
G1 X133.332 Y114.734 E0.0030
G1 X133.330 Y114.738 E0.0002
G1 X131.965 Y117.492 E0.1116
G1 X131.963 Y117.496 E0.0002
G1 X131.923 Y117.569 E0.0030
G1 X131.920 Y117.573 E0.0002
G1 X130.319 Y120.196 E0.1116
G1 X130.317 Y120.200 E0.0002
G1 X130.270 Y120.269 E0.0030
G1 X130.268 Y120.272 E0.0002
G1 X128.445 Y122.746 E0.1116
G1 X128.442 Y122.749 E0.0002
G1 X128.390 Y122.814 E0.0030
G1 X128.387 Y122.817 E0.0002
G1 X126.356 Y125.123 E0.1116
G1 X126.353 Y125.126 E0.0002
G1 X126.296 Y125.186 E0.0030
G1 X126.293 Y125.189 E0.0002
G1 X124.069 Y127.310 E0.1116
G1 X124.066 Y127.313 E0.0002
G1 X124.002 Y127.369 E0.0031
G1 X123.999 Y127.371 E0.0002
G1 X121.597 Y129.288 E0.1116
G1 X121.594 Y129.291 E0.0002
G1 X121.527 Y129.340 E0.0030
G1 X121.523 Y129.342 E0.0002
G1 X118.964 Y131.043 E0.1116
G1 X118.960 Y131.045 E0.0002
G1 X118.889 Y131.088 E0.0030
G1 X118.886 Y131.090 E0.0002
G1 X116.189 Y132.562 E0.1116
G1 X116.185 Y132.564 E0.0002
G1 X116.111 Y132.601 E0.0030
G1 X116.106 Y132.603 E0.0002
G1 X113.292 Y133.834 E0.1116
G1 X113.288 Y133.836 E0.0002
G1 X113.209 Y133.866 E0.0031
G1 X113.205 Y133.868 E0.0002
G1 X110.293 Y134.847 E0.1116
G1 X110.289 Y134.849 E0.0002
G1 X110.209 Y134.872 E0.0030
G1 X110.205 Y134.873 E0.0002
G1 X107.219 Y135.595 E0.1116
G1 X107.214 Y135.596 E0.0002
G1 X107.133 Y135.612 E0.0030
G1 X107.129 Y135.613 E0.0002
G1 X104.092 Y136.073 E0.1116
G1 X104.087 Y136.074 E0.0002
G1 X104.005 Y136.083 E0.0030
G1 X104.000 Y136.083 E0.0002
G1 X100.934 Y136.277 E0.1116
G1 X100.930 Y136.278 E0.0002
G1 X100.846 Y136.279 E0.0030
G1 X100.841 Y136.279 E0.0002
G1 X97.770 Y136.203 E0.1116
G1 X97.766 Y136.203 E0.0002
G1 X97.683 Y136.197 E0.0030
G1 X97.678 Y136.197 E0.0002
G1 X94.626 Y135.853 E0.1116
G1 X94.621 Y135.853 E0.0002
G1 X94.540 Y135.840 E0.0030
G1 X94.535 Y135.839 E0.0002
G1 X91.524 Y135.233 E0.1116
G1 X91.520 Y135.232 E0.0002
G1 X91.439 Y135.212 E0.0030
G1 X91.434 Y135.211 E0.0002
G1 X88.487 Y134.344 E0.1116
G1 X88.483 Y134.343 E0.0002
G1 X88.403 Y134.316 E0.0030
G1 X88.399 Y134.314 E0.0002
G1 X85.539 Y133.191 E0.1116
G1 X85.535 Y133.190 E0.0002
G1 X85.459 Y133.156 E0.0030
G1 X85.455 Y133.154 E0.0002
G1 X82.704 Y131.787 E0.1116
G1 X82.700 Y131.785 E0.0002
G1 X82.627 Y131.745 E0.0030
G1 X82.623 Y131.743 E0.0002
G1 X80.001 Y130.142 E0.1116
G1 X79.997 Y130.140 E0.0002
G1 X79.928 Y130.094 E0.0030
G1 X79.925 Y130.091 E0.0002
G1 X77.451 Y128.268 E0.1116
G1 X77.447 Y128.265 E0.0002
G1 X77.382 Y128.213 E0.0030
G1 X77.379 Y128.210 E0.0002
G1 X75.075 Y126.176 E0.1116
G1 X75.072 Y126.173 E0.0002
G1 X75.012 Y126.116 E0.0030
G1 X75.009 Y126.112 E0.0002
G1 X72.891 Y123.886 E0.1116
G1 X72.888 Y123.883 E0.0002
G1 X72.833 Y123.821 E0.0030
G1 X72.831 Y123.817 E0.0002
G1 X70.913 Y121.416 E0.1116
G1 X70.911 Y121.413 E0.0002
G1 X70.862 Y121.346 E0.0030
G1 X70.859 Y121.342 E0.0002
G1 X69.158 Y118.783 E0.1116
G1 X69.156 Y118.779 E0.0002
G1 X69.112 Y118.707 E0.0030
G1 X69.110 Y118.703 E0.0002
G1 X67.640 Y116.004 E0.1116
G1 X67.638 Y116.000 E0.0002
G1 X67.602 Y115.925 E0.0030
G1 X67.600 Y115.921 E0.0002
G1 X66.371 Y113.105 E0.1116
G1 X66.369 Y113.101 E0.0002
G1 X66.339 Y113.024 E0.0030
G1 X66.338 Y113.019 E0.0002
G1 X65.357 Y110.107 E0.1116
G1 X65.356 Y110.103 E0.0002
G1 X65.333 Y110.023 E0.0030
G1 X65.331 Y110.019 E0.0002
G1 X64.608 Y107.032 E0.1116
G1 X64.607 Y107.027 E0.0002
G1 X64.591 Y106.945 E0.0030
G1 X64.590 Y106.940 E0.0002
G1 X64.131 Y103.901 E0.1116
G1 X64.131 Y103.897 E0.0002
G1 X64.122 Y103.814 E0.0030
G1 X64.122 Y103.810 E0.0002
G1 X63.929 Y100.743 E0.1116
G1 X63.929 Y100.738 E0.0002
G1 X63.928 Y100.655 E0.0030
G1 X63.928 Y100.651 E0.0002
G1 X64.002 Y97.579 E0.1116
G1 X64.002 Y97.574 E0.0002
G1 X64.007 Y97.491 E0.0030
G1 X64.008 Y97.487 E0.0002
G1 X64.349 Y94.432 E0.1116
G1 X64.349 Y94.428 E0.0002
G1 X64.362 Y94.345 E0.0030
G1 X64.363 Y94.340 E0.0002
G1 X64.971 Y91.328 E0.1116
G1 X64.972 Y91.323 E0.0002
G1 X64.992 Y91.243 E0.0030
G1 X64.994 Y91.238 E0.0002
G1 X65.861 Y88.290 E0.1116
G1 X65.863 Y88.286 E0.0002
G1 X65.889 Y88.208 E0.0030
G1 X65.891 Y88.203 E0.0002
G1 X67.011 Y85.342 E0.1116
G1 X67.013 Y85.338 E0.0002
G1 X67.046 Y85.262 E0.0030
G1 X67.048 Y85.258 E0.0002
G1 X68.413 Y82.504 E0.1116
G1 X68.415 Y82.500 E0.0002
G1 X68.455 Y82.426 E0.0030
G1 X68.458 Y82.422 E0.0002
G1 X70.059 Y79.800 E0.1116
G1 X70.061 Y79.796 E0.0002
G1 X70.108 Y79.727 E0.0030
G1 X70.110 Y79.723 E0.0002
G1 X71.933 Y77.250 E0.1116
G1 X71.936 Y77.247 E0.0002
G1 X71.988 Y77.182 E0.0030
G1 X71.991 Y77.179 E0.0002
G1 X73.950 Y74.954 E0.1077
G1 X74.022 Y74.873 F1440
G1 X74.025 Y74.870 F1440
G1 X74.082 Y74.810 F1440
G1 X74.085 Y74.807 F1440
G1 E-0.8000 F1302
; inner perimeter
G1 X76.260 Y76.961 F6000
G1 E0.8000 F1302
G1 X78.357 Y74.961 E0.1052 F1440
G1 X80.621 Y73.154 E0.1052
G1 X83.035 Y71.550 E0.1053
G1 X85.578 Y70.162 E0.1052
G1 X88.232 Y69.001 E0.1052
G1 X90.977 Y68.077 E0.1052
G1 X93.793 Y67.396 E0.1052
G1 X96.658 Y66.962 E0.1052
G1 X99.549 Y66.778 E0.1052
G1 X102.444 Y66.850 E0.1052
G1 X105.324 Y67.174 E0.1052
G1 X108.164 Y67.746 E0.1052
G1 X110.943 Y68.563 E0.1052
G1 X113.639 Y69.621 E0.1052
G1 X116.234 Y70.911 E0.1052
G1 X118.708 Y72.420 E0.1053
G1 X121.040 Y74.139 E0.1052
G1 X123.212 Y76.056 E0.1052
G1 X125.210 Y78.156 E0.1053
G1 X127.018 Y80.421 E0.1053
G1 X128.623 Y82.834 E0.1052
G1 X130.008 Y85.379 E0.1052
G1 X131.168 Y88.036 E0.1053
G1 X132.093 Y90.783 E0.1053
G1 X132.775 Y93.599 E0.1053
G1 X133.208 Y96.465 E0.1053
G1 X133.389 Y99.358 E0.1053
G1 X133.319 Y102.256 E0.1053
G1 X132.998 Y105.137 E0.1053
G1 X132.424 Y107.977 E0.1053
G1 X131.606 Y110.758 E0.1053
G1 X130.549 Y113.458 E0.1053
G1 X129.263 Y116.054 E0.1052
G1 X127.753 Y118.527 E0.1052
G1 X126.033 Y120.860 E0.1053
G1 X124.118 Y123.035 E0.1053
G1 X122.021 Y125.035 E0.1052
G1 X119.757 Y126.842 E0.1052
G1 X117.343 Y128.446 E0.1053
G1 X114.799 Y129.834 E0.1052
G1 X112.146 Y130.996 E0.1052
G1 X109.400 Y131.919 E0.1052
G1 X106.584 Y132.600 E0.1052
G1 X103.719 Y133.035 E0.1052
G1 X100.829 Y133.218 E0.1052
G1 X97.933 Y133.146 E0.1052
G1 X95.054 Y132.822 E0.1052
G1 X92.214 Y132.250 E0.1052
G1 X89.435 Y131.433 E0.1052
G1 X86.738 Y130.375 E0.1052
G1 X84.143 Y129.085 E0.1052
G1 X81.670 Y127.576 E0.1053
G1 X79.337 Y125.857 E0.1052
G1 X77.165 Y123.940 E0.1052
G1 X75.168 Y121.840 E0.1053
G1 X73.359 Y119.575 E0.1053
G1 X71.755 Y117.162 E0.1052
G1 X70.369 Y114.617 E0.1052
G1 X69.210 Y111.961 E0.1053
G1 X68.285 Y109.213 E0.1053
G1 X67.602 Y106.397 E0.1053
G1 X67.170 Y103.531 E0.1053
G1 X66.989 Y100.638 E0.1053
G1 X67.059 Y97.739 E0.1053
G1 X67.380 Y94.859 E0.1053
G1 X67.954 Y92.019 E0.1053
G1 X68.772 Y89.238 E0.1053
G1 X69.829 Y86.538 E0.1053
G1 X71.115 Y83.942 E0.1052
G1 X72.625 Y81.469 E0.1052
G1 X74.345 Y79.136 E0.1053
G1 X76.128 Y77.111 E0.0980
G1 X76.260 Y76.961 F1440
; inner perimeter
G1 X75.957 Y76.669 F6000
G1 X78.080 Y74.645 E0.1066 F1440
G1 X80.373 Y72.814 E0.1066
G1 X82.818 Y71.190 E0.1066
G1 X85.393 Y69.785 E0.1066
G1 X88.080 Y68.608 E0.1065
G1 X90.861 Y67.673 E0.1065
G1 X93.712 Y66.984 E0.1066
G1 X96.613 Y66.544 E0.1066
G1 X99.541 Y66.358 E0.1065
G1 X102.473 Y66.431 E0.1065
G1 X105.389 Y66.759 E0.1066
G1 X108.265 Y67.338 E0.1066
