; G-Code generated by Simplify3D(R) Version 3.1.1
; bre 7, 2017 at 10:33:54 ODP.
; Settings Summary
;   processName,tyre_flex
;   applyToModels,cessna_152_nose_LG_tyre
;   profileName,Default (modified)
;   profileVersion,2016-06-08 08:00:00
;   baseProfile,
;   printMaterial,PLA
;   printQuality,Medium
;   printExtruders,
;   extruderName,Primary Extruder
;   extruderToolheadNumber,0
;   extruderDiameter,0.4
;   extruderAutoWidth,0
;   extruderWidth,0.42
;   extrusionMultiplier,1.04
;   extruderUseRetract,1
;   extruderRetractionDistance,0.8
;   extruderExtraRestartDistance,0
;   extruderRetractionZLift,0
;   extruderRetractionSpeed,1302
;   extruderUseCoasting,1
;   extruderCoastingDistance,0.2
;   extruderUseWipe,1
;   extruderWipeDistance,2
;   primaryExtruder,0
;   layerHeight,0.2
;   topSolidLayers,4
;   bottomSolidLayers,4
;   perimeterOutlines,3
;   printPerimetersInsideOut,1
;   startPointOption,2
;   startPointOriginX,0
;   startPointOriginY,0
;   startPointOriginZ,300
;   sequentialIslands,0
;   spiralVaseMode,0
;   firstLayerHeightPercentage,100
;   firstLayerWidthPercentage,100
;   firstLayerUnderspeed,0.6
;   useRaft,0
;   raftExtruder,0
;   raftLayers,3
;   raftOffset,3
;   raftSeparationDistance,0.14
;   raftInfill,85
;   disableRaftBaseLayers,0
;   useSkirt,1
;   skirtExtruder,0
;   skirtLayers,1
;   skirtOutlines,1
;   skirtOffset,1.8
;   usePrimePillar,0
;   primePillarExtruder,999
;   primePillarWidth,12
;   primePillarLocation,7
;   primePillarSpeedMultiplier,1
;   useOozeShield,0
;   oozeShieldExtruder,999
;   oozeShieldOffset,2
;   oozeShieldOutlines,1
;   oozeShieldSidewallShape,1
;   oozeShieldSidewallAngle,30
;   oozeShieldSpeedMultiplier,1
;   infillExtruder,0
;   internalInfillPattern,Triangular
;   externalInfillPattern,Rectilinear
;   infillPercentage,15
;   outlineOverlapPercentage,21
;   infillExtrusionWidthPercentage,100
;   minInfillLength,2
;   infillLayerInterval,1
;   infillAngles,0,60,-60
;   overlapInfillAngles,1
;   generateSupport,0
;   supportExtruder,0
;   supportInfillPercentage,30
;   supportExtraInflation,0
;   denseSupportLayers,0
;   denseSupportInfillPercentage,70
;   supportLayerInterval,1
;   supportHorizontalPartOffset,0.2
;   supportUpperSeparationLayers,1
;   supportLowerSeparationLayers,1
;   supportType,0
;   supportGridSpacing,4
;   maxOverhangAngle,45
;   supportAngles,0
;   temperatureName,Primary Extruder,Heated Bed
;   temperatureNumber,0,1
;   temperatureSetpointCount,1,1
;   temperatureSetpointLayers,1,1
;   temperatureSetpointTemperatures,220,50
;   temperatureStabilizeAtStartup,1,1
;   temperatureHeatedBed,0,1
;   temperatureRelayBetweenLayers,0,0
;   temperatureRelayBetweenLoops,0,0
;   fanLayers,1,2
;   fanSpeeds,0,100
;   blipFanToFullPower,1
;   adjustSpeedForCooling,1
;   minSpeedLayerTime,15
;   minCoolingSpeedSlowdown,20
;   increaseFanForCooling,0
;   minFanLayerTime,45
;   maxCoolingFanSpeed,100
;   increaseFanForBridging,1
;   bridgingFanSpeed,100
;   use5D,1
;   relativeEdistances,1
;   allowEaxisZeroing,1
;   independentExtruderAxes,0
;   includeM10123,0
;   stickySupport,1
;   applyToolheadOffsets,0
;   gcodeXoffset,0
;   gcodeYoffset,0
;   gcodeZoffset,0
;   overrideMachineDefinition,1
;   machineTypeOverride,0
;   strokeXoverride,200
;   strokeYoverride,200
;   strokeZoverride,175
;   originOffsetXoverride,0
;   originOffsetYoverride,0
;   originOffsetZoverride,0
;   homeXdirOverride,-1
;   homeYdirOverride,-1
;   homeZdirOverride,-1
;   flipXoverride,1
;   flipYoverride,-1
;   flipZoverride,1
;   toolheadOffsets,0,0|0,0|0,0|0,0|0,0|0,0
;   overrideFirmwareConfiguration,1
;   firmwareTypeOverride,RepRap (Marlin/Repetier/Sprinter)
;   GPXconfigOverride,r2
;   baudRateOverride,250000
;   overridePrinterModels,1
;   printerModelsOverride
;   startingGcode,G28 ; home all,
;   layerChangeGcode,
;   retractionGcode,
;   toolChangeGcode,
;   endingGcode,M104 S0 ; turn off extruder,M140 S0 ; turn off bed,G91 ; use relative coordinates,G1 Z0.6 F5000 ; lift nozzle by 0.6mm,G90 ; use absolute coordinates,G28 X0 ; home X axis,G1 Y195 ; move Y axis to end position,M84 ; disable motors,M107 ; turn off fan
;   exportFileFormat,gcode
;   celebration,0
;   celebrationSong,Random Song
;   postProcessing,
;   defaultSpeed,2400
;   outlineUnderspeed,1
;   solidInfillUnderspeed,1
;   supportUnderspeed,0.8
;   rapidXYspeed,6000
;   rapidZspeed,1002
;   minBridgingArea,50
;   bridgingExtraInflation,0
;   bridgingExtrusionMultiplier,1
;   bridgingSpeedMultiplier,1
;   filamentDiameter,1.75
;   filamentPricePerKg,215
;   filamentDensity,1.25
;   useMinPrintHeight,0
;   minPrintHeight,0
;   useMaxPrintHeight,0
;   maxPrintHeight,0
;   useDiaphragm,0
;   diaphragmLayerInterval,20
;   robustSlicing,1
;   mergeAllIntoSolid,0
;   onlyRetractWhenCrossingOutline,0
;   retractBetweenLayers,1
;   useRetractionMinTravel,1
;   retractionMinTravel,3
;   retractWhileWiping,1
;   onlyWipeOutlines,1
;   avoidCrossingOutline,0
;   maxMovementDetourFactor,3
;   toolChangeRetractionDistance,12
;   toolChangeExtraRestartDistance,-0.5
;   toolChangeRetractionSpeed,600
;   allowThinWallGapFill,1
;   thinWallAllowedOverlapPercentage,10
;   horizontalSizeCompensation,0
G90
M83
M106 S0
M140 S50
M190 S50
M104 S220 T0
M109 S220 T0
G28 ; home all
G1 E-0.8000 F1302
G1 Z0.200 F1002
; layer 1, Z = 0.2
T0
; tool H0.200 W0.420
; skirt
G1 X78.937 Y78.326 F6000
G1 E0.8000 F391
G1 X78.940 Y78.323 E0.0002 F1440
G1 X79.000 Y78.265 E0.0030
G1 X79.003 Y78.262 E0.0002
G1 X80.904 Y76.584 E0.0921
G1 X80.907 Y76.581 E0.0002
G1 X80.973 Y76.529 E0.0030
G1 X80.976 Y76.526 E0.0002
G1 X83.017 Y75.022 E0.0921
G1 X83.021 Y75.019 E0.0002
G1 X83.090 Y74.973 E0.0030
G1 X83.094 Y74.971 E0.0002
G1 X85.257 Y73.650 E0.0920
G1 X85.261 Y73.648 E0.0002
G1 X85.333 Y73.608 E0.0030
G1 X85.337 Y73.606 E0.0002
G1 X87.607 Y72.478 E0.0920
G1 X87.611 Y72.476 E0.0002
G1 X87.687 Y72.443 E0.0030
G1 X87.691 Y72.441 E0.0002
G1 X90.051 Y71.515 E0.0921
G1 X90.055 Y71.513 E0.0002
G1 X90.134 Y71.486 E0.0030
G1 X90.139 Y71.485 E0.0002
G1 X92.570 Y70.770 E0.0921
G1 X92.575 Y70.769 E0.0002
G1 X92.655 Y70.749 E0.0030
G1 X92.660 Y70.748 E0.0002
G1 X95.144 Y70.247 E0.0920
G1 X95.149 Y70.247 E0.0002
G1 X95.230 Y70.234 E0.0030
G1 X95.235 Y70.233 E0.0002
G1 X97.753 Y69.950 E0.0920
G1 X97.758 Y69.950 E0.0002
G1 X97.841 Y69.944 E0.0030
G1 X97.845 Y69.944 E0.0002
G1 X100.379 Y69.881 E0.0921
G1 X100.383 Y69.881 E0.0002
G1 X100.467 Y69.883 E0.0030
G1 X100.472 Y69.883 E0.0002
G1 X103.001 Y70.043 E0.0921
G1 X103.006 Y70.044 E0.0002
G1 X103.089 Y70.052 E0.0030
G1 X103.093 Y70.053 E0.0002
G1 X105.599 Y70.433 E0.0920
G1 X105.603 Y70.434 E0.0002
G1 X105.684 Y70.450 E0.0030
G1 X105.689 Y70.451 E0.0002
G1 X108.152 Y71.046 E0.0920
G1 X108.156 Y71.047 E0.0002
G1 X108.236 Y71.071 E0.0030
G1 X108.240 Y71.072 E0.0002
G1 X110.643 Y71.880 E0.0921
G1 X110.647 Y71.881 E0.0002
G1 X110.725 Y71.912 E0.0030
G1 X110.730 Y71.913 E0.0002
G1 X113.052 Y72.930 E0.0921
G1 X113.056 Y72.932 E0.0002
G1 X113.130 Y72.968 E0.0030
G1 X113.134 Y72.970 E0.0002
G1 X115.359 Y74.185 E0.0920
G1 X115.363 Y74.187 E0.0002
G1 X115.434 Y74.230 E0.0030
G1 X115.437 Y74.232 E0.0002
G1 X117.548 Y75.635 E0.0921
G1 X117.552 Y75.637 E0.0002
G1 X117.619 Y75.686 E0.0030
G1 X117.623 Y75.689 E0.0002
G1 X119.604 Y77.270 E0.0921
G1 X119.608 Y77.273 E0.0002
G1 X119.671 Y77.328 E0.0030
G1 X119.674 Y77.332 E0.0002
G1 X121.509 Y79.081 E0.0921
G1 X121.512 Y79.084 E0.0002
G1 X121.569 Y79.144 E0.0030
G1 X121.573 Y79.147 E0.0002
G1 X123.248 Y81.050 E0.0921
G1 X123.251 Y81.053 E0.0002
G1 X123.303 Y81.118 E0.0030
G1 X123.305 Y81.121 E0.0002
G1 X124.809 Y83.161 E0.0921
G1 X124.812 Y83.165 E0.0002
G1 X124.858 Y83.234 E0.0030
G1 X124.861 Y83.238 E0.0002
G1 X126.182 Y85.402 E0.0921
G1 X126.184 Y85.406 E0.0002
G1 X126.225 Y85.479 E0.0030
G1 X126.227 Y85.483 E0.0002
G1 X127.353 Y87.755 E0.0921
G1 X127.355 Y87.759 E0.0002
G1 X127.388 Y87.835 E0.0030
G1 X127.390 Y87.839 E0.0002
G1 X128.314 Y90.200 E0.0921
G1 X128.315 Y90.204 E0.0002
G1 X128.342 Y90.283 E0.0030
G1 X128.344 Y90.287 E0.0002
G1 X129.059 Y92.719 E0.0921
G1 X129.061 Y92.723 E0.0002
G1 X129.081 Y92.804 E0.0030
G1 X129.082 Y92.808 E0.0002
G1 X129.583 Y95.294 E0.0921
G1 X129.584 Y95.298 E0.0002
G1 X129.597 Y95.381 E0.0030
G1 X129.598 Y95.386 E0.0002
G1 X129.879 Y97.906 E0.0921
G1 X129.879 Y97.911 E0.0002
G1 X129.885 Y97.993 E0.0030
G1 X129.885 Y97.998 E0.0002
G1 X129.946 Y100.532 E0.0921
G1 X129.946 Y100.537 E0.0002
G1 X129.945 Y100.620 E0.0030
G1 X129.945 Y100.624 E0.0002
G1 X129.786 Y103.154 E0.0921
G1 X129.786 Y103.159 E0.0002
G1 X129.777 Y103.241 E0.0030
G1 X129.776 Y103.246 E0.0002
G1 X129.398 Y105.753 E0.0921
G1 X129.397 Y105.758 E0.0002
G1 X129.381 Y105.840 E0.0030
G1 X129.380 Y105.845 E0.0002
G1 X128.783 Y108.309 E0.0921
G1 X128.782 Y108.313 E0.0002
G1 X128.759 Y108.393 E0.0030
G1 X128.757 Y108.398 E0.0002
G1 X127.948 Y110.800 E0.0921
G1 X127.947 Y110.804 E0.0002
G1 X127.917 Y110.881 E0.0030
G1 X127.915 Y110.886 E0.0002
G1 X126.901 Y113.209 E0.0921
G1 X126.899 Y113.213 E0.0002
G1 X126.863 Y113.288 E0.0030
G1 X126.861 Y113.292 E0.0002
G1 X125.648 Y115.519 E0.0921
G1 X125.646 Y115.523 E0.0002
G1 X125.603 Y115.595 E0.0030
G1 X125.600 Y115.598 E0.0002
G1 X124.197 Y117.710 E0.0921
G1 X124.194 Y117.714 E0.0002
G1 X124.145 Y117.781 E0.0030
G1 X124.142 Y117.784 E0.0002
G1 X122.561 Y119.765 E0.0921
G1 X122.558 Y119.769 E0.0002
G1 X122.504 Y119.831 E0.0030
G1 X122.501 Y119.834 E0.0002
G1 X120.753 Y121.671 E0.0921
G1 X120.750 Y121.674 E0.0002
G1 X120.690 Y121.731 E0.0030
G1 X120.687 Y121.734 E0.0002
G1 X118.787 Y123.412 E0.0921
G1 X118.783 Y123.415 E0.0002
G1 X118.718 Y123.468 E0.0031
G1 X118.714 Y123.471 E0.0002
G1 X116.673 Y124.975 E0.0921
G1 X116.669 Y124.977 E0.0002
G1 X116.601 Y125.023 E0.0030
G1 X116.597 Y125.026 E0.0002
G1 X114.433 Y126.346 E0.0921
G1 X114.429 Y126.348 E0.0002
G1 X114.357 Y126.388 E0.0030
G1 X114.353 Y126.391 E0.0002
G1 X112.083 Y127.518 E0.0920
G1 X112.079 Y127.520 E0.0002
G1 X112.003 Y127.554 E0.0030
G1 X111.999 Y127.556 E0.0002
G1 X109.640 Y128.482 E0.0921
G1 X109.635 Y128.484 E0.0002
G1 X109.556 Y128.511 E0.0031
G1 X109.551 Y128.512 E0.0002
G1 X107.120 Y129.227 E0.0921
G1 X107.115 Y129.228 E0.0002
G1 X107.035 Y129.248 E0.0030
G1 X107.030 Y129.249 E0.0002
G1 X104.546 Y129.749 E0.0920
G1 X104.542 Y129.750 E0.0002
G1 X104.460 Y129.763 E0.0030
G1 X104.455 Y129.763 E0.0002
G1 X101.937 Y130.047 E0.0920
G1 X101.933 Y130.047 E0.0002
G1 X101.850 Y130.053 E0.0030
G1 X101.845 Y130.053 E0.0002
G1 X99.311 Y130.116 E0.0921
G1 X99.307 Y130.116 E0.0002
G1 X99.223 Y130.114 E0.0030
G1 X99.218 Y130.114 E0.0002
G1 X96.689 Y129.954 E0.0921
G1 X96.684 Y129.953 E0.0002
G1 X96.602 Y129.944 E0.0030
G1 X96.597 Y129.944 E0.0002
G1 X94.092 Y129.564 E0.0920
G1 X94.087 Y129.563 E0.0002
G1 X94.006 Y129.547 E0.0030
G1 X94.002 Y129.546 E0.0002
G1 X91.539 Y128.950 E0.0920
G1 X91.534 Y128.949 E0.0002
G1 X91.454 Y128.926 E0.0030
G1 X91.450 Y128.925 E0.0002
G1 X89.048 Y128.117 E0.0921
G1 X89.043 Y128.116 E0.0002
G1 X88.965 Y128.085 E0.0031
G1 X88.961 Y128.084 E0.0002
G1 X86.638 Y127.067 E0.0921
G1 X86.634 Y127.065 E0.0002
G1 X86.560 Y127.029 E0.0030
G1 X86.556 Y127.027 E0.0002
G1 X84.331 Y125.812 E0.0921
G1 X84.327 Y125.810 E0.0002
G1 X84.257 Y125.767 E0.0030
G1 X84.253 Y125.765 E0.0002
G1 X82.142 Y124.362 E0.0921
G1 X82.138 Y124.359 E0.0002
G1 X82.071 Y124.311 E0.0030
G1 X82.067 Y124.308 E0.0002
G1 X80.086 Y122.726 E0.0921
G1 X80.082 Y122.723 E0.0002
G1 X80.019 Y122.668 E0.0030
G1 X80.016 Y122.665 E0.0002
G1 X78.181 Y120.916 E0.0921
G1 X78.178 Y120.912 E0.0002
G1 X78.120 Y120.852 E0.0030
G1 X78.117 Y120.849 E0.0002
G1 X76.442 Y118.947 E0.0921
G1 X76.439 Y118.943 E0.0002
G1 X76.387 Y118.879 E0.0030
G1 X76.385 Y118.875 E0.0002
G1 X74.880 Y116.835 E0.0921
G1 X74.878 Y116.831 E0.0002
G1 X74.832 Y116.762 E0.0030
G1 X74.829 Y116.759 E0.0002
G1 X73.508 Y114.595 E0.0921
G1 X73.506 Y114.591 E0.0002
G1 X73.465 Y114.517 E0.0030
G1 X73.463 Y114.513 E0.0002
G1 X72.337 Y112.241 E0.0921
G1 X72.335 Y112.237 E0.0002
G1 X72.302 Y112.161 E0.0030
G1 X72.300 Y112.157 E0.0002
G1 X71.376 Y109.796 E0.0921
G1 X71.374 Y109.792 E0.0002
G1 X71.348 Y109.714 E0.0030
G1 X71.346 Y109.709 E0.0002
G1 X70.630 Y107.277 E0.0921
G1 X70.629 Y107.273 E0.0002
G1 X70.609 Y107.193 E0.0030
G1 X70.608 Y107.188 E0.0002
G1 X70.107 Y104.703 E0.0921
G1 X70.106 Y104.698 E0.0002
G1 X70.093 Y104.615 E0.0030
G1 X70.092 Y104.610 E0.0002
G1 X69.811 Y102.090 E0.0921
G1 X69.811 Y102.086 E0.0002
G1 X69.805 Y102.003 E0.0030
G1 X69.805 Y101.999 E0.0002
G1 X69.744 Y99.464 E0.0921
G1 X69.744 Y99.460 E0.0002
G1 X69.745 Y99.377 E0.0030
G1 X69.745 Y99.372 E0.0002
G1 X69.904 Y96.842 E0.0921
G1 X69.904 Y96.838 E0.0002
G1 X69.913 Y96.755 E0.0030
G1 X69.914 Y96.751 E0.0002
G1 X70.292 Y94.243 E0.0921
G1 X70.293 Y94.239 E0.0002
G1 X70.309 Y94.156 E0.0030
G1 X70.310 Y94.152 E0.0002
G1 X70.907 Y91.688 E0.0921
G1 X70.908 Y91.683 E0.0002
G1 X70.931 Y91.603 E0.0030
G1 X70.933 Y91.599 E0.0002
G1 X71.742 Y89.196 E0.0921
G1 X71.743 Y89.192 E0.0002
G1 X71.773 Y89.115 E0.0030
G1 X71.775 Y89.111 E0.0002
G1 X72.789 Y86.787 E0.0921
G1 X72.791 Y86.783 E0.0002
G1 X72.827 Y86.709 E0.0030
G1 X72.829 Y86.705 E0.0002
G1 X74.042 Y84.478 E0.0921
G1 X74.044 Y84.474 E0.0002
G1 X74.087 Y84.402 E0.0030
G1 X74.090 Y84.398 E0.0002
G1 X75.494 Y82.287 E0.0921
G1 X75.496 Y82.283 E0.0002
G1 X75.545 Y82.216 E0.0030
G1 X75.548 Y82.212 E0.0002
G1 X77.129 Y80.231 E0.0921
G1 X77.132 Y80.228 E0.0002
G1 X77.187 Y80.166 E0.0030
G1 X77.190 Y80.162 E0.0002
G1 X78.799 Y78.471 E0.0848
G1 X78.937 Y78.326 F1440
G1 E-0.8000 F1302
; inner perimeter
G1 X81.094 Y80.498 F6000
G1 E0.8000 F1302
G1 X82.863 Y78.937 E0.0857 F1440
G1 X84.762 Y77.537 E0.0857
G1 X86.777 Y76.308 E0.0857
G1 X88.890 Y75.257 E0.0857
G1 X91.086 Y74.396 E0.0857
G1 X93.350 Y73.730 E0.0857
G1 X95.663 Y73.264 E0.0857
G1 X98.008 Y73.001 E0.0857
G1 X100.366 Y72.942 E0.0857
G1 X102.721 Y73.091 E0.0857
G1 X105.054 Y73.445 E0.0857
G1 X107.348 Y74.000 E0.0857
G1 X109.584 Y74.752 E0.0857
G1 X111.745 Y75.698 E0.0857
G1 X113.816 Y76.829 E0.0857
G1 X115.782 Y78.135 E0.0857
G1 X117.626 Y79.607 E0.0857
G1 X119.334 Y81.235 E0.0857
G1 X120.894 Y83.007 E0.0857
G1 X122.295 Y84.907 E0.0857
G1 X123.524 Y86.921 E0.0857
G1 X124.572 Y89.036 E0.0857
G1 X125.433 Y91.234 E0.0858
G1 X126.099 Y93.499 E0.0858
G1 X126.566 Y95.813 E0.0857
G1 X126.828 Y98.159 E0.0857
G1 X126.885 Y100.519 E0.0858
G1 X126.737 Y102.876 E0.0858
G1 X126.385 Y105.210 E0.0857
G1 X125.830 Y107.504 E0.0857
G1 X125.076 Y109.741 E0.0857
G1 X124.132 Y111.905 E0.0858
G1 X123.003 Y113.978 E0.0857
G1 X121.697 Y115.943 E0.0857
G1 X120.224 Y117.788 E0.0857
G1 X118.597 Y119.498 E0.0857
G1 X116.828 Y121.060 E0.0857
G1 X114.928 Y122.459 E0.0857
G1 X112.913 Y123.689 E0.0857
G1 X110.800 Y124.739 E0.0857
G1 X108.604 Y125.601 E0.0857
G1 X106.341 Y126.266 E0.0857
G1 X104.027 Y126.732 E0.0857
G1 X101.682 Y126.996 E0.0857
G1 X99.324 Y127.055 E0.0857
G1 X96.970 Y126.905 E0.0857
G1 X94.636 Y126.551 E0.0857
G1 X92.343 Y125.997 E0.0857
G1 X90.107 Y125.245 E0.0857
G1 X87.945 Y124.299 E0.0857
G1 X85.874 Y123.168 E0.0857
G1 X83.908 Y121.862 E0.0857
G1 X82.064 Y120.390 E0.0857
G1 X80.356 Y118.761 E0.0857
G1 X78.796 Y116.990 E0.0857
G1 X77.395 Y115.089 E0.0857
G1 X76.166 Y113.075 E0.0857
G1 X75.118 Y110.961 E0.0857
G1 X74.257 Y108.762 E0.0858
G1 X73.591 Y106.497 E0.0858
G1 X73.124 Y104.184 E0.0857
G1 X72.862 Y101.838 E0.0857
G1 X72.805 Y99.477 E0.0858
G1 X72.953 Y97.121 E0.0858
G1 X73.305 Y94.787 E0.0857
G1 X73.861 Y92.493 E0.0857
G1 X74.614 Y90.255 E0.0858
G1 X75.558 Y88.091 E0.0858
G1 X76.687 Y86.019 E0.0857
G1 X77.994 Y84.053 E0.0857
G1 X79.466 Y82.209 E0.0857
G1 X80.956 Y80.643 E0.0785
G1 X81.094 Y80.498 F1440
; inner perimeter
G1 X80.802 Y80.196 F6000
G1 X82.599 Y78.610 E0.0870 F1440
G1 X84.528 Y77.188 E0.0870
G1 X86.574 Y75.940 E0.0871
G1 X88.720 Y74.873 E0.0870
G1 X90.950 Y73.998 E0.0870
G1 X93.249 Y73.322 E0.0870
G1 X95.598 Y72.849 E0.0870
G1 X97.980 Y72.581 E0.0870
G1 X100.374 Y72.522 E0.0870
G1 X102.766 Y72.673 E0.0870
G1 X105.135 Y73.033 E0.0870
G1 X107.464 Y73.596 E0.0870
