; G-Code generated by Simplify3D(R) Version 3.1.0
; 3 6, 2017 at 4:04:58 ODP.
; Settings Summary
;   processName,thick
;   applyToModels,cessna_152_main_LG_pin,cessna_152_nose_LG_pin,cessna_152_main_LG_pin(2),cessna_152_main_LG_pin(2)(2),cessna_152_nose_LG_pin(2)
;   profileName,Default (modified)
;   profileVersion,2016-04-14 15:44:02
;   baseProfile,Default
;   printMaterial,
;   printQuality,
;   printExtruders,
;   extruderName,Primary Extruder
;   extruderToolheadNumber,0
;   extruderDiameter,0.4
;   extruderAutoWidth,0
;   extruderWidth,0.42
;   extrusionMultiplier,1.02
;   extruderUseRetract,1
;   extruderRetractionDistance,0.8
;   extruderExtraRestartDistance,0
;   extruderRetractionZLift,0
;   extruderRetractionSpeed,1800
;   extruderUseCoasting,1
;   extruderCoastingDistance,0.2
;   extruderUseWipe,1
;   extruderWipeDistance,2
;   primaryExtruder,0
;   layerHeight,0.25
;   topSolidLayers,2
;   bottomSolidLayers,2
;   perimeterOutlines,5
;   printPerimetersInsideOut,1
;   startPointOption,3
;   startPointOriginX,200
;   startPointOriginY,0
;   startPointOriginZ,-300
;   sequentialIslands,0
;   spiralVaseMode,0
;   firstLayerHeightPercentage,90
;   firstLayerWidthPercentage,110
;   firstLayerUnderspeed,0.5
;   useRaft,0
;   raftExtruder,0
;   raftLayers,3
;   raftOffset,3
;   raftSeparationDistance,0.14
;   raftInfill,85
;   disableRaftBaseLayers,0
;   useSkirt,1
;   skirtExtruder,0
;   skirtLayers,1
;   skirtOutlines,1
;   skirtOffset,1.4
;   usePrimePillar,0
;   primePillarExtruder,999
;   primePillarWidth,12
;   primePillarLocation,7
;   primePillarSpeedMultiplier,1
;   useOozeShield,0
;   oozeShieldExtruder,999
;   oozeShieldOffset,2
;   oozeShieldOutlines,1
;   oozeShieldSidewallShape,1
;   oozeShieldSidewallAngle,30
;   oozeShieldSpeedMultiplier,1
;   infillExtruder,0
;   internalInfillPattern,Rectilinear
;   externalInfillPattern,Rectilinear
;   infillPercentage,6
;   outlineOverlapPercentage,15
;   infillExtrusionWidthPercentage,100
;   minInfillLength,5
;   infillLayerInterval,1
;   infillAngles,45,-45
;   overlapInfillAngles,0
;   generateSupport,0
;   supportExtruder,0
;   supportInfillPercentage,30
;   supportExtraInflation,0
;   denseSupportLayers,0
;   denseSupportInfillPercentage,70
;   supportLayerInterval,1
;   supportHorizontalPartOffset,0.3
;   supportUpperSeparationLayers,1
;   supportLowerSeparationLayers,1
;   supportType,0
;   supportGridSpacing,4
;   maxOverhangAngle,45
;   supportAngles,0
;   temperatureName,Primary Extruder,Heated Bed
;   temperatureNumber,0,1
;   temperatureSetpointCount,1,1
;   temperatureSetpointLayers,1,1
;   temperatureSetpointTemperatures,230,55
;   temperatureStabilizeAtStartup,1,1
;   temperatureHeatedBed,0,1
;   temperatureRelayBetweenLayers,0,0
;   temperatureRelayBetweenLoops,0,0
;   fanLayers,1
;   fanSpeeds,0
;   blipFanToFullPower,1
;   adjustSpeedForCooling,1
;   minSpeedLayerTime,15
;   minCoolingSpeedSlowdown,30
;   increaseFanForCooling,0
;   minFanLayerTime,45
;   maxCoolingFanSpeed,100
;   increaseFanForBridging,0
;   bridgingFanSpeed,100
;   use5D,1
;   relativeEdistances,0
;   allowEaxisZeroing,1
;   independentExtruderAxes,0
;   includeM10123,0
;   stickySupport,1
;   applyToolheadOffsets,0
;   gcodeXoffset,0
;   gcodeYoffset,0
;   gcodeZoffset,0
;   overrideMachineDefinition,1
;   machineTypeOverride,0
;   strokeXoverride,195
;   strokeYoverride,195
;   strokeZoverride,150
;   originOffsetXoverride,0
;   originOffsetYoverride,0
;   originOffsetZoverride,0
;   homeXdirOverride,-1
;   homeYdirOverride,-1
;   homeZdirOverride,-1
;   flipXoverride,1
;   flipYoverride,-1
;   flipZoverride,1
;   toolheadOffsets,0,0|0,0|0,0|0,0|0,0|0,0
;   overrideFirmwareConfiguration,1
;   firmwareTypeOverride,RepRap (Marlin/Repetier/Sprinter)
;   GPXconfigOverride,r2
;   baudRateOverride,115200
;   overridePrinterModels,0
;   printerModelsOverride
;   startingGcode,G28,
;   layerChangeGcode,
;   retractionGcode,
;   toolChangeGcode,
;   endingGcode,M104 S0 ; turn off extruder,M140 S0 ; turn off bed,G28 X0 ; home X axis,M84 ; disable motors,M107 ; turn off fan
;   exportFileFormat,gcode
;   celebration,0
;   celebrationSong,Random Song
;   postProcessing,
;   defaultSpeed,3600
;   outlineUnderspeed,0.7
;   solidInfillUnderspeed,0.8
;   supportUnderspeed,0.8
;   rapidXYspeed,7800
;   rapidZspeed,1002
;   minBridgingArea,5
;   bridgingExtraInflation,0
;   bridgingExtrusionMultiplier,1
;   bridgingSpeedMultiplier,0.3
;   filamentDiameter,1.75
;   filamentPricePerKg,1000
;   filamentDensity,1.25
;   useMinPrintHeight,0
;   minPrintHeight,0
;   useMaxPrintHeight,0
;   maxPrintHeight,1
;   useDiaphragm,0
;   diaphragmLayerInterval,20
;   robustSlicing,1
;   mergeAllIntoSolid,0
;   onlyRetractWhenCrossingOutline,0
;   retractBetweenLayers,0
;   useRetractionMinTravel,0
;   retractionMinTravel,3
;   retractWhileWiping,0
;   onlyWipeOutlines,1
;   avoidCrossingOutline,0
;   maxMovementDetourFactor,3
;   toolChangeRetractionDistance,0
;   toolChangeExtraRestartDistance,0
;   toolChangeRetractionSpeed,360
;   allowThinWallGapFill,1
;   thinWallAllowedOverlapPercentage,10
;   horizontalSizeCompensation,0
G90
M82
M106 S0
M140 S55
M190 S55
M104 S230 T0
M109 S230 T0
G28
G92 E0
G1 E-0.8000 F1800
G1 Z0.225 F1002
; layer 1, Z = 0.225
T0
; tool H0.250 W0.462
; skirt
G1 X94.190 Y89.390 F7800
G1 E0.0000 F540
G92 E0
G1 X94.295 Y89.286 E0.0072 F1318
G1 X94.303 Y89.279 E0.0077
G1 X94.872 Y88.813 E0.0438
G1 X94.880 Y88.806 E0.0443
G1 X95.003 Y88.724 E0.0515
G1 X95.012 Y88.719 E0.0520
G1 X95.661 Y88.373 E0.0881
G1 X95.670 Y88.368 E0.0886
G1 X95.806 Y88.312 E0.0958
G1 X95.816 Y88.308 E0.0963
G1 X96.518 Y88.095 E0.1322
G1 X96.528 Y88.093 E0.1328
G1 X96.674 Y88.064 E0.1400
G1 X96.684 Y88.062 E0.1405
G1 X97.419 Y87.991 E0.1767
G1 X97.429 Y87.990 E0.1772
G1 X97.577 Y87.990 E0.1844
G1 X97.587 Y87.991 E0.1849
G1 X98.320 Y88.063 E0.2210
G1 X98.330 Y88.065 E0.2215
G1 X98.475 Y88.094 E0.2287
G1 X98.485 Y88.096 E0.2292
G1 X99.189 Y88.310 E0.2653
G1 X99.199 Y88.314 E0.2658
G1 X99.335 Y88.371 E0.2730
G1 X99.345 Y88.375 E0.2735
G1 X99.993 Y88.722 E0.3096
G1 X100.002 Y88.728 E0.3101
G1 X100.125 Y88.810 E0.3173
G1 X100.133 Y88.816 E0.3178
G1 X100.702 Y89.283 E0.3539
G1 X100.710 Y89.290 E0.3544
G1 X100.814 Y89.395 E0.3616
G1 X100.821 Y89.403 E0.3621
G1 X101.287 Y89.972 E0.3982
G1 X101.294 Y89.980 E0.3987
G1 X101.376 Y90.103 E0.4059
G1 X101.381 Y90.112 E0.4064
G1 X101.727 Y90.761 E0.4425
G1 X101.732 Y90.770 E0.4430
G1 X101.788 Y90.907 E0.4502
G1 X101.792 Y90.917 E0.4507
G1 X102.005 Y91.621 E0.4868
G1 X102.007 Y91.631 E0.4873
G1 X102.036 Y91.776 E0.4945
G1 X102.038 Y91.786 E0.4950
G1 X102.109 Y92.519 E0.5311
G1 X102.110 Y92.529 E0.5316
G1 X102.110 Y92.677 E0.5388
G1 X102.109 Y92.687 E0.5393
G1 X102.037 Y93.420 E0.5754
G1 X102.035 Y93.430 E0.5759
G1 X102.006 Y93.575 E0.5831
G1 X102.004 Y93.585 E0.5836
G1 X101.790 Y94.289 E0.6197
G1 X101.786 Y94.299 E0.6202
G1 X101.729 Y94.435 E0.6274
G1 X101.725 Y94.444 E0.6279
G1 X101.378 Y95.093 E0.6640
G1 X101.372 Y95.102 E0.6645
G1 X101.290 Y95.225 E0.6717
G1 X101.284 Y95.233 E0.6722
G1 X100.817 Y95.802 E0.7083
G1 X100.810 Y95.810 E0.7088
G1 X100.705 Y95.914 E0.7160
G1 X100.698 Y95.921 E0.7165
G1 X100.128 Y96.387 E0.7526
G1 X100.120 Y96.394 E0.7531
G1 X99.997 Y96.476 E0.7603
G1 X99.988 Y96.481 E0.7608
G1 X99.339 Y96.827 E0.7969
G1 X99.330 Y96.832 E0.7974
G1 X99.193 Y96.888 E0.8046
G1 X99.183 Y96.892 E0.8051
G1 X98.479 Y97.105 E0.8412
G1 X98.469 Y97.107 E0.8417
G1 X98.324 Y97.136 E0.8489
G1 X98.314 Y97.138 E0.8494
G1 X97.581 Y97.209 E0.8855
G1 X97.571 Y97.210 E0.8860
G1 X97.423 Y97.210 E0.8932
G1 X97.413 Y97.209 E0.8937
G1 X96.680 Y97.137 E0.9298
G1 X96.670 Y97.135 E0.9303
G1 X96.525 Y97.106 E0.9375
G1 X96.515 Y97.104 E0.9380
G1 X95.811 Y96.890 E0.9741
G1 X95.801 Y96.886 E0.9746
G1 X95.665 Y96.829 E0.9818
G1 X95.655 Y96.825 E0.9823
G1 X95.007 Y96.478 E1.0183
G1 X94.998 Y96.472 E1.0189
G1 X94.875 Y96.390 E1.0261
G1 X94.867 Y96.384 E1.0266
G1 X94.298 Y95.917 E1.0626
G1 X94.290 Y95.910 E1.0632
G1 X94.186 Y95.805 E1.0704
G1 X94.179 Y95.797 E1.0709
G1 X93.713 Y95.228 E1.1069
G1 X93.706 Y95.220 E1.1074
G1 X93.624 Y95.097 E1.1147
G1 X93.619 Y95.088 E1.1152
G1 X93.273 Y94.439 E1.1512
G1 X93.268 Y94.430 E1.1518
G1 X93.212 Y94.293 E1.1590
G1 X93.208 Y94.283 E1.1595
G1 X92.995 Y93.579 E1.1955
G1 X92.993 Y93.569 E1.1960
G1 X92.964 Y93.424 E1.2033
G1 X92.962 Y93.414 E1.2038
G1 X92.891 Y92.681 E1.2398
G1 X92.890 Y92.671 E1.2403
G1 X92.890 Y92.523 E1.2476
G1 X92.891 Y92.513 E1.2481
G1 X92.963 Y91.780 E1.2841
G1 X92.965 Y91.770 E1.2846
G1 X92.994 Y91.625 E1.2919
G1 X92.996 Y91.615 E1.2924
G1 X93.210 Y90.911 E1.3284
G1 X93.214 Y90.901 E1.3289
G1 X93.271 Y90.765 E1.3362
G1 X93.275 Y90.755 E1.3367
G1 X93.622 Y90.107 E1.3727
G1 X93.628 Y90.098 E1.3732
G1 X93.710 Y89.975 E1.3805
G1 X93.716 Y89.967 E1.3810
G1 X94.063 Y89.545 E1.4077
G1 X94.183 Y89.398 F1318
G1 X94.190 Y89.390 F1318
G92 E0
G1 E-0.8000 F1800
G1 X95.638 Y99.181 F7800
G1 E0.0000 F1800
G92 E0
G1 X96.718 Y98.992 E0.0537 F1318
G1 X96.736 Y98.990 E0.0546
G1 X97.000 Y98.991 E0.0675
G1 X97.018 Y98.992 E0.0684
G1 X98.098 Y99.184 E0.1221
G1 X98.116 Y99.189 E0.1230
G1 X98.363 Y99.279 E0.1359
G1 X98.379 Y99.287 E0.1368
G1 X99.329 Y99.836 E0.1905
G1 X99.344 Y99.847 E0.1914
G1 X99.545 Y100.016 E0.2043
G1 X99.558 Y100.029 E0.2052
G1 X100.262 Y100.870 E0.2589
G1 X100.272 Y100.885 E0.2598
G1 X100.404 Y101.113 E0.2727
G1 X100.412 Y101.130 E0.2736
G1 X100.785 Y102.161 E0.3273
G1 X100.790 Y102.179 E0.3282
G1 X100.836 Y102.438 E0.3411
G1 X100.837 Y102.456 E0.3420
G1 X100.836 Y103.553 E0.3957
G1 X100.834 Y103.571 E0.3966
G1 X100.788 Y103.830 E0.4095
G1 X100.784 Y103.848 E0.4104
G1 X100.407 Y104.878 E0.4642
G1 X100.400 Y104.895 E0.4650
G1 X100.268 Y105.123 E0.4779
G1 X100.257 Y105.138 E0.4788
G1 X99.551 Y105.977 E0.5326
G1 X99.538 Y105.990 E0.5335
G1 X99.336 Y106.159 E0.5464
G1 X99.321 Y106.169 E0.5473
G1 X98.371 Y106.717 E0.6010
G1 X98.354 Y106.724 E0.6019
G1 X98.107 Y106.814 E0.6148
G1 X98.089 Y106.819 E0.6157
G1 X97.009 Y107.008 E0.6694
G1 X96.991 Y107.010 E0.6703
G1 X96.727 Y107.009 E0.6832
G1 X96.709 Y107.008 E0.6841
G1 X95.629 Y106.816 E0.7378
G1 X95.612 Y106.811 E0.7387
G1 X95.364 Y106.721 E0.7516
G1 X95.348 Y106.713 E0.7525
G1 X94.399 Y106.164 E0.8062
G1 X94.384 Y106.153 E0.8071
G1 X94.183 Y105.985 E0.8199
G1 X94.170 Y105.972 E0.8208
G1 X93.467 Y105.134 E0.8744
G1 X93.456 Y105.119 E0.8753
G1 X93.324 Y104.890 E0.8882
G1 X93.317 Y104.873 E0.8891
G1 X92.942 Y103.839 E0.9430
G1 X92.937 Y103.821 E0.9439
G1 X92.891 Y103.562 E0.9568
G1 X92.890 Y103.544 E0.9577
G1 X92.891 Y102.447 E1.0114
G1 X92.893 Y102.429 E1.0123
G1 X92.939 Y102.170 E1.0252
G1 X92.944 Y102.152 E1.0261
G1 X93.320 Y101.122 E1.0798
G1 X93.328 Y101.105 E1.0807
G1 X93.459 Y100.877 E1.0936
G1 X93.470 Y100.862 E1.0945
G1 X94.176 Y100.023 E1.1482
G1 X94.189 Y100.010 E1.1491
G1 X94.391 Y99.841 E1.1620
G1 X94.406 Y99.831 E1.1629
G1 X95.356 Y99.283 E1.2166
G1 X95.373 Y99.276 E1.2175
G1 X95.450 Y99.248 E1.2215
G1 X95.620 Y99.186 F1318
G1 X95.638 Y99.181 F1318
G92 E0
G1 E-0.8000 F1800
G1 X103.671 Y102.152 F7800
G1 E0.0000 F1800
G92 E0
G1 X104.047 Y101.122 E0.0537 F1318
G1 X104.055 Y101.105 E0.0546
G1 X104.187 Y100.877 E0.0675
G1 X104.197 Y100.862 E0.0684
G1 X104.903 Y100.023 E0.1221
G1 X104.916 Y100.010 E0.1230
G1 X105.118 Y99.841 E0.1359
G1 X105.133 Y99.831 E0.1368
G1 X106.083 Y99.283 E0.1905
G1 X106.100 Y99.276 E0.1914
G1 X106.347 Y99.186 E0.2043
G1 X106.365 Y99.181 E0.2052
G1 X107.445 Y98.992 E0.2589
G1 X107.464 Y98.990 E0.2598
G1 X107.727 Y98.991 E0.2727
G1 X107.745 Y98.992 E0.2736
G1 X108.825 Y99.184 E0.3273
G1 X108.843 Y99.189 E0.3282
G1 X109.090 Y99.279 E0.3411
G1 X109.107 Y99.287 E0.3420
G1 X110.056 Y99.836 E0.3957
G1 X110.071 Y99.847 E0.3966
G1 X110.272 Y100.016 E0.4095
G1 X110.285 Y100.029 E0.4104
G1 X110.989 Y100.870 E0.4642
G1 X111.000 Y100.885 E0.4651
G1 X111.131 Y101.113 E0.4779
G1 X111.139 Y101.130 E0.4788
G1 X111.513 Y102.161 E0.5326
G1 X111.517 Y102.179 E0.5335
G1 X111.563 Y102.438 E0.5464
G1 X111.564 Y102.456 E0.5473
G1 X111.563 Y103.553 E0.6010
G1 X111.561 Y103.571 E0.6019
G1 X111.515 Y103.830 E0.6148
G1 X111.511 Y103.848 E0.6157
G1 X111.134 Y104.878 E0.6694
G1 X111.127 Y104.895 E0.6703
G1 X110.995 Y105.123 E0.6832
G1 X110.984 Y105.138 E0.6841
G1 X110.278 Y105.977 E0.7378
G1 X110.265 Y105.990 E0.7387
G1 X110.063 Y106.159 E0.7516
G1 X110.048 Y106.169 E0.7525
G1 X109.098 Y106.717 E0.8062
G1 X109.081 Y106.724 E0.8071
G1 X108.834 Y106.814 E0.8200
G1 X108.816 Y106.819 E0.8209
G1 X107.736 Y107.008 E0.8746
G1 X107.718 Y107.010 E0.8755
G1 X107.454 Y107.009 E0.8884
G1 X107.436 Y107.008 E0.8893
G1 X106.356 Y106.816 E0.9430
G1 X106.339 Y106.811 E0.9439
G1 X106.091 Y106.721 E0.9568
G1 X106.075 Y106.713 E0.9577
G1 X105.126 Y106.164 E1.0114
G1 X105.111 Y106.153 E1.0123
G1 X104.910 Y105.985 E1.0251
G1 X104.897 Y105.972 E1.0260
G1 X104.194 Y105.134 E1.0796
G1 X104.183 Y105.119 E1.0805
G1 X104.051 Y104.890 E1.0935
G1 X104.044 Y104.873 E1.0944
G1 X103.669 Y103.839 E1.1482
G1 X103.664 Y103.821 E1.1491
G1 X103.619 Y103.562 E1.1620
G1 X103.617 Y103.544 E1.1629
G1 X103.618 Y102.447 E1.2166
G1 X103.620 Y102.429 E1.2175
G1 X103.634 Y102.348 E1.2215
G1 X103.666 Y102.170 F1318
G1 X103.671 Y102.152 F1318
G92 E0
G1 E-0.8000 F1800
G1 X107.007 Y96.478 F7800
G1 E0.0000 F1800
G92 E0
G1 X106.998 Y96.472 E0.0005 F1318
G1 X106.875 Y96.390 E0.0077
G1 X106.867 Y96.384 E0.0083
G1 X106.298 Y95.917 E0.0443
G1 X106.290 Y95.910 E0.0448
G1 X106.186 Y95.805 E0.0520
G1 X106.179 Y95.797 E0.0526
G1 X105.713 Y95.228 E0.0886
G1 X105.706 Y95.220 E0.0891
G1 X105.624 Y95.097 E0.0963
G1 X105.619 Y95.088 E0.0968
G1 X105.273 Y94.439 E0.1329
G1 X105.268 Y94.430 E0.1334
G1 X105.212 Y94.293 E0.1406
G1 X105.208 Y94.283 E0.1411
G1 X104.995 Y93.579 E0.1772
G1 X104.993 Y93.569 E0.1777
G1 X104.964 Y93.424 E0.1849
G1 X104.962 Y93.414 E0.1854
G1 X104.891 Y92.681 E0.2215
G1 X104.890 Y92.671 E0.2220
G1 X104.890 Y92.523 E0.2292
G1 X104.891 Y92.513 E0.2297
G1 X104.963 Y91.780 E0.2658
G1 X104.965 Y91.770 E0.2663
G1 X104.994 Y91.625 E0.2735
G1 X104.996 Y91.615 E0.2740
G1 X105.210 Y90.911 E0.3101
G1 X105.214 Y90.901 E0.3106
G1 X105.271 Y90.765 E0.3178
G1 X105.275 Y90.755 E0.3183
G1 X105.622 Y90.107 E0.3544
G1 X105.628 Y90.098 E0.3549
G1 X105.710 Y89.975 E0.3621
G1 X105.716 Y89.967 E0.3626
G1 X106.183 Y89.398 E0.3987
G1 X106.190 Y89.390 E0.3992
G1 X106.295 Y89.286 E0.4064
G1 X106.303 Y89.279 E0.4069
G1 X106.872 Y88.813 E0.4430
G1 X106.880 Y88.806 E0.4435
G1 X107.003 Y88.724 E0.4507
G1 X107.012 Y88.719 E0.4512
G1 X107.661 Y88.373 E0.4873
G1 X107.670 Y88.368 E0.4878
G1 X107.806 Y88.312 E0.4950
G1 X107.816 Y88.308 E0.4955
G1 X108.518 Y88.095 E0.5314
G1 X108.528 Y88.093 E0.5319
G1 X108.674 Y88.064 E0.5392
G1 X108.684 Y88.062 E0.5397
G1 X109.419 Y87.991 E0.5759
G1 X109.429 Y87.990 E0.5764
G1 X109.577 Y87.990 E0.5836
G1 X109.587 Y87.991 E0.5841
G1 X110.320 Y88.063 E0.6202
G1 X110.330 Y88.065 E0.6207
G1 X110.475 Y88.094 E0.6279
G1 X110.485 Y88.096 E0.6284
G1 X111.189 Y88.310 E0.6645
G1 X111.199 Y88.314 E0.6650
G1 X111.335 Y88.371 E0.6722
G1 X111.345 Y88.375 E0.6727
G1 X111.993 Y88.722 E0.7088
G1 X112.002 Y88.728 E0.7093
G1 X112.125 Y88.810 E0.7165
G1 X112.133 Y88.816 E0.7170
G1 X112.702 Y89.283 E0.7531
G1 X112.710 Y89.290 E0.7536
G1 X112.814 Y89.395 E0.7608
G1 X112.821 Y89.403 E0.7613
G1 X113.287 Y89.972 E0.7974
G1 X113.294 Y89.980 E0.7979
G1 X113.376 Y90.103 E0.8051
G1 X113.381 Y90.112 E0.8056
G1 X113.727 Y90.761 E0.8417
G1 X113.732 Y90.770 E0.8422
G1 X113.788 Y90.907 E0.8494
G1 X113.792 Y90.917 E0.8499
G1 X114.005 Y91.621 E0.8860
G1 X114.007 Y91.631 E0.8865
G1 X114.036 Y91.776 E0.8937
G1 X114.038 Y91.786 E0.8942
G1 X114.109 Y92.519 E0.9303
G1 X114.110 Y92.529 E0.9308
G1 X114.110 Y92.677 E0.9380
G1 X114.109 Y92.687 E0.9385
G1 X114.037 Y93.420 E0.9746
G1 X114.035 Y93.430 E0.9751
G1 X114.006 Y93.575 E0.9823
G1 X114.004 Y93.585 E0.9828
G1 X113.790 Y94.289 E1.0189
G1 X113.786 Y94.299 E1.0194
G1 X113.729 Y94.435 E1.0266
G1 X113.725 Y94.444 E1.0271
G1 X113.378 Y95.093 E1.0632
G1 X113.372 Y95.102 E1.0637
G1 X113.290 Y95.225 E1.0709
