;Generated from overhang-test.stl 152f95316b204097fde33744dc30397be687f46c
;Generated with Cura_SteamEngine 15.04
M140 S55.0
M109 T0 S210.0
T0
M190 S55.0

;Basic settings: Layer height: 0.15 Walls: 1.2 Fill: 50
;Print time: ?print_time?
;Filament used: ?filament_amount?m ?filament_weight?g
;Filament cost: ?filament_cost?
;M190 S55 ;Uncomment to add your own bed temperature line
;M109 S210 ;Uncomment to add your own temperature line
G21        ;metric values
G90        ;absolute positioning
M82        ;set extruder to absolute mode
M107       ;start with the fan off
;G28 X0 Y0  ;move X/Y to min endstops
;G28 Z0     ;move Z to min endstops
;G1 Z5.0 F9000 ;move the platform down 15mm
G92 E0                  ;zero the extruded length
G1 F200 E3              ;extrude 3mm of feed stock
G92 E0                  ;zero the extruded length again
G1 F9000
;Put printing message on LCD screen
M117 Printing...

;Layer count: 66
;LAYER:0
M107
G0 F9000 X89.871 Y64.567 Z0.300
;TYPE:SKIRT
G1 F1200 X109.470 Y64.567 E0.97780
G1 X109.470 Y71.234 E1.31042
G1 X126.938 Y71.234 E2.18190
G1 X126.938 Y90.963 E3.16618
G1 X112.353 Y90.964 E3.89383
G1 X107.338 Y90.942 E4.14403
G1 X107.338 Y84.556 E4.46263
G1 X94.886 Y84.557 E5.08386
G1 X89.871 Y84.535 E5.33407
G1 X89.871 Y64.567 E6.33027
G0 F9000 X90.271 Y64.967
G1 F1200 X109.070 Y64.967 E7.26816
G1 X109.070 Y71.634 E7.60078
G1 X126.538 Y71.634 E8.47226
G1 X126.538 Y90.563 E9.41663
G1 X112.353 Y90.564 E10.12432
G1 X107.738 Y90.543 E10.35457
G1 X107.738 Y84.156 E10.67322
G1 X94.886 Y84.157 E11.31441
G1 X90.271 Y84.136 E11.54465
G1 X90.271 Y64.967 E12.50100
G0 F9000 X90.671 Y65.367
G1 F1200 X108.670 Y65.367 E13.39897
G1 X108.670 Y72.034 E13.73159
G1 X126.138 Y72.034 E14.60307
G1 X126.138 Y90.163 E15.50753
G1 X112.354 Y90.164 E16.19522
G1 X108.138 Y90.145 E16.40556
G1 X108.138 Y83.756 E16.72431
G1 X94.887 Y83.757 E17.38540
G1 X90.671 Y83.738 E17.59574
G1 X90.671 Y65.367 E18.51227
G0 F9000 X91.071 Y65.767
G1 F1200 X108.270 Y65.767 E19.37033
G1 X108.270 Y83.356 E20.24785
G1 X94.888 Y83.357 E20.91548
G1 X91.071 Y83.340 E21.10592
G1 X91.071 Y65.767 E21.98264
G0 F9000 X91.471 Y66.167
G1 F1200 X107.870 Y66.167 E22.80079
G1 X107.870 Y82.956 E23.63839
G1 X94.889 Y82.957 E24.28602
G1 X91.471 Y82.942 E24.45654
G1 X91.471 Y66.167 E25.29345
G0 F9000 X108.538 Y72.434
G1 F1200 X125.738 Y72.434 E26.15156
G1 X125.738 Y89.763 E27.01611
G1 X112.355 Y89.764 E27.68379
G1 X108.538 Y89.747 E27.87422
G1 X108.538 Y72.434 E28.73797
G0 F9000 X108.938 Y72.834
G1 F1200 X125.338 Y72.834 E29.55617
G1 X125.338 Y89.363 E30.38081
G1 X112.356 Y89.364 E31.02848
G1 X108.938 Y89.349 E31.19901
G1 X108.938 Y72.834 E32.02295
G0 F9000 X92.662 Y88.950
G1 F1200 X92.662 Y103.915 E32.76955
G1 X108.781 Y103.915 E33.57373
G1 X108.781 Y104.431 E33.59948
G1 X126.814 Y104.431 E34.49915
G1 X126.814 Y124.219 E35.48637
G1 X107.214 Y124.220 E36.46422
G1 X107.214 Y123.783 E36.48602
G1 X94.197 Y123.784 E37.13544
G1 X89.182 Y123.762 E37.38565
G1 X89.182 Y108.630 E38.14058
G1 X73.062 Y108.631 E38.94481
G1 X73.062 Y88.950 E39.92670
G1 X92.662 Y88.950 E40.90455
G0 F9000 X92.262 Y89.350
G1 F1200 X92.262 Y104.315 E41.65116
G1 X108.381 Y104.315 E42.45534
G1 X108.381 Y104.831 E42.48108
G1 X126.414 Y104.831 E43.38075
G1 X126.414 Y123.819 E44.32807
G1 X107.614 Y123.820 E45.26600
G1 X107.614 Y123.383 E45.28780
G1 X94.197 Y123.384 E45.95718
G1 X89.582 Y123.363 E46.18743
G1 X89.582 Y108.230 E46.94242
G1 X73.462 Y108.231 E47.74665
G1 X73.462 Y89.350 E48.68862
G1 X92.262 Y89.350 E49.62656
G0 F9000 X91.862 Y89.750
G1 F1200 X91.862 Y104.715 E50.37317
G1 X107.981 Y104.715 E51.17735
G1 X107.981 Y122.983 E52.08874
G1 X94.198 Y122.984 E52.77638
G1 X89.982 Y122.965 E52.98672
G1 X89.982 Y107.830 E53.74180
G1 X73.862 Y107.831 E54.54603
G1 X73.862 Y89.750 E55.44810
G1 X91.862 Y89.750 E56.34612
G0 F9000 X91.462 Y90.150
G1 F1200 X91.462 Y105.115 E57.09273
G1 X107.581 Y105.115 E57.89691
G1 X107.581 Y122.583 E58.76839
G1 X94.199 Y122.584 E59.43602
G1 X90.382 Y122.567 E59.62646
G1 X90.382 Y107.430 E60.38164
G1 X74.262 Y107.431 E61.18587
G1 X74.262 Y90.150 E62.04803
G1 X91.462 Y90.150 E62.90614
G0 F9000 X91.062 Y90.550
G1 F1200 X91.062 Y105.515 E63.65274
G1 X107.181 Y105.515 E64.45692
G1 X107.181 Y122.183 E65.28849
G1 X94.200 Y122.184 E65.93612
G1 X90.782 Y122.169 E66.10665
G1 X90.782 Y107.030 E66.86193
G1 X74.662 Y107.031 E67.66616
G1 X74.662 Y90.550 E68.48840
G1 X91.062 Y90.550 E69.30660
G0 F9000 X108.014 Y105.231
G1 F1200 X126.014 Y105.231 E70.20463
G1 X126.014 Y123.419 E71.11203
G1 X108.014 Y123.420 E72.01005
G1 X108.014 Y105.231 E72.91751
G0 F9000 X108.414 Y105.631
G1 F1200 X125.614 Y105.631 E73.77562
G1 X125.614 Y123.019 E74.64311
G1 X108.414 Y123.020 E75.50122
G1 X108.414 Y105.631 E76.36876
G0 F9000 X108.814 Y106.031
G1 F1200 X125.214 Y106.031 E77.18696
G1 X125.214 Y122.619 E78.01454
G1 X108.814 Y122.620 E78.83274
G1 X108.814 Y106.031 E79.66037
G1 F2400 E75.16037
G0 F9000 X103.670 Y78.756
;TYPE:WALL-INNER
G1 F2400 E79.66037
G1 F1200 X95.671 Y78.757 E80.05944
G1 X95.671 Y70.367 E80.47802
G1 X103.670 Y70.367 E80.87709
G1 X103.670 Y78.756 E81.29562
G0 F9000 X104.070 Y79.156
G1 F1200 X95.271 Y79.157 E81.73460
G1 X95.271 Y69.967 E82.19309
G1 X104.070 Y69.967 E82.63208
G1 X104.070 Y79.156 E83.09052
G0 F9000 X104.470 Y79.556
;TYPE:WALL-OUTER
G1 F1200 X94.871 Y79.556 E83.56941
G1 X94.871 Y69.567 E84.06777
G1 X104.470 Y69.567 E84.54666
G1 X104.470 Y79.556 E85.04502
G0 F9000 X104.170 Y79.346
G0 X103.528 Y78.355
;TYPE:SKIN
G1 F1200 X95.810 Y70.637 E85.58956
G0 F9000 X96.245 Y70.507
G1 F1200 X103.528 Y77.790 E86.10342
G0 F9000 X103.528 Y77.224
G1 F1200 X96.811 Y70.507 E86.57734
G0 F9000 X97.377 Y70.507
G1 F1200 X103.528 Y76.658 E87.01132
G0 F9000 X103.528 Y76.093
G1 F1200 X97.942 Y70.507 E87.40545
G0 F9000 X98.508 Y70.507
G1 F1200 X103.528 Y75.527 E87.75964
G0 F9000 X103.528 Y74.961
G1 F1200 X99.074 Y70.507 E88.07389
G0 F9000 X99.639 Y70.507
G1 F1200 X103.528 Y74.396 E88.34828
G0 F9000 X103.528 Y73.830
G1 F1200 X100.205 Y70.507 E88.58273
G0 F9000 X100.771 Y70.507
G1 F1200 X103.528 Y73.264 E88.77726
G0 F9000 X103.528 Y72.699
G1 F1200 X101.336 Y70.507 E88.93191
G0 F9000 X101.902 Y70.507
G1 F1200 X103.528 Y72.133 E89.04664
G0 F9000 X103.528 Y71.567
G1 F1200 X102.468 Y70.507 E89.12142
G0 F9000 X103.033 Y70.507
G1 F1200 X103.528 Y71.002 E89.15635
G0 F9000 X103.223 Y78.616
G1 F1200 X95.810 Y71.202 E89.67941
G0 F9000 X95.810 Y71.768
G1 F1200 X102.657 Y78.616 E90.16254
G0 F9000 X102.092 Y78.616
G1 F1200 X95.810 Y72.334 E90.60577
G0 F9000 X95.810 Y72.899
G1 F1200 X101.526 Y78.616 E91.00910
G0 F9000 X100.960 Y78.616
G1 F1200 X95.810 Y73.465 E91.37249
G0 F9000 X95.810 Y74.031
G1 F1200 X100.395 Y78.616 E91.69599
G0 F9000 X99.829 Y78.616
G1 F1200 X95.810 Y74.596 E91.97959
G0 F9000 X95.810 Y75.162
G1 F1200 X99.264 Y78.616 E92.22329
G0 F9000 X98.698 Y78.616
G1 F1200 X95.810 Y75.728 E92.42705
G0 F9000 X95.810 Y76.293
G1 F1200 X98.132 Y78.616 E92.59092
G0 F9000 X97.567 Y78.616
G1 F1200 X95.810 Y76.859 E92.71488
G0 F9000 X95.810 Y77.425
G1 F1200 X97.001 Y78.616 E92.79891
G0 F9000 X96.435 Y78.616
G1 F1200 X95.810 Y77.991 E92.84301
G0 F9000 X95.810 Y78.556
G1 F1200 X95.870 Y78.616 E92.84724
G1 F2400 E88.34724
G0 F9000 X113.138 Y77.034
;TYPE:WALL-INNER
G1 F2400 E92.84724
G1 F1200 X121.138 Y77.034 E93.24637
G1 X121.138 Y85.163 E93.65192
G1 X113.138 Y85.164 E94.05104
G1 X113.138 Y77.034 E94.45665
G0 F9000 X112.738 Y76.634
G1 F1200 X121.538 Y76.634 E94.89569
G1 X121.538 Y85.563 E95.34116
G1 X112.738 Y85.564 E95.78019
G1 X112.738 Y76.634 E96.22571
G0 F9000 X112.338 Y76.234
;TYPE:WALL-OUTER
G1 F1200 X121.938 Y76.234 E96.70465
G1 X121.938 Y85.963 E97.19004
G1 X112.338 Y85.963 E97.66898
G1 X112.338 Y76.234 E98.15436
G0 F9000 X113.277 Y77.356
;TYPE:SKIN
G1 F1200 X120.943 Y85.022 E98.69524
G0 F9000 X120.997 Y84.510
G1 F1200 X113.660 Y77.173 E99.21291
G0 F9000 X114.226 Y77.173
G1 F1200 X120.997 Y83.944 E99.69064
G0 F9000 X120.997 Y83.379
G1 F1200 X114.791 Y77.173 E100.12850
G0 F9000 X115.357 Y77.173
G1 F1200 X120.997 Y82.813 E100.52644
G0 F9000 X120.997 Y82.247
G1 F1200 X115.923 Y77.173 E100.88443
G0 F9000 X116.488 Y77.173
G1 F1200 X120.997 Y81.682 E101.20257
G0 F9000 X120.997 Y81.116
G1 F1200 X117.054 Y77.173 E101.48077
G0 F9000 X117.620 Y77.173
G1 F1200 X120.997 Y80.550 E101.71903
G0 F9000 X120.377 Y85.022
G1 F1200 X113.277 Y77.921 E102.22001
G0 F9000 X113.277 Y78.487
G1 F1200 X119.812 Y85.022 E102.68109
G0 F9000 X119.246 Y85.022
G1 F1200 X113.277 Y79.053 E103.10224
G0 F9000 X113.277 Y79.618
G1 F1200 X118.680 Y85.022 E103.48348
G0 F9000 X118.115 Y85.022
G1 F1200 X113.277 Y80.184 E103.82483
G0 F9000 X113.277 Y80.750
G1 F1200 X117.549 Y85.022 E104.12624
G0 F9000 X116.984 Y85.023
G1 F1200 X113.277 Y81.315 E104.38783
G0 F9000 X113.277 Y81.881
G1 F1200 X116.418 Y85.023 E104.60948
G0 F9000 X115.853 Y85.023
G1 F1200 X113.277 Y82.447 E104.79123
G0 F9000 X113.277 Y83.012
G1 F1200 X115.287 Y85.023 E104.93308
G0 F9000 X114.721 Y85.023
G1 F1200 X113.277 Y83.578 E105.03500
G0 F9000 X113.277 Y84.144
G1 F1200 X114.156 Y85.023 E105.09702
G0 F9000 X113.590 Y85.023
G1 F1200 X113.277 Y84.709 E105.11913
G0 F9000 X118.185 Y77.173
G1 F1200 X120.997 Y79.985 E105.31754
G0 F9000 X120.997 Y79.419
G1 F1200 X118.751 Y77.173 E105.47600
G0 F9000 X119.317 Y77.173
G1 F1200 X120.997 Y78.853 E105.59454
G0 F9000 X120.997 Y78.288
G1 F1200 X119.882 Y77.173 E105.67321
G0 F9000 X120.448 Y77.173
G1 F1200 X120.997 Y77.722 E105.71194
G1 F2400 E101.21194
G0 F9000 X121.014 Y110.231
;TYPE:WALL-INNER
G1 F2400 E105.71194
G1 F1200 X121.014 Y118.419 E106.12044
G1 X113.014 Y118.420 E106.51956
G1 X113.014 Y110.231 E106.92811
G1 X121.014 Y110.231 E107.32724
G0 F9000 X121.414 Y109.831
G1 F1200 X121.414 Y118.819 E107.77565
G1 X112.614 Y118.820 E108.21468
G1 X112.614 Y109.831 E108.66315
G1 X121.414 Y109.831 E109.10218
G0 F9000 X121.814 Y109.431
;TYPE:WALL-OUTER
G1 F1200 X121.814 Y119.219 E109.59051
G1 X112.214 Y119.220 E110.06945
G1 X112.214 Y109.431 E110.55783
G1 X121.814 Y109.431 E111.03677
G0 F9000 X121.514 Y109.641
G0 X120.271 Y110.371
;TYPE:SKIN
G1 F1200 X120.872 Y110.973 E111.07921
G0 F9000 X120.872 Y111.539
G1 F1200 X119.705 Y110.371 E111.16158
G0 F9000 X119.139 Y110.371
G1 F1200 X120.872 Y112.104 E111.28386
G0 F9000 X120.872 Y112.670
G1 F1200 X118.574 Y110.371 E111.44603
G0 F9000 X118.008 Y110.371
G1 F1200 X120.872 Y113.236 E111.64814
G0 F9000 X120.872 Y113.801
G1 F1200 X117.442 Y110.371 E111.89014
G0 F9000 X116.876 Y110.371
G1 F1200 X120.872 Y114.367 E112.17208
G0 F9000 X120.872 Y114.933
G1 F1200 X116.311 Y110.371 E112.49392
G0 F9000 X115.745 Y110.371
G1 F1200 X120.872 Y115.498 E112.85566
G0 F9000 X120.872 Y116.064
G1 F1200 X115.179 Y110.371 E113.25733
G0 F9000 X114.614 Y110.371
G1 F1200 X120.872 Y116.630 E113.69890
G0 F9000 X120.872 Y117.195
G1 F1200 X114.048 Y110.371 E114.18037
G0 F9000 X113.482 Y110.371
G1 F1200 X120.872 Y117.761 E114.70177
G0 F9000 X120.824 Y118.279
G1 F1200 X113.153 Y110.607 E115.24304
G0 F9000 X113.153 Y111.173
G1 F1200 X120.259 Y118.279 E115.74441
G0 F9000 X119.693 Y118.279
G1 F1200 X113.153 Y111.739 E116.20584
G0 F9000 X113.153 Y112.304
G1 F1200 X119.127 Y118.279 E116.62737
G0 F9000 X118.562 Y118.279
G1 F1200 X113.153 Y112.870 E117.00900
G0 F9000 X113.153 Y113.436
G1 F1200 X117.996 Y118.279 E117.35070
G0 F9000 X117.430 Y118.279
G1 F1200 X113.153 Y114.001 E117.65251
G0 F9000 X113.153 Y114.567
G1 F1200 X116.864 Y118.279 E117.91437
G0 F9000 X116.299 Y118.279
G1 F1200 X113.153 Y115.133 E118.13634
G0 F9000 X113.153 Y115.698
G1 F1200 X115.733 Y118.279 E118.31841
G0 F9000 X115.167 Y118.279
G1 F1200 X113.153 Y116.264 E118.46054
G0 F9000 X113.153 Y116.830
G1 F1200 X114.602 Y118.279 E118.56278
G0 F9000 X114.036 Y118.279
G1 F1200 X113.153 Y117.395 E118.62511
G0 F9000 X113.153 Y117.961
G1 F1200 X113.470 Y118.279 E118.64751
G1 F2400 E114.14751
G0 F9000 X102.981 Y117.983
;TYPE:WALL-INNER
G1 F2400 E118.64751
G1 F1200 X94.982 Y117.984 E119.04658
G1 X94.982 Y109.715 E119.45913
G1 X102.981 Y109.715 E119.85820
G1 X102.981 Y117.983 E120.27069
G0 F9000 X103.381 Y118.383
G1 F1200 X94.582 Y118.384 E120.70967
G1 X94.582 Y109.315 E121.16213
G1 X103.381 Y109.315 E121.60111
G1 X103.381 Y118.383 E122.05352
G0 F9000 X103.781 Y118.783
;TYPE:WALL-OUTER
G1 F1200 X94.182 Y118.783 E122.53241
G1 X94.182 Y108.915 E123.02473
G1 X103.781 Y108.915 E123.50363
G1 X103.781 Y118.783 E123.99594
G0 F9000 X102.840 Y117.831
;TYPE:SKIN
G1 F1200 X95.122 Y110.112 E124.54052
G0 F9000 X95.429 Y109.853
G1 F1200 X102.840 Y117.265 E125.06345
G0 F9000 X102.840 Y116.700
G1 F1200 X95.994 Y109.853 E125.54650
G0 F9000 X96.560 Y109.853
G1 F1200 X102.840 Y116.134 E125.98963
G0 F9000 X102.840 Y115.568
G1 F1200 X97.126 Y109.853 E126.39282
G0 F9000 X97.691 Y109.853
G1 F1200 X102.840 Y115.003 E126.75614
G0 F9000 X102.840 Y114.437
G1 F1200 X98.257 Y109.853 E127.07953
G0 F9000 X98.823 Y109.853
G1 F1200 X102.840 Y113.871 E127.36299
G0 F9000 X102.840 Y113.306
G1 F1200 X99.388 Y109.853 E127.60658
G0 F9000 X99.954 Y109.853
G1 F1200 X102.840 Y112.740 E127.81024
G0 F9000 X102.840 Y112.174
G1 F1200 X100.520 Y109.853 E127.97396
G0 F9000 X101.085 Y109.853
G1 F1200 X102.840 Y111.609 E128.09782
G0 F9000 X102.840 Y111.043
G1 F1200 X101.651 Y109.853 E128.18175
G0 F9000 X102.217 Y109.853
G1 F1200 X102.840 Y110.477 E128.22574
G0 F9000 X102.840 Y109.911
G1 F1200 X102.782 Y109.853 E128.22983
G0 F9000 X95.122 Y110.678
G1 F1200 X102.286 Y117.842 E128.73529
G0 F9000 X101.720 Y117.842
G1 F1200 X95.122 Y111.244 E129.20081
G0 F9000 X95.122 Y111.809
G1 F1200 X101.155 Y117.842 E129.62648
G0 F9000 X100.589 Y117.842
G1 F1200 X95.122 Y112.375 E130.01220
G0 F9000 X95.122 Y112.941
G1 F1200 X100.023 Y117.842 E130.35799
G0 F9000 X99.458 Y117.842
G1 F1200 X95.122 Y113.506 E130.66392
G0 F9000 X95.122 Y114.072
G1 F1200 X98.892 Y117.842 E130.92992
G0 F9000 X98.326 Y117.842
G1 F1200 X95.122 Y114.638 E131.15598
G0 F9000 X95.122 Y115.203
G1 F1200 X97.761 Y117.842 E131.34217
G0 F9000 X97.195 Y117.842
G1 F1200 X95.122 Y115.769 E131.48843
G0 F9000 X95.122 Y116.335
G1 F1200 X96.629 Y117.842 E131.59476
G0 F9000 X96.063 Y117.842
G1 F1200 X95.122 Y116.901 E131.66115
G0 F9000 X95.122 Y117.466
G1 F1200 X95.498 Y117.842 E131.68768
G1 F2400 E127.18768
G0 F9000 X86.862 Y102.830
;TYPE:WALL-INNER
G1 F2400 E131.68768
G1 F1200 X78.862 Y102.831 E132.08680
G1 X78.862 Y94.750 E132.48996
G1 X86.862 Y94.750 E132.88909
G1 X86.862 Y102.830 E133.29220
G0 F9000 X87.262 Y103.230
G1 F1200 X78.462 Y103.231 E133.73123
G1 X78.462 Y94.350 E134.17431
G1 X87.262 Y94.350 E134.61334
G1 X87.262 Y103.230 E135.05637
G0 F9000 X87.662 Y103.630
;TYPE:WALL-OUTER
G1 F1200 X78.062 Y103.631 E135.53531
G1 X78.062 Y93.950 E136.01830
G1 X87.662 Y93.950 E136.49725
G1 X87.662 Y103.630 E136.98018
G0 F9000 X86.567 Y102.689
;TYPE:SKIN
G1 F1200 X79.002 Y95.124 E137.51393
G0 F9000 X79.333 Y94.889
G1 F1200 X86.722 Y102.278 E138.03527
G0 F9000 X86.722 Y101.713
G1 F1200 X79.898 Y94.889 E138.51674
G0 F9000 X79.002 Y95.689
G1 F1200 X86.001 Y102.689 E139.01059
G0 F9000 X85.436 Y102.689
G1 F1200 X79.002 Y96.255 E139.46454
G0 F9000 X79.002 Y96.821
G1 F1200 X84.870 Y102.689 E139.87856
G0 F9000 X84.304 Y102.689
G1 F1200 X79.002 Y97.386 E140.25268
G0 F9000 X79.002 Y97.952
G1 F1200 X83.739 Y102.689 E140.58690
G0 F9000 X83.173 Y102.689
G1 F1200 X79.002 Y98.518 E140.88119
G0 F9000 X79.002 Y99.084
G1 F1200 X82.607 Y102.689 E141.13554
G0 F9000 X82.042 Y102.689
G1 F1200 X79.002 Y99.649 E141.35003
G0 F9000 X79.002 Y100.215
G1 F1200 X81.476 Y102.689 E141.52459
G0 F9000 X80.910 Y102.689
G1 F1200 X79.002 Y100.781 E141.65921
G0 F9000 X79.002 Y101.346
G1 F1200 X80.345 Y102.689 E141.75396
G0 F9000 X86.722 Y101.147
G1 F1200 X80.464 Y94.889 E142.19550
G0 F9000 X81.030 Y94.889
G1 F1200 X86.722 Y100.581 E142.59710
G0 F9000 X86.722 Y100.016
G1 F1200 X81.595 Y94.889 E142.95884
G0 F9000 X82.161 Y94.889
G1 F1200 X86.722 Y99.450 E143.28064
G0 F9000 X86.722 Y98.884
G1 F1200 X82.727 Y94.889 E143.56251
G0 F9000 X83.292 Y94.889
G1 F1200 X86.722 Y98.318 E143.80448
G0 F9000 X86.722 Y97.753
G1 F1200 X83.858 Y94.889 E144.00655
G0 F9000 X84.424 Y94.889
G1 F1200 X86.722 Y97.187 E144.16868
G0 F9000 X86.722 Y96.621
