;Generated from belt-guide.stl 98724d7558b2acba35d59d562166a7d5c04ba35f
;Generated with Cura_SteamEngine 15.04
M140 S55.0
M109 T0 S210.0
T0
M190 S55.0

;Basic settings: Layer height: 0.15 Walls: 1.2 Fill: 50
;Print time: ?print_time?
;Filament used: ?filament_amount?m ?filament_weight?g
;Filament cost: ?filament_cost?
;M190 S55 ;Uncomment to add your own bed temperature line
;M109 S210 ;Uncomment to add your own temperature line
G21        ;metric values
G90        ;absolute positioning
M82        ;set extruder to absolute mode
M107       ;start with the fan off
G28 X0 Y0  ;move X/Y to min endstops
G28 Z0     ;move Z to min endstops
G1 Z5.0 F9000 ;move the platform down 15mm
G92 E0                  ;zero the extruded length
G1 F200 E3              ;extrude 3mm of feed stock
G92 E0                  ;zero the extruded length again
G1 F9000
;Put printing message on LCD screen
M117 Printing...

;Layer count: 30
;LAYER:0
M107
G0 F9000 X91.030 Y91.574 Z0.300
G0 X90.754 Y91.908
;TYPE:SKIRT
G1 F1200 X91.030 Y91.574 E0.02162
G1 X92.156 Y90.517 E0.09867
G1 X93.407 Y89.609 E0.17579
G1 X94.759 Y88.866 E0.25275
G1 X96.197 Y88.295 E0.32994
G1 X97.695 Y87.912 E0.40708
G1 X99.227 Y87.718 E0.48412
G1 X100.773 Y87.718 E0.56126
G1 X102.305 Y87.912 E0.63830
G1 X103.803 Y88.295 E0.71544
G1 X105.241 Y88.866 E0.79263
G1 X106.593 Y89.609 E0.86959
G1 X107.844 Y90.517 E0.94671
G1 X108.972 Y91.576 E1.02390
G1 X109.683 Y92.436 E1.07957
G1 X109.682 Y92.436 E1.07962
G1 X109.956 Y92.766 E1.10102
G1 X110.551 Y93.704 E1.15644
G1 X110.783 Y94.070 E1.17806
G1 X111.255 Y95.072 E1.23332
G1 X111.443 Y95.469 E1.25523
G1 X111.782 Y96.519 E1.31028
G1 X111.919 Y96.935 E1.33213
G1 X112.126 Y98.026 E1.38753
G1 X112.127 Y98.026 E1.38758
G1 X112.210 Y98.455 E1.40938
G1 X112.279 Y99.567 E1.46497
G1 X112.306 Y99.998 E1.48651
G1 X112.237 Y101.111 E1.54215
G1 X112.210 Y101.543 E1.56374
G1 X112.001 Y102.639 E1.61941
G1 X111.919 Y103.062 E1.64090
G1 X111.576 Y104.122 E1.69649
G1 X111.440 Y104.535 E1.71818
G1 X110.967 Y105.541 E1.77364
G1 X110.782 Y105.931 E1.79518
G1 X110.187 Y106.870 E1.85064
G1 X109.956 Y107.233 E1.87210
G1 X109.246 Y108.092 E1.92770
G1 X108.970 Y108.426 E1.94932
G1 X107.844 Y109.483 E2.02637
G1 X106.593 Y110.391 E2.10349
G1 X105.241 Y111.134 E2.18045
G1 X103.803 Y111.705 E2.25764
G1 X102.305 Y112.088 E2.33478
G1 X100.773 Y112.282 E2.41183
G1 X99.227 Y112.282 E2.48896
G1 X97.695 Y112.088 E2.56600
G1 X96.197 Y111.705 E2.64314
G1 X94.759 Y111.134 E2.72033
G1 X93.407 Y110.391 E2.79729
G1 X92.156 Y109.483 E2.87441
G1 X91.028 Y108.424 E2.95161
G1 X90.317 Y107.564 E3.00728
G1 X90.318 Y107.564 E3.00733
G1 X90.044 Y107.234 E3.02872
G1 X89.449 Y106.296 E3.08414
G1 X89.217 Y105.930 E3.10576
G1 X88.742 Y104.921 E3.16140
G1 X88.557 Y104.531 E3.18293
G1 X88.213 Y103.466 E3.23877
G1 X88.081 Y103.065 E3.25983
G1 X87.874 Y101.974 E3.31523
G1 X87.873 Y101.974 E3.31528
G1 X87.790 Y101.545 E3.33708
G1 X87.721 Y100.428 E3.39292
G1 X87.694 Y100.002 E3.41421
G1 X87.763 Y98.889 E3.46985
G1 X87.790 Y98.457 E3.49144
G1 X87.999 Y97.361 E3.54711
G1 X88.081 Y96.938 E3.56860
G1 X88.424 Y95.878 E3.62419
G1 X88.560 Y95.465 E3.64588
G1 X89.033 Y94.459 E3.70134
G1 X89.218 Y94.069 E3.72288
G1 X89.813 Y93.130 E3.77834
G1 X90.044 Y92.767 E3.79980
G1 X90.754 Y91.908 E3.85540
G0 F9000 X91.062 Y92.163
G1 F1200 X91.322 Y91.849 E3.87574
G1 X92.412 Y90.826 E3.95032
G1 X93.621 Y89.948 E4.02486
G1 X94.930 Y89.228 E4.09940
G1 X96.321 Y88.677 E4.17404
G1 X97.770 Y88.305 E4.24868
G1 X99.253 Y88.118 E4.32325
G1 X100.747 Y88.118 E4.39779
G1 X102.230 Y88.305 E4.47236
G1 X103.679 Y88.677 E4.54699
G1 X105.070 Y89.228 E4.62164
G1 X106.379 Y89.948 E4.69617
G1 X107.588 Y90.826 E4.77072
G1 X108.680 Y91.851 E4.84544
G1 X109.374 Y92.691 E4.89980
G1 X109.631 Y93.001 E4.91989
G1 X110.213 Y93.919 E4.97411
G1 X110.432 Y94.263 E4.99446
G1 X110.893 Y95.243 E5.04849
G1 X110.894 Y95.243 E5.04854
G1 X111.070 Y95.616 E5.06912
G1 X111.407 Y96.657 E5.12371
G1 X111.406 Y96.657 E5.12376
G1 X111.531 Y97.035 E5.14362
G1 X111.733 Y98.101 E5.19775
G1 X111.734 Y98.101 E5.19780
G1 X111.812 Y98.506 E5.21838
G1 X111.880 Y99.592 E5.27266
G1 X111.905 Y99.998 E5.29296
G1 X111.838 Y101.086 E5.34734
G1 X111.812 Y101.492 E5.36764
G1 X111.608 Y102.564 E5.42208
G1 X111.531 Y102.962 E5.44230
G1 X111.196 Y103.998 E5.49662
G1 X111.068 Y104.387 E5.51706
G1 X110.605 Y105.371 E5.57131
G1 X110.431 Y105.738 E5.59157
G1 X109.849 Y106.655 E5.64576
G1 X109.632 Y106.998 E5.66601
G1 X108.938 Y107.837 E5.72033
G1 X108.678 Y108.151 E5.74067
G1 X107.588 Y109.174 E5.81525
G1 X106.379 Y110.052 E5.88979
G1 X105.070 Y110.772 E5.96433
G1 X103.679 Y111.323 E6.03897
G1 X102.230 Y111.695 E6.11361
G1 X100.747 Y111.882 E6.18818
G1 X99.253 Y111.882 E6.26271
G1 X97.770 Y111.695 E6.33729
G1 X96.321 Y111.323 E6.41192
G1 X94.930 Y110.772 E6.48657
G1 X93.621 Y110.052 E6.56110
G1 X92.412 Y109.174 E6.63564
G1 X91.320 Y108.149 E6.71037
G1 X90.626 Y107.309 E6.76473
G1 X90.369 Y106.999 E6.78482
G1 X89.785 Y106.078 E6.83922
G1 X89.568 Y105.737 E6.85939
G1 X89.107 Y104.757 E6.91342
G1 X89.106 Y104.757 E6.91347
G1 X88.930 Y104.384 E6.93405
G1 X88.593 Y103.343 E6.98864
G1 X88.594 Y103.343 E6.98869
G1 X88.469 Y102.965 E7.00855
G1 X88.267 Y101.899 E7.06268
G1 X88.266 Y101.899 E7.06273
G1 X88.188 Y101.494 E7.08330
G1 X88.120 Y100.403 E7.13784
G1 X88.095 Y100.002 E7.15789
G1 X88.162 Y98.914 E7.21227
G1 X88.188 Y98.508 E7.23257
G1 X88.392 Y97.436 E7.28701
G1 X88.469 Y97.038 E7.30723
G1 X88.804 Y96.002 E7.36155
G1 X88.932 Y95.613 E7.38198
G1 X89.395 Y94.629 E7.43624
G1 X89.569 Y94.262 E7.45650
G1 X90.151 Y93.345 E7.51069
G1 X90.368 Y93.002 E7.53094
G1 X91.062 Y92.163 E7.58526
G1 F2400 E3.08526
G0 F9000 X94.297 Y94.841
;TYPE:WALL-INNER
G1 F2400 E7.58526
G1 F1200 X94.390 Y94.729 E7.59252
G1 X95.091 Y94.071 E7.64049
G1 X95.878 Y93.500 E7.68900
G1 X96.718 Y93.038 E7.73683
G1 X97.624 Y92.679 E7.78545
G1 X98.561 Y92.439 E7.83370
G1 X99.516 Y92.318 E7.88173
G1 X100.484 Y92.318 E7.93002
G1 X101.439 Y92.439 E7.97805
G1 X102.376 Y92.679 E8.02630
G1 X103.282 Y93.038 E8.07492
G1 X104.122 Y93.500 E8.12275
G1 X104.909 Y94.071 E8.17126
G1 X105.609 Y94.728 E8.21916
G1 X106.137 Y95.367 E8.26051
G1 X106.228 Y95.477 E8.26763
G1 X106.669 Y96.172 E8.30870
G1 X106.745 Y96.292 E8.31579
G1 X107.097 Y97.039 E8.35698
G1 X107.159 Y97.170 E8.36422
G1 X107.411 Y97.952 E8.40521
G1 X107.457 Y98.090 E8.41246
G1 X107.610 Y98.896 E8.45339
G1 X107.637 Y99.038 E8.46060
G1 X107.688 Y99.858 E8.50159
G1 X107.697 Y100.000 E8.50869
G1 X107.646 Y100.822 E8.54978
G1 X107.637 Y100.967 E8.55703
G1 X107.484 Y101.771 E8.59786
G1 X107.455 Y101.918 E8.60533
G1 X107.203 Y102.695 E8.64609
G1 X107.159 Y102.829 E8.65312
G1 X106.807 Y103.577 E8.69437
G1 X106.744 Y103.710 E8.70171
G1 X106.304 Y104.403 E8.74266
G1 X106.226 Y104.526 E8.74993
G1 X105.703 Y105.159 E8.79089
G1 X105.610 Y105.271 E8.79816
G1 X104.909 Y105.929 E8.84612
G1 X104.122 Y106.500 E8.89463
G1 X103.282 Y106.962 E8.94246
G1 X102.376 Y107.321 E8.99108
G1 X101.439 Y107.561 E9.03934
G1 X100.484 Y107.682 E9.08736
G1 X99.516 Y107.682 E9.13566
G1 X98.561 Y107.561 E9.18368
G1 X97.624 Y107.321 E9.23194
G1 X96.718 Y106.962 E9.28056
G1 X95.878 Y106.500 E9.32839
G1 X95.091 Y105.929 E9.37690
G1 X94.391 Y105.272 E9.42479
G1 X93.863 Y104.633 E9.46615
G1 X93.772 Y104.523 E9.47327
G1 X93.331 Y103.828 E9.51433
G1 X93.255 Y103.708 E9.52142
G1 X92.903 Y102.961 E9.56262
G1 X92.841 Y102.830 E9.56985
G1 X92.589 Y102.048 E9.61084
G1 X92.543 Y101.910 E9.61810
G1 X92.390 Y101.104 E9.65903
G1 X92.363 Y100.962 E9.66624
G1 X92.312 Y100.142 E9.70723
G1 X92.303 Y99.999 E9.71438
G1 X92.354 Y99.178 E9.75541
G1 X92.363 Y99.033 E9.76266
G1 X92.516 Y98.229 E9.80349
G1 X92.545 Y98.082 E9.81097
G1 X92.797 Y97.305 E9.85172
G1 X92.841 Y97.171 E9.85876
G1 X93.193 Y96.423 E9.90000
G1 X93.256 Y96.290 E9.90734
G1 X93.696 Y95.597 E9.94830
G1 X93.774 Y95.474 E9.95556
G1 X94.297 Y94.841 E9.99653
G0 F9000 X96.428 Y96.645
G1 F1200 X96.034 Y97.119 E10.02728
G1 X95.705 Y97.639 E10.05798
G1 X95.442 Y98.196 E10.08871
G1 X95.253 Y98.782 E10.11943
G1 X95.137 Y99.386 E10.15011
G1 X95.098 Y100.000 E10.18081
G1 X95.137 Y100.614 E10.21150
G1 X95.253 Y101.218 E10.24219
G1 X95.442 Y101.804 E10.27291
G1 X95.705 Y102.361 E10.30364
G1 X96.037 Y102.886 E10.33463
G1 X96.464 Y103.389 E10.36754
G1 X96.880 Y103.780 E10.39603
G1 X97.417 Y104.162 E10.42890
G1 X97.913 Y104.434 E10.45713
G1 X98.485 Y104.662 E10.48785
G1 X99.083 Y104.814 E10.51863
G1 X99.697 Y104.893 E10.54952
G1 X100.356 Y104.886 E10.58240
G1 X100.918 Y104.814 E10.61066
G1 X101.520 Y104.661 E10.64165
G1 X102.130 Y104.411 E10.67454
G1 X102.630 Y104.136 E10.70301
G1 X103.160 Y103.743 E10.73593
G1 X103.572 Y103.355 E10.76416
G1 X103.966 Y102.881 E10.79491
G1 X104.295 Y102.361 E10.82561
G1 X104.558 Y101.804 E10.85634
G1 X104.747 Y101.218 E10.88706
G1 X104.863 Y100.614 E10.91775
G1 X104.902 Y100.000 E10.94844
G1 X104.863 Y99.386 E10.97914
G1 X104.747 Y98.782 E11.00982
G1 X104.558 Y98.196 E11.04054
G1 X104.295 Y97.639 E11.07127
G1 X103.963 Y97.114 E11.10226
G1 X103.536 Y96.611 E11.13518
G1 X103.120 Y96.220 E11.16366
G1 X102.583 Y95.838 E11.19654
G1 X102.087 Y95.566 E11.22476
G1 X101.515 Y95.338 E11.25548
G1 X100.917 Y95.186 E11.28626
G1 X100.303 Y95.107 E11.31715
G1 X99.644 Y95.114 E11.35003
G1 X99.082 Y95.186 E11.37830
G1 X98.480 Y95.339 E11.40928
G1 X97.870 Y95.589 E11.44217
G1 X97.370 Y95.864 E11.47064
G1 X96.840 Y96.257 E11.50356
G1 X96.428 Y96.645 E11.53180
G0 F9000 X96.720 Y96.919
G1 F1200 X96.359 Y97.354 E11.56000
G1 X96.056 Y97.832 E11.58823
G1 X95.815 Y98.344 E11.61647
G1 X95.641 Y98.882 E11.64468
G1 X95.535 Y99.436 E11.67282
G1 X95.499 Y100.000 E11.70101
G1 X95.535 Y100.564 E11.72921
G1 X95.641 Y101.118 E11.75735
G1 X95.815 Y101.656 E11.78556
G1 X96.056 Y102.168 E11.81379
G1 X96.360 Y102.648 E11.84214
G1 X96.754 Y103.113 E11.87254
G1 X97.134 Y103.470 E11.89855
G1 X97.630 Y103.822 E11.92890
G1 X98.084 Y104.072 E11.95476
G1 X98.609 Y104.281 E11.98295
G1 X99.158 Y104.421 E12.01121
G1 X99.721 Y104.492 E12.03952
G1 X100.328 Y104.487 E12.06981
G1 X100.843 Y104.420 E12.09572
G1 X101.394 Y104.280 E12.12408
G1 X101.957 Y104.049 E12.15444
G1 X102.414 Y103.798 E12.18045
G1 X102.903 Y103.436 E12.21081
G1 X103.280 Y103.081 E12.23664
G1 X103.641 Y102.646 E12.26485
G1 X103.944 Y102.168 E12.29308
G1 X104.185 Y101.656 E12.32131
G1 X104.359 Y101.118 E12.34952
G1 X104.465 Y100.564 E12.37766
G1 X104.501 Y100.000 E12.40586
G1 X104.465 Y99.436 E12.43405
G1 X104.359 Y98.882 E12.46219
G1 X104.185 Y98.344 E12.49040
G1 X103.944 Y97.832 E12.51864
G1 X103.640 Y97.352 E12.54698
G1 X103.246 Y96.887 E12.57739
G1 X102.866 Y96.530 E12.60340
G1 X102.370 Y96.178 E12.63374
G1 X101.916 Y95.928 E12.65960
G1 X101.391 Y95.719 E12.68779
G1 X100.842 Y95.579 E12.71606
G1 X100.279 Y95.508 E12.74437
G1 X99.672 Y95.513 E12.77465
G1 X99.157 Y95.580 E12.80056
G1 X98.606 Y95.720 E12.82893
G1 X98.043 Y95.951 E12.85929
G1 X97.586 Y96.202 E12.88530
G1 X97.097 Y96.564 E12.91565
G1 X96.720 Y96.919 E12.94149
G0 F9000 X93.989 Y94.586
G1 F1200 X94.097 Y94.456 E12.94992
G1 X94.838 Y93.760 E13.00064
G1 X95.659 Y93.164 E13.05125
G1 X96.552 Y92.673 E13.10210
G1 X97.501 Y92.297 E13.15302
G1 X98.483 Y92.045 E13.20360
G1 X99.489 Y91.918 E13.25419
G1 X100.511 Y91.918 E13.30518
G1 X101.517 Y92.045 E13.35577
G1 X102.499 Y92.297 E13.40635
G1 X103.448 Y92.673 E13.45727
G1 X104.341 Y93.164 E13.50812
G1 X105.162 Y93.760 E13.55873
G1 X105.902 Y94.455 E13.60938
G1 X106.445 Y95.112 E13.65190
G1 X106.552 Y95.241 E13.66026
G1 X107.095 Y96.097 E13.71084
G1 X107.458 Y96.868 E13.75335
G1 X107.529 Y97.018 E13.76163
G1 X107.792 Y97.828 E13.80412
G1 X107.845 Y97.989 E13.81258
G1 X108.003 Y98.821 E13.85483
G1 X108.034 Y98.984 E13.86311
G1 X108.098 Y100.000 E13.91389
G1 X108.034 Y101.020 E13.96488
G1 X107.876 Y101.847 E14.00689
G1 X107.844 Y102.011 E14.01522
G1 X107.583 Y102.820 E14.05763
G1 X107.532 Y102.977 E14.06587
G1 X107.168 Y103.749 E14.10845
G1 X107.097 Y103.899 E14.11673
G1 X106.552 Y104.759 E14.16753
G1 X106.011 Y105.414 E14.20991
G1 X105.903 Y105.544 E14.21834
G1 X105.162 Y106.240 E14.26906
G1 X104.341 Y106.836 E14.31967
G1 X103.448 Y107.327 E14.37052
G1 X102.499 Y107.703 E14.42144
G1 X101.517 Y107.955 E14.47202
G1 X100.511 Y108.082 E14.52261
G1 X99.489 Y108.082 E14.57360
G1 X98.483 Y107.955 E14.62419
G1 X97.501 Y107.703 E14.67477
G1 X96.552 Y107.327 E14.72569
G1 X95.659 Y106.836 E14.77654
G1 X94.838 Y106.240 E14.82715
G1 X94.098 Y105.545 E14.87780
G1 X93.555 Y104.888 E14.92032
G1 X93.448 Y104.759 E14.92868
G1 X92.905 Y103.903 E14.97926
G1 X92.542 Y103.132 E15.02177
G1 X92.471 Y102.982 E15.03005
G1 X92.208 Y102.172 E15.07254
G1 X92.155 Y102.011 E15.08100
G1 X91.997 Y101.179 E15.12325
G1 X91.966 Y101.016 E15.13153
G1 X91.902 Y100.000 E15.18231
G1 X91.966 Y98.980 E15.23330
G1 X92.124 Y98.153 E15.27531
G1 X92.156 Y97.989 E15.28364
G1 X92.417 Y97.180 E15.32605
G1 X92.468 Y97.023 E15.33429
G1 X92.832 Y96.251 E15.37687
G1 X92.903 Y96.101 E15.38515
G1 X93.448 Y95.241 E15.43595
G1 X93.989 Y94.586 E15.47833
G0 F9000 X93.801 Y94.186
;TYPE:WALL-OUTER
G1 F1200 X94.582 Y93.453 E15.53177
G1 X95.452 Y92.821 E15.58541
G1 X96.377 Y92.312 E15.63809
G1 X97.373 Y91.917 E15.69154
G1 X98.414 Y91.651 E15.74515
G1 X99.463 Y91.518 E15.79790
G1 X100.537 Y91.518 E15.85148
G1 X101.586 Y91.651 E15.90424
G1 X102.627 Y91.917 E15.95784
G1 X103.623 Y92.312 E16.01130
G1 X104.548 Y92.821 E16.06397
G1 X105.418 Y93.453 E16.11762
G1 X106.199 Y94.186 E16.17106
G1 X106.874 Y95.002 E16.22389
G1 X107.448 Y95.906 E16.27732
G1 X107.903 Y96.873 E16.33063
G1 X108.233 Y97.890 E16.38398
G1 X108.431 Y98.928 E16.43670
G1 X108.498 Y100.000 E16.49028
G1 X108.431 Y101.072 E16.54387
G1 X108.233 Y102.110 E16.59659
G1 X107.903 Y103.127 E16.64993
G1 X107.449 Y104.092 E16.70314
G1 X106.874 Y104.998 E16.75667
G1 X106.199 Y105.814 E16.80951
G1 X105.418 Y106.547 E16.86294
G1 X104.548 Y107.179 E16.91659
G1 X103.623 Y107.688 E16.96927
G1 X102.627 Y108.083 E17.02272
G1 X101.586 Y108.349 E17.07633
G1 X100.537 Y108.482 E17.12908
G1 X99.463 Y108.482 E17.18266
G1 X98.414 Y108.349 E17.23542
G1 X97.373 Y108.083 E17.28902
G1 X96.377 Y107.688 E17.34248
G1 X95.452 Y107.179 E17.39515
G1 X94.582 Y106.547 E17.44880
G1 X93.801 Y105.814 E17.50224
G1 X93.126 Y104.998 E17.55507
G1 X92.551 Y104.092 E17.60860
G1 X92.097 Y103.127 E17.66181
G1 X91.767 Y102.110 E17.71515
G1 X91.569 Y101.072 E17.76787
G1 X91.502 Y100.000 E17.82146
G1 X91.569 Y98.928 E17.87505
G1 X91.767 Y97.890 E17.92777
G1 X92.097 Y96.873 E17.98111
G1 X92.552 Y95.906 E18.03443
G1 X93.126 Y95.002 E18.08785
G1 X93.801 Y94.186 E18.14068
G0 F9000 X94.017 Y94.394
G0 X96.783 Y97.002
G0 X97.012 Y97.194
G1 F1200 X96.683 Y97.590 E18.16637
G1 X96.407 Y98.025 E18.19207
G1 X96.188 Y98.491 E18.21776
G1 X96.029 Y98.981 E18.24346
G1 X95.932 Y99.487 E18.26916
G1 X95.900 Y100.000 E18.29481
G1 X95.932 Y100.513 E18.32045
G1 X96.029 Y101.019 E18.34616
G1 X96.188 Y101.509 E18.37186
G1 X96.407 Y101.975 E18.39754
G1 X96.683 Y102.411 E18.42329
G1 X97.045 Y102.837 E18.45118
G1 X97.388 Y103.160 E18.47468
G1 X97.843 Y103.483 E18.50252
G1 X98.255 Y103.709 E18.52597
G1 X98.733 Y103.900 E18.55165
G1 X99.233 Y104.027 E18.57738
G1 X99.744 Y104.092 E18.60308
G1 X100.301 Y104.087 E18.63087
G1 X100.768 Y104.027 E18.65436
G1 X101.268 Y103.899 E18.68011
G1 X101.784 Y103.688 E18.70793
G1 X102.197 Y103.461 E18.73144
G1 X102.646 Y103.129 E18.75930
G1 X102.988 Y102.806 E18.78277
G1 X103.317 Y102.410 E18.80845
G1 X103.593 Y101.975 E18.83415
G1 X103.812 Y101.509 E18.85984
G1 X103.971 Y101.019 E18.88554
G1 X104.068 Y100.513 E18.91125
G1 X104.100 Y100.000 E18.93689
G1 X104.068 Y99.487 E18.96253
G1 X103.971 Y98.981 E18.98824
G1 X103.812 Y98.491 E19.01394
G1 X103.593 Y98.025 E19.03963
G1 X103.317 Y97.589 E19.06537
G1 X102.955 Y97.163 E19.09326
G1 X102.612 Y96.840 E19.11677
G1 X102.157 Y96.517 E19.14461
G1 X101.745 Y96.291 E19.16805
G1 X101.267 Y96.100 E19.19373
G1 X100.767 Y95.973 E19.21947
G1 X100.256 Y95.908 E19.24517
G1 X99.699 Y95.913 E19.27296
G1 X99.232 Y95.973 E19.29645
G1 X98.732 Y96.101 E19.32220
G1 X98.216 Y96.312 E19.35001
G1 X97.803 Y96.539 E19.37352
