;Generated from lcd-support-A.stl c3392693665eec9cf77bbba0431e560314c515b0
;Generated with Cura_SteamEngine 15.04
M140 S55.0
M109 T0 S210.0
T0
M190 S55.0

;Basic settings: Layer height: 0.15 Walls: 1.2 Fill: 50
;Print time: ?print_time?
;Filament used: ?filament_amount?m ?filament_weight?g
;Filament cost: ?filament_cost?
;M190 S55 ;Uncomment to add your own bed temperature line
;M109 S210 ;Uncomment to add your own temperature line
G21        ;metric values
G90        ;absolute positioning
M82        ;set extruder to absolute mode
M107       ;start with the fan off
G28 X0 Y0  ;move X/Y to min endstops
G28 Z0     ;move Z to min endstops
G1 Z5.0 F9000 ;move the platform down 15mm
G92 E0                  ;zero the extruded length
G1 F200 E3              ;extrude 3mm of feed stock
G92 E0                  ;zero the extruded length again
G1 F9000
;Put printing message on LCD screen
M117 Printing...

;Layer count: 66
;LAYER:0
M107
G0 F9000 X63.675 Y73.060 Z0.300
;TYPE:SKIRT
G1 F1200 X135.418 Y73.060 E3.57927
G1 X142.296 Y79.938 E4.06455
G1 X142.296 Y84.104 E4.27240
G1 X137.377 Y89.020 E4.61935
G1 X135.257 Y86.900 E4.76893
G1 X132.431 Y89.727 E4.96835
G1 X129.602 Y86.899 E5.16792
G1 X102.660 Y113.841 E7.06882
G1 X105.488 Y116.669 E7.26835
G1 X102.661 Y119.497 E7.46785
G1 X104.781 Y121.617 E7.61743
G1 X99.461 Y126.940 E7.99289
G1 X95.396 Y126.940 E8.19569
G1 X79.837 Y111.385 E9.29332
G1 X72.934 Y111.385 E9.63771
G1 X72.294 Y112.641 E9.70804
G1 X72.134 Y112.961 E9.72589
G1 X71.015 Y114.343 E9.81461
G1 X70.784 Y114.629 E9.83295
G1 X69.122 Y115.975 E9.93965
G1 X67.219 Y116.944 E10.04619
G1 X65.156 Y117.497 E10.15275
G1 X63.024 Y117.609 E10.25926
G1 X60.926 Y117.278 E10.36522
G1 X59.790 Y116.844 E10.42589
G1 X57.704 Y116.033 E10.53755
G1 X57.704 Y109.741 E10.85146
G1 X61.179 Y108.478 E11.03593
G1 X62.429 Y108.018 E11.10238
G1 X63.306 Y108.355 E11.14925
G1 X63.507 Y108.386 E11.15940
G1 X63.714 Y108.375 E11.16974
G1 X63.908 Y108.323 E11.17976
G1 X64.092 Y108.230 E11.19004
G1 X64.253 Y108.099 E11.20040
G1 X64.380 Y107.942 E11.21047
G1 X64.474 Y107.757 E11.22083
G1 X64.528 Y107.558 E11.23111
G1 X64.538 Y107.356 E11.24120
G1 X64.507 Y107.158 E11.25120
G1 X64.435 Y106.966 E11.26143
G1 X64.317 Y106.783 E11.27230
G1 X64.184 Y106.651 E11.28165
G1 X63.994 Y106.526 E11.29299
G1 X63.813 Y106.457 E11.30266
G1 X63.610 Y106.425 E11.31291
G1 X63.404 Y106.435 E11.32320
G1 X62.117 Y106.780 E11.38967
G1 X57.704 Y105.173 E11.62398
G1 X57.704 Y98.984 E11.93275
G1 X59.862 Y97.883 E12.05362
G1 X59.862 Y96.246 E12.13529
G1 X57.704 Y95.418 E12.25061
G1 X57.704 Y88.742 E12.58367
G1 X61.934 Y87.203 E12.80824
G1 X62.878 Y87.565 E12.85868
G1 X63.080 Y87.597 E12.86889
G1 X63.290 Y87.586 E12.87938
G1 X63.484 Y87.534 E12.88940
G1 X63.667 Y87.441 E12.89964
G1 X63.828 Y87.311 E12.90996
G1 X63.951 Y87.159 E12.91972
G1 X64.050 Y86.967 E12.93049
G1 X64.099 Y86.785 E12.93990
G1 X64.112 Y86.550 E12.95164
G1 X64.083 Y86.366 E12.96093
G1 X64.008 Y86.170 E12.97140
G1 X63.897 Y85.999 E12.98157
G1 X63.751 Y85.853 E12.99188
G1 X63.577 Y85.740 E13.00223
G1 X63.389 Y85.668 E13.01227
G1 X63.186 Y85.636 E13.02252
G1 X62.978 Y85.646 E13.03291
G1 X61.910 Y85.934 E13.08810
G1 X57.704 Y84.400 E13.31146
G1 X57.704 Y79.030 E13.57937
G1 X59.724 Y77.009 E13.72192
G1 X59.862 Y76.972 E13.72905
G1 X59.862 Y76.871 E13.73409
G1 X63.675 Y73.060 E14.00305
G1 F2400 E9.50305
G0 F9000 X65.414 Y77.260
;TYPE:WALL-INNER
G1 F2400 E14.00305
G1 F1200 X133.679 Y77.260 E17.40880
G1 X136.318 Y79.899 E17.59500
G1 X132.430 Y83.788 E17.86935
G1 X129.601 Y80.960 E18.06892
G1 X96.721 Y113.840 E20.38878
G1 X99.549 Y116.669 E20.58835
G1 X95.306 Y120.912 E20.88771
G1 X82.220 Y107.827 E21.81097
G1 X81.575 Y107.185 E21.85637
G1 X69.541 Y107.185 E22.45675
G1 X69.478 Y108.343 E22.51461
G1 X69.154 Y109.552 E22.57705
G1 X68.582 Y110.674 E22.63988
G1 X67.796 Y111.644 E22.70217
G1 X66.824 Y112.432 E22.76460
G1 X65.706 Y113.001 E22.82718
G1 X64.496 Y113.325 E22.88968
G1 X63.243 Y113.391 E22.95228
G1 X62.013 Y113.197 E23.01440
G1 X61.904 Y113.156 E23.02021
G1 X61.904 Y112.684 E23.04376
G1 X62.477 Y112.476 E23.07417
G1 X63.101 Y112.575 E23.10569
G1 X63.283 Y112.604 E23.11488
G1 X64.372 Y112.547 E23.16929
G1 X65.423 Y112.265 E23.22358
G1 X66.393 Y111.771 E23.27789
G1 X67.238 Y111.086 E23.33216
G1 X67.815 Y110.374 E23.37788
G1 X67.924 Y110.240 E23.38650
G1 X68.417 Y109.271 E23.44074
G1 X68.651 Y108.397 E23.48588
G1 X68.699 Y108.225 E23.49478
G1 X68.755 Y107.140 E23.54899
G1 X68.590 Y106.082 E23.60241
G1 X68.206 Y105.065 E23.65664
G1 X67.672 Y104.237 E23.70580
G1 X67.603 Y104.130 E23.71215
G1 X66.850 Y103.375 E23.76535
G1 X65.922 Y102.768 E23.82067
G1 X64.904 Y102.378 E23.87506
G1 X63.830 Y102.207 E23.92932
G1 X62.742 Y102.264 E23.98367
G1 X62.309 Y102.380 E24.00604
G1 X61.904 Y102.233 E24.02753
G1 X61.904 Y101.676 E24.05532
G1 X62.617 Y101.486 E24.09213
G1 X64.062 Y101.408 E24.16433
G1 X64.062 Y92.535 E24.60701
G1 X62.818 Y92.602 E24.66916
G1 X61.904 Y92.458 E24.71532
G1 X61.904 Y91.684 E24.75394
G1 X61.944 Y91.669 E24.75607
G1 X62.860 Y91.815 E24.80234
G1 X63.947 Y91.758 E24.85665
G1 X64.998 Y91.477 E24.91093
G1 X65.969 Y90.982 E24.96530
G1 X66.814 Y90.297 E25.01957
G1 X67.485 Y89.470 E25.07270
G1 X67.937 Y88.593 E25.12192
G1 X67.994 Y88.478 E25.12833
G1 X68.268 Y87.453 E25.18126
G1 X68.321 Y86.504 E25.22868
G1 X68.335 Y86.369 E25.23545
G1 X68.162 Y85.271 E25.29091
G1 X67.832 Y84.412 E25.33682
G1 X67.770 Y84.252 E25.34538
G1 X67.272 Y83.485 E25.39100
G1 X67.180 Y83.342 E25.39948
G1 X66.409 Y82.571 E25.45388
G1 X65.496 Y81.978 E25.50820
G1 X64.480 Y81.589 E25.56247
G1 X63.406 Y81.418 E25.61673
G1 X62.318 Y81.475 E25.67109
G1 X62.102 Y81.533 E25.68224
G1 X61.904 Y81.461 E25.69275
G1 X61.904 Y80.774 E25.72703
G1 X62.193 Y80.697 E25.74195
G1 X64.062 Y80.598 E25.83533
G1 X64.062 Y78.611 E25.93446
G1 X65.414 Y77.260 E26.02981
G0 F9000 X71.827 Y78.740
G1 F1200 X69.097 Y83.470 E26.30228
G1 X68.748 Y84.069 E26.33687
G1 X71.482 Y88.804 E26.60965
G1 X71.829 Y89.401 E26.64410
G1 X77.981 Y89.401 E26.95102
G1 X80.711 Y84.672 E27.22344
G1 X81.060 Y84.073 E27.25803
G1 X78.326 Y79.337 E27.53085
G1 X77.979 Y78.740 E27.56530
G1 X71.827 Y78.740 E27.87223
G0 F9000 X85.327 Y78.946
G1 F1200 X78.197 Y91.297 E28.58373
G1 X77.749 Y92.070 E28.62830
G1 X84.880 Y104.422 E29.33987
G1 X85.327 Y105.195 E29.38442
G1 X100.481 Y105.195 E30.14045
G1 X107.611 Y92.845 E30.85191
G1 X108.059 Y92.072 E30.89648
G1 X100.928 Y79.719 E31.60809
G1 X100.481 Y78.946 E31.65264
G1 X85.327 Y78.946 E32.40868
G0 F9000 X100.235 Y79.373
G0 X104.748 Y84.069
G1 F1200 X107.482 Y88.804 E32.68146
G1 X107.829 Y89.401 E32.71591
G1 X113.981 Y89.401 E33.02283
G1 X116.711 Y84.672 E33.29525
G1 X117.060 Y84.073 E33.32984
G1 X114.326 Y79.337 E33.60266
G1 X113.979 Y78.740 E33.63712
G1 X107.827 Y78.740 E33.94404
G1 X105.097 Y83.470 E34.21651
G1 X104.748 Y84.069 E34.25109
G0 F9000 X107.566 Y92.071
G0 X100.235 Y104.768
G0 X85.573 Y104.768
G0 X81.060 Y100.073
G1 F1200 X78.326 Y95.337 E34.52392
G1 X77.979 Y94.740 E34.55837
G1 X71.827 Y94.740 E34.86529
G1 X68.749 Y100.071 E35.17240
G1 X71.827 Y105.401 E35.47947
G1 X77.981 Y105.401 E35.78650
G1 X80.711 Y100.672 E36.05892
G1 X81.060 Y100.073 E36.09351
G0 F9000 X80.366 Y100.471
G1 F1200 X80.597 Y100.072 E36.11651
G1 X77.980 Y95.537 E36.37773
G1 X77.749 Y95.140 E36.40065
G1 X72.058 Y95.140 E36.68457
G1 X69.211 Y100.071 E36.96864
G1 X72.058 Y105.001 E37.25266
G1 X77.750 Y105.001 E37.53664
G1 X80.366 Y100.471 E37.79762
G0 F9000 X85.558 Y104.795
G1 F1200 X100.250 Y104.795 E38.53061
G1 X107.597 Y92.071 E39.26363
G1 X100.250 Y79.346 E39.99670
G1 X85.558 Y79.346 E40.72969
G1 X78.211 Y92.071 E41.46276
G1 X85.558 Y104.795 E42.19579
G0 F9000 X81.410 Y107.585
G1 F1200 X69.920 Y107.585 E42.76903
G1 X69.876 Y108.403 E42.80990
G1 X69.529 Y109.697 E42.87673
G1 X68.921 Y110.891 E42.94358
G1 X68.080 Y111.928 E43.01019
G1 X67.042 Y112.770 E43.07687
G1 X65.851 Y113.376 E43.14354
G1 X64.555 Y113.723 E43.21048
G1 X63.225 Y113.794 E43.27693
G1 X61.911 Y113.586 E43.34330
G1 X61.504 Y113.431 E43.36503
G1 X61.504 Y112.403 E43.41631
G1 X62.436 Y112.064 E43.46579
G1 X63.164 Y112.180 E43.50257
G1 X63.305 Y112.203 E43.50970
G1 X64.309 Y112.150 E43.55986
G1 X65.279 Y111.889 E43.60997
G1 X66.174 Y111.434 E43.66006
G1 X66.954 Y110.802 E43.71015
G1 X67.504 Y110.122 E43.75378
G1 X67.586 Y110.021 E43.76027
G1 X68.041 Y109.127 E43.81032
G1 X68.266 Y108.288 E43.85365
G1 X68.302 Y108.160 E43.86029
G1 X68.353 Y107.161 E43.91019
G1 X68.201 Y106.184 E43.95952
G1 X67.847 Y105.246 E44.00954
G1 X67.336 Y104.454 E44.05656
G1 X67.290 Y104.383 E44.06079
G1 X66.596 Y103.687 E44.10982
G1 X65.739 Y103.126 E44.16092
G1 X64.800 Y102.766 E44.21110
G1 X63.809 Y102.609 E44.26115
G1 X62.805 Y102.661 E44.31131
G1 X62.291 Y102.799 E44.33786
G1 X61.504 Y102.513 E44.37964
G1 X61.504 Y101.370 E44.43666
G1 X62.559 Y101.088 E44.49114
G1 X63.662 Y101.029 E44.54625
G1 X63.662 Y92.958 E44.94892
G1 X62.801 Y93.004 E44.99193
G1 X61.504 Y92.799 E45.05744
G1 X61.504 Y91.403 E45.12709
G1 X61.903 Y91.258 E45.14827
G1 X62.881 Y91.413 E45.19767
G1 X63.884 Y91.361 E45.24778
G1 X64.854 Y91.101 E45.29788
G1 X65.750 Y90.645 E45.34804
G1 X66.530 Y90.013 E45.39812
G1 X67.148 Y89.250 E45.44711
G1 X67.580 Y88.412 E45.49415
G1 X67.618 Y88.336 E45.49838
G1 X67.871 Y87.389 E45.54729
G1 X67.923 Y86.466 E45.59341
G1 X67.932 Y86.380 E45.59772
G1 X67.774 Y85.375 E45.64848
G1 X67.459 Y84.556 E45.69226
G1 X67.412 Y84.435 E45.69873
G1 X66.936 Y83.702 E45.74234
G1 X66.867 Y83.594 E45.74873
G1 X66.156 Y82.883 E45.79890
G1 X65.314 Y82.336 E45.84899
G1 X64.376 Y81.977 E45.89910
G1 X63.385 Y81.820 E45.94915
G1 X62.381 Y81.872 E45.99931
G1 X62.084 Y81.952 E46.01466
G1 X61.504 Y81.741 E46.04545
G1 X61.504 Y80.603 E46.10222
G1 X61.689 Y80.418 E46.11528
G1 X62.135 Y80.299 E46.13831
G1 X63.662 Y80.218 E46.21460
G1 X63.662 Y78.445 E46.30305
G1 X65.248 Y76.860 E46.41492
G1 X133.845 Y76.860 E49.83723
G1 X136.884 Y79.899 E50.05165
G1 X132.430 Y84.354 E50.36594
G1 X129.601 Y81.526 E50.56551
G1 X97.287 Y113.840 E52.84543
G1 X100.115 Y116.669 E53.04500
G1 X95.629 Y121.154 E53.36148
G1 X97.609 Y123.140 E53.50139
G1 X96.969 Y123.140 E53.53332
G1 X81.410 Y107.585 E54.63095
G0 F9000 X80.566 Y100.072
G0 X79.665 Y98.728
G0 X77.750 Y89.001
G1 F1200 X80.366 Y84.471 E54.89193
G1 X80.597 Y84.072 E54.91493
G1 X77.980 Y79.537 E55.17615
G1 X77.749 Y79.140 E55.19907
G1 X72.058 Y79.140 E55.48299
G1 X69.442 Y83.671 E55.74402
G1 X69.211 Y84.070 E55.76702
G1 X71.828 Y88.604 E56.02820
G1 X72.059 Y89.001 E56.05111
G1 X77.750 Y89.001 E56.33504
G0 F9000 X85.573 Y79.373
G0 X100.235 Y79.373
G0 X105.211 Y84.070
G1 F1200 X107.828 Y88.604 E56.59621
G1 X108.059 Y89.001 E56.61913
G1 X113.750 Y89.001 E56.90305
G1 X116.366 Y84.471 E57.16404
G1 X116.597 Y84.072 E57.18704
G1 X113.980 Y79.537 E57.44826
G1 X113.749 Y79.140 E57.47117
G1 X108.058 Y79.140 E57.75510
G1 X105.442 Y83.671 E58.01612
G1 X105.211 Y84.070 E58.03912
G0 F9000 X105.673 Y84.071
;TYPE:WALL-OUTER
G1 F1200 X108.289 Y88.601 E58.30010
G1 X113.519 Y88.601 E58.56103
G1 X116.135 Y84.071 E58.82201
G1 X113.519 Y79.540 E59.08303
G1 X108.289 Y79.540 E59.34396
G1 X105.673 Y84.071 E59.60498
G0 F9000 X105.413 Y84.219
G0 X100.235 Y79.373
G0 X100.019 Y79.446
G0 X100.019 Y79.746
G1 F1200 X85.789 Y79.746 E60.31492
G1 X78.673 Y92.071 E61.02495
G1 X85.789 Y104.395 E61.73493
G1 X100.019 Y104.395 E62.44487
G1 X107.135 Y92.071 E63.15485
G1 X100.019 Y79.746 E63.86487
G0 F9000 X100.019 Y79.446
G0 X85.573 Y79.373
G0 X80.395 Y83.923
G0 X80.135 Y84.071
G1 F1200 X77.519 Y79.540 E64.12590
G1 X72.289 Y79.540 E64.38682
G1 X69.673 Y84.071 E64.64785
G1 X72.289 Y88.601 E64.90883
G1 X77.519 Y88.601 E65.16975
G1 X80.135 Y84.071 E65.43073
G0 F9000 X80.395 Y83.923
G0 X80.566 Y84.072
G0 X77.519 Y95.240
G0 X77.519 Y95.540
G1 F1200 X72.289 Y95.540 E65.69166
G1 X69.673 Y100.071 E65.95268
G1 X72.289 Y104.601 E66.21366
G1 X77.519 Y104.601 E66.47459
G1 X80.135 Y100.071 E66.73557
G1 X77.519 Y95.540 E66.99659
G0 F9000 X77.519 Y95.240
G0 X67.043 Y89.220
G0 X66.811 Y89.030
G1 F1200 X67.223 Y88.231 E67.04144
G1 X67.242 Y88.193 E67.04356
G1 X67.474 Y87.326 E67.08834
G1 X67.524 Y86.437 E67.13276
G1 X67.529 Y86.391 E67.13507
G1 X67.385 Y85.479 E67.18113
G1 X67.054 Y84.619 E67.22711
G1 X66.553 Y83.846 E67.27306
G1 X65.903 Y83.196 E67.31893
G1 X65.131 Y82.695 E67.36484
G1 X64.272 Y82.366 E67.41073
G1 X63.364 Y82.221 E67.45661
G1 X62.444 Y82.269 E67.50257
G1 X62.066 Y82.371 E67.52210
G1 X61.104 Y82.021 E67.57317
G1 X61.104 Y80.437 E67.65220
G1 X61.483 Y80.058 E67.67894
G1 X62.067 Y79.902 E67.70910
G1 X63.262 Y79.839 E67.76880
G1 X63.262 Y78.279 E67.84663
G1 X65.082 Y76.460 E67.97500
G1 X134.011 Y76.460 E71.41388
G1 X138.896 Y81.345 E71.75855
G1 X138.896 Y82.696 E71.82595
G1 X137.378 Y84.213 E71.93302
G1 X136.812 Y83.647 E71.97295
G1 X138.471 Y81.988 E72.09000
G1 X136.916 Y80.432 E72.19975
G1 X132.430 Y84.920 E72.51633
G1 X129.601 Y82.091 E72.71593
G1 X97.852 Y113.840 E74.95600
G1 X100.681 Y116.669 E75.15560
G1 X96.194 Y121.155 E75.47215
G1 X97.748 Y122.712 E75.58190
G1 X99.408 Y121.052 E75.69902
G1 X99.974 Y121.618 E75.73895
G1 X98.053 Y123.540 E75.87452
G1 X96.803 Y123.540 E75.93689
G1 X81.245 Y107.985 E77.03448
G1 X70.299 Y107.985 E77.58058
G1 X70.272 Y108.470 E77.60481
G1 X69.908 Y109.828 E77.67496
G1 X69.264 Y111.098 E77.74600
G1 X69.258 Y111.111 E77.74671
G1 X68.365 Y112.213 E77.81748
G1 X67.261 Y113.107 E77.88835
G1 X65.994 Y113.752 E77.95928
G1 X64.622 Y114.120 E78.03015
G1 X63.202 Y114.195 E78.10109
G1 X61.805 Y113.974 E78.17165
G1 X61.104 Y113.706 E78.20910
G1 X61.104 Y112.123 E78.28807
G1 X62.403 Y111.650 E78.35704
G1 X62.418 Y111.656 E78.35785
G1 X63.327 Y111.801 E78.40377
G1 X64.246 Y111.753 E78.44968
G1 X65.135 Y111.514 E78.49561
G1 X65.955 Y111.097 E78.54151
G1 X66.669 Y110.517 E78.58740
G1 X67.249 Y109.803 E78.63329
G1 X67.666 Y108.983 E78.67919
G1 X67.881 Y108.180 E78.72066
G1 X67.905 Y108.095 E78.72507
G1 X67.952 Y107.182 E78.77068
G1 X67.812 Y106.287 E78.81587
G1 X67.488 Y105.427 E78.86172
G1 X66.978 Y104.636 E78.90868
G1 X66.342 Y103.999 E78.95359
G1 X65.556 Y103.484 E79.00047
G1 X64.696 Y103.155 E79.04641
G1 X63.788 Y103.010 E79.09228
G1 X62.868 Y103.058 E79.13824
G1 X62.272 Y103.219 E79.16904
G1 X61.104 Y102.793 E79.23107
G1 X61.104 Y101.066 E79.31723
G1 X62.492 Y100.691 E79.38896
G1 X63.262 Y100.650 E79.42743
G1 X63.262 Y93.380 E79.79013
G1 X62.778 Y93.406 E79.81431
G1 X61.373 Y93.183 E79.88529
G1 X61.104 Y93.080 E79.89966
G1 X61.104 Y91.123 E79.99729
G1 X61.903 Y90.832 E80.03972
G1 X61.994 Y90.867 E80.04458
G1 X62.902 Y91.012 E80.09045
G1 X63.821 Y90.964 E80.13637
G1 X64.710 Y90.726 E80.18228
G1 X65.531 Y90.308 E80.22824
G1 X66.245 Y89.728 E80.27414
G1 X66.811 Y89.030 E80.31897
G0 F9000 X67.658 Y89.437
;TYPE:SKIN
G1 F1200 X72.820 Y94.599 E80.68318
G0 F9000 X72.254 Y94.599
G1 F1200 X67.422 Y89.767 E81.02410
G0 F9000 X67.168 Y90.079
G1 F1200 X71.726 Y94.636 E81.34566
G0 F9000 X71.519 Y94.995
G1 F1200 X66.915 Y90.391 E81.67049
G0 F9000 X66.604 Y90.646
G1 F1200 X71.312 Y95.354 E82.00267
G0 F9000 X71.105 Y95.712
G1 F1200 X66.292 Y90.899 E82.34225
G0 F9000 X65.967 Y91.140
G1 F1200 X70.898 Y96.071 E82.69016
G0 F9000 X70.690 Y96.429
G1 F1200 X65.592 Y91.331 E83.04985
G0 F9000 X65.217 Y91.522
G1 F1200 X70.483 Y96.788 E83.42140
G0 F9000 X70.276 Y97.146
G1 F1200 X64.803 Y91.673 E83.80755
G0 F9000 X64.357 Y91.793
G1 F1200 X70.069 Y97.505 E84.21056
G0 F9000 X69.862 Y97.863
G1 F1200 X63.899 Y91.900 E84.63128
G0 F9000 X63.838 Y92.405
G1 F1200 X63.331 Y92.181 E84.66488
G1 X62.817 Y91.950 E84.69299
G0 F9000 X62.750 Y92.448
G1 F1200 X62.144 Y91.842 E84.73575
G0 F9000 X64.202 Y92.769
G1 F1200 X69.654 Y98.222 E85.12045
G0 F9000 X69.448 Y98.581
G1 F1200 X64.202 Y93.335 E85.49059
G0 F9000 X64.202 Y93.900
G1 F1200 X69.241 Y98.939 E85.84612
G0 F9000 X69.034 Y99.298
G1 F1200 X64.202 Y94.466 E86.18704
G0 F9000 X64.202 Y95.032
G1 F1200 X68.826 Y99.656 E86.51329
G0 F9000 X68.619 Y100.015
G1 F1200 X64.202 Y95.598 E86.82493
G0 F9000 X64.202 Y96.163
G1 F1200 X69.241 Y101.202 E87.18046
G0 F9000 X70.015 Y102.542
G1 F1200 X64.202 Y96.729 E87.59060
