;Generated from RAMBo_hinges.stl bdfc6a335b33ace6e781a529afe4be11207e6aed
;Generated with Cura_SteamEngine 15.04
M140 S55.0
M109 T0 S210.0
T0
M190 S55.0

;Basic settings: Layer height: 0.15 Walls: 1.2 Fill: 50
;Print time: ?print_time?
;Filament used: ?filament_amount?m ?filament_weight?g
;Filament cost: ?filament_cost?
;M190 S55 ;Uncomment to add your own bed temperature line
;M109 S210 ;Uncomment to add your own temperature line
G21        ;metric values
G90        ;absolute positioning
M82        ;set extruder to absolute mode
M107       ;start with the fan off
G28 X0 Y0  ;move X/Y to min endstops
G28 Z0     ;move Z to min endstops
G1 Z5.0 F9000 ;move the platform down 15mm
G92 E0                  ;zero the extruded length
G1 F200 E3              ;extrude 3mm of feed stock
G92 E0                  ;zero the extruded length again
G1 F9000
;Put printing message on LCD screen
M117 Printing...

;Layer count: 186
;LAYER:0
M107
G0 F9000 X92.500 Y82.400 Z0.300
;TYPE:SKIRT
G1 F1200 X99.702 Y82.400 E0.35931
G1 X106.192 Y93.644 E1.00701
G1 X106.700 Y94.491 E1.05629
G1 X106.700 Y94.862 E1.07480
G1 X106.987 Y95.747 E1.12121
G1 X107.121 Y96.995 E1.18383
G1 X106.988 Y98.242 E1.24640
G1 X106.602 Y99.442 E1.30929
G1 X106.509 Y99.604 E1.31861
G1 X106.951 Y100.364 E1.36247
G1 X107.369 Y101.631 E1.42903
G1 X107.521 Y102.989 E1.49721
G1 X107.362 Y104.484 E1.57221
G1 X107.052 Y105.228 E1.61243
G1 X101.912 Y114.135 E2.12548
G1 X101.253 Y115.275 E2.19117
G1 X99.914 Y117.600 E2.32503
G1 X92.500 Y117.600 E2.69492
G1 X92.500 Y82.400 E4.45105
G0 F9000 X92.900 Y82.800
G1 F1200 X99.471 Y82.800 E4.77888
G1 X105.823 Y93.807 E5.41290
G1 X106.300 Y94.602 E5.45916
G1 X106.300 Y94.927 E5.47537
G1 X106.593 Y95.831 E5.52278
G1 X106.718 Y96.995 E5.58119
G1 X106.594 Y98.158 E5.63954
G1 X106.235 Y99.279 E5.69826
G1 X106.047 Y99.605 E5.71704
G1 X106.584 Y100.529 E5.77036
G1 X106.976 Y101.717 E5.83277
G1 X107.119 Y102.991 E5.89673
G1 X106.971 Y104.383 E5.96657
G1 X106.693 Y105.051 E6.00266
G1 X101.565 Y113.935 E6.51443
G1 X100.907 Y115.075 E6.58010
G1 X99.683 Y117.200 E6.70244
G1 X92.900 Y117.200 E7.04085
G1 X92.900 Y82.800 E8.75707
G1 F2400 E4.25707
G0 F9000 X97.100 Y87.094
;TYPE:WALL-INNER
G1 F2400 E8.75707
G1 F1200 X102.100 Y95.757 E9.25609
G1 X102.100 Y95.959 E9.26617
G1 X102.373 Y96.432 E9.29342
G1 X102.464 Y96.711 E9.30806
G1 X102.495 Y96.996 E9.32236
G1 X102.464 Y97.283 E9.33676
G1 X102.372 Y97.569 E9.35175
G1 X102.230 Y97.816 E9.36596
G1 X102.036 Y98.032 E9.38045
G1 X101.795 Y98.208 E9.39534
G1 X101.529 Y98.326 E9.40985
G1 X101.247 Y98.386 E9.42424
G1 X100.953 Y98.386 E9.43891
G1 X100.667 Y98.325 E9.45350
G1 X100.400 Y98.206 E9.46808
G1 X100.167 Y98.036 E9.48247
G1 X99.977 Y97.825 E9.49663
G1 X99.827 Y97.566 E9.51157
G1 X99.738 Y97.293 E9.52589
G1 X99.597 Y96.000 E9.59078
G1 X97.100 Y96.000 E9.71536
G1 X97.100 Y87.094 E10.15968
G0 F9000 X97.276 Y86.600
G1 F1200 X102.500 Y95.650 E10.68101
G1 X102.500 Y95.852 E10.69109
G1 X102.741 Y96.270 E10.71516
G1 X102.857 Y96.627 E10.73389
G1 X102.896 Y96.996 E10.75240
G1 X102.856 Y97.372 E10.77126
G1 X102.742 Y97.729 E10.78996
G1 X102.556 Y98.051 E10.80851
G1 X102.303 Y98.332 E10.82738
G1 X101.996 Y98.557 E10.84637
G1 X101.655 Y98.708 E10.86497
G1 X101.287 Y98.786 E10.88374
G1 X100.911 Y98.786 E10.90250
G1 X100.543 Y98.707 E10.92128
G1 X100.198 Y98.553 E10.94013
G1 X99.898 Y98.334 E10.95866
G1 X99.649 Y98.058 E10.97720
G1 X99.462 Y97.736 E10.99578
G1 X99.344 Y97.374 E11.01477
G1 X99.238 Y96.400 E11.06365
G1 X96.700 Y96.400 E11.19028
G1 X96.700 Y86.600 E11.67920
G1 X97.276 Y86.600 E11.70794
G0 F9000 X97.508 Y86.200
;TYPE:WALL-OUTER
G1 F1200 X102.900 Y95.542 E12.24607
G1 X102.900 Y95.745 E12.25620
G1 X103.108 Y96.106 E12.27699
G1 X103.250 Y96.543 E12.29991
G1 X103.299 Y96.996 E12.32264
G1 X103.250 Y97.454 E12.34562
G1 X103.109 Y97.894 E12.36867
G1 X102.883 Y98.286 E12.39125
G1 X102.570 Y98.632 E12.41453
G1 X102.201 Y98.903 E12.43737
G1 X101.779 Y99.090 E12.46039
G1 X101.328 Y99.186 E12.48340
G1 X100.869 Y99.186 E12.50630
G1 X100.419 Y99.089 E12.52926
G1 X99.998 Y98.901 E12.55227
G1 X99.627 Y98.631 E12.57516
G1 X99.325 Y98.296 E12.59766
G1 X99.095 Y97.898 E12.62060
G1 X98.952 Y97.462 E12.64349
G1 X98.879 Y96.800 E12.67671
G1 X96.300 Y96.800 E12.80538
G1 X96.300 Y86.200 E13.33422
G1 X97.508 Y86.200 E13.39449
G0 F9000 X97.310 Y86.457
G0 X97.239 Y87.905
;TYPE:SKIN
G1 F1200 X97.635 Y88.302 E13.42246
G0 F9000 X97.239 Y88.471
G1 F1200 X98.408 Y89.639 E13.50490
G0 F9000 X97.239 Y89.602
G1 F1200 X99.952 Y92.315 E13.69632
G0 F9000 X100.724 Y93.653
G1 F1200 X97.239 Y90.168 E13.94221
G0 F9000 X97.239 Y90.733
G1 F1200 X101.496 Y94.991 E14.24260
G0 F9000 X101.990 Y96.050
G1 F1200 X97.239 Y91.299 E14.57781
G0 F9000 X97.239 Y91.865
G1 F1200 X102.351 Y96.977 E14.93848
G0 F9000 X102.262 Y97.454
G1 F1200 X97.239 Y92.430 E15.29292
G0 F9000 X97.239 Y92.996
G1 F1200 X102.049 Y97.807 E15.63233
G0 F9000 X101.745 Y98.068
G1 F1200 X99.743 Y96.066 E15.77358
G0 F9000 X99.537 Y95.860
G1 F1200 X97.239 Y93.562 E15.93571
G0 F9000 X97.239 Y94.127
G1 F1200 X98.971 Y95.860 E16.05795
G0 F9000 X98.405 Y95.860
G1 F1200 X97.239 Y94.693 E16.14025
G0 F9000 X97.239 Y95.259
G1 F1200 X97.840 Y95.860 E16.18266
G0 F9000 X99.813 Y96.701
G1 F1200 X101.334 Y98.222 E16.28997
G0 F9000 X100.742 Y98.196
G1 F1200 X99.906 Y97.360 E16.34896
G0 F9000 X99.180 Y90.977
G1 F1200 X97.239 Y89.036 E16.48591
G1 F2400 E11.98591
G0 F9000 X100.547 Y101.293
;TYPE:WALL-INNER
G1 F2400 E16.48591
G1 F1200 X100.913 Y101.215 E16.50458
G1 X101.287 Y101.215 E16.52323
G1 X101.653 Y101.293 E16.54190
G1 X101.997 Y101.446 E16.56069
G1 X102.301 Y101.667 E16.57944
G1 X102.544 Y101.937 E16.59756
G1 X102.732 Y102.260 E16.61621
G1 X102.851 Y102.619 E16.63507
G1 X102.894 Y103.006 E16.65450
G1 X102.865 Y103.281 E16.66830
G1 X97.256 Y113.000 E17.22814
G1 X97.100 Y113.000 E17.23592
G1 X97.100 Y104.000 E17.68493
G1 X99.200 Y104.000 E17.78970
G1 X99.344 Y102.629 E17.85847
G1 X99.457 Y102.281 E17.87673
G1 X99.643 Y101.954 E17.89550
G1 X99.894 Y101.673 E17.91430
G1 X100.205 Y101.445 E17.93353
G1 X100.547 Y101.293 E17.95221
G0 F9000 X100.420 Y100.911
G1 F1200 X100.872 Y100.815 E17.97526
G1 X101.328 Y100.815 E17.99801
G1 X101.780 Y100.911 E18.02106
G1 X102.198 Y101.097 E18.04389
G1 X102.567 Y101.366 E18.06667
G1 X102.868 Y101.700 E18.08910
G1 X103.100 Y102.098 E18.11208
G1 X103.244 Y102.535 E18.13504
G1 X103.296 Y102.999 E18.15833
G1 X103.253 Y103.409 E18.17890
G1 X97.486 Y113.400 E18.75443
G1 X96.700 Y113.400 E18.79365
G1 X96.700 Y103.600 E19.28257
G1 X98.840 Y103.600 E19.38934
G1 X98.952 Y102.544 E19.44231
G1 X99.091 Y102.115 E19.46481
G1 X99.315 Y101.722 E19.48738
G1 X99.625 Y101.375 E19.51060
G1 X100.005 Y101.096 E19.53411
G1 X100.420 Y100.911 E19.55678
G0 F9000 X100.296 Y100.529
;TYPE:WALL-OUTER
G1 F1200 X100.831 Y100.415 E19.58407
G1 X101.369 Y100.415 E19.61091
G1 X101.904 Y100.529 E19.63821
G1 X102.398 Y100.749 E19.66518
G1 X102.838 Y101.069 E19.69233
G1 X103.193 Y101.463 E19.71879
G1 X103.467 Y101.932 E19.74589
G1 X103.636 Y102.445 E19.77283
G1 X103.699 Y103.000 E19.80070
G1 X103.642 Y103.531 E19.82734
G1 X97.718 Y113.800 E20.41880
G1 X96.300 Y113.800 E20.48955
G1 X96.300 Y103.200 E21.01838
G1 X98.480 Y103.200 E21.12714
G1 X98.558 Y102.459 E21.16432
G1 X98.721 Y101.957 E21.19065
G1 X98.993 Y101.482 E21.21796
G1 X99.353 Y101.077 E21.24499
G1 X99.799 Y100.750 E21.27258
G1 X100.296 Y100.529 E21.29972
G0 F9000 X100.582 Y101.430
;TYPE:SKIN
G1 F1200 X102.604 Y103.452 E21.44238
G0 F9000 X102.396 Y103.811
G1 F1200 X100.204 Y101.618 E21.59707
G0 F9000 X99.897 Y101.877
G1 F1200 X102.190 Y104.170 E21.75886
G0 F9000 X101.983 Y104.528
G1 F1200 X99.660 Y102.205 E21.92276
G0 F9000 X99.496 Y102.608
G1 F1200 X101.776 Y104.887 E22.08359
G0 F9000 X101.568 Y105.245
G1 F1200 X99.433 Y103.110 E22.23422
G0 F9000 X99.379 Y103.622
G1 F1200 X101.362 Y105.604 E22.37410
G0 F9000 X101.155 Y105.963
G1 F1200 X99.325 Y104.134 E22.50318
G0 F9000 X98.765 Y104.139
G1 F1200 X100.947 Y106.321 E22.65713
G0 F9000 X100.741 Y106.681
G1 F1200 X98.200 Y104.139 E22.83645
G0 F9000 X97.634 Y104.139
G1 F1200 X100.534 Y107.039 E23.04106
G0 F9000 X100.327 Y107.398
G1 F1200 X97.239 Y104.310 E23.25894
G0 F9000 X97.239 Y104.876
G1 F1200 X100.119 Y107.756 E23.46214
G0 F9000 X102.750 Y103.033
G1 F1200 X101.071 Y101.354 E23.58060
G0 F9000 X101.792 Y101.509
G1 F1200 X102.604 Y102.321 E23.63789
G0 F9000 X97.239 Y105.442
G1 F1200 X99.913 Y108.115 E23.82652
G0 F9000 X99.706 Y108.474
G1 F1200 X97.239 Y106.008 E24.00054
G0 F9000 X97.239 Y106.573
G1 F1200 X99.499 Y108.832 E24.15996
G0 F9000 X99.291 Y109.191
G1 F1200 X97.239 Y107.139 E24.30474
G0 F9000 X97.239 Y107.705
G1 F1200 X99.085 Y109.550 E24.43495
G0 F9000 X98.878 Y109.909
G1 F1200 X97.239 Y108.270 E24.55059
G0 F9000 X97.239 Y108.836
G1 F1200 X98.671 Y110.267 E24.65159
G0 F9000 X98.463 Y110.626
G1 F1200 X97.239 Y109.402 E24.73795
G0 F9000 X97.239 Y109.967
G1 F1200 X98.257 Y110.985 E24.80978
G0 F9000 X98.050 Y111.343
G1 F1200 X97.239 Y110.533 E24.86696
G0 F9000 X97.239 Y111.099
G1 F1200 X97.843 Y111.702 E24.90954
G0 F9000 X97.635 Y112.060
G1 F1200 X97.239 Y111.947 E24.93754
G1 X97.429 Y112.420 E24.96297
;LAYER:1
M106 S127
G1 F2400 E20.46297
G0 F9000 X100.665 Y98.324 Z0.450
;TYPE:WALL-INNER
G1 F2400 E24.96297
G1 F1500 X100.400 Y98.205 E24.97021
G1 X100.167 Y98.035 E24.97741
G1 X99.974 Y97.821 E24.98460
G1 X99.825 Y97.563 E24.99203
G1 X99.736 Y97.289 E24.99922
G1 X99.599 Y96.000 E25.03155
G1 X97.100 Y96.000 E25.09389
G1 X97.100 Y87.094 E25.31605
G1 X102.100 Y95.756 E25.56554
G1 X102.100 Y95.959 E25.57060
G1 X102.372 Y96.429 E25.58415
G1 X102.459 Y96.701 E25.59127
G1 X102.494 Y97.005 E25.59891
G1 X102.464 Y97.283 E25.60588
G1 X102.373 Y97.567 E25.61332
G1 X102.226 Y97.821 E25.62064
G1 X102.032 Y98.036 E25.62786
G1 X101.798 Y98.207 E25.63509
G1 X101.529 Y98.326 E25.64243
G1 X101.248 Y98.386 E25.64960
G1 X100.951 Y98.385 E25.65701
G1 X100.665 Y98.324 E25.66430
G0 F9000 X100.538 Y98.706
G1 F1500 X100.198 Y98.553 E25.67360
G1 X99.901 Y98.336 E25.68278
G1 X99.644 Y98.051 E25.69235
G1 X99.460 Y97.734 E25.70149
G1 X99.343 Y97.373 E25.71096
G1 X99.240 Y96.400 E25.73537
G1 X96.700 Y96.400 E25.79873
G1 X96.700 Y86.600 E26.04319
G1 X97.276 Y86.600 E26.05756
G1 X102.500 Y95.649 E26.31820
G1 X102.500 Y95.852 E26.32327
G1 X102.741 Y96.270 E26.33530
G1 X102.853 Y96.616 E26.34437
G1 X102.896 Y97.000 E26.35401
G1 X102.856 Y97.372 E26.36335
G1 X102.740 Y97.733 E26.37280
G1 X102.556 Y98.051 E26.38197
G1 X102.299 Y98.337 E26.39156
G1 X101.998 Y98.556 E26.40085
G1 X101.655 Y98.708 E26.41020
G1 X101.288 Y98.786 E26.41956
G1 X100.909 Y98.785 E26.42902
G1 X100.538 Y98.706 E26.43848
G0 F9000 X100.412 Y99.088
;TYPE:WALL-OUTER
G1 F1500 X99.999 Y98.902 E26.44978
G1 X99.630 Y98.633 E26.46117
G1 X99.320 Y98.289 E26.47272
G1 X99.092 Y97.894 E26.48410
G1 X98.950 Y97.457 E26.49556
G1 X98.880 Y96.800 E26.51204
G1 X96.300 Y96.800 E26.57640
G1 X96.300 Y86.200 E26.84082
G1 X97.508 Y86.200 E26.87095
G1 X102.900 Y95.541 E27.14000
G1 X102.900 Y95.745 E27.14509
G1 X103.109 Y96.107 E27.15551
G1 X103.245 Y96.528 E27.16655
G1 X103.299 Y97.000 E27.17840
G1 X103.250 Y97.456 E27.18984
G1 X103.109 Y97.893 E27.20130
G1 X102.880 Y98.289 E27.21271
G1 X102.570 Y98.633 E27.22426
G1 X102.198 Y98.904 E27.23574
G1 X101.779 Y99.090 E27.24718
G1 X101.328 Y99.186 E27.25868
G1 X100.867 Y99.185 E27.27018
G1 X100.412 Y99.088 E27.28178
G0 F9000 X100.666 Y98.171
;TYPE:SKIN
G1 F1500 X102.269 Y96.568 E27.33833
G0 F9000 X102.075 Y96.197
G1 F1500 X100.308 Y97.964 E27.40067
G0 F9000 X100.044 Y97.662
G1 F1500 X101.942 Y95.764 E27.46763
G0 F9000 X101.734 Y95.406
G1 F1500 X99.875 Y97.266 E27.53322
G0 F9000 X99.819 Y96.756
G1 F1500 X101.528 Y95.047 E27.59351
G0 F9000 X101.321 Y94.688
G1 F1500 X99.764 Y96.245 E27.64844
G0 F9000 X99.583 Y95.860
G1 F1500 X101.114 Y94.330 E27.70243
G0 F9000 X100.906 Y93.971
G1 F1500 X99.018 Y95.860 E27.76906
G0 F9000 X98.452 Y95.860
G1 F1500 X100.700 Y93.612 E27.84836
G0 F9000 X100.493 Y93.253
G1 F1500 X97.886 Y95.860 E27.94033
G0 F9000 X97.321 Y95.860
G1 F1500 X100.286 Y92.895 E28.04493
G0 F9000 X100.078 Y92.536
G1 F1500 X97.239 Y95.376 E28.14510
G0 F9000 X97.239 Y94.810
G1 F1500 X99.871 Y92.178 E28.23795
G0 F9000 X99.665 Y91.819
G1 F1500 X97.239 Y94.245 E28.32353
G0 F9000 X97.239 Y93.679
G1 F1500 X99.458 Y91.460 E28.40181
G0 F9000 X99.250 Y91.102
G1 F1500 X97.239 Y93.113 E28.47276
G0 F9000 X97.239 Y92.548
G1 F1500 X99.043 Y90.743 E28.53642
G0 F9000 X98.837 Y90.384
G1 F1500 X97.239 Y91.982 E28.59279
G0 F9000 X97.239 Y91.416
G1 F1500 X98.630 Y90.026 E28.64184
G0 F9000 X98.422 Y89.667
G1 F1500 X97.239 Y90.851 E28.68360
G0 F9000 X97.239 Y90.285
G1 F1500 X98.215 Y89.309 E28.71803
G0 F9000 X98.009 Y88.949
G1 F1500 X97.239 Y89.719 E28.74519
G0 F9000 X97.239 Y89.154
G1 F1500 X97.698 Y88.411 E28.76502
G1 X97.239 Y88.305 E28.77753
G1 X97.387 Y87.874 E28.78890
G0 F9000 X102.346 Y97.057
G1 F1500 X101.157 Y98.246 E28.83084
G1 F2400 E24.33084
G0 F9000 X101.287 Y101.215
;TYPE:WALL-INNER
G1 F2400 E28.83084
G1 F1500 X101.653 Y101.293 E28.84018
G1 X101.997 Y101.446 E28.84957
G1 X102.299 Y101.665 E28.85888
G1 X102.542 Y101.935 E28.86794
G1 X102.729 Y102.254 E28.87716
G1 X102.856 Y102.633 E28.88713
G1 X102.895 Y103.000 E28.89634
G1 X102.866 Y103.270 E28.90311
G1 X102.452 Y103.996 E28.92396
G1 X97.256 Y113.000 E29.18328
G1 X97.100 Y113.000 E29.18717
G1 X97.100 Y104.000 E29.41168
G1 X99.200 Y104.000 E29.46406
G1 X99.345 Y102.627 E29.49850
G1 X99.461 Y102.271 E29.50784
G1 X99.639 Y101.963 E29.51672
G1 X99.904 Y101.663 E29.52670
G1 X100.202 Y101.446 E29.53590
G1 X100.547 Y101.293 E29.54531
G1 X100.913 Y101.215 E29.55465
G1 X101.287 Y101.215 E29.56398
G0 F9000 X101.328 Y100.815
G1 F1500 X101.780 Y100.911 E29.57550
G1 X102.198 Y101.097 E29.58692
G1 X102.567 Y101.366 E29.59831
G1 X102.865 Y101.696 E29.60940
G1 X103.097 Y102.090 E29.62080
G1 X103.248 Y102.543 E29.63272
G1 X103.296 Y102.999 E29.64415
G1 X103.254 Y103.396 E29.65411
G1 X103.048 Y103.764 E29.66463
G1 X97.487 Y113.400 E29.94216
G1 X96.700 Y113.400 E29.96179
G1 X96.700 Y103.600 E30.20625
G1 X98.840 Y103.600 E30.25964
G1 X98.951 Y102.547 E30.28605
G1 X99.095 Y102.106 E30.29762
G1 X99.314 Y101.725 E30.30858
G1 X99.633 Y101.366 E30.32056
G1 X100.002 Y101.097 E30.33195
G1 X100.420 Y100.911 E30.34337
G1 X100.872 Y100.815 E30.35489
G1 X101.328 Y100.815 E30.36627
G0 F9000 X101.369 Y100.415
;TYPE:WALL-OUTER
G1 F1500 X101.904 Y100.529 E30.37991
G1 X102.398 Y100.749 E30.39340
G1 X102.838 Y101.069 E30.40697
G1 X103.191 Y101.459 E30.42010
G1 X103.462 Y101.921 E30.43346
G1 X103.641 Y102.460 E30.44763
G1 X103.699 Y103.000 E30.46117
G1 X103.643 Y103.519 E30.47419
G1 X103.397 Y103.959 E30.48677
G1 X97.718 Y113.800 E30.77020
G1 X96.300 Y113.800 E30.80557
G1 X96.300 Y103.200 E31.06999
G1 X98.480 Y103.200 E31.12437
G1 X98.557 Y102.466 E31.14278
G1 X98.726 Y101.945 E31.15644
G1 X98.985 Y101.494 E31.16941
G1 X99.360 Y101.072 E31.18350
G1 X99.802 Y100.749 E31.19715
G1 X100.296 Y100.529 E31.21064
G1 X100.831 Y100.415 E31.22429
G1 X101.369 Y100.415 E31.23771
G0 F9000 X101.413 Y101.384
;TYPE:SKIN
G1 F1500 X99.405 Y103.392 E31.30855
G0 F9000 X99.338 Y104.025
G1 F1500 X101.836 Y101.527 E31.39667
G0 F9000 X102.178 Y101.751
G1 F1500 X97.240 Y106.688 E31.57085
G0 F9000 X97.240 Y106.123
G1 F1500 X99.224 Y104.139 E31.64084
G0 F9000 X98.658 Y104.139
G1 F1500 X97.240 Y105.557 E31.69087
G0 F9000 X97.240 Y104.991
G1 F1500 X98.092 Y104.139 E31.72092
G0 F9000 X97.526 Y104.139
G1 F1500 X97.240 Y104.426 E31.73103
G0 F9000 X98.793 Y103.548
G0 X99.472 Y102.759
G1 F1500 X100.863 Y101.368 E31.78010
G0 F9000 X102.445 Y102.049
G1 F1500 X97.240 Y107.254 E31.96372
G0 F9000 X97.240 Y107.820
G1 F1500 X102.636 Y102.424 E32.15408
G0 F9000 X102.741 Y102.884
G1 F1500 X97.240 Y108.386 E32.34816
G0 F9000 X97.240 Y108.951
G1 F1500 X102.406 Y103.786 E32.53039
G0 F9000 X101.635 Y105.122
G1 F1500 X97.240 Y109.517 E32.68543
G0 F9000 X97.240 Y110.083
G1 F1500 X100.865 Y106.457 E32.81333
G0 F9000 X100.095 Y107.794
G1 F1500 X97.240 Y110.648 E32.91403
G0 F9000 X97.240 Y111.214
G1 F1500 X99.325 Y109.129 E32.98759
G0 F9000 X98.555 Y110.465
