;Generated from RAMBo-doors.stl 8746ada70e9470bee35dbde9d2645e8e0972250a
;Generated with Cura_SteamEngine 15.04
M140 S55.0
M109 T0 S210.0
T0
M190 S55.0

;Basic settings: Layer height: 0.15 Walls: 1.2 Fill: 50
;Print time: ?print_time?
;Filament used: ?filament_amount?m ?filament_weight?g
;Filament cost: ?filament_cost?
;M190 S55 ;Uncomment to add your own bed temperature line
;M109 S210 ;Uncomment to add your own temperature line
G21        ;metric values
G90        ;absolute positioning
M82        ;set extruder to absolute mode
M107       ;start with the fan off
G28 X0 Y0  ;move X/Y to min endstops
G28 Z0     ;move Z to min endstops
G1 Z5.0 F9000 ;move the platform down 15mm
G92 E0                  ;zero the extruded length
G1 F200 E3              ;extrude 3mm of feed stock
G92 E0                  ;zero the extruded length again
G1 F9000
;Put printing message on LCD screen
M117 Printing...

;Layer count: 132
;LAYER:0
M107
G0 F9000 X61.362 Y50.813 Z0.300
;TYPE:SKIRT
G1 F1200 X155.950 Y50.813 E4.71901
G1 X155.950 Y146.038 E9.46981
G1 X65.550 Y146.038 E13.97988
G1 X65.550 Y144.713 E14.04599
G1 X44.050 Y144.713 E15.11863
G1 X44.050 Y68.127 E18.93952
G1 X61.362 Y50.813 E20.16104
G1 F2400 E15.66104
G0 F9000 X63.102 Y55.013
;TYPE:WALL-INNER
G1 F2400 E20.16104
G1 F1200 X151.750 Y55.013 E24.58371
G1 X151.750 Y141.838 E28.91543
G1 X69.750 Y141.838 E33.00642
G1 X69.750 Y140.513 E33.07253
G1 X48.250 Y140.513 E34.14517
G1 X48.250 Y69.866 E37.66976
G1 X63.102 Y55.013 E38.71769
G0 F9000 X92.250 Y63.513
G1 F1200 X92.250 Y84.513 E39.76538
G1 X147.400 Y84.513 E42.51682
G1 X147.400 Y63.513 E43.56452
G1 X92.250 Y63.513 E46.31596
G0 F9000 X92.250 Y88.513
G1 F1200 X92.250 Y109.513 E47.36366
G1 X147.400 Y109.513 E50.11510
G1 X147.400 Y88.513 E51.16280
G1 X92.250 Y88.513 E53.91424
G0 F9000 X92.250 Y113.513
G1 F1200 X92.250 Y134.513 E54.96194
G1 X147.400 Y134.513 E57.71338
G1 X147.400 Y113.513 E58.76107
G1 X92.250 Y113.513 E61.51252
G0 F9000 X92.650 Y113.913
G1 F1200 X92.650 Y134.113 E62.52030
G1 X97.500 Y134.113 E62.76227
G1 X97.500 Y113.913 E63.77005
G1 X92.650 Y113.913 E64.01202
G0 F9000 X92.650 Y109.113
G1 F1200 X97.500 Y109.113 E64.25399
G1 X97.500 Y88.913 E65.26177
G1 X92.650 Y88.913 E65.50373
G1 X92.650 Y109.113 E66.51152
G0 F9000 X98.150 Y109.113
G1 F1200 X103.000 Y109.113 E66.75348
G1 X103.000 Y88.913 E67.76127
G1 X98.150 Y88.913 E68.00323
G1 X98.150 Y109.113 E69.01102
G0 F9000 X98.150 Y113.913
G1 F1200 X98.150 Y134.113 E70.01880
G1 X103.000 Y134.113 E70.26077
G1 X103.000 Y113.913 E71.26855
G1 X98.150 Y113.913 E71.51052
G0 F9000 X103.650 Y113.913
G1 F1200 X103.650 Y134.113 E72.51830
G1 X108.500 Y134.113 E72.76026
G1 X108.500 Y113.913 E73.76805
G1 X103.650 Y113.913 E74.01001
G0 F9000 X103.650 Y109.113
G1 F1200 X108.500 Y109.113 E74.25198
G1 X108.500 Y88.913 E75.25976
G1 X103.650 Y88.913 E75.50173
G1 X103.650 Y109.113 E76.50951
G0 F9000 X109.150 Y109.113
G1 F1200 X114.000 Y109.113 E76.75148
G1 X114.000 Y88.913 E77.75926
G1 X109.150 Y88.913 E78.00123
G1 X109.150 Y109.113 E79.00901
G0 F9000 X109.150 Y113.913
G1 F1200 X109.150 Y134.113 E80.01679
G1 X114.000 Y134.113 E80.25876
G1 X114.000 Y113.913 E81.26654
G1 X109.150 Y113.913 E81.50851
G0 F9000 X114.650 Y113.913
G1 F1200 X114.650 Y134.113 E82.51629
G1 X119.500 Y134.113 E82.75826
G1 X119.500 Y113.913 E83.76604
G1 X114.650 Y113.913 E84.00801
G0 F9000 X114.650 Y109.113
G1 F1200 X119.500 Y109.113 E84.24998
G1 X119.500 Y88.913 E85.25776
G1 X114.650 Y88.913 E85.49973
G1 X114.650 Y109.113 E86.50751
G0 F9000 X120.150 Y109.113
G1 F1200 X125.000 Y109.113 E86.74948
G1 X125.000 Y88.913 E87.75726
G1 X120.150 Y88.913 E87.99923
G1 X120.150 Y109.113 E89.00701
G0 F9000 X120.150 Y113.913
G1 F1200 X120.150 Y134.113 E90.01479
G1 X125.000 Y134.113 E90.25676
G1 X125.000 Y113.913 E91.26454
G1 X120.150 Y113.913 E91.50651
G0 F9000 X125.650 Y113.913
G1 F1200 X125.650 Y134.113 E92.51429
G1 X130.500 Y134.113 E92.75626
G1 X130.500 Y113.913 E93.76404
G1 X125.650 Y113.913 E94.00601
G0 F9000 X125.650 Y109.113
G1 F1200 X130.500 Y109.113 E94.24798
G1 X130.500 Y88.913 E95.25576
G1 X125.650 Y88.913 E95.49772
G1 X125.650 Y109.113 E96.50551
G0 F9000 X131.150 Y109.113
G1 F1200 X136.000 Y109.113 E96.74747
G1 X136.000 Y88.913 E97.75526
G1 X131.150 Y88.913 E97.99722
G1 X131.150 Y109.113 E99.00501
G0 F9000 X131.150 Y113.913
G1 F1200 X131.150 Y134.113 E100.01279
G1 X136.000 Y134.113 E100.25476
G1 X136.000 Y113.913 E101.26254
G1 X131.150 Y113.913 E101.50451
G0 F9000 X136.650 Y113.913
G1 F1200 X136.650 Y134.113 E102.51229
G1 X141.500 Y134.113 E102.75425
G1 X141.500 Y113.913 E103.76204
G1 X136.650 Y113.913 E104.00400
G0 F9000 X136.650 Y109.113
G1 F1200 X141.500 Y109.113 E104.24597
G1 X141.500 Y88.913 E105.25375
G1 X136.650 Y88.913 E105.49572
G1 X136.650 Y109.113 E106.50350
G0 F9000 X142.150 Y109.113
G1 F1200 X147.000 Y109.113 E106.74547
G1 X147.000 Y88.913 E107.75325
G1 X142.150 Y88.913 E107.99522
G1 X142.150 Y109.113 E109.00300
G0 F9000 X142.150 Y113.913
G1 F1200 X142.150 Y134.113 E110.01078
G1 X147.000 Y134.113 E110.25275
G1 X147.000 Y113.913 E111.26053
G1 X142.150 Y113.913 E111.50250
G0 F9000 X142.150 Y84.113
G1 F1200 X147.000 Y84.113 E111.74447
G1 X147.000 Y63.913 E112.75225
G1 X142.150 Y63.913 E112.99422
G1 X142.150 Y84.113 E114.00200
G0 F9000 X141.500 Y84.113
G1 F1200 X141.500 Y63.913 E115.00978
G1 X136.650 Y63.913 E115.25175
G1 X136.650 Y84.113 E116.25953
G1 X141.500 Y84.113 E116.50150
G0 F9000 X136.000 Y84.113
G1 F1200 X136.000 Y63.913 E117.50928
G1 X131.150 Y63.913 E117.75125
G1 X131.150 Y84.113 E118.75903
G1 X136.000 Y84.113 E119.00100
G0 F9000 X130.500 Y84.113
G1 F1200 X130.500 Y63.913 E120.00878
G1 X125.650 Y63.913 E120.25075
G1 X125.650 Y84.113 E121.25853
G1 X130.500 Y84.113 E121.50050
G0 F9000 X125.000 Y84.113
G1 F1200 X125.000 Y63.913 E122.50828
G1 X120.150 Y63.913 E122.75025
G1 X120.150 Y84.113 E123.75803
G1 X125.000 Y84.113 E124.00000
G0 F9000 X119.500 Y84.113
G1 F1200 X119.500 Y63.913 E125.00778
G1 X114.650 Y63.913 E125.24975
G1 X114.650 Y84.113 E126.25753
G1 X119.500 Y84.113 E126.49950
G0 F9000 X114.000 Y84.113
G1 F1200 X114.000 Y63.913 E127.50728
G1 X109.150 Y63.913 E127.74925
G1 X109.150 Y84.113 E128.75703
G1 X114.000 Y84.113 E128.99900
G0 F9000 X108.500 Y84.113
G1 F1200 X108.500 Y63.913 E130.00678
G1 X103.650 Y63.913 E130.24875
G1 X103.650 Y84.113 E131.25653
G1 X108.500 Y84.113 E131.49849
G0 F9000 X103.000 Y84.113
G1 F1200 X103.000 Y63.913 E132.50628
G1 X98.150 Y63.913 E132.74824
G1 X98.150 Y84.113 E133.75603
G1 X103.000 Y84.113 E133.99799
G0 F9000 X97.500 Y84.113
G1 F1200 X97.500 Y63.913 E135.00578
G1 X92.650 Y63.913 E135.24774
G1 X92.650 Y84.113 E136.25553
G1 X97.500 Y84.113 E136.49749
G0 F9000 X92.709 Y84.054
G0 X62.936 Y54.613
G1 F1200 X152.150 Y54.613 E140.94840
G1 X152.150 Y142.238 E145.32003
G1 X69.350 Y142.238 E149.45094
G1 X69.350 Y140.913 E149.51704
G1 X47.850 Y140.913 E150.58968
G1 X47.850 Y69.700 E154.14251
G1 X62.936 Y54.613 E155.20694
G0 F9000 X62.770 Y54.213
;TYPE:WALL-OUTER
G1 F1200 X152.550 Y54.213 E159.68609
G1 X152.550 Y142.638 E164.09763
G1 X68.950 Y142.638 E168.26845
G1 X68.950 Y141.313 E168.33455
G1 X47.450 Y141.313 E169.40719
G1 X47.450 Y69.534 E172.98826
G1 X62.770 Y54.213 E174.06921
G0 F9000 X62.864 Y54.513
G0 X93.050 Y64.013
G0 X93.050 Y64.313
G1 F1200 X93.050 Y83.713 E175.03708
G1 X97.100 Y83.713 E175.23913
G1 X97.100 Y64.313 E176.20700
G1 X93.050 Y64.313 E176.40906
G0 F9000 X93.050 Y64.013
G0 X98.550 Y64.013
G0 X98.550 Y64.313
G1 F1200 X98.550 Y83.713 E177.37693
G1 X102.600 Y83.713 E177.57898
G1 X102.600 Y64.313 E178.54685
G1 X98.550 Y64.313 E178.74891
G0 F9000 X98.550 Y64.013
G0 X104.050 Y64.013
G0 X104.050 Y64.313
G1 F1200 X104.050 Y83.713 E179.71678
G1 X108.100 Y83.713 E179.91883
G1 X108.100 Y64.313 E180.88670
G1 X104.050 Y64.313 E181.08876
G0 F9000 X104.050 Y64.013
G0 X109.550 Y64.013
G0 X109.550 Y64.313
G1 F1200 X109.550 Y83.713 E182.05663
G1 X113.600 Y83.713 E182.25868
G1 X113.600 Y64.313 E183.22655
G1 X109.550 Y64.313 E183.42861
G0 F9000 X109.550 Y64.013
G0 X115.050 Y64.013
G0 X115.050 Y64.313
G1 F1200 X115.050 Y83.713 E184.39648
G1 X119.100 Y83.713 E184.59853
G1 X119.100 Y64.313 E185.56640
G1 X115.050 Y64.313 E185.76846
G0 F9000 X115.050 Y64.013
G0 X120.550 Y64.013
G0 X120.550 Y64.313
G1 F1200 X120.550 Y83.713 E186.73633
G1 X124.600 Y83.713 E186.93838
G1 X124.600 Y64.313 E187.90625
G1 X120.550 Y64.313 E188.10831
G0 F9000 X120.550 Y64.013
G0 X126.050 Y64.013
G0 X126.050 Y64.313
G1 F1200 X126.050 Y83.713 E189.07618
G1 X130.100 Y83.713 E189.27823
G1 X130.100 Y64.313 E190.24610
G1 X126.050 Y64.313 E190.44816
G0 F9000 X126.050 Y64.013
G0 X131.550 Y64.013
G0 X131.550 Y64.313
G1 F1200 X131.550 Y83.713 E191.41603
G1 X135.600 Y83.713 E191.61808
G1 X135.600 Y64.313 E192.58595
G1 X131.550 Y64.313 E192.78801
G0 F9000 X131.550 Y64.013
G0 X137.050 Y64.013
G0 X137.050 Y64.313
G1 F1200 X137.050 Y83.713 E193.75588
G1 X141.100 Y83.713 E193.95793
G1 X141.100 Y64.313 E194.92580
G1 X137.050 Y64.313 E195.12786
G0 F9000 X137.050 Y64.013
G0 X142.550 Y64.013
G0 X142.550 Y64.313
G1 F1200 X142.550 Y83.713 E196.09573
G1 X146.600 Y83.713 E196.29779
G1 X146.600 Y64.313 E197.26566
G1 X142.550 Y64.313 E197.46771
G0 F9000 X142.550 Y64.013
G0 X146.941 Y63.972
G0 X146.941 Y84.054
G0 X142.550 Y89.013
G0 X142.550 Y89.313
G1 F1200 X142.550 Y108.713 E198.43558
G1 X146.600 Y108.713 E198.63764
G1 X146.600 Y89.313 E199.60551
G1 X142.550 Y89.313 E199.80756
G0 F9000 X141.100 Y89.313
G1 F1200 X137.050 Y89.313 E200.00962
G1 X137.050 Y108.713 E200.97749
G1 X141.100 Y108.713 E201.17954
G1 X141.100 Y89.313 E202.14741
G0 F9000 X141.100 Y89.013
G0 X135.600 Y89.013
G0 X135.600 Y89.313
G1 F1200 X131.550 Y89.313 E202.34947
G1 X131.550 Y108.713 E203.31734
G1 X135.600 Y108.713 E203.51939
G1 X135.600 Y89.313 E204.48726
G0 F9000 X135.600 Y89.013
G0 X130.100 Y89.013
G0 X130.100 Y89.313
G1 F1200 X126.050 Y89.313 E204.68932
G1 X126.050 Y108.713 E205.65719
G1 X130.100 Y108.713 E205.85924
G1 X130.100 Y89.313 E206.82711
G0 F9000 X130.100 Y89.013
G0 X124.600 Y89.013
G0 X124.600 Y89.313
G1 F1200 X120.550 Y89.313 E207.02917
G1 X120.550 Y108.713 E207.99704
G1 X124.600 Y108.713 E208.19909
G1 X124.600 Y89.313 E209.16696
G0 F9000 X124.600 Y89.013
G0 X119.100 Y89.013
G0 X119.100 Y89.313
G1 F1200 X115.050 Y89.313 E209.36902
G1 X115.050 Y108.713 E210.33689
G1 X119.100 Y108.713 E210.53894
G1 X119.100 Y89.313 E211.50681
G0 F9000 X119.100 Y89.013
G0 X113.600 Y89.013
G0 X113.600 Y89.313
G1 F1200 X109.550 Y89.313 E211.70887
G1 X109.550 Y108.713 E212.67674
G1 X113.600 Y108.713 E212.87879
G1 X113.600 Y89.313 E213.84666
G0 F9000 X113.600 Y89.013
G0 X108.100 Y89.013
G0 X108.100 Y89.313
G1 F1200 X104.050 Y89.313 E214.04872
G1 X104.050 Y108.713 E215.01659
G1 X108.100 Y108.713 E215.21864
G1 X108.100 Y89.313 E216.18651
G0 F9000 X108.100 Y89.013
G0 X102.600 Y89.013
G0 X102.600 Y89.313
G1 F1200 X98.550 Y89.313 E216.38857
G1 X98.550 Y108.713 E217.35644
G1 X102.600 Y108.713 E217.55850
G1 X102.600 Y89.313 E218.52637
G0 F9000 X102.600 Y89.013
G0 X97.100 Y89.013
G0 X97.100 Y89.313
G1 F1200 X93.050 Y89.313 E218.72842
G1 X93.050 Y108.713 E219.69629
G1 X97.100 Y108.713 E219.89835
G1 X97.100 Y89.313 E220.86622
G0 F9000 X97.100 Y89.013
G0 X97.441 Y88.972
G0 X97.441 Y109.054
G0 X97.100 Y114.013
G0 X97.100 Y114.313
G1 F1200 X93.050 Y114.313 E221.06827
G1 X93.050 Y133.713 E222.03614
G1 X97.100 Y133.713 E222.23820
G1 X97.100 Y114.313 E223.20607
G0 F9000 X98.550 Y114.313
G1 F1200 X98.550 Y133.713 E224.17394
G1 X102.600 Y133.713 E224.37599
G1 X102.600 Y114.313 E225.34386
G1 X98.550 Y114.313 E225.54592
G0 F9000 X98.550 Y114.013
G0 X104.050 Y114.013
G0 X104.050 Y114.313
G1 F1200 X104.050 Y133.713 E226.51379
G1 X108.100 Y133.713 E226.71584
G1 X108.100 Y114.313 E227.68371
G1 X104.050 Y114.313 E227.88577
G0 F9000 X104.050 Y114.013
G0 X109.550 Y114.013
G0 X109.550 Y114.313
G1 F1200 X109.550 Y133.713 E228.85364
G1 X113.600 Y133.713 E229.05569
G1 X113.600 Y114.313 E230.02356
G1 X109.550 Y114.313 E230.22562
G0 F9000 X109.550 Y114.013
G0 X115.050 Y114.013
G0 X115.050 Y114.313
G1 F1200 X115.050 Y133.713 E231.19349
G1 X119.100 Y133.713 E231.39554
G1 X119.100 Y114.313 E232.36341
G1 X115.050 Y114.313 E232.56547
G0 F9000 X115.050 Y114.013
G0 X120.550 Y114.013
G0 X120.550 Y114.313
G1 F1200 X120.550 Y133.713 E233.53334
G1 X124.600 Y133.713 E233.73539
G1 X124.600 Y114.313 E234.70326
G1 X120.550 Y114.313 E234.90532
G0 F9000 X120.550 Y114.013
G0 X126.050 Y114.013
G0 X126.050 Y114.313
G1 F1200 X126.050 Y133.713 E235.87319
G1 X130.100 Y133.713 E236.07524
G1 X130.100 Y114.313 E237.04311
G1 X126.050 Y114.313 E237.24517
G0 F9000 X126.050 Y114.013
G0 X131.550 Y114.013
G0 X131.550 Y114.313
G1 F1200 X131.550 Y133.713 E238.21304
G1 X135.600 Y133.713 E238.41509
G1 X135.600 Y114.313 E239.38296
G1 X131.550 Y114.313 E239.58502
G0 F9000 X131.550 Y114.013
G0 X137.050 Y114.013
G0 X137.050 Y114.313
G1 F1200 X137.050 Y133.713 E240.55289
G1 X141.100 Y133.713 E240.75494
G1 X141.100 Y114.313 E241.72281
G1 X137.050 Y114.313 E241.92487
G0 F9000 X137.050 Y114.013
G0 X142.550 Y114.013
G0 X142.550 Y114.313
G1 F1200 X142.550 Y133.713 E242.89274
G1 X146.600 Y133.713 E243.09480
G1 X146.600 Y114.313 E244.06267
G1 X142.550 Y114.313 E244.26472
G0 F9000 X142.505 Y113.372
;TYPE:SKIN
G1 F1200 X138.785 Y109.652 E244.52719
G0 F9000 X139.350 Y109.652
G1 F1200 X143.071 Y113.372 E244.78969
G0 F9000 X143.636 Y113.372
G1 F1200 X139.916 Y109.652 E245.05215
G0 F9000 X138.219 Y109.652
G1 F1200 X141.939 Y113.372 E245.31462
G0 F9000 X141.373 Y113.372
G1 F1200 X137.653 Y109.652 E245.57709
G0 F9000 X137.088 Y109.652
G1 F1200 X140.808 Y113.372 E245.83955
G0 F9000 X140.242 Y113.372
G1 F1200 X136.522 Y109.652 E246.10202
G0 F9000 X135.956 Y109.652
G1 F1200 X139.676 Y113.372 E246.36448
G0 F9000 X139.111 Y113.372
G1 F1200 X135.391 Y109.652 E246.62695
G0 F9000 X134.825 Y109.652
G1 F1200 X138.545 Y113.372 E246.88942
G0 F9000 X137.979 Y113.372
G1 F1200 X134.259 Y109.652 E247.15188
G0 F9000 X133.694 Y109.652
G1 F1200 X137.414 Y113.372 E247.41435
G0 F9000 X136.848 Y113.372
G1 F1200 X133.128 Y109.652 E247.67682
G0 F9000 X132.562 Y109.652
G1 F1200 X136.282 Y113.372 E247.93928
G0 F9000 X135.717 Y113.372
G1 F1200 X131.997 Y109.652 E248.20175
G0 F9000 X131.431 Y109.652
G1 F1200 X135.151 Y113.372 E248.46421
G0 F9000 X134.585 Y113.372
G1 F1200 X130.865 Y109.652 E248.72668
G0 F9000 X130.299 Y109.652
G1 F1200 X134.020 Y113.372 E248.98918
G0 F9000 X133.454 Y113.372
G1 F1200 X129.734 Y109.652 E249.25165
G0 F9000 X129.168 Y109.652
G1 F1200 X132.888 Y113.372 E249.51411
G0 F9000 X132.323 Y113.372
G1 F1200 X128.602 Y109.652 E249.77661
G0 F9000 X128.037 Y109.652
G1 F1200 X131.757 Y113.372 E250.03908
G0 F9000 X131.191 Y113.372
G1 F1200 X127.471 Y109.652 E250.30155
G0 F9000 X126.905 Y109.652
G1 F1200 X130.625 Y113.372 E250.56401
G0 F9000 X130.060 Y113.372
G1 F1200 X126.340 Y109.652 E250.82648
G0 F9000 X125.774 Y109.652
G1 F1200 X129.494 Y113.372 E251.08894
G0 F9000 X128.928 Y113.372
G1 F1200 X125.208 Y109.652 E251.35141
G0 F9000 X124.643 Y109.652
G1 F1200 X128.363 Y113.372 E251.61388
G0 F9000 X127.797 Y113.372
G1 F1200 X124.077 Y109.652 E251.87634
G0 F9000 X123.511 Y109.652
G1 F1200 X127.231 Y113.372 E252.13881
G0 F9000 X126.666 Y113.372
G1 F1200 X122.946 Y109.652 E252.40128
G0 F9000 X122.380 Y109.652
G1 F1200 X126.100 Y113.372 E252.66374
G0 F9000 X125.534 Y113.372
G1 F1200 X121.814 Y109.652 E252.92621
G0 F9000 X121.249 Y109.652
G1 F1200 X124.969 Y113.372 E253.18867
G0 F9000 X124.403 Y113.372
G1 F1200 X120.683 Y109.652 E253.45114
G0 F9000 X120.117 Y109.652
G1 F1200 X123.837 Y113.372 E253.71361
G0 F9000 X123.272 Y113.372
G1 F1200 X119.551 Y109.652 E253.97611
G0 F9000 X118.986 Y109.652
G1 F1200 X122.706 Y113.372 E254.23857
G0 F9000 X122.140 Y113.372
G1 F1200 X118.420 Y109.652 E254.50104
G0 F9000 X117.854 Y109.652
G1 F1200 X121.574 Y113.372 E254.76351
G0 F9000 X121.009 Y113.372
G1 F1200 X117.289 Y109.652 E255.02597
G0 F9000 X116.723 Y109.652
G1 F1200 X120.443 Y113.372 E255.28844
G0 F9000 X119.877 Y113.372
G1 F1200 X116.157 Y109.652 E255.55090
G0 F9000 X115.592 Y109.652
G1 F1200 X119.312 Y113.372 E255.81337
G0 F9000 X118.746 Y113.372
