;Generated from spool_holdahMK3.stl 678e40986c39023f4d1f7e5a9085bbb6474862d9
;Generated with Cura_SteamEngine 15.04
M140 S55.0
M109 T0 S210.0
T0
M190 S55.0

;Basic settings: Layer height: 0.15 Walls: 1.2 Fill: 50
;Print time: ?print_time?
;Filament used: ?filament_amount?m ?filament_weight?g
;Filament cost: ?filament_cost?
;M190 S55 ;Uncomment to add your own bed temperature line
;M109 S210 ;Uncomment to add your own temperature line
G21        ;metric values
G90        ;absolute positioning
M82        ;set extruder to absolute mode
M107       ;start with the fan off
G28 X0 Y0  ;move X/Y to min endstops
G28 Z0     ;move Z to min endstops
G1 Z5.0 F9000 ;move the platform down 15mm
G92 E0                  ;zero the extruded length
G1 F200 E3              ;extrude 3mm of feed stock
G92 E0                  ;zero the extruded length again
G1 F9000
;Put printing message on LCD screen
M117 Printing...

;Layer count: 118
;LAYER:0
M107
G0 F9000 X92.772 Y91.108 Z0.300
;TYPE:SKIRT
G1 F1200 X103.953 Y126.351 E1.84465
G1 X118.117 Y152.177 E3.31416
G1 X92.772 Y91.108 E6.61288
G0 F9000 X112.336 Y70.170
G1 F1200 X149.067 Y155.059 E11.22747
G1 X150.683 Y156.424 E11.33301
G1 X152.404 Y158.615 E11.47200
G1 X152.653 Y158.932 E11.49212
G1 X153.900 Y161.433 E11.63154
G1 X154.079 Y161.791 E11.65151
G1 X154.790 Y164.475 E11.79003
G1 X154.898 Y164.870 E11.81046
G1 X155.052 Y167.670 E11.95037
G1 X155.074 Y168.069 E11.97030
G1 X154.660 Y170.843 E12.11023
G1 X154.599 Y171.236 E12.13007
G1 X153.639 Y173.852 E12.26910
G1 X153.501 Y174.228 E12.28908
G1 X152.025 Y176.604 E12.42863
G1 X151.815 Y176.942 E12.44848
G1 X149.886 Y178.976 E12.58834
G1 X149.609 Y179.264 E12.60827
G1 X146.997 Y181.082 E12.76704
G1 X144.062 Y182.339 E12.92633
G1 X140.932 Y182.978 E13.08571
G1 X137.738 Y182.969 E13.24506
G1 X134.613 Y182.315 E13.40435
G1 X133.558 Y181.857 E13.46173
G1 X134.237 Y185.697 E13.65628
G1 X134.586 Y187.647 E13.75511
G1 X123.253 Y197.497 E14.50422
G1 X117.389 Y190.753 E14.95009
G1 X115.189 Y188.209 E15.11788
G1 X121.221 Y182.966 E15.51661
G1 X101.933 Y160.778 E16.98336
G1 X93.017 Y168.527 E17.57271
G1 X85.459 Y158.609 E18.19481
G1 X84.850 Y157.808 E18.24502
G1 X81.861 Y142.671 E19.01479
G1 X81.860 Y142.671 E19.01484
G1 X81.815 Y142.447 E19.02623
G1 X49.825 Y46.612 E24.06680
G1 X48.636 Y45.400 E24.15151
G1 X48.344 Y45.107 E24.17214
G1 X46.818 Y42.741 E24.31261
G1 X46.603 Y42.404 E24.33255
G1 X45.597 Y39.802 E24.47173
G1 X45.453 Y39.431 E24.49158
G1 X44.994 Y36.671 E24.63117
G1 X44.995 Y36.671 E24.63122
G1 X44.929 Y36.282 E24.65091
G1 X45.037 Y33.481 E24.79075
G1 X45.053 Y33.083 E24.81062
G1 X45.724 Y30.360 E24.95054
G1 X45.823 Y29.972 E24.97052
G1 X47.022 Y27.464 E25.10921
G1 X47.192 Y27.106 E25.12898
G1 X48.889 Y24.868 E25.26910
G1 X49.134 Y24.551 E25.28909
G1 X51.529 Y22.459 E25.44774
G1 X54.310 Y20.887 E25.60712
G1 X57.350 Y19.911 E25.76641
G1 X60.526 Y19.567 E25.92579
G1 X63.705 Y19.874 E26.08512
G1 X66.757 Y20.817 E26.24449
G1 X69.554 Y22.359 E26.40384
G1 X71.983 Y24.432 E26.56315
G1 X73.700 Y26.644 E26.70285
G1 X73.944 Y26.960 E26.72277
G1 X75.173 Y29.461 E26.86180
G1 X75.350 Y29.820 E26.88177
G1 X76.051 Y32.529 E27.02137
G1 X76.150 Y32.915 E27.04125
G1 X76.288 Y35.686 E27.17967
G1 X76.311 Y36.095 E27.20011
G1 X75.985 Y38.194 E27.30608
G1 X78.309 Y45.519 E27.68948
G1 X88.228 Y45.519 E28.18434
G1 X88.228 Y16.119 E29.65111
G1 X80.228 Y16.119 E30.05024
G1 X80.228 Y3.818 E30.66393
G1 X95.240 Y3.818 E31.41289
G1 X99.084 Y10.225 E31.78565
G1 X99.442 Y10.820 E31.82029
G1 X112.336 Y70.170 E34.85035
G1 F2400 E30.35035
G0 F9000 X71.683 Y38.524
;TYPE:WALL-INNER
G1 F2400 E34.85035
G1 F1200 X100.074 Y128.013 E39.53427
G1 X129.144 Y181.017 E42.55025
G1 X130.032 Y186.040 E42.80474
G1 X123.668 Y191.572 E43.22543
G1 X121.109 Y188.629 E43.42000
G1 X127.146 Y183.381 E43.81908
G1 X99.527 Y151.607 E45.91945
G1 X93.337 Y156.987 E46.32861
G1 X96.158 Y160.232 E46.54313
G1 X93.643 Y162.419 E46.70941
G1 X88.782 Y156.040 E47.10953
G1 X85.885 Y141.374 E47.85535
G1 X53.502 Y44.364 E52.95773
G1 X51.629 Y42.452 E53.09127
G1 X50.369 Y40.498 E53.20726
G1 X49.524 Y38.311 E53.32423
G1 X49.142 Y36.011 E53.44055
G1 X49.232 Y33.680 E53.55693
G1 X49.790 Y31.411 E53.67351
G1 X50.797 Y29.303 E53.79006
G1 X52.208 Y27.443 E53.90654
G1 X53.968 Y25.906 E54.02311
G1 X56.005 Y24.754 E54.13986
G1 X58.228 Y24.040 E54.25635
G1 X60.550 Y23.789 E54.37287
G1 X62.875 Y24.013 E54.48940
G1 X65.102 Y24.702 E54.60570
G1 X67.153 Y25.831 E54.72251
G1 X68.930 Y27.348 E54.83907
G1 X70.362 Y29.193 E54.95559
G1 X71.391 Y31.287 E55.07199
G1 X71.976 Y33.547 E55.18846
G1 X72.093 Y35.888 E55.30540
G1 X71.683 Y38.524 E55.43849
G0 F9000 X72.092 Y38.492
G1 F1200 X100.444 Y127.855 E60.11584
G1 X129.526 Y180.883 E63.13316
G1 X130.465 Y186.193 E63.40218
G1 X123.628 Y192.136 E63.85413
G1 X120.545 Y188.589 E64.08860
G1 X126.581 Y183.341 E64.48764
G1 X99.487 Y152.172 E66.54805
G1 X93.902 Y157.027 E66.91725
G1 X96.722 Y160.272 E67.13173
G1 X93.583 Y163.000 E67.33921
G1 X88.408 Y156.209 E67.76518
G1 X85.497 Y141.476 E68.51442
G1 X53.151 Y44.578 E73.61091
G1 X51.325 Y42.715 E73.74106
G1 X50.016 Y40.689 E73.86140
G1 X49.138 Y38.421 E73.98273
G1 X48.743 Y36.047 E74.10280
G1 X48.741 Y36.037 E74.10331
G1 X48.834 Y33.632 E74.22338
G1 X49.410 Y31.284 E74.34400
G1 X50.455 Y29.092 E74.46515
G1 X51.906 Y27.179 E74.58494
G1 X53.739 Y25.574 E74.70649
G1 X55.840 Y24.387 E74.82688
G1 X58.141 Y23.648 E74.94745
G1 X60.550 Y23.387 E75.06834
G1 X62.954 Y23.619 E75.18884
G1 X65.259 Y24.332 E75.30921
G1 X67.383 Y25.502 E75.43019
G1 X69.220 Y27.069 E75.55065
G1 X70.695 Y28.970 E75.67069
G1 X70.704 Y28.981 E75.67140
G1 X71.768 Y31.147 E75.79180
G1 X72.374 Y33.490 E75.91254
G1 X72.494 Y35.896 E76.03272
G1 X72.092 Y38.492 E76.16378
G0 F9000 X72.502 Y38.461
;TYPE:WALL-OUTER
G1 F1200 X100.813 Y127.697 E80.83447
G1 X129.908 Y180.747 E83.85306
G1 X130.899 Y186.347 E84.13679
G1 X123.589 Y192.701 E84.62000
G1 X119.980 Y188.550 E84.89442
G1 X126.017 Y183.302 E85.29350
G1 X99.448 Y152.736 E87.31402
G1 X94.466 Y157.066 E87.64333
G1 X97.287 Y160.311 E87.85785
G1 X93.524 Y163.582 E88.10660
G1 X88.033 Y156.377 E88.55855
G1 X85.110 Y141.579 E89.31109
G1 X52.801 Y44.792 E94.40174
G1 X51.041 Y42.996 E94.52720
G1 X51.005 Y42.960 E94.52974
G1 X49.653 Y40.863 E94.65422
G1 X48.749 Y38.525 E94.77928
G1 X48.340 Y36.064 E94.90374
G1 X48.436 Y33.564 E95.02856
G1 X49.021 Y31.191 E95.15049
G1 X49.035 Y31.136 E95.15332
G1 X50.111 Y28.885 E95.27780
G1 X51.589 Y26.934 E95.39991
G1 X51.618 Y26.896 E95.40229
G1 X53.508 Y25.246 E95.52746
G1 X55.681 Y24.018 E95.65199
G1 X58.057 Y23.254 E95.77650
G1 X60.546 Y22.985 E95.90140
G1 X63.032 Y23.225 E96.02601
G1 X65.420 Y23.963 E96.15071
G1 X67.610 Y25.170 E96.27546
G1 X69.510 Y26.791 E96.40006
G1 X71.046 Y28.770 E96.52504
G1 X72.144 Y31.005 E96.64928
G1 X72.771 Y33.429 E96.77419
G1 X72.893 Y35.875 E96.89638
G1 X72.896 Y35.926 E96.89892
G1 X72.502 Y38.461 E97.02691
G0 F9000 X71.550 Y38.458
;TYPE:SKIN
G1 F1200 X57.510 Y24.417 E98.01755
G0 F9000 X57.938 Y24.279
G1 F1200 X71.627 Y37.968 E98.98338
G0 F9000 X71.702 Y37.478
G1 F1200 X58.387 Y24.163 E99.92283
G0 F9000 X58.898 Y24.108
G1 F1200 X71.779 Y36.989 E100.83165
G0 F9000 X71.854 Y36.499
G1 F1200 X59.408 Y24.053 E101.70978
G0 F9000 X59.919 Y23.998
G1 F1200 X71.931 Y36.010 E102.55729
G0 F9000 X71.929 Y35.443
G1 F1200 X60.430 Y23.943 E103.36865
G0 F9000 X61.028 Y23.975
G1 F1200 X71.900 Y34.847 E104.13572
G0 F9000 X71.870 Y34.252
G1 F1200 X61.654 Y24.035 E104.85655
G0 F9000 X62.280 Y24.096
G1 F1200 X71.841 Y33.657 E105.53113
G0 F9000 X71.668 Y32.918
G1 F1200 X62.924 Y24.174 E106.14807
G0 F9000 X63.742 Y24.427
G1 F1200 X71.470 Y32.155 E106.69332
G0 F9000 X71.272 Y31.392
G1 F1200 X64.561 Y24.680 E107.16685
G0 F9000 X65.558 Y25.112
G1 F1200 X70.753 Y30.306 E107.53335
G0 F9000 X70.107 Y29.095
G1 F1200 X66.818 Y25.806 E107.76541
G0 F9000 X57.081 Y24.554
G1 F1200 X71.760 Y39.233 E108.80109
G0 F9000 X72.023 Y40.061
G1 F1200 X56.654 Y24.692 E109.88546
G0 F9000 X56.226 Y24.830
G1 F1200 X72.286 Y40.890 E111.01858
G0 F9000 X72.549 Y41.719
G1 F1200 X55.838 Y25.008 E112.19763
G0 F9000 X55.477 Y25.213
G1 F1200 X72.812 Y42.548 E113.42071
G0 F9000 X73.074 Y43.376
G1 F1200 X55.116 Y25.417 E114.68778
G0 F9000 X54.754 Y25.622
G1 F1200 X73.337 Y44.204 E115.99887
G0 F9000 X73.600 Y45.033
G1 F1200 X54.393 Y25.826 E117.35403
G0 F9000 X54.035 Y26.034
G1 F1200 X73.863 Y45.862 E118.75300
G0 F9000 X74.126 Y46.690
G1 F1200 X53.733 Y26.298 E120.19180
G0 F9000 X53.431 Y26.561
G1 F1200 X74.389 Y47.518 E121.67047
G0 F9000 X74.652 Y48.347
G1 F1200 X53.129 Y26.825 E123.18900
G0 F9000 X52.827 Y27.089
G1 F1200 X74.915 Y49.176 E124.74739
G0 F9000 X75.178 Y50.005
G1 F1200 X52.526 Y27.353 E126.34561
G0 F9000 X52.239 Y27.632
G1 F1200 X75.440 Y50.833 E127.98257
G0 F9000 X75.703 Y51.661
G1 F1200 X51.995 Y27.954 E129.65526
G0 F9000 X51.751 Y28.275
G1 F1200 X75.966 Y52.490 E131.36376
G0 F9000 X76.229 Y53.319
G1 F1200 X51.507 Y28.596 E133.10806
G0 F9000 X51.263 Y28.918
G1 F1200 X76.491 Y54.147 E134.88807
G0 F9000 X76.755 Y54.976
G1 F1200 X51.019 Y29.240 E136.70389
G0 F9000 X50.809 Y29.596
G1 F1200 X77.018 Y55.804 E138.55304
G0 F9000 X77.281 Y56.633
G1 F1200 X50.627 Y29.979 E140.43362
G0 F9000 X50.444 Y30.362
G1 F1200 X77.543 Y57.461 E142.34560
G0 F9000 X77.806 Y58.290
G1 F1200 X50.261 Y30.745 E144.28905
G0 F9000 X50.078 Y31.128
G1 F1200 X78.069 Y59.119 E146.26397
G0 F9000 X78.332 Y59.947
G1 F1200 X49.906 Y31.521 E148.26957
G0 F9000 X49.794 Y31.975
G1 F1200 X78.594 Y60.775 E150.30157
G0 F9000 X78.857 Y61.604
G1 F1200 X49.682 Y32.429 E152.36002
G0 F9000 X49.571 Y32.883
G1 F1200 X79.121 Y62.433 E154.44493
G0 F9000 X79.384 Y63.262
G1 F1200 X49.459 Y33.337 E156.55631
G0 F9000 X49.365 Y33.809
G1 F1200 X79.646 Y64.090 E158.69279
G0 F9000 X79.909 Y64.918
G1 F1200 X49.344 Y34.354 E160.84928
G0 F9000 X49.324 Y34.899
G1 F1200 X80.172 Y65.747 E163.02578
G0 F9000 X80.435 Y66.576
G1 F1200 X49.303 Y35.444 E165.22231
G0 F9000 X49.282 Y35.988
G1 F1200 X80.697 Y67.404 E167.43884
G0 F9000 X80.960 Y68.232
G1 F1200 X49.391 Y36.663 E169.66620
G0 F9000 X49.503 Y37.341
G1 F1200 X81.223 Y69.061 E171.90422
G0 F9000 X81.486 Y69.890
G1 F1200 X49.616 Y38.019 E174.15286
G0 F9000 X49.882 Y38.851
G1 F1200 X81.749 Y70.718 E176.40125
G0 F9000 X82.012 Y71.547
G1 F1200 X50.238 Y39.773 E178.64307
G0 F9000 X50.782 Y40.883
G1 F1200 X82.275 Y72.375 E180.86504
G0 F9000 X82.538 Y73.204
G1 F1200 X53.622 Y44.288 E182.90522
G0 F9000 X53.905 Y45.137
G1 F1200 X82.800 Y74.032 E184.94392
G0 F9000 X83.063 Y74.861
G1 F1200 X54.189 Y45.986 E186.98117
G0 F9000 X54.472 Y46.835
G1 F1200 X83.326 Y75.690 E189.01701
G0 F9000 X83.589 Y76.518
G1 F1200 X54.756 Y47.685 E191.05133
G0 F9000 X55.039 Y48.534
G1 F1200 X83.852 Y77.346 E193.08421
G0 F9000 X84.115 Y78.175
G1 F1200 X55.323 Y49.383 E195.11564
G0 F9000 X55.606 Y50.232
G1 F1200 X84.378 Y79.004 E197.14566
G0 F9000 X84.641 Y79.833
G1 F1200 X55.890 Y51.082 E199.17420
G0 F9000 X56.173 Y51.931
G1 F1200 X84.903 Y80.661 E201.20126
G0 F9000 X85.166 Y81.489
G1 F1200 X56.457 Y52.780 E203.22683
G0 F9000 X56.741 Y53.629
G1 F1200 X85.429 Y82.318 E205.25096
G0 F9000 X85.692 Y83.147
G1 F1200 X57.023 Y54.478 E207.27371
G0 F9000 X57.307 Y55.327
G1 F1200 X85.955 Y83.975 E209.29499
G0 F9000 X86.218 Y84.804
G1 F1200 X57.591 Y56.176 E211.31481
G0 F9000 X57.874 Y57.026
G1 F1200 X86.481 Y85.632 E213.33315
G0 F9000 X86.744 Y86.461
G1 F1200 X58.158 Y57.875 E215.35005
G0 F9000 X58.441 Y58.724
G1 F1200 X87.007 Y87.290 E217.36554
G0 F9000 X87.269 Y88.118
G1 F1200 X58.725 Y59.573 E219.37950
G0 F9000 X59.008 Y60.422
G1 F1200 X87.532 Y88.946 E221.39203
G0 F9000 X87.795 Y89.775
G1 F1200 X59.292 Y61.272 E223.40307
G0 F9000 X59.575 Y62.121
G1 F1200 X88.058 Y90.604 E225.41270
G0 F9000 X88.321 Y91.432
G1 F1200 X59.859 Y62.970 E227.42084
G0 F9000 X60.142 Y63.819
G1 F1200 X88.584 Y92.261 E229.42758
G0 F9000 X88.847 Y93.089
G1 F1200 X60.425 Y64.668 E231.43287
G0 F9000 X60.709 Y65.517
G1 F1200 X89.110 Y93.918 E233.43672
G0 F9000 X89.372 Y94.746
G1 F1200 X60.992 Y66.366 E235.43908
G0 F9000 X61.276 Y67.216
G1 F1200 X89.635 Y95.575 E237.43996
G0 F9000 X89.898 Y96.404
G1 F1200 X61.560 Y68.065 E239.43939
G0 F9000 X61.843 Y68.914
G1 F1200 X90.161 Y97.232 E241.43738
G0 F9000 X90.424 Y98.060
G1 F1200 X62.127 Y69.763 E243.43389
G0 F9000 X62.410 Y70.613
G1 F1200 X90.687 Y98.889 E245.42895
G0 F9000 X90.950 Y99.718
G1 F1200 X62.694 Y71.462 E247.42256
G0 F9000 X62.977 Y72.311
G1 F1200 X91.213 Y100.547 E249.41476
G0 F9000 X91.475 Y101.375
G1 F1200 X63.260 Y73.160 E251.40548
G0 F9000 X63.544 Y74.009
G1 F1200 X91.738 Y102.203 E253.39472
G0 F9000 X92.001 Y103.032
G1 F1200 X63.827 Y74.858 E255.38255
G0 F9000 X64.111 Y75.707
G1 F1200 X92.264 Y103.861 E257.36893
G0 F9000 X92.527 Y104.689
G1 F1200 X64.394 Y76.557 E259.35383
G0 F9000 X64.678 Y77.406
G1 F1200 X92.790 Y105.518 E261.33728
G0 F9000 X93.053 Y106.346
G1 F1200 X64.961 Y78.255 E263.31929
G0 F9000 X65.245 Y79.104
G1 F1200 X93.316 Y107.175 E265.29985
G0 F9000 X93.578 Y108.003
G1 F1200 X65.528 Y79.953 E267.27893
G0 F9000 X65.812 Y80.803
G1 F1200 X93.841 Y108.832 E269.25653
G0 F9000 X94.104 Y109.660
G1 F1200 X66.096 Y81.652 E271.23264
G0 F9000 X66.378 Y82.500
G1 F1200 X94.367 Y110.489 E273.20742
G0 F9000 X94.629 Y111.317
G1 F1200 X66.662 Y83.350 E275.18064
G0 F9000 X66.946 Y84.199
G1 F1200 X94.893 Y112.146 E277.15245
G0 F9000 X95.156 Y112.975
G1 F1200 X67.229 Y85.048 E279.12286
G0 F9000 X67.513 Y85.897
G1 F1200 X95.419 Y113.803 E281.09177
G0 F9000 X95.681 Y114.631
G1 F1200 X67.796 Y86.747 E283.05918
G0 F9000 X68.080 Y87.596
G1 F1200 X95.944 Y115.460 E285.02513
G0 F9000 X96.207 Y116.289
G1 F1200 X68.363 Y88.445 E286.98968
G0 F9000 X68.647 Y89.294
G1 F1200 X96.470 Y117.118 E288.95277
G0 F9000 X96.732 Y117.946
G1 F1200 X68.930 Y90.144 E290.91436
G0 F9000 X69.214 Y90.993
G1 F1200 X96.995 Y118.774 E292.87446
G0 F9000 X97.259 Y119.603
G1 F1200 X69.497 Y91.841 E294.83321
G0 F9000 X69.780 Y92.691
G1 F1200 X97.522 Y120.432 E296.79053
G0 F9000 X97.784 Y121.260
G1 F1200 X70.064 Y93.540 E298.74632
G0 F9000 X70.347 Y94.389
G1 F1200 X98.047 Y122.089 E300.70071
G0 F9000 X98.310 Y122.917
G1 F1200 X70.631 Y95.238 E302.65361
G0 F9000 X70.915 Y96.088
G1 F1200 X98.573 Y123.746 E304.60503
G0 F9000 X98.835 Y124.574
G1 F1200 X71.198 Y96.937 E306.55497
G0 F9000 X71.482 Y97.786
G1 F1200 X99.098 Y125.403 E308.50346
G0 F9000 X99.361 Y126.231
G1 F1200 X71.765 Y98.635 E310.45051
G0 F9000 X72.049 Y99.484
G1 F1200 X99.624 Y127.060 E312.39611
G0 F9000 X99.888 Y127.889
G1 F1200 X72.332 Y100.334 E314.34030
G0 F9000 X72.615 Y101.182
G1 F1200 X100.484 Y129.051 E316.30661
G0 F9000 X101.171 Y130.304
G1 F1200 X72.899 Y102.031 E318.30139
G0 F9000 X73.182 Y102.881
G1 F1200 X101.858 Y131.557 E320.32463
G0 F9000 X102.546 Y132.810
G1 F1200 X73.466 Y103.730 E322.37639
G0 F9000 X73.749 Y104.579
G1 F1200 X103.232 Y134.062 E324.45657
G0 F9000 X103.919 Y135.315
G1 F1200 X74.033 Y105.428 E326.56522
G0 F9000 X74.316 Y106.278
G1 F1200 X104.607 Y136.568 E328.70238
G0 F9000 X105.293 Y137.820
G1 F1200 X74.600 Y107.127 E330.86794
G0 F9000 X74.884 Y107.976
G1 F1200 X105.981 Y139.073 E333.06200
G0 F9000 X106.668 Y140.326
G1 F1200 X75.167 Y108.825 E335.28457
G0 F9000 X75.451 Y109.675
G1 F1200 X107.355 Y141.579 E337.53557
G0 F9000 X108.042 Y142.832
G1 F1200 X75.733 Y110.523 E339.81514
G0 F9000 X76.017 Y111.372
G1 F1200 X108.729 Y144.085 E342.12318
G0 F9000 X109.416 Y145.337
G1 F1200 X76.301 Y112.222 E344.45963
G0 F9000 X76.584 Y113.071
G1 F1200 X110.103 Y146.590 E346.82457
G0 F9000 X110.790 Y147.843
G1 F1200 X76.868 Y113.920 E349.21799
G0 F9000 X77.151 Y114.769
G1 F1200 X111.477 Y149.095 E351.63987
G0 F9000 X112.164 Y150.348
G1 F1200 X77.435 Y115.619 E354.09019
G0 F9000 X77.718 Y116.468
G1 F1200 X112.852 Y151.601 E356.56905
G0 F9000 X113.538 Y152.853
G1 F1200 X78.002 Y117.317 E359.07631
G0 F9000 X78.285 Y118.166
G1 F1200 X114.226 Y154.106 E361.61210
G0 F9000 X114.913 Y155.359
G1 F1200 X78.569 Y119.015 E364.17637
G0 F9000 X78.852 Y119.864
G1 F1200 X115.599 Y156.612 E366.76910
G0 F9000 X116.287 Y157.865
G1 F1200 X79.135 Y120.713 E369.39038
G0 F9000 X79.419 Y121.562
