;FLAVOR:Marlin
;TIME:5303
;Filament used: 3.78665m
;Layer height: 0.2
;Generated with Cura_SteamEngine 2.7.0
M190 S60
M104 S220
M109 S220
G21 ;metric values
G90 ;absolute positioning
M82 ;set extruder to absolute mode
M107 ;start with the fan off
G92 E0 ;zero the extruded length
G1 F200 E3 ;extrude 3mm of feed stock
G92 E0 ;zero the extruded length again
G1 F9000
M117 Printing...
;LAYER_COUNT:120
;LAYER:0
M107
M204 S5000
G0 F2400 X51.317 Y81.714 Z0.3
M204 S200
;TYPE:SKIRT
G1 F1200 X51.819 Y81.488 E0.0274
G1 X52.348 Y81.338 E0.05476
G1 X53.117 Y81.259 E0.09323
G1 X55.099 Y81.259 E0.19187
G1 X55.648 Y81.299 E0.21926
G1 X56.185 Y81.418 E0.24663
G1 X56.7 Y81.613 E0.27404
G1 X57.18 Y81.881 E0.3014
G1 X57.622 Y82.221 E0.32915
G1 X57.733 Y82.32 E0.33655
G1 X58.116 Y82.715 E0.36393
G1 X58.438 Y83.161 E0.39131
G1 X58.692 Y83.65 E0.41873
G1 X58.872 Y84.17 E0.44611
G1 X58.929 Y84.453 E0.46048
G1 X59.314 Y85.384 E0.51062
G1 X59.902 Y86.151 E0.55871
G1 X60.662 Y86.733 E0.60635
G1 X61.551 Y87.102 E0.65425
G1 X62.5 Y87.227 E0.70189
G1 X63.449 Y87.102 E0.74952
G1 X64.338 Y86.733 E0.79742
G1 X65.098 Y86.151 E0.84506
G1 X65.685 Y85.385 E0.89309
G1 X66.071 Y84.451 E0.94338
G1 X66.14 Y84.117 E0.96035
G1 X66.328 Y83.6 E0.98773
G1 X66.589 Y83.115 E1.01514
G1 X66.917 Y82.673 E1.04253
G1 X67.277 Y82.309 E1.06801
G1 X67.389 Y82.21 E1.07545
G1 X67.827 Y81.876 E1.10286
G1 X68.308 Y81.609 E1.13024
G1 X68.823 Y81.415 E1.15763
G1 X69.361 Y81.298 E1.18503
G1 X69.9 Y81.259 E1.21192
G1 X71.883 Y81.259 E1.3106
G1 X72.432 Y81.299 E1.338
G1 X72.969 Y81.418 E1.36537
G1 X73.484 Y81.613 E1.39277
G1 X73.964 Y81.881 E1.42013
G1 X74.564 Y82.369 E1.45862
G1 X74.681 Y82.486 E1.46686
G1 X75.003 Y82.859 E1.49138
G1 X94.709 Y82.859 E2.47206
G1 X94.709 Y74.567 E2.88471
G1 X94.749 Y74.018 E2.91211
G1 X94.868 Y73.481 E2.93948
G1 X95.063 Y72.966 E2.96688
G1 X95.331 Y72.486 E2.99424
G1 X95.819 Y71.886 E3.03273
G1 X95.936 Y71.769 E3.04096
G1 X96.353 Y71.409 E3.06838
G1 X96.817 Y71.114 E3.09574
G1 X97.319 Y70.888 E3.12314
G1 X97.848 Y70.738 E3.1505
G1 X98.617 Y70.659 E3.18898
G1 X102.383 Y70.659 E3.37639
G1 X102.932 Y70.699 E3.40379
G1 X103.469 Y70.818 E3.43116
G1 X103.984 Y71.013 E3.45856
G1 X104.464 Y71.281 E3.48592
G1 X105.064 Y71.769 E3.52441
G1 X105.181 Y71.886 E3.53264
G1 X105.541 Y72.303 E3.56006
G1 X105.836 Y72.767 E3.58742
G1 X106.062 Y73.269 E3.61482
G1 X106.212 Y73.798 E3.64218
G1 X106.291 Y74.567 E3.68066
G1 X106.291 Y82.859 E4.09331
G1 X110.016 Y82.859 E4.27869
G1 X110.319 Y82.486 E4.3026
G1 X110.436 Y82.369 E4.31084
G1 X110.853 Y82.009 E4.33825
G1 X111.317 Y81.714 E4.36562
G1 X111.819 Y81.488 E4.39301
G1 X112.348 Y81.338 E4.42038
G1 X113.117 Y81.259 E4.45885
G1 X115.1 Y81.259 E4.55753
G1 X115.649 Y81.299 E4.58493
G1 X116.186 Y81.418 E4.6123
G1 X116.701 Y81.613 E4.6397
G1 X117.181 Y81.881 E4.66706
G1 X117.611 Y82.21 E4.69401
G1 X117.723 Y82.309 E4.70145
G1 X118.108 Y82.702 E4.72882
G1 X118.431 Y83.147 E4.75619
G1 X118.687 Y83.634 E4.78357
G1 X118.87 Y84.153 E4.81096
G1 X118.931 Y84.456 E4.82634
G1 X119.315 Y85.385 E4.87636
G1 X119.902 Y86.151 E4.92439
G1 X120.662 Y86.733 E4.97203
G1 X121.551 Y87.102 E5.01993
G1 X122.5 Y87.227 E5.06756
G1 X123.449 Y87.102 E5.1152
G1 X124.338 Y86.733 E5.1631
G1 X125.098 Y86.151 E5.21074
G1 X125.686 Y85.384 E5.25883
G1 X126.074 Y84.446 E5.30935
G1 X126.145 Y84.106 E5.32664
G1 X126.335 Y83.59 E5.354
G1 X126.597 Y83.106 E5.38139
G1 X126.926 Y82.665 E5.40877
G1 X127.267 Y82.32 E5.43291
G1 X127.378 Y82.221 E5.44031
G1 X127.814 Y81.885 E5.46771
G1 X128.294 Y81.616 E5.49509
G1 X128.808 Y81.42 E5.52246
G1 X129.345 Y81.3 E5.54985
G1 X129.901 Y81.259 E5.57759
G1 X131.883 Y81.259 E5.67623
G1 X132.432 Y81.299 E5.70362
G1 X132.969 Y81.418 E5.73099
G1 X133.484 Y81.613 E5.7584
G1 X133.964 Y81.881 E5.78576
G1 X134.564 Y82.369 E5.82425
G1 X134.681 Y82.486 E5.83248
G1 X135.041 Y82.903 E5.8599
G1 X135.336 Y83.367 E5.88726
G1 X135.562 Y83.869 E5.91466
G1 X135.712 Y84.398 E5.94202
G1 X135.791 Y85.18 E5.98113
G1 X135.778 Y89.013 E6.17189
G1 X135.736 Y89.562 E6.19929
G1 X135.615 Y90.099 E6.22668
G1 X135.418 Y90.612 E6.25403
G1 X135.266 Y90.903 E6.27037
G1 X134.673 Y91.925 E6.32917
G1 X134.291 Y92.449 E6.36144
G1 X134.291 Y108.574 E7.16391
G1 X134.251 Y109.123 E7.1913
G1 X134.132 Y109.66 E7.21867
G1 X133.937 Y110.175 E7.24608
G1 X133.669 Y110.655 E7.27344
G1 X133.181 Y111.255 E7.31193
G1 X133.064 Y111.372 E7.32016
G1 X132.647 Y111.732 E7.34758
G1 X132.183 Y112.027 E7.37494
G1 X131.681 Y112.253 E7.40234
G1 X131.152 Y112.403 E7.4297
G1 X130.382 Y112.482 E7.46822
G1 X124.116 Y112.481 E7.78005
G1 X123.568 Y112.441 E7.8074
G1 X123.03 Y112.322 E7.83482
G1 X122.516 Y112.126 E7.86219
G1 X122.035 Y111.858 E7.88959
G1 X121.436 Y111.371 E7.92801
G1 X121.319 Y111.254 E7.93625
G1 X120.959 Y110.837 E7.96366
G1 X120.664 Y110.373 E7.99103
G1 X120.438 Y109.871 E8.01842
G1 X120.288 Y109.342 E8.04579
G1 X120.209 Y108.575 E8.08416
G1 X120.205 Y100.265 E8.49771
G1 X120.085 Y99.359 E8.54319
G1 X119.817 Y98.712 E8.57804
G1 X119.392 Y98.158 E8.61279
G1 X119.069 Y97.91 E8.63306
G1 X118.175 Y97.687 E8.67891
G1 X117.543 Y97.468 E8.7122
G1 X117.369 Y97.39 E8.72169
G1 X116.808 Y97.465 E8.74985
G1 X116.163 Y97.732 E8.78459
G1 X115.608 Y98.158 E8.81941
G1 X115.184 Y98.71 E8.85405
G1 X114.914 Y99.364 E8.88926
G1 X114.791 Y100.302 E8.93634
G1 X114.791 Y108.574 E9.348
G1 X114.751 Y109.123 E9.3754
G1 X114.632 Y109.66 E9.40277
G1 X114.437 Y110.175 E9.43017
G1 X114.169 Y110.655 E9.45753
G1 X113.681 Y111.255 E9.49602
G1 X113.564 Y111.372 E9.50425
G1 X113.147 Y111.732 E9.53167
G1 X112.683 Y112.027 E9.55903
G1 X112.181 Y112.253 E9.58643
G1 X111.652 Y112.403 E9.61379
G1 X110.882 Y112.482 E9.65231
G1 X104.616 Y112.481 E9.96414
G1 X104.068 Y112.441 E9.99149
G1 X103.53 Y112.322 E10.01891
G1 X103.016 Y112.126 E10.04629
G1 X102.535 Y111.858 E10.07369
G1 X101.936 Y111.371 E10.11211
G1 X101.819 Y111.254 E10.12034
G1 X101.459 Y110.837 E10.14776
G1 X101.164 Y110.373 E10.17512
G1 X100.938 Y109.871 E10.20252
G1 X100.788 Y109.342 E10.22988
G1 X100.709 Y108.573 E10.26835
G1 X100.709 Y103.745 E10.50862
G1 X100.51 Y101.847 E10.60359
G1 X99.978 Y100.214 E10.68906
G1 X99.128 Y98.741 E10.7737
G1 X97.981 Y97.466 E10.85904
G1 X96.593 Y96.459 E10.94438
G1 X95.033 Y95.764 E11.02937
G1 X93.514 Y95.441 E11.10666
G1 X91.486 Y95.441 E11.20758
G1 X89.967 Y95.764 E11.28487
G1 X88.407 Y96.459 E11.36986
G1 X87.019 Y97.466 E11.45519
G1 X85.874 Y98.739 E11.5404
G1 X85.019 Y100.22 E11.6255
G1 X84.49 Y101.847 E11.71065
G1 X84.291 Y103.747 E11.80572
G1 X84.291 Y108.574 E12.04594
G1 X84.251 Y109.123 E12.07333
G1 X84.132 Y109.66 E12.1007
G1 X83.937 Y110.175 E12.12811
G1 X83.669 Y110.655 E12.15546
G1 X83.181 Y111.255 E12.19395
G1 X83.064 Y111.372 E12.20219
G1 X82.647 Y111.732 E12.2296
G1 X82.183 Y112.027 E12.25697
G1 X81.681 Y112.253 E12.28436
G1 X81.152 Y112.403 E12.31173
G1 X80.382 Y112.482 E12.35025
G1 X74.116 Y112.481 E12.66208
G1 X73.568 Y112.441 E12.68942
G1 X73.03 Y112.322 E12.71684
G1 X72.516 Y112.126 E12.74422
G1 X72.035 Y111.858 E12.77162
G1 X71.436 Y111.371 E12.81004
G1 X71.319 Y111.254 E12.81827
G1 X70.959 Y110.837 E12.84569
G1 X70.664 Y110.373 E12.87305
G1 X70.438 Y109.871 E12.90045
G1 X70.288 Y109.342 E12.92781
G1 X70.209 Y108.575 E12.96619
G1 X70.205 Y100.265 E13.37974
G1 X70.085 Y99.359 E13.42522
G1 X69.817 Y98.712 E13.46007
G1 X69.392 Y98.158 E13.49482
G1 X68.837 Y97.732 E13.52964
G1 X68.192 Y97.465 E13.56438
G1 X67.622 Y97.389 E13.59299
G1 X67.388 Y97.492 E13.60572
G1 X66.786 Y97.697 E13.63737
G1 X65.931 Y97.91 E13.68121
G1 X65.608 Y98.158 E13.70148
G1 X65.184 Y98.71 E13.73612
G1 X64.914 Y99.364 E13.77133
G1 X64.791 Y100.302 E13.81841
G1 X64.791 Y108.574 E14.23007
G1 X64.751 Y109.123 E14.25746
G1 X64.632 Y109.66 E14.28484
G1 X64.437 Y110.175 E14.31224
G1 X64.169 Y110.655 E14.3396
G1 X63.681 Y111.255 E14.37809
G1 X63.564 Y111.372 E14.38632
G1 X63.147 Y111.732 E14.41374
G1 X62.683 Y112.027 E14.4411
G1 X62.181 Y112.253 E14.4685
G1 X61.652 Y112.403 E14.49586
G1 X60.882 Y112.482 E14.53438
G1 X54.616 Y112.481 E14.84621
G1 X54.068 Y112.441 E14.87356
G1 X53.53 Y112.322 E14.90098
G1 X53.016 Y112.126 E14.92835
G1 X52.535 Y111.858 E14.95576
G1 X51.936 Y111.371 E14.99418
G1 X51.819 Y111.254 E15.00241
G1 X51.459 Y110.837 E15.02983
G1 X51.164 Y110.373 E15.05719
G1 X50.938 Y109.871 E15.08459
G1 X50.788 Y109.342 E15.11195
G1 X50.709 Y108.573 E15.15042
G1 X50.709 Y92.456 E15.95249
G1 X50.437 Y92.106 E15.97455
G1 X50.29 Y91.865 E15.9886
G1 X49.697 Y90.812 E16.04874
G1 X49.462 Y90.314 E16.07614
G1 X49.302 Y89.788 E16.1035
G1 X49.22 Y89.244 E16.13088
G1 X49.209 Y88.952 E16.14542
G1 X49.209 Y85.167 E16.33379
G1 X49.249 Y84.618 E16.36118
G1 X49.368 Y84.081 E16.38855
G1 X49.563 Y83.566 E16.41596
G1 X49.831 Y83.086 E16.44332
G1 X50.319 Y82.486 E16.4818
G1 X50.436 Y82.369 E16.49004
G1 X50.853 Y82.009 E16.51746
G1 X51.317 Y81.714 E16.54482
M204 S5000
G0 F2400 X51.556 Y82.038
M204 S200
G1 F1200 X52.035 Y81.835 E16.57071
G1 X52.54 Y81.707 E16.59663
G1 X53.117 Y81.658 E16.62545
G1 X55.099 Y81.658 E16.72409
G1 X55.618 Y81.698 E16.74999
G1 X56.125 Y81.817 E16.77591
G1 X56.607 Y82.012 E16.80178
G1 X57.055 Y82.278 E16.82771
G1 X57.357 Y82.519 E16.84694
G1 X57.468 Y82.618 E16.85434
G1 X57.829 Y82.993 E16.88025
G1 X58.128 Y83.419 E16.90615
G1 X58.358 Y83.886 E16.93205
G1 X58.514 Y84.382 E16.95793
G1 X58.551 Y84.582 E16.96805
G1 X58.967 Y85.588 E17.02223
G1 X59.618 Y86.436 E17.07543
G1 X60.461 Y87.082 E17.12828
G1 X61.442 Y87.489 E17.18114
G1 X62.5 Y87.629 E17.23425
G1 X63.558 Y87.489 E17.28736
G1 X64.539 Y87.082 E17.34022
G1 X65.382 Y86.436 E17.39307
G1 X66.034 Y85.586 E17.44638
G1 X66.454 Y84.572 E17.501
G1 X66.532 Y84.198 E17.52001
G1 X66.716 Y83.711 E17.54592
G1 X66.972 Y83.258 E17.57182
G1 X67.294 Y82.85 E17.59768
G1 X67.542 Y82.608 E17.61493
G1 X67.654 Y82.509 E17.62237
G1 X68.069 Y82.195 E17.64826
G1 X68.527 Y81.948 E17.67416
G1 X69.018 Y81.775 E17.70007
G1 X69.53 Y81.678 E17.726
G1 X69.9 Y81.658 E17.74444
G1 X71.883 Y81.658 E17.84313
G1 X72.402 Y81.698 E17.86903
G1 X72.909 Y81.817 E17.89495
G1 X73.391 Y82.012 E17.92082
G1 X73.839 Y82.278 E17.94675
G1 X74.282 Y82.651 E17.97557
G1 X74.399 Y82.768 E17.98381
G1 X74.737 Y83.164 E18.00972
G1 X74.795 Y83.258 E18.01521
G1 X95.108 Y83.258 E19.0261
G1 X95.108 Y74.567 E19.45861
G1 X95.148 Y74.048 E19.48451
G1 X95.267 Y73.541 E19.51043
G1 X95.462 Y73.059 E19.53631
G1 X95.728 Y72.611 E19.56224
G1 X96.101 Y72.168 E19.59106
G1 X96.218 Y72.051 E19.59929
G1 X96.614 Y71.713 E19.6252
G1 X97.056 Y71.438 E19.65111
G1 X97.535 Y71.235 E19.677
G1 X98.04 Y71.107 E19.70292
G1 X98.617 Y71.058 E19.73174
G1 X102.383 Y71.058 E19.91916
G1 X102.902 Y71.098 E19.94506
G1 X103.409 Y71.217 E19.97098
G1 X103.891 Y71.412 E19.99685
G1 X104.339 Y71.678 E20.02278
G1 X104.782 Y72.051 E20.0516
G1 X104.899 Y72.168 E20.05984
G1 X105.237 Y72.564 E20.08575
G1 X105.512 Y73.006 E20.11165
G1 X105.715 Y73.485 E20.13754
G1 X105.843 Y73.99 E20.16347
G1 X105.892 Y74.567 E20.19229
G1 X105.892 Y83.258 E20.6248
G1 X110.2 Y83.258 E20.83919
G1 X110.228 Y83.211 E20.84191
G1 X110.601 Y82.768 E20.87073
G1 X110.718 Y82.651 E20.87897
G1 X111.114 Y82.313 E20.90488
G1 X111.556 Y82.038 E20.93078
G1 X112.035 Y81.835 E20.95667
G1 X112.54 Y81.707 E20.9826
G1 X113.117 Y81.658 E21.01142
G1 X115.1 Y81.658 E21.1101
G1 X115.619 Y81.698 E21.13601
G1 X116.126 Y81.817 E21.16192
G1 X116.608 Y82.012 E21.1878
G1 X117.056 Y82.278 E21.21373
G1 X117.346 Y82.509 E21.23218
G1 X117.458 Y82.608 E21.23962
G1 X117.821 Y82.981 E21.26552
G1 X118.122 Y83.406 E21.29144
G1 X118.354 Y83.872 E21.31734
G1 X118.513 Y84.367 E21.34322
G1 X118.553 Y84.588 E21.35439
G1 X118.966 Y85.586 E21.40814
G1 X119.618 Y86.436 E21.46146
G1 X120.461 Y87.082 E21.51431
G1 X121.442 Y87.489 E21.56716
G1 X122.5 Y87.629 E21.62027
G1 X123.558 Y87.489 E21.67339
G1 X124.539 Y87.082 E21.72624
G1 X125.382 Y86.436 E21.77909
G1 X126.033 Y85.588 E21.8323
G1 X126.457 Y84.564 E21.88745
G1 X126.537 Y84.189 E21.90653
G1 X126.722 Y83.703 E21.93241
G1 X126.979 Y83.25 E21.95833
G1 X127.303 Y82.842 E21.98426
G1 X127.532 Y82.618 E22.0002
G1 X127.643 Y82.519 E22.0076
G1 X128.057 Y82.203 E22.03352
G1 X128.514 Y81.954 E22.05942
G1 X129.004 Y81.779 E22.08532
G1 X129.516 Y81.68 E22.11127
G1 X129.901 Y81.658 E22.13046
G1 X131.883 Y81.658 E22.22909
G1 X132.402 Y81.698 E22.255
G1 X132.909 Y81.817 E22.28092
G1 X133.391 Y82.012 E22.30679
G1 X133.839 Y82.278 E22.33272
G1 X134.282 Y82.651 E22.36154
G1 X134.399 Y82.768 E22.36977
G1 X134.737 Y83.164 E22.39568
G1 X135.012 Y83.606 E22.42159
G1 X135.215 Y84.085 E22.44748
G1 X135.343 Y84.59 E22.47341
G1 X135.392 Y85.179 E22.50282
G1 X135.379 Y89.012 E22.69357
G1 X135.337 Y89.53 E22.71944
G1 X135.217 Y90.037 E22.74536
G1 X134.921 Y90.702 E22.78159
G1 X134.328 Y91.724 E22.84039
G1 X133.913 Y92.294 E22.87548
G1 X133.892 Y92.317 E22.87703
G1 X133.892 Y108.574 E23.68607
G1 X133.852 Y109.093 E23.71197
G1 X133.733 Y109.6 E23.73789
G1 X133.538 Y110.082 E23.76376
G1 X133.272 Y110.53 E23.78969
G1 X132.899 Y110.973 E23.81851
G1 X132.782 Y111.09 E23.82675
G1 X132.386 Y111.428 E23.85266
G1 X131.944 Y111.703 E23.87856
G1 X131.465 Y111.906 E23.90445
G1 X130.96 Y112.034 E23.93038
G1 X130.382 Y112.083 E23.95925
G1 X124.116 Y112.082 E24.27108
G1 X123.597 Y112.042 E24.29698
G1 X123.091 Y111.923 E24.32285
G1 X122.608 Y111.728 E24.34877
G1 X122.161 Y111.461 E24.37468
G1 X121.718 Y111.089 E24.40347
G1 X121.601 Y110.972 E24.4117
G1 X121.263 Y110.576 E24.43761
G1 X120.988 Y110.134 E24.46352
G1 X120.785 Y109.655 E24.48941
G1 X120.657 Y109.15 E24.51534
G1 X120.608 Y108.575 E24.54406
G1 X120.604 Y100.242 E24.95875
G1 X120.473 Y99.253 E25.0084
G1 X120.166 Y98.51 E25.04841
G1 X119.679 Y97.875 E25.08823
G1 X119.243 Y97.541 E25.11556
G1 X118.271 Y97.299 E25.16541
G1 X117.706 Y97.104 E25.19516
G1 X117.43 Y96.98 E25.21022
G1 X116.705 Y97.076 E25.24661
G1 X115.96 Y97.385 E25.28675
G1 X115.321 Y97.875 E25.32682
G1 X114.836 Y98.508 E25.36651
G1 X114.525 Y99.262 E25.4071
G1 X114.392 Y100.273 E25.45784
G1 X114.392 Y108.574 E25.87095
G1 X114.352 Y109.093 E25.89685
G1 X114.233 Y109.6 E25.92277
G1 X114.038 Y110.082 E25.94864
G1 X113.772 Y110.53 E25.97457
G1 X113.399 Y110.973 E26.00339
G1 X113.282 Y111.09 E26.01163
G1 X112.886 Y111.428 E26.03754
G1 X112.444 Y111.703 E26.06344
G1 X111.965 Y111.906 E26.08933
G1 X111.46 Y112.034 E26.11526
G1 X110.882 Y112.083 E26.14413
G1 X104.616 Y112.082 E26.45596
G1 X104.097 Y112.042 E26.48186
G1 X103.591 Y111.923 E26.50773
G1 X103.108 Y111.728 E26.53365
G1 X102.661 Y111.461 E26.55956
G1 X102.218 Y111.089 E26.58835
G1 X102.101 Y110.972 E26.59659
G1 X101.763 Y110.576 E26.6225
G1 X101.488 Y110.134 E26.6484
G1 X101.285 Y109.655 E26.67429
G1 X101.157 Y109.15 E26.70022
G1 X101.108 Y108.573 E26.72904
G1 X101.108 Y103.723 E26.9704
G1 X100.902 Y101.762 E27.06853
G1 X100.346 Y100.054 E27.15792
G1 X99.453 Y98.506 E27.24685
G1 X98.248 Y97.168 E27.33646
G1 X96.795 Y96.113 E27.42582
G1 X95.155 Y95.383 E27.51516
G1 X93.555 Y95.042 E27.59657
G1 X91.445 Y95.042 E27.70157
G1 X89.845 Y95.383 E27.78299
G1 X88.205 Y96.113 E27.87232
G1 X86.752 Y97.168 E27.96168
G1 X85.548 Y98.505 E28.05122
G1 X84.654 Y100.055 E28.14027
G1 X84.099 Y101.76 E28.2295
G1 X83.892 Y103.734 E28.32828
G1 X83.892 Y108.574 E28.56914
G1 X83.852 Y109.093 E28.59505
G1 X83.733 Y109.6 E28.62096
G1 X83.538 Y110.082 E28.64684
G1 X83.272 Y110.53 E28.67277
G1 X82.899 Y110.973 E28.70159
G1 X82.782 Y111.09 E28.70982
G1 X82.386 Y111.428 E28.73573
G1 X81.944 Y111.703 E28.76164
G1 X81.465 Y111.906 E28.78753
G1 X80.96 Y112.034 E28.81345
G1 X80.382 Y112.083 E28.84232
G1 X74.116 Y112.082 E29.15415
G1 X73.597 Y112.042 E29.18006
G1 X73.091 Y111.923 E29.20593
G1 X72.608 Y111.728 E29.23185
G1 X72.161 Y111.461 E29.25776
G1 X71.718 Y111.089 E29.28655
G1 X71.601 Y110.972 E29.29478
G1 X71.263 Y110.576 E29.32069
G1 X70.988 Y110.134 E29.3466
G1 X70.785 Y109.655 E29.37249
G1 X70.657 Y109.15 E29.39841
G1 X70.608 Y108.575 E29.42713
G1 X70.604 Y100.242 E29.84183
G1 X70.473 Y99.253 E29.89148
G1 X70.166 Y98.51 E29.93148
G1 X69.679 Y97.875 E29.97131
G1 X69.04 Y97.385 E30.01138
G1 X68.295 Y97.076 E30.05152
G1 X67.563 Y96.98 E30.08826
