;FLAVOR:Marlin
;TIME:1652
;Filament used: 1.31849m
;Layer height: 0.2
;Generated with Cura_SteamEngine 2.7.0
M190 S60
M104 S220
M109 S220
G21 ;metric values
G90 ;absolute positioning
M82 ;set extruder to absolute mode
M107 ;start with the fan off
G92 E0 ;zero the extruded length
G1 F200 E3 ;extrude 3mm of feed stock
G92 E0 ;zero the extruded length again
G1 F9000
M117 Printing...
;LAYER_COUNT:120
;LAYER:0
M107
M204 S5000
G0 F2400 X83.819 Y71.719 Z0.3
G0 X83.936 Y71.602
M204 S200
;TYPE:SKIRT
G1 F1200 X84.353 Y71.242 E0.02742
G1 X84.817 Y70.947 E0.05478
G1 X85.319 Y70.721 E0.08218
G1 X85.848 Y70.571 E0.10954
G1 X86.624 Y70.492 E0.14836
G1 X87.769 Y70.494 E0.20534
G1 X88.552 Y70.577 E0.24452
G1 X90.989 Y71.096 E0.36852
G1 X91.739 Y71.34 E0.40777
G1 X94.049 Y72.367 E0.53358
G1 X94.74 Y72.766 E0.57329
G1 X96.767 Y74.241 E0.69804
G1 X97.356 Y74.773 E0.73754
G1 X99.034 Y76.641 E0.8625
G1 X99.496 Y77.276 E0.90158
G1 X100.741 Y79.429 E1.02535
G1 X101.064 Y80.154 E1.06485
G1 X101.839 Y82.536 E1.18951
G1 X102.004 Y83.31 E1.22889
G1 X102.269 Y85.813 E1.35415
G1 X102.29 Y86.212 E1.37404
G1 X102.291 Y110.6 E2.58772
G1 X102.251 Y111.149 E2.61511
G1 X102.132 Y111.686 E2.64248
G1 X101.937 Y112.201 E2.66989
G1 X101.669 Y112.681 E2.69725
G1 X101.181 Y113.281 E2.73573
G1 X101.064 Y113.398 E2.74397
G1 X100.647 Y113.758 E2.77138
G1 X100.183 Y114.053 E2.79875
G1 X99.681 Y114.279 E2.82614
G1 X99.152 Y114.429 E2.85351
G1 X98.383 Y114.508 E2.89198
G1 X96.109 Y114.508 E3.00515
G1 X95.56 Y114.468 E3.03254
G1 X95.023 Y114.349 E3.05991
G1 X94.508 Y114.154 E3.08732
G1 X94.028 Y113.886 E3.11468
G1 X93.591 Y113.551 E3.14208
G1 X93.207 Y113.156 E3.16949
G1 X92.82 Y112.601 E3.20316
G1 X92.706 Y112.402 E3.21458
G1 X92.496 Y111.967 E3.23862
G1 X92.294 Y112.402 E3.26248
G1 X92.18 Y112.601 E3.2739
G1 X91.873 Y113.058 E3.3013
G1 X91.503 Y113.465 E3.32867
G1 X91.077 Y113.814 E3.35608
G1 X90.606 Y114.098 E3.38345
G1 X90.098 Y114.311 E3.41086
G1 X89.565 Y114.448 E3.43825
G1 X88.891 Y114.508 E3.47192
G1 X86.617 Y114.508 E3.58509
G1 X86.068 Y114.468 E3.61248
G1 X85.531 Y114.349 E3.63985
G1 X85.016 Y114.154 E3.66726
G1 X84.536 Y113.886 E3.69462
G1 X83.936 Y113.398 E3.73311
G1 X83.819 Y113.281 E3.74134
G1 X83.459 Y112.864 E3.76876
G1 X83.164 Y112.4 E3.79612
G1 X82.938 Y111.898 E3.82352
G1 X82.788 Y111.369 E3.85088
G1 X82.709 Y110.6 E3.88935
G1 X82.709 Y74.4 E5.69086
G1 X82.749 Y73.851 E5.71825
G1 X82.868 Y73.314 E5.74563
G1 X83.063 Y72.799 E5.77303
G1 X83.331 Y72.319 E5.80039
G1 X83.819 Y71.719 E5.83888
G1 X83.936 Y71.602 E5.84711
M204 S5000
G0 F2400 X84.218 Y71.884
M204 S200
G1 F1200 X84.614 Y71.546 E5.87302
G1 X85.056 Y71.271 E5.89893
G1 X85.535 Y71.068 E5.92482
G1 X86.04 Y70.94 E5.95075
G1 X86.623 Y70.891 E5.97986
G1 X87.768 Y70.893 E6.03684
G1 X88.469 Y70.967 E6.07192
G1 X90.906 Y71.486 E6.19592
G1 X91.577 Y71.705 E6.23105
G1 X93.887 Y72.732 E6.35685
G1 X94.505 Y73.088 E6.39235
G1 X96.532 Y74.563 E6.5171
G1 X97.059 Y75.039 E6.55244
G1 X98.737 Y76.907 E6.6774
G1 X99.15 Y77.476 E6.71239
G1 X100.395 Y79.629 E6.83616
G1 X100.685 Y80.278 E6.87154
G1 X101.46 Y82.66 E6.9962
G1 X101.607 Y83.352 E7.0314
G1 X101.872 Y85.855 E7.15666
G1 X101.891 Y86.212 E7.17445
G1 X101.892 Y110.6 E8.38813
G1 X101.852 Y111.119 E8.41404
G1 X101.733 Y111.626 E8.43995
G1 X101.538 Y112.108 E8.46583
G1 X101.272 Y112.555 E8.49172
G1 X100.899 Y112.999 E8.52057
G1 X100.782 Y113.116 E8.52881
G1 X100.386 Y113.454 E8.55472
G1 X99.944 Y113.729 E8.58062
G1 X99.465 Y113.932 E8.60651
G1 X98.96 Y114.06 E8.63244
G1 X98.383 Y114.109 E8.66126
G1 X96.109 Y114.109 E8.77443
G1 X95.59 Y114.069 E8.80033
G1 X95.083 Y113.95 E8.82625
G1 X94.601 Y113.755 E8.85212
G1 X94.153 Y113.489 E8.87805
G1 X93.752 Y113.157 E8.90396
G1 X93.407 Y112.767 E8.92987
G1 X93.166 Y112.403 E8.9516
G1 X93.052 Y112.204 E8.96301
G1 X92.828 Y111.734 E8.98892
G1 X92.68 Y111.235 E9.01482
G1 X92.609 Y110.719 E9.04074
G1 X92.618 Y110.199 E9.06663
G1 X92.707 Y109.686 E9.09254
G1 X92.873 Y109.193 E9.11843
G1 X93.056 Y108.825 E9.13888
G1 X93.221 Y108.538 E9.15535
G1 X93.271 Y108.385 E9.16336
G1 X93.289 Y108.211 E9.17207
G1 X93.273 Y108.053 E9.17997
G1 X93.221 Y107.894 E9.1883
G1 X93.141 Y107.755 E9.19628
G1 X93.032 Y107.634 E9.20438
G1 X92.893 Y107.534 E9.2129
G1 X92.746 Y107.468 E9.22092
G1 X92.577 Y107.432 E9.22952
G1 X92.423 Y107.432 E9.23719
G1 X92.254 Y107.468 E9.24579
G1 X92.107 Y107.534 E9.2538
G1 X91.968 Y107.634 E9.26233
G1 X91.859 Y107.755 E9.27043
G1 X91.779 Y107.894 E9.27841
G1 X91.729 Y108.048 E9.28647
G1 X91.711 Y108.222 E9.29518
G1 X91.727 Y108.38 E9.30308
G1 X91.779 Y108.538 E9.31136
G1 X91.944 Y108.825 E9.32783
G1 X92.169 Y109.295 E9.35376
G1 X92.319 Y109.793 E9.37965
G1 X92.391 Y110.309 E9.40557
G1 X92.383 Y110.829 E9.43145
G1 X92.295 Y111.342 E9.45736
G1 X92.13 Y111.836 E9.48328
G1 X91.948 Y112.204 E9.50371
G1 X91.834 Y112.403 E9.51512
G1 X91.542 Y112.834 E9.54103
G1 X91.187 Y113.214 E9.56691
G1 X90.777 Y113.536 E9.59285
G1 X90.324 Y113.791 E9.61872
G1 X89.837 Y113.975 E9.64463
G1 X89.327 Y114.081 E9.67055
G1 X88.891 Y114.109 E9.6923
G1 X86.617 Y114.109 E9.80546
G1 X86.098 Y114.069 E9.83137
G1 X85.591 Y113.95 E9.85728
G1 X85.109 Y113.755 E9.88316
G1 X84.661 Y113.489 E9.90909
G1 X84.218 Y113.116 E9.93791
G1 X84.101 Y112.999 E9.94614
G1 X83.763 Y112.603 E9.97205
G1 X83.488 Y112.161 E9.99796
G1 X83.285 Y111.682 E10.02385
G1 X83.157 Y111.177 E10.04977
G1 X83.108 Y110.6 E10.07859
G1 X83.108 Y74.4 E11.8801
G1 X83.148 Y73.881 E11.90601
G1 X83.267 Y73.374 E11.93192
G1 X83.462 Y72.892 E11.9578
G1 X83.728 Y72.444 E11.98373
G1 X84.101 Y72.001 E12.01255
G1 X84.218 Y71.884 E12.02078
M204 S5000
G0 F2400 X84.384 Y72.284
M204 S200
G1 F1200 X84.501 Y72.167 E12.02902
G1 X84.873 Y71.85 E12.05334
G1 X85.293 Y71.599 E12.07769
G1 X85.747 Y71.419 E12.10199
G1 X86.225 Y71.316 E12.12633
G1 X86.622 Y71.29 E12.14613
G1 X87.767 Y71.292 E12.20311
G1 X88.385 Y71.358 E12.23404
G1 X90.822 Y71.877 E12.35804
G1 X91.415 Y72.069 E12.38906
G1 X93.725 Y73.096 E12.51486
G1 X94.27 Y73.411 E12.54619
G1 X96.297 Y74.886 E12.67095
G1 X96.763 Y75.306 E12.70217
G1 X98.441 Y77.174 E12.82713
G1 X98.805 Y77.676 E12.85799
G1 X100.05 Y79.829 E12.98175
G1 X100.305 Y80.401 E13.01292
G1 X101.08 Y82.783 E13.13758
G1 X101.21 Y83.394 E13.16867
G1 X101.475 Y85.897 E13.29393
G1 X101.492 Y86.212 E13.30962
G1 X101.493 Y110.6 E14.5233
G1 X101.453 Y111.087 E14.54762
G1 X101.334 Y111.561 E14.57194
G1 X101.14 Y112.01 E14.59628
G1 X100.875 Y112.421 E14.62062
G1 X100.616 Y112.716 E14.64016
G1 X100.499 Y112.833 E14.64839
G1 X100.127 Y113.15 E14.67271
G1 X99.707 Y113.401 E14.69706
G1 X99.253 Y113.581 E14.72137
G1 X98.775 Y113.684 E14.7457
G1 X98.383 Y113.71 E14.76525
G1 X96.109 Y113.71 E14.87842
G1 X95.622 Y113.67 E14.90274
G1 X95.147 Y113.551 E14.92711
G1 X94.699 Y113.357 E14.9514
G1 X94.288 Y113.092 E14.97574
G1 X93.925 Y112.764 E15.00009
G1 X93.512 Y112.205 E15.03467
G1 X93.398 Y112.006 E15.04609
G1 X93.19 Y111.563 E15.07044
G1 X93.058 Y111.093 E15.09474
G1 X93.003 Y110.607 E15.11908
G1 X93.029 Y110.118 E15.14345
G1 X93.133 Y109.641 E15.16774
G1 X93.401 Y109.024 E15.20122
G1 X93.588 Y108.699 E15.21988
G1 X93.664 Y108.467 E15.23203
G1 X93.69 Y108.215 E15.24464
G1 X93.664 Y107.966 E15.2571
G1 X93.587 Y107.729 E15.2695
G1 X93.467 Y107.521 E15.28145
G1 X93.299 Y107.335 E15.29392
G1 X93.096 Y107.188 E15.30639
G1 X92.867 Y107.086 E15.31887
G1 X92.619 Y107.033 E15.33149
G1 X92.381 Y107.033 E15.34333
G1 X92.133 Y107.086 E15.35595
G1 X91.904 Y107.188 E15.36843
G1 X91.701 Y107.335 E15.3809
G1 X91.533 Y107.521 E15.39338
G1 X91.413 Y107.729 E15.40533
G1 X91.336 Y107.966 E15.41773
G1 X91.31 Y108.217 E15.43029
G1 X91.336 Y108.467 E15.44279
G1 X91.412 Y108.699 E15.45494
G1 X91.599 Y109.024 E15.4736
G1 X91.807 Y109.466 E15.49791
G1 X91.941 Y109.937 E15.52228
G1 X91.996 Y110.422 E15.54657
G1 X91.972 Y110.911 E15.57094
G1 X91.869 Y111.388 E15.59522
G1 X91.602 Y112.006 E15.62873
G1 X91.488 Y112.205 E15.64014
G1 X91.211 Y112.608 E15.66448
G1 X90.872 Y112.96 E15.6888
G1 X90.481 Y113.253 E15.71311
G1 X90.047 Y113.478 E15.73744
G1 X89.582 Y113.629 E15.76177
G1 X88.891 Y113.71 E15.79639
G1 X86.617 Y113.71 E15.90956
G1 X86.13 Y113.67 E15.93388
G1 X85.655 Y113.551 E15.95825
G1 X85.207 Y113.357 E15.98254
G1 X84.796 Y113.092 E16.00688
G1 X84.501 Y112.833 E16.02642
G1 X84.384 Y112.716 E16.03465
G1 X84.067 Y112.344 E16.05897
G1 X83.816 Y111.924 E16.08332
G1 X83.636 Y111.47 E16.10763
G1 X83.533 Y110.992 E16.13196
G1 X83.507 Y110.6 E16.15151
G1 X83.507 Y74.4 E17.95302
G1 X83.547 Y73.913 E17.97734
G1 X83.666 Y73.438 E18.00171
G1 X83.86 Y72.99 E18.026
G1 X84.125 Y72.579 E18.05034
G1 X84.384 Y72.284 E18.06988
M204 S5000
G0 F2400 X84.783 Y72.449
M204 S200
G1 F1200 X85.132 Y72.156 E18.09255
G1 X85.526 Y71.93 E18.11516
G1 X85.954 Y71.775 E18.13781
G1 X86.622 Y71.689 E18.17133
G1 X87.767 Y71.691 E18.22831
G1 X88.302 Y71.748 E18.25509
G1 X90.739 Y72.267 E18.37908
G1 X91.253 Y72.434 E18.40598
G1 X93.563 Y73.461 E18.53179
G1 X94.035 Y73.734 E18.55892
G1 X96.062 Y75.209 E18.68368
G1 X96.466 Y75.573 E18.71074
G1 X98.144 Y77.441 E18.8357
G1 X98.46 Y77.875 E18.86242
G1 X99.705 Y80.028 E18.98619
G1 X99.926 Y80.524 E19.01321
G1 X100.701 Y82.906 E19.13787
G1 X100.814 Y83.436 E19.16484
G1 X101.079 Y85.939 E19.2901
G1 X101.093 Y86.212 E19.3037
G1 X101.094 Y110.6 E20.51738
G1 X101.054 Y111.053 E20.54001
G1 X100.936 Y111.493 E20.56268
G1 X100.742 Y111.905 E20.58534
G1 X100.334 Y112.434 E20.61859
G1 X100.217 Y112.551 E20.62683
G1 X99.868 Y112.844 E20.6495
G1 X99.474 Y113.07 E20.67211
G1 X99.046 Y113.225 E20.69476
G1 X98.383 Y113.311 E20.72803
G1 X96.109 Y113.311 E20.8412
G1 X95.656 Y113.271 E20.86383
G1 X95.216 Y113.153 E20.8865
G1 X94.804 Y112.959 E20.90916
G1 X94.433 Y112.697 E20.93177
G1 X94.112 Y112.373 E20.95446
G1 X93.858 Y112.006 E20.97667
G1 X93.744 Y111.807 E20.98809
G1 X93.553 Y111.394 E21.01073
G1 X93.438 Y110.954 E21.03336
G1 X93.401 Y110.5 E21.05603
G1 X93.444 Y110.047 E21.07868
G1 X93.566 Y109.609 E21.10131
G1 X93.747 Y109.223 E21.12252
G1 X93.954 Y108.864 E21.14314
G1 X94.057 Y108.549 E21.15964
G1 X94.092 Y108.215 E21.17635
G1 X94.057 Y107.884 E21.19291
G1 X93.952 Y107.564 E21.20967
G1 X93.792 Y107.285 E21.22568
G1 X93.567 Y107.036 E21.24238
G1 X93.295 Y106.839 E21.2591
G1 X92.996 Y106.706 E21.27538
G1 X92.66 Y106.634 E21.29248
G1 X92.34 Y106.634 E21.30841
G1 X92.004 Y106.706 E21.32551
G1 X91.705 Y106.839 E21.34179
G1 X91.433 Y107.036 E21.35851
G1 X91.208 Y107.285 E21.37521
G1 X91.048 Y107.564 E21.39121
G1 X90.943 Y107.884 E21.40797
G1 X90.908 Y108.218 E21.42469
G1 X90.943 Y108.548 E21.4412
G1 X91.046 Y108.864 E21.45774
G1 X91.253 Y109.223 E21.47836
G1 X91.444 Y109.636 E21.50101
G1 X91.561 Y110.076 E21.52367
G1 X91.599 Y110.529 E21.54629
G1 X91.557 Y110.983 E21.56898
G1 X91.437 Y111.421 E21.59158
G1 X91.256 Y111.807 E21.6128
G1 X91.142 Y112.006 E21.62421
G1 X90.882 Y112.38 E21.64688
G1 X90.561 Y112.702 E21.6695
G1 X90.188 Y112.964 E21.69219
G1 X89.775 Y113.156 E21.71485
G1 X89.336 Y113.273 E21.73746
G1 X88.891 Y113.311 E21.75969
G1 X86.617 Y113.311 E21.87286
G1 X86.164 Y113.271 E21.89549
G1 X85.724 Y113.153 E21.91816
G1 X85.312 Y112.959 E21.94082
G1 X84.783 Y112.551 E21.97407
G1 X84.666 Y112.434 E21.9823
G1 X84.373 Y112.085 E22.00498
G1 X84.147 Y111.691 E22.02758
G1 X83.992 Y111.263 E22.05024
G1 X83.906 Y110.6 E22.08351
G1 X83.906 Y74.4 E23.88502
G1 X83.946 Y73.947 E23.90765
G1 X84.064 Y73.507 E23.93032
G1 X84.258 Y73.095 E23.95298
G1 X84.666 Y72.566 E23.98623
G1 X84.783 Y72.449 E23.99446
M204 S5000
G0 F2400 X85.065 Y72.731
M204 S200
G1 F1200 X85.388 Y72.464 E24.01532
G1 X85.755 Y72.264 E24.03612
G1 X86.154 Y72.137 E24.05696
G1 X86.621 Y72.088 E24.08033
G1 X87.766 Y72.09 E24.13731
G1 X88.219 Y72.138 E24.15998
G1 X90.656 Y72.657 E24.28397
G1 X91.091 Y72.798 E24.30673
G1 X93.401 Y73.825 E24.43254
G1 X93.801 Y74.056 E24.45553
G1 X95.828 Y75.531 E24.58028
G1 X96.169 Y75.839 E24.60315
G1 X97.847 Y77.707 E24.72811
G1 X98.114 Y78.075 E24.75074
G1 X99.359 Y80.228 E24.87451
G1 X99.546 Y80.648 E24.89739
G1 X100.321 Y83.03 E25.02204
G1 X100.417 Y83.478 E25.04484
G1 X100.682 Y85.981 E25.1701
G1 X100.694 Y86.212 E25.18161
G1 X100.695 Y110.6 E26.3953
G1 X100.655 Y111.017 E26.41614
G1 X100.537 Y111.418 E26.43694
G1 X100.345 Y111.79 E26.45778
G1 X100.052 Y112.152 E26.48095
G1 X99.935 Y112.269 E26.48919
G1 X99.612 Y112.536 E26.51004
G1 X99.245 Y112.736 E26.53084
G1 X98.846 Y112.863 E26.55168
G1 X98.383 Y112.912 E26.57485
G1 X96.109 Y112.912 E26.68802
G1 X95.692 Y112.872 E26.70887
G1 X95.291 Y112.754 E26.72967
G1 X94.919 Y112.561 E26.75052
G1 X94.591 Y112.302 E26.77132
G1 X94.317 Y111.985 E26.79217
G1 X94.204 Y111.808 E26.80263
G1 X94.09 Y111.609 E26.81404
G1 X93.918 Y111.228 E26.83484
G1 X93.821 Y110.821 E26.85566
G1 X93.803 Y110.402 E26.87653
G1 X93.865 Y109.988 E26.89737
G1 X94.093 Y109.422 E26.92773
G1 X94.321 Y109.025 E26.95052
G1 X94.449 Y108.635 E26.97094
G1 X94.493 Y108.215 E26.99196
G1 X94.449 Y107.798 E27.01283
G1 X94.321 Y107.406 E27.03335
G1 X94.116 Y107.049 E27.05384
G1 X93.834 Y106.737 E27.07477
G1 X93.497 Y106.493 E27.09547
G1 X93.119 Y106.324 E27.11608
G1 X92.701 Y106.235 E27.13734
G1 X92.299 Y106.235 E27.15735
G1 X91.881 Y106.324 E27.17862
G1 X91.503 Y106.493 E27.19922
G1 X91.166 Y106.737 E27.21993
G1 X90.884 Y107.049 E27.24086
G1 X90.679 Y107.406 E27.26135
G1 X90.551 Y107.798 E27.28187
G1 X90.507 Y108.215 E27.30274
G1 X90.551 Y108.635 E27.32375
G1 X90.679 Y109.025 E27.34418
G1 X90.907 Y109.422 E27.36696
G1 X91.08 Y109.803 E27.38779
G1 X91.178 Y110.21 E27.40862
G1 X91.197 Y110.628 E27.42944
G1 X91.136 Y111.043 E27.45032
G1 X90.91 Y111.609 E27.48065
G1 X90.796 Y111.808 E27.49206
G1 X90.554 Y112.15 E27.51291
G1 X90.252 Y112.439 E27.53371
G1 X89.9 Y112.666 E27.55456
G1 X89.512 Y112.822 E27.57537
G1 X89.101 Y112.902 E27.5962
G1 X88.891 Y112.912 E27.60667
G1 X86.617 Y112.912 E27.71983
G1 X86.2 Y112.872 E27.74068
G1 X85.799 Y112.754 E27.76148
G1 X85.427 Y112.561 E27.78234
G1 X85.065 Y112.269 E27.80548
G1 X84.948 Y112.152 E27.81372
G1 X84.681 Y111.829 E27.83457
G1 X84.481 Y111.462 E27.85537
G1 X84.354 Y111.063 E27.87621
G1 X84.305 Y110.6 E27.89938
G1 X84.305 Y74.4 E29.70089
G1 X84.345 Y73.983 E29.72174
G1 X84.463 Y73.582 E29.74254
G1 X84.656 Y73.21 E29.7634
G1 X84.948 Y72.848 E29.78654
G1 X85.065 Y72.731 E29.79478
M204 S5000
G0 F2400 X85.23 Y73.13
M204 S200
G1 F1200 X85.347 Y73.013 E29.80301
G1 X85.641 Y72.775 E29.82184
G1 X85.979 Y72.604 E29.84069
G1 X86.345 Y72.508 E29.85952
G1 X86.62 Y72.487 E29.87324
G1 X87.765 Y72.489 E29.93022
G1 X88.136 Y72.528 E29.94879
G1 X90.573 Y73.047 E30.07279
G1 X90.929 Y73.163 E30.09142
G1 X93.239 Y74.19 E30.21723
G1 X93.566 Y74.379 E30.23602
G1 X95.593 Y75.854 E30.36078
G1 X95.872 Y76.106 E30.37949
G1 X97.55 Y77.974 E30.50445
G1 X97.769 Y78.275 E30.52297
G1 X99.014 Y80.428 E30.64674
G1 X99.167 Y80.771 E30.66543
G1 X99.942 Y83.153 E30.79009
G1 X100.02 Y83.52 E30.80876
G1 X100.285 Y86.023 E30.93402
G1 X100.295 Y86.212 E30.94344
G1 X100.296 Y110.6 E32.15712
G1 X100.256 Y110.976 E32.17594
G1 X100.138 Y111.336 E32.19479
G1 X99.948 Y111.663 E32.21361
G1 X99.77 Y111.87 E32.2272
G1 X99.653 Y111.987 E32.23544
G1 X99.359 Y112.225 E32.25426
G1 X99.021 Y112.396 E32.27311
G1 X98.655 Y112.492 E32.29194
G1 X98.383 Y112.513 E32.30552
G1 X96.109 Y112.513 E32.41868
G1 X95.733 Y112.473 E32.4375
G1 X95.373 Y112.355 E32.45635
G1 X95.046 Y112.165 E32.47518
G1 X94.766 Y111.91 E32.49402
G1 X94.551 Y111.61 E32.51239
G1 X94.437 Y111.411 E32.5238
G1 X94.284 Y111.064 E32.54268
G1 X94.208 Y110.694 E32.56147
G1 X94.211 Y110.315 E32.58034
G1 X94.293 Y109.946 E32.59915
G1 X94.439 Y109.622 E32.61683
G1 X94.686 Y109.193 E32.64147
G1 X94.842 Y108.717 E32.6664
G1 X94.894 Y108.215 E32.69151
G1 X94.842 Y107.716 E32.71648
G1 X94.687 Y107.241 E32.74134
G1 X94.44 Y106.813 E32.76594
G1 X94.102 Y106.438 E32.79106
G1 X93.698 Y106.145 E32.8159
G1 X93.24 Y105.941 E32.84085
G1 X92.747 Y105.836 E32.86593
G1 X92.253 Y105.836 E32.89052
G1 X91.76 Y105.941 E32.9156
G1 X91.302 Y106.145 E32.94055
G1 X90.898 Y106.438 E32.96539
G1 X90.56 Y106.813 E32.99051
G1 X90.313 Y107.241 E33.0151
G1 X90.158 Y107.716 E33.03997
