;FLAVOR:Marlin
;TIME:6816
;Filament used: 4.91995m
;Layer height: 0.2
;Generated with Cura_SteamEngine 2.7.0
M190 S60
M104 S220
M109 S220
G21 ;metric values
G90 ;absolute positioning
M82 ;set extruder to absolute mode
M107 ;start with the fan off
G92 E0 ;zero the extruded length
G1 F200 E3 ;extrude 3mm of feed stock
G92 E0 ;zero the extruded length again
G1 F9000
M117 Printing...
;LAYER_COUNT:140
;LAYER:0
M107
M204 S5000
G0 F2400 X56.267 Y76.951 Z0.3
M204 S200
;TYPE:SKIRT
G1 F1200 X57.281 Y76.215 E0.06235
G1 X57.975 Y75.816 E0.10219
G1 X59.122 Y75.309 E0.1646
G1 X59.864 Y75.068 E0.20343
G1 X61.074 Y74.81 E0.265
G1 X61.859 Y74.727 E0.30428
G1 X63.108 Y74.725 E0.36644
G1 X63.901 Y74.808 E0.40612
G1 X65.15 Y75.073 E0.46966
G1 X65.909 Y75.32 E0.50938
G1 X67.055 Y75.832 E0.57184
G1 X67.745 Y76.231 E0.61151
G1 X68.757 Y76.97 E0.67387
G1 X69.341 Y77.498 E0.71305
G1 X70.182 Y78.434 E0.77567
G1 X70.649 Y79.079 E0.8153
G1 X71.271 Y80.161 E0.87741
G1 X71.506 Y80.693 E0.90635
G1 X101.091 Y80.693 E2.37866
G1 X101.346 Y80.477 E2.3953
G1 X101.813 Y80.185 E2.42271
G1 X102.317 Y79.964 E2.45009
G1 X102.601 Y79.876 E2.46489
G1 X118.315 Y75.667 E3.27447
G1 X119.12 Y75.31 E3.31829
G1 X119.864 Y75.068 E3.35723
G1 X121.074 Y74.81 E3.4188
G1 X121.859 Y74.727 E3.45808
G1 X123.108 Y74.725 E3.52024
G1 X123.901 Y74.808 E3.55992
G1 X125.15 Y75.073 E3.62346
G1 X125.909 Y75.32 E3.66318
G1 X127.055 Y75.832 E3.72565
G1 X127.745 Y76.231 E3.76531
G1 X128.757 Y76.97 E3.82767
G1 X129.341 Y77.498 E3.86685
G1 X130.182 Y78.434 E3.92947
G1 X130.649 Y79.079 E3.9691
G1 X131.271 Y80.161 E4.03121
G1 X131.591 Y80.885 E4.07061
G1 X131.977 Y82.08 E4.1331
G1 X132.14 Y82.851 E4.17232
G1 X132.27 Y84.095 E4.23456
G1 X132.291 Y84.489 E4.2542
G1 X132.291 Y106.367 E5.34297
G1 X132.251 Y106.916 E5.37036
G1 X132.132 Y107.453 E5.39773
G1 X131.937 Y107.968 E5.42514
G1 X131.669 Y108.448 E5.4525
G1 X131.181 Y109.048 E5.49099
G1 X131.064 Y109.165 E5.49922
G1 X130.647 Y109.525 E5.52664
G1 X130.183 Y109.82 E5.554
G1 X129.681 Y110.046 E5.5814
G1 X129.152 Y110.196 E5.60876
G1 X128.383 Y110.275 E5.64723
G1 X123.617 Y110.275 E5.88441
G1 X123.068 Y110.235 E5.91181
G1 X122.531 Y110.116 E5.93918
G1 X122.49 Y110.1 E5.94137
G1 X122.152 Y110.196 E5.95886
G1 X121.383 Y110.275 E5.99733
G1 X116.617 Y110.275 E6.23451
G1 X116.068 Y110.235 E6.2619
G1 X115.531 Y110.116 E6.28927
G1 X115.016 Y109.921 E6.31668
G1 X114.536 Y109.653 E6.34404
G1 X113.936 Y109.165 E6.38253
G1 X113.819 Y109.048 E6.39076
G1 X113.459 Y108.631 E6.41818
G1 X113.164 Y108.167 E6.44554
G1 X112.938 Y107.665 E6.47294
G1 X112.788 Y107.136 E6.5003
G1 X112.709 Y106.367 E6.53877
G1 X112.709 Y93.685 E7.1699
G1 X112.684 Y93.442 E7.18205
G1 X112.671 Y93.402 E7.18415
G1 X112.654 Y93.374 E7.18578
G1 X112.63 Y93.347 E7.18758
G1 X112.625 Y93.344 E7.18787
G1 X112.322 Y93.296 E7.20313
G1 X72.479 Y93.298 E9.18594
G1 X72.44 Y93.306 E9.18792
G1 X72.405 Y93.322 E9.18983
G1 X72.371 Y93.346 E9.19191
G1 X72.348 Y93.373 E9.19367
G1 X72.325 Y93.412 E9.19592
G1 X72.318 Y93.435 E9.19712
G1 X72.291 Y93.708 E9.21077
G1 X72.291 Y106.367 E9.84075
G1 X72.251 Y106.916 E9.86815
G1 X72.132 Y107.453 E9.89552
G1 X71.937 Y107.968 E9.92293
G1 X71.669 Y108.448 E9.95028
G1 X71.181 Y109.048 E9.98877
G1 X71.064 Y109.165 E9.99701
G1 X70.647 Y109.525 E10.02442
G1 X70.183 Y109.82 E10.05179
G1 X69.681 Y110.046 E10.07918
G1 X69.152 Y110.196 E10.10655
G1 X68.383 Y110.275 E10.14502
G1 X63.617 Y110.275 E10.3822
G1 X63.068 Y110.235 E10.40959
G1 X62.531 Y110.116 E10.43697
G1 X62.49 Y110.1 E10.43916
G1 X62.152 Y110.196 E10.45664
G1 X61.383 Y110.275 E10.49511
G1 X56.617 Y110.275 E10.7323
G1 X56.068 Y110.235 E10.75969
G1 X55.531 Y110.116 E10.78706
G1 X55.016 Y109.921 E10.81447
G1 X54.536 Y109.653 E10.84182
G1 X53.936 Y109.165 E10.88031
G1 X53.819 Y109.048 E10.88855
G1 X53.459 Y108.631 E10.91596
G1 X53.164 Y108.167 E10.94333
G1 X52.938 Y107.665 E10.97072
G1 X52.788 Y107.136 E10.99809
G1 X52.709 Y106.367 E11.03656
G1 X52.71 Y84.479 E12.12582
G1 X52.731 Y84.076 E12.14591
G1 X52.865 Y82.823 E12.20862
G1 X53.03 Y82.054 E12.24776
G1 X53.418 Y80.861 E12.31019
G1 X53.744 Y80.13 E12.35002
G1 X54.372 Y79.048 E12.41228
G1 X54.839 Y78.408 E12.45171
G1 X55.682 Y77.476 E12.51425
G1 X56.267 Y76.951 E12.55337
M204 S5000
G0 F2400 X56.501 Y77.274
M204 S200
G1 F1200 X57.515 Y76.538 E12.61572
G1 X58.137 Y76.181 E12.65141
G1 X59.284 Y75.674 E12.71382
G1 X59.948 Y75.459 E12.74855
G1 X61.158 Y75.201 E12.81012
G1 X61.86 Y75.126 E12.84526
G1 X63.109 Y75.124 E12.90741
G1 X63.818 Y75.198 E12.94289
G1 X65.067 Y75.463 E13.00643
G1 X65.747 Y75.684 E13.04201
G1 X66.893 Y76.196 E13.10448
G1 X67.509 Y76.554 E13.13993
G1 X68.521 Y77.293 E13.2023
G1 X69.044 Y77.765 E13.23736
G1 X69.885 Y78.701 E13.29998
G1 X70.303 Y79.277 E13.33539
G1 X70.925 Y80.359 E13.3975
G1 X71.212 Y81.007 E13.43277
G1 X71.239 Y81.092 E13.43721
G1 X101.233 Y81.092 E14.92988
G1 X101.627 Y80.766 E14.95533
G1 X102.074 Y80.499 E14.98124
G1 X102.704 Y80.262 E15.01473
G1 X118.445 Y76.045 E15.82572
G1 X119.281 Y75.675 E15.87121
G1 X119.948 Y75.459 E15.9061
G1 X121.158 Y75.201 E15.96767
G1 X121.86 Y75.126 E16.00281
G1 X123.109 Y75.124 E16.06497
G1 X123.818 Y75.198 E16.10044
G1 X125.067 Y75.463 E16.16398
G1 X125.747 Y75.684 E16.19956
G1 X126.893 Y76.196 E16.26203
G1 X127.509 Y76.554 E16.29748
G1 X128.521 Y77.293 E16.35985
G1 X129.044 Y77.765 E16.39491
G1 X129.885 Y78.701 E16.45753
G1 X130.303 Y79.277 E16.49294
G1 X130.925 Y80.359 E16.55505
G1 X131.212 Y81.007 E16.59032
G1 X131.598 Y82.202 E16.65282
G1 X131.744 Y82.892 E16.68792
G1 X131.874 Y84.136 E16.75016
G1 X131.892 Y84.489 E16.76775
G1 X131.892 Y106.367 E17.85652
G1 X131.852 Y106.886 E17.88243
G1 X131.733 Y107.393 E17.90834
G1 X131.538 Y107.875 E17.93422
G1 X131.272 Y108.323 E17.96015
G1 X130.899 Y108.766 E17.98897
G1 X130.782 Y108.883 E17.9972
G1 X130.386 Y109.221 E18.02311
G1 X129.944 Y109.496 E18.04902
G1 X129.465 Y109.699 E18.07491
G1 X128.96 Y109.827 E18.10083
G1 X128.383 Y109.876 E18.12965
G1 X123.617 Y109.876 E18.36683
G1 X123.098 Y109.836 E18.39274
G1 X122.591 Y109.717 E18.41866
G1 X122.505 Y109.682 E18.42328
G1 X122.465 Y109.699 E18.42544
G1 X121.96 Y109.827 E18.45137
G1 X121.383 Y109.876 E18.48018
G1 X116.617 Y109.876 E18.71737
G1 X116.098 Y109.836 E18.74327
G1 X115.591 Y109.717 E18.76919
G1 X115.109 Y109.522 E18.79506
G1 X114.661 Y109.256 E18.82099
G1 X114.218 Y108.883 E18.84981
G1 X114.101 Y108.766 E18.85805
G1 X113.763 Y108.37 E18.88396
G1 X113.488 Y107.928 E18.90986
G1 X113.285 Y107.449 E18.93575
G1 X113.157 Y106.944 E18.96168
G1 X113.108 Y106.367 E18.9905
G1 X113.108 Y93.663 E19.62272
G1 X113.076 Y93.356 E19.63808
G1 X113.04 Y93.245 E19.64389
G1 X112.978 Y93.137 E19.65008
G1 X112.895 Y93.046 E19.65621
G1 X112.798 Y92.975 E19.66219
G1 X112.769 Y92.962 E19.66378
G1 X112.352 Y92.897 E19.68478
G1 X72.437 Y92.899 E21.67117
G1 X72.316 Y92.925 E21.67733
G1 X72.204 Y92.975 E21.68343
G1 X72.103 Y93.048 E21.68963
G1 X72.024 Y93.136 E21.69552
G1 X71.958 Y93.251 E21.70212
G1 X71.925 Y93.354 E21.7075
G1 X71.892 Y93.689 E21.72425
G1 X71.892 Y106.367 E22.35518
G1 X71.852 Y106.886 E22.38108
G1 X71.733 Y107.393 E22.407
G1 X71.538 Y107.875 E22.43287
G1 X71.272 Y108.323 E22.4588
G1 X70.899 Y108.766 E22.48762
G1 X70.782 Y108.883 E22.49586
G1 X70.386 Y109.221 E22.52177
G1 X69.944 Y109.496 E22.54767
G1 X69.465 Y109.699 E22.57356
G1 X68.96 Y109.827 E22.59949
G1 X68.383 Y109.876 E22.62831
G1 X63.617 Y109.876 E22.86549
G1 X63.098 Y109.836 E22.8914
G1 X62.591 Y109.717 E22.91731
G1 X62.505 Y109.682 E22.92193
G1 X62.465 Y109.699 E22.9241
G1 X61.96 Y109.827 E22.95002
G1 X61.383 Y109.876 E22.97884
G1 X56.617 Y109.876 E23.21602
G1 X56.098 Y109.836 E23.24193
G1 X55.591 Y109.717 E23.26784
G1 X55.109 Y109.522 E23.29372
G1 X54.661 Y109.256 E23.31965
G1 X54.218 Y108.883 E23.34847
G1 X54.101 Y108.766 E23.3567
G1 X53.763 Y108.37 E23.38261
G1 X53.488 Y107.928 E23.40852
G1 X53.285 Y107.449 E23.43441
G1 X53.157 Y106.944 E23.46033
G1 X53.108 Y106.367 E23.48915
G1 X53.109 Y84.479 E24.57842
G1 X53.128 Y84.118 E24.59641
G1 X53.262 Y82.865 E24.65912
G1 X53.409 Y82.177 E24.69413
G1 X53.797 Y80.984 E24.75656
G1 X54.089 Y80.33 E24.79221
G1 X54.717 Y79.248 E24.85447
G1 X55.135 Y78.676 E24.88972
G1 X55.978 Y77.744 E24.95226
G1 X56.501 Y77.274 E24.98726
M204 S5000
G0 F2400 X56.736 Y77.597
M204 S200
G1 F1200 X57.75 Y76.861 E25.04961
G1 X58.298 Y76.546 E25.08107
G1 X59.445 Y76.039 E25.14347
G1 X60.031 Y75.849 E25.17413
G1 X61.241 Y75.591 E25.2357
G1 X61.86 Y75.525 E25.26668
G1 X63.109 Y75.523 E25.32884
G1 X63.735 Y75.588 E25.36016
G1 X64.984 Y75.853 E25.4237
G1 X65.584 Y76.048 E25.4551
G1 X66.73 Y76.56 E25.51756
G1 X67.274 Y76.876 E25.54887
G1 X68.286 Y77.615 E25.61123
G1 X68.747 Y78.032 E25.64216
G1 X69.588 Y78.968 E25.70479
G1 X69.957 Y79.476 E25.73603
G1 X70.579 Y80.558 E25.79814
G1 X70.832 Y81.13 E25.82927
G1 X70.949 Y81.491 E25.84815
G1 X101.411 Y81.491 E27.36411
G1 X101.525 Y81.364 E27.3726
G1 X101.906 Y81.058 E27.39692
G1 X102.332 Y80.818 E27.42125
G1 X102.808 Y80.647 E27.44642
G1 X118.576 Y76.423 E28.25879
G1 X119.443 Y76.039 E28.30598
G1 X120.031 Y75.849 E28.33674
G1 X121.241 Y75.591 E28.39831
G1 X121.86 Y75.525 E28.42928
G1 X123.109 Y75.523 E28.49144
G1 X123.735 Y75.588 E28.52276
G1 X124.984 Y75.853 E28.5863
G1 X125.584 Y76.048 E28.6177
G1 X126.73 Y76.56 E28.68016
G1 X127.274 Y76.876 E28.71147
G1 X128.286 Y77.615 E28.77383
G1 X128.747 Y78.032 E28.80477
G1 X129.588 Y78.968 E28.86739
G1 X129.957 Y79.476 E28.89864
G1 X130.579 Y80.558 E28.96075
G1 X130.832 Y81.13 E28.99187
G1 X131.218 Y82.325 E29.05437
G1 X131.347 Y82.934 E29.08535
G1 X131.477 Y84.178 E29.14759
G1 X131.493 Y84.489 E29.16309
G1 X131.493 Y106.367 E30.25186
G1 X131.453 Y106.854 E30.27618
G1 X131.334 Y107.329 E30.30055
G1 X131.14 Y107.777 E30.32484
G1 X130.875 Y108.188 E30.34918
G1 X130.616 Y108.483 E30.36871
G1 X130.499 Y108.6 E30.37695
G1 X130.127 Y108.917 E30.40127
G1 X129.707 Y109.168 E30.42562
G1 X129.253 Y109.348 E30.44992
G1 X128.775 Y109.451 E30.47426
G1 X128.383 Y109.477 E30.49381
G1 X123.617 Y109.477 E30.73099
G1 X123.13 Y109.437 E30.75531
G1 X122.655 Y109.318 E30.77968
G1 X122.499 Y109.25 E30.78815
G1 X122.253 Y109.348 E30.80133
G1 X121.775 Y109.451 E30.82566
G1 X121.383 Y109.477 E30.84521
G1 X116.617 Y109.477 E31.08239
G1 X116.13 Y109.437 E31.10671
G1 X115.655 Y109.318 E31.13108
G1 X115.207 Y109.124 E31.15537
G1 X114.796 Y108.859 E31.17971
G1 X114.501 Y108.6 E31.19925
G1 X114.384 Y108.483 E31.20748
G1 X114.067 Y108.111 E31.2318
G1 X113.816 Y107.691 E31.25615
G1 X113.636 Y107.237 E31.28046
G1 X113.533 Y106.759 E31.30479
G1 X113.507 Y106.367 E31.32434
G1 X113.507 Y93.64 E31.95771
G1 X113.469 Y93.275 E31.97597
G1 X113.405 Y93.078 E31.98628
G1 X113.305 Y92.905 E31.99622
G1 X113.163 Y92.747 E32.0068
G1 X113 Y92.629 E32.01681
G1 X112.881 Y92.576 E32.02329
G1 X112.382 Y92.498 E32.04843
G1 X72.396 Y92.5 E34.03835
G1 X72.191 Y92.544 E34.04878
G1 X72.005 Y92.627 E34.05892
G1 X71.832 Y92.753 E34.06957
G1 X71.7 Y92.9 E34.0794
G1 X71.591 Y93.089 E34.09026
G1 X71.532 Y93.269 E34.09969
G1 X71.493 Y93.67 E34.11974
G1 X71.493 Y106.367 E34.75161
G1 X71.453 Y106.854 E34.77593
G1 X71.334 Y107.329 E34.8003
G1 X71.14 Y107.777 E34.82459
G1 X70.875 Y108.188 E34.84893
G1 X70.616 Y108.483 E34.86846
G1 X70.499 Y108.6 E34.8767
G1 X70.127 Y108.917 E34.90102
G1 X69.707 Y109.168 E34.92537
G1 X69.253 Y109.348 E34.94968
G1 X68.775 Y109.451 E34.97401
G1 X68.383 Y109.477 E34.99356
G1 X63.617 Y109.477 E35.23074
G1 X63.13 Y109.437 E35.25506
G1 X62.655 Y109.318 E35.27943
G1 X62.499 Y109.25 E35.2879
G1 X62.253 Y109.348 E35.30108
G1 X61.775 Y109.451 E35.32541
G1 X61.383 Y109.477 E35.34496
G1 X56.617 Y109.477 E35.58214
G1 X56.13 Y109.437 E35.60646
G1 X55.655 Y109.318 E35.63083
G1 X55.207 Y109.124 E35.65513
G1 X54.796 Y108.859 E35.67946
G1 X54.501 Y108.6 E35.699
G1 X54.384 Y108.483 E35.70723
G1 X54.067 Y108.111 E35.73155
G1 X53.816 Y107.691 E35.7559
G1 X53.636 Y107.237 E35.78021
G1 X53.533 Y106.759 E35.80454
G1 X53.507 Y106.367 E35.82409
G1 X53.508 Y84.479 E36.91336
G1 X53.525 Y84.161 E36.92921
G1 X53.659 Y82.908 E36.99192
G1 X53.789 Y82.3 E37.02286
G1 X54.177 Y81.107 E37.08529
G1 X54.434 Y80.531 E37.11668
G1 X55.062 Y79.449 E37.17894
G1 X55.431 Y78.943 E37.21011
G1 X56.274 Y78.011 E37.27265
G1 X56.736 Y77.597 E37.30352
M204 S5000
G0 F2400 X56.97 Y77.92
M204 S200
G1 F1200 X57.984 Y77.184 E37.36587
G1 X58.459 Y76.91 E37.39316
G1 X59.606 Y76.403 E37.45557
G1 X60.114 Y76.239 E37.48214
G1 X61.324 Y75.981 E37.54371
G1 X61.861 Y75.924 E37.57058
G1 X63.11 Y75.922 E37.63274
G1 X63.652 Y75.978 E37.65985
G1 X64.901 Y76.243 E37.72339
G1 X65.421 Y76.413 E37.75062
G1 X66.567 Y76.925 E37.81308
G1 X67.039 Y77.198 E37.84022
G1 X68.051 Y77.937 E37.90258
G1 X68.451 Y78.298 E37.9294
G1 X69.292 Y79.234 E37.99202
G1 X69.611 Y79.675 E38.0191
G1 X70.233 Y80.757 E38.08121
G1 X70.452 Y81.253 E38.10819
G1 X70.658 Y81.89 E38.14151
G1 X101.588 Y81.89 E39.68076
G1 X101.822 Y81.632 E39.69809
G1 X102.182 Y81.354 E39.72073
G1 X102.585 Y81.143 E39.74337
G1 X102.911 Y81.032 E39.7605
G1 X118.714 Y76.799 E40.57467
G1 X119.605 Y76.404 E40.62318
G1 X120.114 Y76.239 E40.6498
G1 X121.324 Y75.981 E40.71137
G1 X121.861 Y75.924 E40.73825
G1 X123.11 Y75.922 E40.8004
G1 X123.652 Y75.978 E40.82752
G1 X124.901 Y76.243 E40.89106
G1 X125.421 Y76.413 E40.91829
G1 X126.567 Y76.925 E40.98075
G1 X127.039 Y77.198 E41.00789
G1 X128.051 Y77.937 E41.07025
G1 X128.451 Y78.298 E41.09706
G1 X129.292 Y79.234 E41.15968
G1 X129.611 Y79.675 E41.18677
G1 X130.233 Y80.757 E41.24888
G1 X130.452 Y81.253 E41.27586
G1 X130.838 Y82.448 E41.33836
G1 X130.95 Y82.975 E41.36517
G1 X131.08 Y84.219 E41.42742
G1 X131.094 Y84.489 E41.44087
G1 X131.094 Y106.367 E42.52964
G1 X131.054 Y106.82 E42.55227
G1 X130.936 Y107.26 E42.57494
G1 X130.742 Y107.672 E42.5976
G1 X130.334 Y108.201 E42.63085
G1 X130.217 Y108.318 E42.63908
G1 X129.868 Y108.611 E42.66176
G1 X129.474 Y108.837 E42.68437
G1 X129.046 Y108.992 E42.70702
G1 X128.383 Y109.078 E42.74029
G1 X123.617 Y109.078 E42.97747
G1 X123.164 Y109.038 E43.0001
G1 X122.724 Y108.92 E43.02278
G1 X122.507 Y108.818 E43.03471
G1 X122.474 Y108.837 E43.0366
G1 X122.046 Y108.992 E43.05926
G1 X121.383 Y109.078 E43.09253
G1 X116.617 Y109.078 E43.32971
G1 X116.164 Y109.038 E43.35234
G1 X115.724 Y108.92 E43.37501
G1 X115.312 Y108.726 E43.39767
G1 X114.783 Y108.318 E43.43092
G1 X114.666 Y108.201 E43.43915
G1 X114.373 Y107.852 E43.46183
G1 X114.147 Y107.458 E43.48444
G1 X113.992 Y107.03 E43.50709
G1 X113.906 Y106.367 E43.54036
G1 X113.906 Y93.619 E44.17477
G1 X113.862 Y93.193 E44.19608
G1 X113.77 Y92.913 E44.21075
G1 X113.628 Y92.666 E44.22493
G1 X113.435 Y92.452 E44.23927
G1 X113.196 Y92.279 E44.25395
G1 X112.999 Y92.191 E44.26469
G1 X112.413 Y92.099 E44.29421
G1 X72.354 Y92.101 E46.28777
G1 X72.066 Y92.163 E46.30243
G1 X71.803 Y92.281 E46.31677
G1 X71.564 Y92.455 E46.33148
G1 X71.374 Y92.666 E46.34561
G1 X71.225 Y92.925 E46.36048
G1 X71.14 Y93.188 E46.37424
G1 X71.094 Y93.652 E46.39744
G1 X71.094 Y106.367 E47.03021
G1 X71.054 Y106.82 E47.05284
G1 X70.936 Y107.26 E47.07551
G1 X70.742 Y107.672 E47.09818
G1 X70.334 Y108.201 E47.13142
G1 X70.217 Y108.318 E47.13966
G1 X69.868 Y108.611 E47.16234
G1 X69.474 Y108.837 E47.18494
G1 X69.046 Y108.992 E47.20759
G1 X68.383 Y109.078 E47.24086
G1 X63.617 Y109.078 E47.47805
G1 X63.164 Y109.038 E47.50068
G1 X62.724 Y108.92 E47.52335
G1 X62.507 Y108.818 E47.53528
G1 X62.474 Y108.837 E47.53718
G1 X62.046 Y108.992 E47.55983
G1 X61.383 Y109.078 E47.5931
G1 X56.617 Y109.078 E47.83028
G1 X56.164 Y109.038 E47.85291
G1 X55.724 Y108.92 E47.87558
G1 X55.312 Y108.726 E47.89825
G1 X54.783 Y108.318 E47.93149
G1 X54.666 Y108.201 E47.93973
G1 X54.373 Y107.852 E47.9624
G1 X54.147 Y107.458 E47.98501
G1 X53.992 Y107.03 E48.00766
G1 X53.906 Y106.367 E48.04093
G1 X53.907 Y84.479 E49.1302
G1 X53.922 Y84.203 E49.14396
G1 X54.056 Y82.95 E49.20667
G1 X54.168 Y82.424 E49.23343
G1 X54.556 Y81.231 E49.29586
G1 X54.78 Y80.731 E49.32313
G1 X55.408 Y79.649 E49.38539
G1 X55.727 Y79.211 E49.41235
G1 X56.57 Y78.279 E49.47489
G1 X56.97 Y77.92 E49.50164
M204 S5000
G0 F2400 X57.205 Y78.243
M204 S200
