;FLAVOR:Marlin
;TIME:318
;Filament used: 0.207595m
;Layer height: 0.2
;Generated with Cura_SteamEngine 2.7.0
M190 S60
M104 S220
M109 S220
G21 ;metric values
G90 ;absolute positioning
M82 ;set extruder to absolute mode
M107 ;start with the fan off
G92 E0 ;zero the extruded length
G1 F200 E3 ;extrude 3mm of feed stock
G92 E0 ;zero the extruded length again
G1 F9000
M117 Printing...
;LAYER_COUNT:35
;LAYER:0
M107
M204 S5000
G0 F2400 X84.732 Y87.601 Z0.3
M204 S200
;TYPE:SKIRT
G1 F1200 X85.166 Y87.263 E0.02738
G1 X85.644 Y86.991 E0.05475
G1 X86.157 Y86.791 E0.08215
G1 X86.694 Y86.668 E0.10956
G1 X87.208 Y86.624 E0.13524
G1 X87.71 Y86.615 E0.16022
G1 X88.107 Y86.263 E0.18663
G1 X88.567 Y85.961 E0.21401
G1 X88.938 Y85.78 E0.23455
G1 X90.131 Y85.276 E0.299
G1 X90.652 Y85.099 E0.32639
G1 X91.1 Y85.011 E0.34911
G1 X91.983 Y84.892 E0.39345
G1 X92.532 Y84.858 E0.42082
G1 X92.989 Y84.891 E0.44362
G1 X93.891 Y85.011 E0.48891
G1 X94.43 Y85.123 E0.51631
G1 X94.761 Y85.234 E0.53368
G1 X95.785 Y85.631 E0.58834
G1 X96.283 Y85.867 E0.61576
G1 X96.93 Y86.33 E0.65535
G1 X97.151 Y86.526 E0.67005
G1 X97.236 Y86.613 E0.67611
G1 X97.787 Y86.622 E0.70353
G1 X98.335 Y86.671 E0.73091
G1 X98.871 Y86.799 E0.75834
G1 X99.382 Y87.002 E0.7857
G1 X99.858 Y87.278 E0.81308
G1 X100.29 Y87.619 E0.84047
G1 X100.667 Y88.02 E0.86786
G1 X100.983 Y88.471 E0.89527
G1 X101.224 Y88.949 E0.92191
G1 X101.734 Y90.167 E0.98762
G1 X101.909 Y90.689 E1.01502
G1 X101.997 Y91.148 E1.03828
G1 X102.11 Y92.028 E1.08243
G1 X102.14 Y92.578 E1.10984
G1 X102.107 Y93.015 E1.13165
G1 X101.989 Y93.895 E1.17584
G1 X101.877 Y94.434 E1.20323
G1 X101.724 Y94.866 E1.22604
G1 X101.219 Y96.062 E1.29065
G1 X100.969 Y96.552 E1.31802
G1 X100.65 Y97 E1.34539
G1 X100.27 Y97.398 E1.37278
G1 X99.836 Y97.737 E1.40019
G1 X99.358 Y98.009 E1.42755
G1 X98.845 Y98.209 E1.45496
G1 X98.309 Y98.333 E1.48233
G1 X97.787 Y98.378 E1.50841
G1 X97.288 Y98.386 E1.53324
G1 X96.894 Y98.736 E1.55947
G1 X96.434 Y99.039 E1.58688
G1 X96.062 Y99.22 E1.60747
G1 X94.869 Y99.724 E1.67192
G1 X94.348 Y99.901 E1.69931
G1 X93.9 Y99.989 E1.72203
G1 X93.017 Y100.108 E1.76637
G1 X92.468 Y100.142 E1.79374
G1 X92.019 Y100.11 E1.81614
G1 X91.118 Y99.992 E1.86136
G1 X90.579 Y99.881 E1.88875
G1 X90.134 Y99.725 E1.91222
G1 X88.937 Y99.219 E1.97689
G1 X88.447 Y98.968 E2.00429
G1 X87.998 Y98.649 E2.0317
G1 X87.722 Y98.385 E2.0507
G1 X87.208 Y98.376 E2.07629
G1 X86.66 Y98.327 E2.10367
G1 X86.125 Y98.199 E2.13104
G1 X85.614 Y97.995 E2.15843
G1 X85.138 Y97.718 E2.18583
G1 X84.707 Y97.376 E2.21321
G1 X84.33 Y96.975 E2.24061
G1 X84.015 Y96.524 E2.26798
G1 X83.777 Y96.052 E2.29429
G1 X83.267 Y94.836 E2.35991
G1 X83.092 Y94.315 E2.38726
G1 X83.003 Y93.856 E2.41053
G1 X82.889 Y92.975 E2.45474
G1 X82.859 Y92.426 E2.4821
G1 X82.892 Y91.985 E2.50411
G1 X83.01 Y91.106 E2.54824
G1 X83.122 Y90.567 E2.57564
G1 X83.276 Y90.133 E2.59856
G1 X83.782 Y88.937 E2.66319
G1 X84.032 Y88.447 E2.69056
G1 X84.351 Y87.998 E2.71797
G1 X84.732 Y87.601 E2.74535
M204 S5000
G0 F2400 X85.063 Y87.841
M204 S200
G1 F1200 X85.482 Y87.533 E2.77123
G1 X85.944 Y87.293 E2.79714
G1 X86.437 Y87.127 E2.82303
G1 X86.95 Y87.037 E2.84895
G1 X87.215 Y87.022 E2.86216
G1 X87.899 Y87.01 E2.8962
G1 X88.082 Y86.808 E2.90977
G1 X88.486 Y86.48 E2.93567
G1 X89.093 Y86.147 E2.97012
G1 X90.286 Y85.643 E3.03457
G1 X90.78 Y85.478 E3.06049
G1 X91.153 Y85.406 E3.0794
G1 X92.036 Y85.287 E3.12374
G1 X92.556 Y85.258 E3.14965
G1 X92.936 Y85.287 E3.16862
G1 X93.838 Y85.407 E3.2139
G1 X94.348 Y85.515 E3.23985
G1 X94.617 Y85.606 E3.25398
G1 X95.641 Y86.003 E3.30863
G1 X96.111 Y86.228 E3.33457
G1 X96.666 Y86.628 E3.36861
G1 X96.887 Y86.824 E3.38331
G1 X97.066 Y87.01 E3.39616
G1 X97.781 Y87.021 E3.43175
G1 X98.299 Y87.07 E3.45764
G1 X98.804 Y87.196 E3.48354
G1 X99.283 Y87.399 E3.50943
G1 X99.726 Y87.673 E3.53535
G1 X100.122 Y88.011 E3.56126
G1 X100.461 Y88.406 E3.58717
G1 X100.736 Y88.848 E3.61307
G1 X100.856 Y89.103 E3.6271
G1 X101.366 Y90.321 E3.69281
G1 X101.529 Y90.815 E3.7187
G1 X101.601 Y91.199 E3.73814
G1 X101.714 Y92.079 E3.7823
G1 X101.741 Y92.599 E3.80821
G1 X101.712 Y92.962 E3.82633
G1 X101.594 Y93.842 E3.87052
G1 X101.485 Y94.351 E3.89642
G1 X101.357 Y94.71 E3.91539
G1 X100.852 Y95.906 E3.98
G1 X100.613 Y96.369 E4.00593
G1 X100.307 Y96.79 E4.03183
G1 X99.939 Y97.158 E4.05773
G1 X99.52 Y97.467 E4.08364
G1 X99.058 Y97.707 E4.10955
G1 X98.565 Y97.874 E4.13545
G1 X98.052 Y97.963 E4.16136
G1 X97.781 Y97.979 E4.17487
G1 X97.102 Y97.99 E4.20867
G1 X96.919 Y98.192 E4.22223
G1 X96.514 Y98.519 E4.24813
G1 X95.907 Y98.853 E4.28261
G1 X94.714 Y99.357 E4.34706
G1 X94.22 Y99.522 E4.37298
G1 X93.847 Y99.594 E4.39189
G1 X92.964 Y99.713 E4.43623
G1 X92.444 Y99.742 E4.46215
G1 X92.071 Y99.714 E4.48076
G1 X91.17 Y99.596 E4.52598
G1 X90.66 Y99.489 E4.55192
G1 X90.289 Y99.357 E4.57151
G1 X89.092 Y98.851 E4.63619
G1 X88.63 Y98.612 E4.66207
G1 X88.209 Y98.306 E4.68797
G1 X87.893 Y97.99 E4.71021
G1 X87.215 Y97.978 E4.74396
G1 X86.697 Y97.929 E4.76985
G1 X86.192 Y97.801 E4.79578
G1 X85.713 Y97.598 E4.82167
G1 X85.27 Y97.324 E4.84759
G1 X84.875 Y96.985 E4.8735
G1 X84.536 Y96.59 E4.8994
G1 X84.262 Y96.147 E4.92532
G1 X84.145 Y95.898 E4.93901
G1 X83.635 Y94.682 E5.00463
G1 X83.471 Y94.188 E5.03054
G1 X83.399 Y93.805 E5.04993
G1 X83.285 Y92.924 E5.09414
G1 X83.258 Y92.404 E5.12005
G1 X83.287 Y92.038 E5.13833
G1 X83.405 Y91.159 E5.18246
G1 X83.514 Y90.65 E5.20837
G1 X83.643 Y90.288 E5.22749
G1 X84.149 Y89.092 E5.29212
G1 X84.388 Y88.63 E5.318
G1 X84.695 Y88.21 E5.34389
G1 X85.063 Y87.841 E5.36983
M204 S5000
G0 F2400 X85.391 Y88.087
M204 S200
G1 F1200 X85.795 Y87.811 E5.39418
G1 X86.239 Y87.605 E5.41854
G1 X86.71 Y87.474 E5.44287
G1 X87.222 Y87.421 E5.46848
G1 X88.079 Y87.406 E5.51114
G1 X88.122 Y87.346 E5.51481
G1 X88.466 Y86.999 E5.53913
G1 X88.862 Y86.712 E5.56347
G1 X89.248 Y86.515 E5.58503
G1 X90.441 Y86.011 E5.64948
G1 X90.906 Y85.858 E5.67384
G1 X91.206 Y85.802 E5.68903
G1 X92.089 Y85.683 E5.73337
G1 X92.578 Y85.657 E5.75774
G1 X92.884 Y85.682 E5.77302
G1 X93.786 Y85.802 E5.8183
G1 X94.473 Y85.978 E5.8536
G1 X95.497 Y86.375 E5.90825
G1 X95.937 Y86.589 E5.9326
G1 X96.401 Y86.927 E5.96117
G1 X96.622 Y87.123 E5.97587
G1 X96.893 Y87.406 E5.99537
G1 X97.774 Y87.42 E6.03922
G1 X98.261 Y87.468 E6.06357
G1 X98.733 Y87.594 E6.08789
G1 X99.179 Y87.796 E6.11225
G1 X99.586 Y88.067 E6.13658
G1 X99.943 Y88.401 E6.16091
G1 X100.241 Y88.788 E6.18522
G1 X100.488 Y89.257 E6.2116
G1 X100.998 Y90.475 E6.27731
G1 X101.149 Y90.94 E6.30164
G1 X101.206 Y91.25 E6.31733
G1 X101.319 Y92.13 E6.36148
G1 X101.341 Y92.618 E6.38579
G1 X101.316 Y92.909 E6.40033
G1 X101.198 Y93.789 E6.44451
G1 X101.094 Y94.266 E6.46881
G1 X100.989 Y94.555 E6.48411
G1 X100.484 Y95.751 E6.54872
G1 X100.258 Y96.185 E6.57307
G1 X99.964 Y96.575 E6.59738
G1 X99.611 Y96.913 E6.6217
G1 X99.207 Y97.189 E6.64605
G1 X98.763 Y97.395 E6.67041
G1 X98.292 Y97.526 E6.69473
G1 X97.774 Y97.58 E6.72065
G1 X96.921 Y97.594 E6.76311
G1 X96.878 Y97.654 E6.76678
G1 X96.534 Y98.001 E6.7911
G1 X96.138 Y98.288 E6.81544
G1 X95.752 Y98.485 E6.837
G1 X94.559 Y98.989 E6.90145
G1 X94.094 Y99.142 E6.92582
G1 X93.794 Y99.198 E6.941
G1 X92.911 Y99.317 E6.98534
G1 X92.422 Y99.343 E7.00971
G1 X92.122 Y99.319 E7.02469
G1 X91.221 Y99.201 E7.06991
G1 X90.743 Y99.098 E7.09425
G1 X90.445 Y98.99 E7.11002
G1 X89.248 Y98.484 E7.17469
G1 X88.814 Y98.257 E7.19907
G1 X88.424 Y97.963 E7.22337
G1 X88.086 Y97.61 E7.24769
G1 X88.075 Y97.594 E7.24866
G1 X87.222 Y97.579 E7.29112
G1 X86.735 Y97.53 E7.31548
G1 X86.263 Y97.403 E7.3398
G1 X85.818 Y97.201 E7.36412
G1 X85.411 Y96.93 E7.38845
G1 X85.055 Y96.595 E7.41278
G1 X84.757 Y96.207 E7.43713
G1 X84.513 Y95.744 E7.46317
G1 X84.003 Y94.528 E7.5288
G1 X83.851 Y94.063 E7.55314
G1 X83.795 Y93.754 E7.56877
G1 X83.681 Y92.873 E7.61298
G1 X83.658 Y92.385 E7.63729
G1 X83.683 Y92.091 E7.65197
G1 X83.801 Y91.212 E7.69611
G1 X83.905 Y90.734 E7.72046
G1 X84.011 Y90.444 E7.73582
G1 X84.517 Y89.248 E7.80045
G1 X84.743 Y88.815 E7.82476
G1 X85.037 Y88.424 E7.8491
G1 X85.391 Y88.087 E7.87342
M204 S5000
G0 F2400 X88.283 Y87.802
M204 S200
G1 F1200 X88.511 Y87.508 E7.89194
G1 X88.848 Y87.203 E7.91456
G1 X89.404 Y86.882 E7.94651
G1 X90.597 Y86.378 E8.01096
G1 X91.03 Y86.239 E8.03359
G1 X91.26 Y86.197 E8.04523
G1 X92.143 Y86.078 E8.08957
G1 X92.597 Y86.057 E8.11218
G1 X92.831 Y86.078 E8.12388
G1 X93.733 Y86.198 E8.16916
G1 X94.329 Y86.35 E8.19977
G1 X95.353 Y86.747 E8.25443
G1 X95.761 Y86.949 E8.27708
G1 X96.136 Y87.225 E8.30025
G1 X96.357 Y87.421 E8.31495
G1 X96.67 Y87.752 E8.33763
G1 X96.703 Y87.802 E8.34061
G1 X97.768 Y87.819 E8.39361
G1 X98.221 Y87.866 E8.41628
G1 X98.658 Y87.992 E8.43891
G1 X99.067 Y88.192 E8.46157
G1 X99.435 Y88.46 E8.48422
G1 X99.75 Y88.789 E8.50689
G1 X100.002 Y89.167 E8.5295
G1 X100.12 Y89.411 E8.54299
G1 X100.63 Y90.629 E8.6087
G1 X100.768 Y91.063 E8.63137
G1 X100.81 Y91.301 E8.64339
G1 X100.923 Y92.181 E8.68755
G1 X100.921 Y92.856 E8.72114
G1 X100.803 Y93.736 E8.76532
G1 X100.703 Y94.18 E8.78797
G1 X100.622 Y94.4 E8.79964
G1 X100.117 Y95.596 E8.86425
G1 X99.904 Y95.998 E8.88689
G1 X99.623 Y96.357 E8.90958
G1 X99.285 Y96.661 E8.9322
G1 X98.899 Y96.901 E8.95482
G1 X98.476 Y97.071 E8.97751
G1 X98.03 Y97.163 E9.00017
G1 X97.768 Y97.181 E9.01324
G1 X96.717 Y97.198 E9.06555
G1 X96.489 Y97.491 E9.08402
G1 X96.152 Y97.797 E9.10668
G1 X95.596 Y98.118 E9.13863
G1 X94.403 Y98.622 E9.20308
G1 X93.97 Y98.761 E9.22571
G1 X93.74 Y98.803 E9.23735
G1 X92.857 Y98.922 E9.28169
G1 X92.403 Y98.943 E9.3043
G1 X92.174 Y98.923 E9.31574
G1 X91.273 Y98.805 E9.36096
G1 X90.829 Y98.707 E9.38359
G1 X90.6 Y98.622 E9.39575
G1 X89.403 Y98.116 E9.46042
G1 X89.001 Y97.903 E9.48306
G1 X88.642 Y97.623 E9.50572
G1 X88.338 Y97.284 E9.52838
G1 X88.285 Y97.198 E9.53341
G1 X87.229 Y97.18 E9.58597
G1 X86.776 Y97.132 E9.60864
G1 X86.339 Y97.006 E9.63127
G1 X85.93 Y96.805 E9.65395
G1 X85.563 Y96.536 E9.67659
G1 X85.248 Y96.208 E9.69923
G1 X84.996 Y95.829 E9.72188
G1 X84.881 Y95.589 E9.73512
G1 X84.371 Y94.373 E9.80074
G1 X84.232 Y93.94 E9.82337
G1 X84.19 Y93.703 E9.83535
G1 X84.076 Y92.822 E9.87956
G1 X84.078 Y92.144 E9.9133
G1 X84.196 Y91.265 E9.95744
G1 X84.296 Y90.821 E9.98009
G1 X84.378 Y90.599 E9.99186
G1 X84.884 Y89.403 E10.05649
G1 X85.097 Y89.001 E10.07913
G1 X85.378 Y88.643 E10.10178
G1 X85.717 Y88.339 E10.12444
G1 X86.103 Y88.099 E10.14706
G1 X86.526 Y87.93 E10.16973
G1 X86.971 Y87.838 E10.19234
G1 X87.229 Y87.82 E10.20521
G1 X88.283 Y87.802 E10.25767
M204 S5000
G0 F2400 X88.511 Y88.197
M204 S200
G1 F1200 X88.624 Y88 E10.26898
G1 X88.898 Y87.684 E10.28979
G1 X89.227 Y87.425 E10.31063
G1 X89.559 Y87.25 E10.32931
G1 X90.752 Y86.746 E10.39376
G1 X91.313 Y86.593 E10.42269
G1 X92.196 Y86.474 E10.46703
G1 X92.778 Y86.473 E10.496
G1 X93.68 Y86.593 E10.54128
G1 X94.184 Y86.722 E10.56717
G1 X95.208 Y87.119 E10.62183
G1 X95.583 Y87.307 E10.6427
G1 X95.871 Y87.524 E10.66065
G1 X96.092 Y87.72 E10.67535
G1 X96.378 Y88.026 E10.69619
G1 X96.485 Y88.198 E10.70627
G1 X97.762 Y88.218 E10.76983
G1 X98.178 Y88.265 E10.79067
G1 X98.577 Y88.389 E10.81146
G1 X98.946 Y88.588 E10.83232
G1 X99.27 Y88.852 E10.85312
G1 X99.539 Y89.174 E10.874
G1 X99.752 Y89.565 E10.89616
G1 X100.262 Y90.783 E10.96188
G1 X100.414 Y91.351 E10.99114
G1 X100.527 Y92.231 E11.03529
G1 X100.526 Y92.803 E11.06376
G1 X100.408 Y93.683 E11.10794
G1 X100.254 Y94.245 E11.13694
G1 X99.749 Y95.441 E11.20155
G1 X99.55 Y95.809 E11.22237
G1 X99.285 Y96.133 E11.2432
G1 X98.963 Y96.401 E11.26405
G1 X98.597 Y96.602 E11.28483
G1 X98.198 Y96.731 E11.3057
G1 X97.762 Y96.782 E11.32754
G1 X96.49 Y96.802 E11.39085
G1 X96.376 Y96.999 E11.40218
G1 X96.102 Y97.316 E11.42303
G1 X95.773 Y97.575 E11.44387
G1 X95.441 Y97.75 E11.46254
G1 X94.248 Y98.254 E11.527
G1 X93.687 Y98.407 E11.55593
G1 X92.804 Y98.526 E11.60027
G1 X92.226 Y98.527 E11.62904
G1 X91.325 Y98.409 E11.67426
G1 X90.755 Y98.255 E11.70364
G1 X89.558 Y97.749 E11.76832
G1 X89.19 Y97.55 E11.78914
G1 X88.866 Y97.285 E11.80997
G1 X88.599 Y96.963 E11.83078
G1 X88.511 Y96.803 E11.83987
G1 X87.235 Y96.781 E11.90338
G1 X86.819 Y96.734 E11.92421
G1 X86.42 Y96.608 E11.94504
G1 X86.052 Y96.41 E11.96583
G1 X85.728 Y96.145 E11.98666
G1 X85.46 Y95.823 E12.00751
G1 X85.249 Y95.435 E12.02949
G1 X84.739 Y94.219 E12.09511
G1 X84.586 Y93.652 E12.12434
G1 X84.472 Y92.771 E12.16855
G1 X84.474 Y92.197 E12.19711
G1 X84.592 Y91.318 E12.24125
G1 X84.745 Y90.755 E12.27028
G1 X85.251 Y89.559 E12.33491
G1 X85.451 Y89.191 E12.35576
G1 X85.716 Y88.867 E12.37659
G1 X86.038 Y88.599 E12.39743
G1 X86.405 Y88.398 E12.41826
G1 X86.803 Y88.27 E12.43906
G1 X87.235 Y88.219 E12.46071
G1 X88.511 Y88.197 E12.52422
M204 S5000
G0 F2400 X88.761 Y88.592
M204 S200
G1 F1200 X88.81 Y88.463 E12.53109
G1 X89.015 Y88.145 E12.54992
G1 X89.282 Y87.877 E12.56874
G1 X89.714 Y87.618 E12.59381
G1 X90.907 Y87.114 E12.65826
G1 X91.366 Y86.988 E12.68195
G1 X92.249 Y86.869 E12.72629
G1 X92.726 Y86.869 E12.75003
G1 X93.628 Y86.989 E12.79531
G1 X94.04 Y87.094 E12.81647
G1 X95.064 Y87.491 E12.87113
G1 X95.401 Y87.665 E12.89
G1 X95.607 Y87.822 E12.90289
G1 X95.828 Y88.018 E12.91759
G1 X96.083 Y88.298 E12.93644
G1 X96.255 Y88.593 E12.95343
G1 X97.755 Y88.617 E13.02809
G1 X98.131 Y88.663 E13.04694
G1 X98.489 Y88.787 E13.0658
G1 X98.813 Y88.982 E13.08461
G1 X99.089 Y89.242 E13.10348
G1 X99.384 Y89.719 E13.1314
G1 X99.894 Y90.937 E13.19711
G1 X100.018 Y91.402 E13.22106
G1 X100.131 Y92.282 E13.26521
G1 X100.13 Y92.75 E13.2885
G1 X100.012 Y93.63 E13.33269
G1 X99.887 Y94.09 E13.35641
G1 X99.382 Y95.286 E13.42102
G1 X99.198 Y95.617 E13.43986
G1 X98.95 Y95.902 E13.45867
G1 X98.647 Y96.129 E13.47751
G1 X98.303 Y96.288 E13.49637
G1 X97.755 Y96.383 E13.52404
G1 X96.24 Y96.407 E13.59945
G1 X96.191 Y96.537 E13.60636
G1 X95.985 Y96.855 E13.62522
G1 X95.718 Y97.123 E13.64404
G1 X95.286 Y97.382 E13.66911
G1 X94.093 Y97.886 E13.73356
G1 X93.634 Y98.012 E13.75725
G1 X92.751 Y98.131 E13.80159
G1 X92.278 Y98.132 E13.82513
G1 X91.377 Y98.014 E13.87035
G1 X90.911 Y97.887 E13.89439
G1 X89.714 Y97.381 E13.95906
G1 X89.383 Y97.198 E13.97788
G1 X89.097 Y96.949 E13.99675
G1 X88.87 Y96.646 E14.01559
G1 X88.76 Y96.408 E14.02864
G1 X87.242 Y96.382 E14.1042
G1 X86.867 Y96.335 E14.12301
G1 X86.509 Y96.211 E14.14186
G1 X86.185 Y96.015 E14.1607
G1 X85.91 Y95.755 E14.17954
G1 X85.617 Y95.281 E14.20727
G1 X85.107 Y94.065 E14.27289
G1 X84.982 Y93.6 E14.29685
G1 X84.868 Y92.719 E14.34106
G1 X84.869 Y92.25 E14.3644
G1 X84.987 Y91.371 E14.40854
G1 X85.113 Y90.91 E14.43232
G1 X85.619 Y89.714 E14.49695
G1 X85.802 Y89.383 E14.51577
G1 X86.051 Y89.098 E14.53461
G1 X86.354 Y88.871 E14.55345
G1 X86.698 Y88.713 E14.57229
G1 X87.242 Y88.618 E14.59977
G1 X88.761 Y88.592 E14.67537
M204 S5000
G0 F2400 X89.054 Y88.986
M204 S200
G1 F1200 X89.072 Y88.88 E14.68072
G1 X89.203 Y88.573 E14.69733
G1 X89.404 Y88.306 E14.71397
G1 X89.661 Y88.094 E14.73055
G1 X89.869 Y87.985 E14.74223
G1 X91.062 Y87.481 E14.80668
G1 X91.419 Y87.384 E14.82509
G1 X92.302 Y87.265 E14.86943
G1 X92.673 Y87.264 E14.8879
G1 X93.575 Y87.384 E14.93318
G1 X93.896 Y87.466 E14.94967
G1 X94.92 Y87.863 E15.00432
G1 X95.342 Y88.121 E15.02894
G1 X95.563 Y88.317 E15.04364
G1 X95.784 Y88.566 E15.06021
G1 X95.94 Y88.862 E15.07686
G1 X95.972 Y88.988 E15.08333
G1 X97.749 Y89.016 E15.17177
G1 X98.08 Y89.061 E15.1884
G1 X98.39 Y89.184 E15.20499
G1 X98.663 Y89.376 E15.2216
G1 X98.882 Y89.627 E15.23818
G1 X99.016 Y89.873 E15.25212
G1 X99.526 Y91.091 E15.31784
G1 X99.623 Y91.453 E15.33649
G1 X99.736 Y92.333 E15.38064
G1 X99.735 Y92.697 E15.39875
G1 X99.617 Y93.577 E15.44294
G1 X99.519 Y93.934 E15.46136
G1 X99.014 Y95.13 E15.52597
G1 X98.848 Y95.42 E15.5426
G1 X98.619 Y95.662 E15.55918
G1 X98.338 Y95.843 E15.57581
G1 X98.023 Y95.952 E15.5924
G1 X97.749 Y95.984 E15.60613
G1 X95.946 Y96.013 E15.69587
G1 X95.928 Y96.12 E15.70127
G1 X95.797 Y96.427 E15.71788
G1 X95.597 Y96.694 E15.73448
G1 X95.339 Y96.906 E15.7511
G1 X95.131 Y97.015 E15.76279
G1 X93.938 Y97.519 E15.82724
G1 X93.581 Y97.616 E15.84565
G1 X92.698 Y97.735 E15.88999
G1 X92.33 Y97.736 E15.9083
G1 X91.429 Y97.618 E15.95352
G1 X91.066 Y97.52 E15.97223
G1 X89.869 Y97.014 E16.03691
