;FLAVOR:Marlin
;TIME:719
;Filament used: 0.490438m
;Layer height: 0.2
;Generated with Cura_SteamEngine 2.7.0
M190 S60
M104 S220
M109 S220
G21 ;metric values
G90 ;absolute positioning
M82 ;set extruder to absolute mode
M107 ;start with the fan off
G92 E0 ;zero the extruded length
G1 F200 E3 ;extrude 3mm of feed stock
G92 E0 ;zero the extruded length again
G1 F9000
M117 Printing...
;LAYER_COUNT:35
;LAYER:0
M107
M204 S5000
G0 F2400 X77.22 Y82.819 Z0.3
M204 S200
;TYPE:SKIRT
G1 F1200 X77.637 Y82.459 E0.02742
G1 X78.101 Y82.164 E0.05478
G1 X78.603 Y81.938 E0.08218
G1 X79.132 Y81.788 E0.10954
G1 X79.903 Y81.709 E0.14811
G1 X85.294 Y81.712 E0.4164
G1 X85.843 Y81.752 E0.44379
G1 X86.139 Y81.808 E0.45878
G1 X107.258 Y86.648 E1.53703
G1 X107.784 Y86.809 E1.5644
G1 X108.281 Y87.045 E1.59178
G1 X108.739 Y87.351 E1.61919
G1 X109.148 Y87.719 E1.64657
G1 X109.358 Y87.958 E1.66241
G1 X109.447 Y88.068 E1.66945
G1 X109.761 Y88.52 E1.69684
G1 X110.007 Y89.013 E1.72426
G1 X110.178 Y89.536 E1.75164
G1 X110.272 Y90.078 E1.77901
G1 X110.291 Y90.453 E1.7977
G1 X110.291 Y94.547 E2.00144
G1 X110.251 Y95.096 E2.02883
G1 X110.132 Y95.633 E2.05621
G1 X109.937 Y96.148 E2.08361
G1 X109.669 Y96.628 E2.11097
G1 X109.447 Y96.932 E2.1297
G1 X109.358 Y97.042 E2.13674
G1 X108.982 Y97.443 E2.1641
G1 X108.551 Y97.786 E2.19151
G1 X108.076 Y98.063 E2.21888
G1 X107.565 Y98.268 E2.24628
G1 X107.258 Y98.352 E2.26212
G1 X86.138 Y103.193 E3.34042
G1 X85.594 Y103.277 E3.36781
G1 X85.292 Y103.289 E3.38286
G1 X79.902 Y103.291 E3.65109
G1 X79.353 Y103.251 E3.67849
G1 X78.816 Y103.132 E3.70586
G1 X78.302 Y102.937 E3.73322
G1 X77.821 Y102.669 E3.76062
G1 X77.22 Y102.181 E3.79915
G1 X77.103 Y102.064 E3.80738
G1 X76.743 Y101.647 E3.8348
G1 X76.448 Y101.183 E3.86216
G1 X76.222 Y100.681 E3.88956
G1 X76.072 Y100.152 E3.91692
G1 X75.993 Y99.383 E3.95539
G1 X75.993 Y96.817 E4.08309
G1 X76.033 Y96.268 E4.11048
G1 X76.152 Y95.731 E4.13785
G1 X76.347 Y95.216 E4.16526
G1 X76.615 Y94.736 E4.19262
G1 X77.103 Y94.136 E4.23111
G1 X77.22 Y94.019 E4.23934
G1 X77.637 Y93.659 E4.26676
G1 X78.101 Y93.364 E4.29412
G1 X78.603 Y93.138 E4.32152
G1 X79.132 Y92.988 E4.34888
G1 X79.901 Y92.909 E4.38735
G1 X86.053 Y92.909 E4.69351
G1 X86.059 Y92.906 E4.69384
G1 X87.055 Y92.5 E4.74737
G1 X86.055 Y92.091 E4.80114
G1 X79.901 Y92.091 E5.10739
G1 X79.352 Y92.051 E5.13479
G1 X78.815 Y91.932 E5.16216
G1 X78.3 Y91.737 E5.18956
G1 X77.82 Y91.469 E5.21692
G1 X77.22 Y90.981 E5.25541
G1 X77.103 Y90.864 E5.26365
G1 X76.743 Y90.447 E5.29106
G1 X76.448 Y89.983 E5.31842
G1 X76.222 Y89.481 E5.34582
G1 X76.072 Y88.952 E5.37318
G1 X75.993 Y88.183 E5.41166
G1 X75.993 Y85.617 E5.53935
G1 X76.033 Y85.068 E5.56675
G1 X76.152 Y84.531 E5.59412
G1 X76.347 Y84.016 E5.62153
G1 X76.615 Y83.536 E5.64888
G1 X77.103 Y82.936 E5.68737
G1 X77.22 Y82.819 E5.69561
M204 S5000
G0 F2400 X77.502 Y83.101
M204 S200
G1 F1200 X77.898 Y82.763 E5.72152
G1 X78.34 Y82.488 E5.74742
G1 X78.819 Y82.285 E5.77331
G1 X79.324 Y82.157 E5.79924
G1 X79.903 Y82.108 E5.82816
G1 X85.294 Y82.111 E6.09644
G1 X86.05 Y82.197 E6.13431
G1 X107.169 Y87.037 E7.21255
G1 X107.666 Y87.192 E7.23846
G1 X108.133 Y87.421 E7.26434
G1 X108.56 Y87.719 E7.29026
G1 X109.048 Y88.209 E7.32467
G1 X109.137 Y88.319 E7.33171
G1 X109.432 Y88.748 E7.35762
G1 X109.659 Y89.217 E7.38355
G1 X109.811 Y89.715 E7.40947
G1 X109.892 Y90.453 E7.44641
G1 X109.892 Y94.547 E7.65015
G1 X109.852 Y95.066 E7.67606
G1 X109.733 Y95.573 E7.70197
G1 X109.538 Y96.055 E7.72785
G1 X109.137 Y96.681 E7.76485
G1 X109.048 Y96.791 E7.77189
G1 X108.69 Y97.169 E7.7978
G1 X108.279 Y97.488 E7.82369
G1 X107.824 Y97.741 E7.8496
G1 X107.169 Y97.963 E7.88402
G1 X86.049 Y102.804 E8.96232
G1 X85.292 Y102.89 E9.00023
G1 X79.902 Y102.892 E9.26847
G1 X79.383 Y102.852 E9.29438
G1 X78.876 Y102.734 E9.32028
G1 X78.394 Y102.539 E9.34616
G1 X77.947 Y102.272 E9.37207
G1 X77.502 Y101.899 E9.40096
G1 X77.385 Y101.782 E9.4092
G1 X77.047 Y101.386 E9.43511
G1 X76.772 Y100.944 E9.46101
G1 X76.569 Y100.465 E9.4869
G1 X76.441 Y99.96 E9.51283
G1 X76.392 Y99.383 E9.54165
G1 X76.392 Y96.817 E9.66935
G1 X76.432 Y96.298 E9.69525
G1 X76.551 Y95.791 E9.72117
G1 X76.746 Y95.309 E9.74704
G1 X77.012 Y94.861 E9.77297
G1 X77.385 Y94.418 E9.80179
G1 X77.502 Y94.301 E9.81003
G1 X77.898 Y93.963 E9.83594
G1 X78.34 Y93.688 E9.86184
G1 X78.819 Y93.485 E9.88773
G1 X79.324 Y93.357 E9.91366
G1 X79.901 Y93.308 E9.94248
G1 X86.143 Y93.308 E10.25311
G1 X86.21 Y93.275 E10.25683
G1 X88.112 Y92.499 E10.35906
G1 X86.196 Y91.717 E10.46205
G1 X86.145 Y91.692 E10.46487
G1 X79.901 Y91.692 E10.77561
G1 X79.382 Y91.652 E10.80151
G1 X78.875 Y91.533 E10.82743
G1 X78.393 Y91.338 E10.8533
G1 X77.945 Y91.072 E10.87923
G1 X77.502 Y90.699 E10.90805
G1 X77.385 Y90.582 E10.91629
G1 X77.047 Y90.186 E10.9422
G1 X76.772 Y89.744 E10.9681
G1 X76.569 Y89.265 E10.99399
G1 X76.441 Y88.76 E11.01992
G1 X76.392 Y88.183 E11.04874
G1 X76.392 Y85.617 E11.17644
G1 X76.432 Y85.098 E11.20234
G1 X76.551 Y84.591 E11.22826
G1 X76.746 Y84.109 E11.25413
G1 X77.012 Y83.661 E11.28006
G1 X77.385 Y83.218 E11.30888
G1 X77.502 Y83.101 E11.31712
M204 S5000
G0 F2400 X77.668 Y83.501
M204 S200
G1 F1200 X77.785 Y83.384 E11.32535
G1 X78.157 Y83.067 E11.34967
G1 X78.577 Y82.816 E11.37402
G1 X79.031 Y82.636 E11.39833
G1 X79.509 Y82.533 E11.42266
G1 X79.903 Y82.507 E11.44231
G1 X85.294 Y82.51 E11.7106
G1 X85.961 Y82.586 E11.74401
G1 X107.08 Y87.426 E12.82225
G1 X107.546 Y87.573 E12.84657
G1 X107.981 Y87.795 E12.87087
G1 X108.375 Y88.085 E12.89522
G1 X108.738 Y88.46 E12.92119
G1 X108.827 Y88.57 E12.92823
G1 X109.102 Y88.974 E12.95255
G1 X109.308 Y89.418 E12.97691
G1 X109.439 Y89.889 E13.00124
G1 X109.493 Y90.453 E13.02944
G1 X109.493 Y94.547 E13.23318
G1 X109.453 Y95.034 E13.2575
G1 X109.334 Y95.509 E13.28186
G1 X109.14 Y95.957 E13.30616
G1 X108.827 Y96.43 E13.33439
G1 X108.738 Y96.54 E13.34143
G1 X108.4 Y96.893 E13.36575
G1 X108.01 Y97.187 E13.39005
G1 X107.576 Y97.414 E13.41443
G1 X107.08 Y97.574 E13.44037
G1 X85.96 Y102.415 E14.51867
G1 X85.292 Y102.491 E14.55213
G1 X79.902 Y102.493 E14.82036
G1 X79.415 Y102.453 E14.84468
G1 X78.94 Y102.335 E14.86904
G1 X78.492 Y102.14 E14.89335
G1 X78.081 Y101.876 E14.91766
G1 X77.785 Y101.616 E14.93727
G1 X77.668 Y101.499 E14.9455
G1 X77.351 Y101.127 E14.96983
G1 X77.1 Y100.707 E14.99418
G1 X76.92 Y100.253 E15.01848
G1 X76.817 Y99.775 E15.04281
G1 X76.791 Y99.383 E15.06236
G1 X76.791 Y96.817 E15.19006
G1 X76.831 Y96.33 E15.21438
G1 X76.95 Y95.855 E15.23875
G1 X77.144 Y95.407 E15.26304
G1 X77.409 Y94.996 E15.28738
G1 X77.668 Y94.701 E15.30692
G1 X77.785 Y94.584 E15.31515
G1 X78.157 Y94.267 E15.33947
G1 X78.577 Y94.016 E15.36382
G1 X79.031 Y93.836 E15.38813
G1 X79.509 Y93.733 E15.41246
G1 X79.901 Y93.707 E15.43201
G1 X86.234 Y93.707 E15.74718
G1 X86.361 Y93.645 E15.75421
G1 X88.95 Y92.589 E15.89336
G1 X88.95 Y92.411 E15.90222
G1 X86.347 Y91.348 E16.04214
G1 X86.235 Y91.293 E16.04835
G1 X79.901 Y91.293 E16.36357
G1 X79.414 Y91.253 E16.38788
G1 X78.939 Y91.134 E16.41225
G1 X78.491 Y90.94 E16.43655
G1 X78.08 Y90.675 E16.46089
G1 X77.785 Y90.416 E16.48042
G1 X77.668 Y90.299 E16.48866
G1 X77.351 Y89.927 E16.51298
G1 X77.1 Y89.507 E16.53733
G1 X76.92 Y89.053 E16.56163
G1 X76.817 Y88.575 E16.58597
G1 X76.791 Y88.183 E16.60552
G1 X76.791 Y85.617 E16.73322
G1 X76.831 Y85.13 E16.75753
G1 X76.95 Y84.655 E16.7819
G1 X77.144 Y84.207 E16.8062
G1 X77.409 Y83.796 E16.83053
G1 X77.668 Y83.501 E16.85007
M204 S5000
G0 F2400 X78.067 Y83.666
M204 S200
G1 F1200 X78.416 Y83.373 E16.87275
G1 X78.81 Y83.147 E16.89535
G1 X79.238 Y82.992 E16.91801
G1 X79.902 Y82.906 E16.95133
G1 X85.293 Y82.909 E17.21961
G1 X85.871 Y82.975 E17.24856
G1 X106.99 Y87.815 E18.32681
G1 X107.423 Y87.955 E18.34945
G1 X107.825 Y88.168 E18.37209
G1 X108.184 Y88.449 E18.39478
G1 X108.428 Y88.711 E18.4126
G1 X108.517 Y88.821 E18.41964
G1 X108.771 Y89.199 E18.4423
G1 X108.955 Y89.615 E18.46494
G1 X109.064 Y90.057 E18.4876
G1 X109.094 Y90.453 E18.50736
G1 X109.094 Y94.547 E18.7111
G1 X109.054 Y95 E18.73373
G1 X108.936 Y95.44 E18.7564
G1 X108.742 Y95.852 E18.77907
G1 X108.517 Y96.179 E18.79882
G1 X108.428 Y96.289 E18.80586
G1 X108.111 Y96.616 E18.82853
G1 X107.743 Y96.883 E18.85115
G1 X107.333 Y97.081 E18.87381
G1 X106.991 Y97.185 E18.8916
G1 X85.871 Y102.026 E19.9699
G1 X85.292 Y102.092 E19.9989
G1 X79.902 Y102.094 E20.26714
G1 X79.449 Y102.054 E20.28977
G1 X79.009 Y101.936 E20.31244
G1 X78.597 Y101.743 E20.33508
G1 X78.067 Y101.334 E20.3684
G1 X77.95 Y101.217 E20.37663
G1 X77.657 Y100.868 E20.39931
G1 X77.431 Y100.474 E20.42192
G1 X77.276 Y100.046 E20.44457
G1 X77.19 Y99.383 E20.47784
G1 X77.19 Y96.817 E20.60554
G1 X77.23 Y96.364 E20.62817
G1 X77.348 Y95.924 E20.65084
G1 X77.542 Y95.512 E20.6735
G1 X77.95 Y94.983 E20.70675
G1 X78.067 Y94.866 E20.71498
G1 X78.416 Y94.573 E20.73766
G1 X78.81 Y94.347 E20.76027
G1 X79.238 Y94.192 E20.78292
G1 X79.901 Y94.106 E20.81619
G1 X86.324 Y94.106 E21.13583
G1 X86.511 Y94.014 E21.1462
G1 X89.349 Y92.856 E21.29874
G1 X89.349 Y92.143 E21.33423
G1 X86.497 Y90.979 E21.48752
G1 X86.325 Y90.894 E21.49707
G1 X79.901 Y90.894 E21.81677
G1 X79.448 Y90.854 E21.8394
G1 X79.008 Y90.736 E21.86207
G1 X78.596 Y90.542 E21.88473
G1 X78.067 Y90.134 E21.91798
G1 X77.95 Y90.017 E21.92621
G1 X77.657 Y89.668 E21.94889
G1 X77.431 Y89.274 E21.97149
G1 X77.276 Y88.846 E21.99415
G1 X77.19 Y88.183 E22.02742
G1 X77.19 Y85.617 E22.15511
G1 X77.23 Y85.164 E22.17775
G1 X77.348 Y84.724 E22.20042
G1 X77.542 Y84.312 E22.22308
G1 X77.95 Y83.783 E22.25633
G1 X78.067 Y83.666 E22.26456
M204 S5000
G0 F2400 X78.349 Y83.948
M204 S200
G1 F1200 X78.672 Y83.681 E22.28542
G1 X79.039 Y83.481 E22.30622
G1 X79.438 Y83.354 E22.32705
G1 X79.902 Y83.305 E22.35027
G1 X85.293 Y83.308 E22.61856
G1 X85.782 Y83.363 E22.64305
G1 X106.901 Y88.203 E23.72129
G1 X107.299 Y88.335 E23.74216
G1 X107.663 Y88.54 E23.76295
G1 X108.117 Y88.962 E23.7938
G1 X108.206 Y89.072 E23.80084
G1 X108.437 Y89.421 E23.82167
G1 X108.598 Y89.808 E23.84252
G1 X108.682 Y90.218 E23.86335
G1 X108.695 Y90.453 E23.87507
G1 X108.695 Y94.547 E24.07881
G1 X108.655 Y94.964 E24.09965
G1 X108.537 Y95.365 E24.12045
G1 X108.344 Y95.737 E24.14131
G1 X108.206 Y95.928 E24.15304
G1 X108.117 Y96.038 E24.16008
G1 X107.824 Y96.336 E24.18088
G1 X107.48 Y96.574 E24.20169
G1 X106.901 Y96.797 E24.23257
G1 X85.781 Y101.638 E25.31088
G1 X85.292 Y101.693 E25.33536
G1 X79.902 Y101.695 E25.6036
G1 X79.485 Y101.655 E25.62445
G1 X79.084 Y101.537 E25.64525
G1 X78.712 Y101.345 E25.66608
G1 X78.349 Y101.052 E25.6893
G1 X78.232 Y100.935 E25.69753
G1 X77.965 Y100.612 E25.71839
G1 X77.765 Y100.245 E25.73919
G1 X77.638 Y99.846 E25.76003
G1 X77.589 Y99.383 E25.7832
G1 X77.589 Y96.817 E25.91089
G1 X77.629 Y96.4 E25.93174
G1 X77.747 Y95.999 E25.95254
G1 X77.94 Y95.627 E25.9734
G1 X78.232 Y95.265 E25.99654
G1 X78.349 Y95.148 E26.00478
G1 X78.672 Y94.881 E26.02563
G1 X79.039 Y94.681 E26.04643
G1 X79.438 Y94.554 E26.06727
G1 X79.901 Y94.505 E26.09044
G1 X86.415 Y94.505 E26.41461
G1 X86.662 Y94.384 E26.4283
G1 X89.748 Y93.125 E26.59417
G1 X89.748 Y91.875 E26.65637
G1 X86.648 Y90.609 E26.82302
G1 X86.416 Y90.495 E26.83588
G1 X79.901 Y90.495 E27.1601
G1 X79.484 Y90.455 E27.18095
G1 X79.083 Y90.337 E27.20175
G1 X78.711 Y90.144 E27.22261
G1 X78.349 Y89.852 E27.24575
G1 X78.232 Y89.735 E27.25399
G1 X77.965 Y89.412 E27.27484
G1 X77.765 Y89.045 E27.29564
G1 X77.638 Y88.646 E27.31648
G1 X77.589 Y88.183 E27.33965
G1 X77.589 Y85.617 E27.46735
G1 X77.629 Y85.2 E27.4882
G1 X77.747 Y84.799 E27.509
G1 X77.94 Y84.427 E27.52985
G1 X78.232 Y84.065 E27.553
G1 X78.349 Y83.948 E27.56123
M204 S5000
G0 F2400 X78.514 Y84.347
M204 S200
G1 F1200 X78.631 Y84.23 E27.56947
G1 X78.925 Y83.992 E27.58829
G1 X79.263 Y83.821 E27.60714
G1 X79.629 Y83.725 E27.62597
G1 X79.902 Y83.704 E27.6396
G1 X85.293 Y83.707 E27.90789
G1 X85.693 Y83.752 E27.92792
G1 X106.812 Y88.592 E29.00616
G1 X107.17 Y88.715 E29.025
G1 X107.494 Y88.911 E29.04384
G1 X107.807 Y89.213 E29.06549
G1 X107.896 Y89.323 E29.07253
G1 X108.102 Y89.641 E29.09139
G1 X108.237 Y89.995 E29.11024
G1 X108.296 Y90.453 E29.13322
G1 X108.296 Y94.547 E29.33696
G1 X108.256 Y94.923 E29.35578
G1 X108.138 Y95.283 E29.37463
G1 X107.896 Y95.677 E29.39764
G1 X107.807 Y95.787 E29.40469
G1 X107.539 Y96.054 E29.42351
G1 X107.222 Y96.26 E29.44233
G1 X106.812 Y96.408 E29.46402
G1 X85.692 Y101.249 E30.54232
G1 X85.292 Y101.294 E30.56235
G1 X79.902 Y101.296 E30.83059
G1 X79.525 Y101.256 E30.84946
G1 X79.165 Y101.138 E30.86831
G1 X78.838 Y100.948 E30.88713
G1 X78.631 Y100.77 E30.90072
G1 X78.514 Y100.653 E30.90895
G1 X78.276 Y100.359 E30.92778
G1 X78.105 Y100.021 E30.94663
G1 X78.009 Y99.655 E30.96546
G1 X77.988 Y99.383 E30.97903
G1 X77.988 Y96.817 E31.10673
G1 X78.028 Y96.441 E31.12555
G1 X78.146 Y96.081 E31.1444
G1 X78.336 Y95.754 E31.16322
G1 X78.514 Y95.547 E31.17681
G1 X78.631 Y95.43 E31.18504
G1 X78.925 Y95.192 E31.20387
G1 X79.263 Y95.021 E31.22272
G1 X79.629 Y94.925 E31.24155
G1 X79.901 Y94.904 E31.25513
G1 X86.518 Y94.904 E31.58442
G1 X86.592 Y94.861 E31.58868
G1 X86.813 Y94.753 E31.60093
G1 X90.147 Y93.393 E31.78012
G1 X90.147 Y91.607 E31.869
G1 X86.799 Y90.24 E32.04897
G1 X86.577 Y90.131 E32.06127
G1 X86.517 Y90.096 E32.06473
G1 X79.901 Y90.096 E32.39398
G1 X79.525 Y90.056 E32.4128
G1 X79.165 Y89.938 E32.43165
G1 X78.838 Y89.748 E32.45047
G1 X78.631 Y89.57 E32.46406
G1 X78.514 Y89.453 E32.47229
G1 X78.276 Y89.159 E32.49112
G1 X78.105 Y88.821 E32.50997
G1 X78.009 Y88.455 E32.5288
G1 X77.988 Y88.183 E32.54237
G1 X77.988 Y85.617 E32.67007
G1 X78.028 Y85.241 E32.68889
G1 X78.146 Y84.881 E32.70774
G1 X78.336 Y84.554 E32.72656
G1 X78.514 Y84.347 E32.74015
M204 S5000
G0 F2400 X78.913 Y84.512
M204 S200
G1 F1200 X79.176 Y84.306 E32.75677
G1 X79.479 Y84.168 E32.77334
G1 X79.902 Y84.103 E32.79464
G1 X85.293 Y84.106 E33.06293
G1 X85.604 Y84.141 E33.0785
G1 X106.723 Y88.981 E34.15675
G1 X107.037 Y89.094 E34.17335
G1 X107.315 Y89.278 E34.18994
G1 X107.497 Y89.464 E34.2029
G1 X107.586 Y89.574 E34.20994
G1 X107.763 Y89.857 E34.22655
G1 X107.869 Y90.174 E34.24318
G1 X107.897 Y90.453 E34.25714
G1 X107.897 Y94.547 E34.46088
G1 X107.857 Y94.878 E34.47747
G1 X107.74 Y95.191 E34.4941
G1 X107.586 Y95.426 E34.50808
G1 X107.497 Y95.536 E34.51512
G1 X107.258 Y95.768 E34.5317
G1 X106.97 Y95.937 E34.54832
G1 X106.723 Y96.019 E34.56127
G1 X85.603 Y100.86 E35.63957
G1 X85.292 Y100.895 E35.65515
G1 X79.902 Y100.897 E35.92338
G1 X79.57 Y100.857 E35.94002
G1 X79.258 Y100.74 E35.95661
G1 X78.913 Y100.488 E35.97787
G1 X78.796 Y100.371 E35.9861
G1 X78.59 Y100.108 E36.00273
G1 X78.452 Y99.805 E36.0193
G1 X78.387 Y99.383 E36.04055
G1 X78.387 Y96.817 E36.16824
G1 X78.427 Y96.486 E36.18484
G1 X78.544 Y96.173 E36.20147
G1 X78.796 Y95.829 E36.22269
G1 X78.913 Y95.712 E36.23092
G1 X79.176 Y95.506 E36.24755
G1 X79.479 Y95.368 E36.26412
G1 X79.901 Y95.303 E36.28536
G1 X86.626 Y95.303 E36.62004
G1 X86.792 Y95.207 E36.62958
G1 X86.963 Y95.122 E36.63908
G1 X90.546 Y93.66 E36.83167
G1 X90.546 Y91.338 E36.94722
G1 X86.95 Y89.87 E37.14052
G1 X86.778 Y89.786 E37.15004
G1 X86.624 Y89.697 E37.15889
G1 X79.901 Y89.697 E37.49347
G1 X79.57 Y89.657 E37.51006
G1 X79.257 Y89.54 E37.52669
G1 X78.913 Y89.288 E37.54791
G1 X78.796 Y89.171 E37.55614
G1 X78.59 Y88.908 E37.57277
G1 X78.452 Y88.605 E37.58934
G1 X78.387 Y88.183 E37.61059
G1 X78.387 Y85.617 E37.73828
G1 X78.427 Y85.286 E37.75488
G1 X78.544 Y84.973 E37.77151
G1 X78.796 Y84.629 E37.79273
G1 X78.913 Y84.512 E37.80096
M204 S5000
G0 F2400 X79.078 Y84.911
M204 S200
G1 F1200 X79.195 Y84.794 E37.8092
G1 X79.421 Y84.625 E37.82324
G1 X79.685 Y84.526 E37.83727
G1 X79.902 Y84.502 E37.84814
G1 X85.293 Y84.505 E38.11642
G1 X85.515 Y84.53 E38.12754
G1 X106.634 Y89.37 E39.20578
G1 X106.897 Y89.471 E39.2198
G1 X107.187 Y89.715 E39.23867
G1 X107.276 Y89.825 E39.24571
G1 X107.42 Y90.067 E39.25972
G1 X107.498 Y90.453 E39.27932
G1 X107.498 Y94.547 E39.48306
G1 X107.458 Y94.826 E39.49709
G1 X107.276 Y95.175 E39.51667
G1 X107.187 Y95.285 E39.52372
G1 X106.98 Y95.477 E39.53777
G1 X106.634 Y95.63 E39.55659
G1 X85.514 Y100.471 E40.6349
G1 X85.291 Y100.496 E40.64606
G1 X79.901 Y100.498 E40.9143
