;FLAVOR:Marlin
;TIME:4053
;Filament used: 3.5555m
;Layer height: 0.2
;Generated with Cura_SteamEngine 2.7.0
M190 S60
M104 S220
M109 S220
G21 ;metric values
G90 ;absolute positioning
M82 ;set extruder to absolute mode
M107 ;start with the fan off
G92 E0 ;zero the extruded length
G1 F200 E3 ;extrude 3mm of feed stock
G92 E0 ;zero the extruded length again
G1 F9000
M117 Printing...
;LAYER_COUNT:100
;LAYER:0
M107
M204 S5000
G0 F2400 X67.903 Y71.107 Z0.3
G0 X67.506 Y71.489
M204 S200
;TYPE:SKIRT
G1 F1200 X67.903 Y71.107 E0.02742
G1 X68.351 Y70.788 E0.05479
G1 X68.841 Y70.536 E0.08221
G1 X69.362 Y70.358 E0.10961
G1 X69.735 Y70.28 E0.12857
G1 X69.875 Y70.258 E0.13562
G1 X70.424 Y70.212 E0.16304
G1 X70.973 Y70.246 E0.19041
G1 X71.512 Y70.36 E0.21783
G1 X72.028 Y70.55 E0.2452
G1 X72.355 Y70.717 E0.26347
G1 X82.86 Y76.764 E0.86668
G1 X82.944 Y76.495 E0.88071
G1 X83.145 Y75.983 E0.90808
G1 X83.434 Y75.482 E0.93686
G1 X84.541 Y73.864 E1.03443
G1 X84.884 Y73.434 E1.0618
G1 X85.313 Y73.036 E1.09092
G1 X86.109 Y72.404 E1.1415
G1 X86.109 Y65.617 E1.47926
G1 X86.149 Y65.068 E1.50665
G1 X86.268 Y64.531 E1.53403
G1 X86.463 Y64.016 E1.56143
G1 X86.731 Y63.536 E1.58879
G1 X87.219 Y62.936 E1.62728
G1 X87.336 Y62.819 E1.63551
G1 X87.753 Y62.459 E1.66293
G1 X88.217 Y62.164 E1.69029
G1 X88.719 Y61.938 E1.71769
G1 X89.248 Y61.788 E1.74505
G1 X90.017 Y61.709 E1.78352
G1 X91.383 Y61.709 E1.8515
G1 X91.932 Y61.749 E1.8789
G1 X92.469 Y61.868 E1.90627
G1 X92.51 Y61.884 E1.90846
G1 X92.848 Y61.788 E1.92594
G1 X93.617 Y61.709 E1.96442
G1 X94.983 Y61.709 E2.0324
G1 X95.532 Y61.749 E2.05979
G1 X96.069 Y61.868 E2.08716
G1 X96.584 Y62.063 E2.11457
G1 X97.064 Y62.331 E2.14192
G1 X97.664 Y62.819 E2.18041
G1 X97.781 Y62.936 E2.18865
G1 X98.141 Y63.353 E2.21606
G1 X98.436 Y63.817 E2.24343
G1 X98.662 Y64.319 E2.27082
G1 X98.812 Y64.848 E2.29819
G1 X98.891 Y65.617 E2.33666
G1 X98.891 Y72.318 E2.67014
G1 X98.98 Y72.379 E2.67551
G1 X99.41 Y72.778 E2.7047
G1 X100.744 Y74.223 E2.80257
G1 X101.087 Y74.654 E2.82998
G1 X101.377 Y75.155 E2.85879
G1 X102.155 Y76.775 E2.94822
G1 X112.64 Y70.72 E3.55077
G1 X113.135 Y70.48 E3.57815
G1 X113.66 Y70.315 E3.60554
G1 X114.204 Y70.227 E3.63296
G1 X114.754 Y70.218 E3.66034
G1 X115.125 Y70.258 E3.67891
G1 X115.265 Y70.28 E3.68596
G1 X115.801 Y70.405 E3.71335
G1 X116.313 Y70.606 E3.74072
G1 X116.791 Y70.879 E3.76812
G1 X117.224 Y71.218 E3.79548
G1 X117.496 Y71.491 E3.81466
G1 X118.79 Y72.931 E3.91101
G1 X119.254 Y73.571 E3.95035
G1 X120.454 Y75.651 E4.06985
G1 X120.693 Y76.146 E4.0972
G1 X120.722 Y76.236 E4.10191
G1 X121.07 Y76.72 E4.13158
G1 X122.28 Y78.819 E4.25215
G1 X122.602 Y79.542 E4.29154
G1 X123.193 Y81.364 E4.38686
G1 X123.324 Y81.899 E4.41427
G1 X123.377 Y82.447 E4.44167
G1 X123.35 Y82.996 E4.46902
G1 X123.243 Y83.536 E4.49642
G1 X123.123 Y83.9 E4.51549
G1 X123.072 Y84.032 E4.52253
G1 X122.837 Y84.53 E4.54994
G1 X122.532 Y84.988 E4.57732
G1 X122.165 Y85.398 E4.60471
G1 X121.741 Y85.749 E4.6321
G1 X121.434 Y85.947 E4.65028
G1 X110.094 Y92.508 E5.30227
G1 X121.431 Y99.051 E5.95368
G1 X121.886 Y99.36 E5.98105
G1 X122.292 Y99.731 E6.00842
G1 X122.64 Y100.158 E6.03583
G1 X122.923 Y100.63 E6.06322
G1 X123.072 Y100.968 E6.0816
G1 X123.123 Y101.1 E6.08865
G1 X123.284 Y101.626 E6.11602
G1 X123.366 Y102.17 E6.1434
G1 X123.369 Y102.721 E6.17082
G1 X123.293 Y103.266 E6.19821
G1 X123.192 Y103.638 E6.21739
G1 X122.594 Y105.477 E6.31363
G1 X122.271 Y106.202 E6.35312
G1 X121.068 Y108.284 E6.47279
G1 X120.759 Y108.739 E6.50016
G1 X120.695 Y108.808 E6.50484
G1 X120.452 Y109.353 E6.53454
G1 X119.24 Y111.449 E6.65503
G1 X118.776 Y112.086 E6.69425
G1 X117.494 Y113.511 E6.78964
G1 X117.098 Y113.893 E6.81702
G1 X116.65 Y114.213 E6.84442
G1 X116.16 Y114.464 E6.87182
G1 X115.64 Y114.643 E6.89919
G1 X115.265 Y114.721 E6.91825
G1 X115.125 Y114.743 E6.9253
G1 X114.576 Y114.789 E6.95272
G1 X114.027 Y114.755 E6.98009
G1 X113.488 Y114.641 E7.00751
G1 X112.972 Y114.451 E7.03487
G1 X112.645 Y114.284 E7.05315
G1 X101.721 Y107.997 E7.68039
G1 X101.668 Y108.126 E7.68733
G1 X100.802 Y109.819 E7.78197
G1 X100.517 Y110.29 E7.80936
G1 X100.1 Y110.782 E7.84146
G1 X98.891 Y111.984 E7.9263
G1 X98.891 Y119.383 E8.29451
G1 X98.851 Y119.932 E8.32191
G1 X98.732 Y120.469 E8.34928
G1 X98.537 Y120.984 E8.37669
G1 X98.269 Y121.464 E8.40404
G1 X97.781 Y122.064 E8.44253
G1 X97.664 Y122.181 E8.45077
G1 X97.247 Y122.541 E8.47818
G1 X96.783 Y122.836 E8.50555
G1 X96.281 Y123.062 E8.53294
G1 X95.752 Y123.212 E8.56031
G1 X94.983 Y123.291 E8.59878
G1 X93.617 Y123.291 E8.66676
G1 X93.068 Y123.251 E8.69415
G1 X92.531 Y123.132 E8.72152
G1 X92.49 Y123.116 E8.72371
G1 X92.152 Y123.212 E8.7412
G1 X91.383 Y123.291 E8.77967
G1 X90.017 Y123.291 E8.84765
G1 X89.468 Y123.251 E8.87504
G1 X88.931 Y123.132 E8.90242
G1 X88.416 Y122.937 E8.92982
G1 X87.936 Y122.669 E8.95718
G1 X87.336 Y122.181 E8.99567
G1 X87.219 Y122.064 E9.0039
G1 X86.859 Y121.647 E9.03132
G1 X86.564 Y121.183 E9.05868
G1 X86.338 Y120.681 E9.08608
G1 X86.188 Y120.152 E9.11344
G1 X86.109 Y119.383 E9.15191
G1 X86.109 Y111.99 E9.51983
G1 X84.868 Y110.742 E9.60742
G1 X84.51 Y110.324 E9.63481
G1 X84.175 Y109.781 E9.66656
G1 X83.315 Y108.082 E9.76132
G1 X83.272 Y107.98 E9.76683
G1 X72.36 Y114.281 E10.39391
G1 X71.865 Y114.521 E10.42128
G1 X71.34 Y114.686 E10.44867
G1 X70.796 Y114.774 E10.47609
G1 X70.246 Y114.783 E10.50347
G1 X69.875 Y114.743 E10.52204
G1 X69.735 Y114.721 E10.52909
G1 X69.199 Y114.596 E10.55648
G1 X68.687 Y114.395 E10.58385
G1 X68.209 Y114.122 E10.61125
G1 X67.776 Y113.783 E10.63861
G1 X67.502 Y113.508 E10.65793
G1 X66.208 Y112.066 E10.75435
G1 X65.747 Y111.429 E10.79348
G1 X64.547 Y109.35 E10.91294
G1 X64.307 Y108.855 E10.94032
G1 X64.278 Y108.763 E10.94512
G1 X63.93 Y108.28 E10.97475
G1 X62.719 Y106.179 E11.09543
G1 X62.397 Y105.455 E11.13486
G1 X61.807 Y103.635 E11.23008
G1 X61.675 Y103.101 E11.25745
G1 X61.623 Y102.553 E11.28485
G1 X61.65 Y102.003 E11.31225
G1 X61.757 Y101.463 E11.33964
G1 X61.877 Y101.1 E11.35867
G1 X61.928 Y100.968 E11.36571
G1 X62.163 Y100.47 E11.39312
G1 X62.468 Y100.012 E11.4205
G1 X62.835 Y99.602 E11.44789
G1 X63.259 Y99.251 E11.47528
G1 X63.566 Y99.053 E11.49346
G1 X74.906 Y92.492 E12.14545
G1 X63.569 Y85.949 E12.79686
G1 X63.114 Y85.64 E12.82423
G1 X62.708 Y85.269 E12.8516
G1 X62.36 Y84.842 E12.87901
G1 X62.077 Y84.37 E12.9064
G1 X61.928 Y84.032 E12.92478
G1 X61.877 Y83.9 E12.93183
G1 X61.716 Y83.374 E12.9592
G1 X61.634 Y82.83 E12.98658
G1 X61.631 Y82.279 E13.014
G1 X61.707 Y81.734 E13.04139
G1 X61.808 Y81.362 E13.06057
G1 X62.406 Y79.523 E13.1568
G1 X62.729 Y78.798 E13.1963
G1 X63.932 Y76.716 E13.31597
G1 X64.241 Y76.261 E13.34334
G1 X64.305 Y76.192 E13.34802
G1 X64.548 Y75.647 E13.37772
G1 X65.761 Y73.55 E13.49828
G1 X66.225 Y72.912 E13.53754
G1 X67.506 Y71.489 E13.63282
M204 S5000
G0 F2400 X67.803 Y71.756
M204 S200
G1 F1200 X68.18 Y71.397 E13.65873
G1 X68.607 Y71.099 E13.68464
G1 X69.075 Y70.871 E13.71055
G1 X69.797 Y70.674 E13.74779
G1 X69.937 Y70.652 E13.75484
G1 X70.456 Y70.611 E13.78075
G1 X70.975 Y70.65 E13.80665
G1 X71.482 Y70.768 E13.83256
G1 X72.156 Y71.063 E13.86917
G1 X83.093 Y77.359 E14.4972
G1 X83.325 Y76.614 E14.53603
G1 X83.517 Y76.13 E14.56195
G1 X83.764 Y75.708 E14.58628
G1 X84.871 Y74.09 E14.68384
G1 X85.197 Y73.684 E14.70975
G1 X85.561 Y73.349 E14.73437
G1 X86.508 Y72.597 E14.79455
G1 X86.508 Y65.617 E15.14192
G1 X86.548 Y65.098 E15.16782
G1 X86.667 Y64.591 E15.19374
G1 X86.862 Y64.109 E15.21961
G1 X87.128 Y63.661 E15.24554
G1 X87.501 Y63.218 E15.27436
G1 X87.618 Y63.101 E15.2826
G1 X88.014 Y62.763 E15.30851
G1 X88.456 Y62.488 E15.33441
G1 X88.935 Y62.285 E15.3603
G1 X89.44 Y62.157 E15.38623
G1 X90.017 Y62.108 E15.41505
G1 X91.383 Y62.108 E15.48303
G1 X91.902 Y62.148 E15.50893
G1 X92.409 Y62.267 E15.53485
G1 X92.495 Y62.302 E15.53947
G1 X92.535 Y62.285 E15.54163
G1 X93.04 Y62.157 E15.56756
G1 X93.617 Y62.108 E15.59637
G1 X94.983 Y62.108 E15.66435
G1 X95.502 Y62.148 E15.69026
G1 X96.009 Y62.267 E15.71618
G1 X96.491 Y62.462 E15.74205
G1 X96.939 Y62.728 E15.76798
G1 X97.382 Y63.101 E15.7968
G1 X97.499 Y63.218 E15.80503
G1 X97.837 Y63.614 E15.83094
G1 X98.112 Y64.056 E15.85685
G1 X98.315 Y64.535 E15.88274
G1 X98.443 Y65.04 E15.90867
G1 X98.492 Y65.617 E15.93749
G1 X98.492 Y72.529 E16.28146
G1 X98.754 Y72.709 E16.29728
G1 X99.117 Y73.049 E16.32203
G1 X100.451 Y74.494 E16.4199
G1 X100.774 Y74.903 E16.44584
G1 X101.017 Y75.327 E16.47016
G1 X101.867 Y77.098 E16.56792
G1 X101.964 Y77.347 E16.58122
G1 X112.84 Y71.066 E17.20624
G1 X113.309 Y70.841 E17.23213
G1 X113.807 Y70.69 E17.25803
G1 X114.323 Y70.618 E17.28396
G1 X115.063 Y70.652 E17.32082
G1 X115.203 Y70.674 E17.32787
G1 X115.709 Y70.794 E17.35375
G1 X116.191 Y70.99 E17.37965
G1 X116.638 Y71.258 E17.40558
G1 X117.199 Y71.758 E17.44298
G1 X118.493 Y73.198 E17.53933
G1 X118.908 Y73.77 E17.5745
G1 X120.108 Y75.85 E17.694
G1 X120.333 Y76.319 E17.71989
G1 X120.36 Y76.41 E17.72461
G1 X120.397 Y76.448 E17.72725
G1 X120.725 Y76.919 E17.75581
G1 X121.935 Y79.018 E17.87638
G1 X122.223 Y79.665 E17.91163
G1 X122.814 Y81.487 E18.00695
G1 X122.936 Y81.993 E18.03285
G1 X122.979 Y82.512 E18.05877
G1 X122.942 Y83.031 E18.08467
G1 X122.751 Y83.756 E18.12198
G1 X122.7 Y83.888 E18.12902
G1 X122.476 Y84.358 E18.15493
G1 X122.182 Y84.788 E18.18085
G1 X121.826 Y85.168 E18.20677
G1 X121.235 Y85.602 E18.24326
G1 X109.298 Y92.508 E18.92956
G1 X121.232 Y99.396 E19.61528
G1 X121.661 Y99.69 E19.64117
G1 X122.041 Y100.047 E19.66711
G1 X122.361 Y100.457 E19.693
G1 X122.7 Y101.112 E19.7297
G1 X122.751 Y101.244 E19.73674
G1 X122.901 Y101.742 E19.76262
G1 X122.973 Y102.258 E19.78855
G1 X122.965 Y102.778 E19.81443
G1 X122.813 Y103.515 E19.85188
G1 X122.215 Y105.354 E19.94812
G1 X121.926 Y106.002 E19.98343
G1 X120.723 Y108.084 E20.10309
G1 X120.429 Y108.513 E20.12897
G1 X120.367 Y108.579 E20.13348
G1 X120.356 Y108.619 E20.13555
G1 X120.106 Y109.153 E20.16489
G1 X118.894 Y111.249 E20.28538
G1 X118.48 Y111.82 E20.32048
G1 X117.198 Y113.245 E20.41587
G1 X116.821 Y113.604 E20.44178
G1 X116.394 Y113.901 E20.46766
G1 X115.926 Y114.129 E20.49357
G1 X115.203 Y114.327 E20.53087
G1 X115.063 Y114.349 E20.53793
G1 X114.544 Y114.39 E20.56384
G1 X114.025 Y114.351 E20.58974
G1 X113.518 Y114.233 E20.61564
G1 X112.844 Y113.938 E20.65226
G1 X101.525 Y107.424 E21.30217
G1 X101.52 Y107.446 E21.30329
G1 X101.313 Y107.945 E21.33018
G1 X100.447 Y109.638 E21.42481
G1 X100.175 Y110.082 E21.45073
G1 X99.818 Y110.499 E21.47805
G1 X98.492 Y111.817 E21.57109
G1 X98.492 Y119.383 E21.94761
G1 X98.452 Y119.902 E21.97352
G1 X98.333 Y120.409 E21.99943
G1 X98.138 Y120.891 E22.02531
G1 X97.872 Y121.339 E22.05124
G1 X97.499 Y121.782 E22.08006
G1 X97.382 Y121.899 E22.08829
G1 X96.986 Y122.237 E22.1142
G1 X96.544 Y122.512 E22.14011
G1 X96.065 Y122.715 E22.166
G1 X95.56 Y122.843 E22.19192
G1 X94.983 Y122.892 E22.22074
G1 X93.617 Y122.892 E22.28872
G1 X93.098 Y122.852 E22.31463
G1 X92.591 Y122.733 E22.34054
G1 X92.505 Y122.698 E22.34516
G1 X92.465 Y122.715 E22.34733
G1 X91.96 Y122.843 E22.37325
G1 X91.383 Y122.892 E22.40207
G1 X90.017 Y122.892 E22.47005
G1 X89.498 Y122.852 E22.49596
G1 X88.991 Y122.733 E22.52187
G1 X88.509 Y122.538 E22.54775
G1 X88.061 Y122.272 E22.57368
G1 X87.618 Y121.899 E22.6025
G1 X87.501 Y121.782 E22.61073
G1 X87.163 Y121.386 E22.63664
G1 X86.888 Y120.944 E22.66255
G1 X86.685 Y120.465 E22.68844
G1 X86.557 Y119.96 E22.71436
G1 X86.508 Y119.383 E22.74318
G1 X86.508 Y111.824 E23.11936
G1 X86.501 Y111.818 E23.11982
G1 X85.151 Y110.46 E23.21511
G1 X84.814 Y110.064 E23.24099
G1 X84.531 Y109.601 E23.26799
G1 X83.671 Y107.902 E23.36276
G1 X83.472 Y107.421 E23.38867
G1 X83.468 Y107.405 E23.38949
G1 X72.16 Y113.935 E24.03932
G1 X71.691 Y114.16 E24.06521
G1 X71.193 Y114.311 E24.09111
G1 X70.677 Y114.383 E24.11704
G1 X69.937 Y114.349 E24.1539
G1 X69.797 Y114.327 E24.16095
G1 X69.291 Y114.207 E24.18683
G1 X68.809 Y114.011 E24.21273
G1 X68.362 Y113.743 E24.23867
G1 X67.799 Y113.241 E24.2762
G1 X66.505 Y111.799 E24.37262
G1 X66.092 Y111.23 E24.40761
G1 X64.892 Y109.151 E24.52707
G1 X64.667 Y108.681 E24.553
G1 X64.64 Y108.59 E24.55773
G1 X64.603 Y108.552 E24.56037
G1 X64.275 Y108.081 E24.58893
G1 X63.064 Y105.98 E24.70961
G1 X62.776 Y105.332 E24.7449
G1 X62.186 Y103.512 E24.84012
G1 X62.064 Y103.006 E24.86602
G1 X62.021 Y102.487 E24.89194
G1 X62.058 Y101.968 E24.91783
G1 X62.249 Y101.244 E24.95509
G1 X62.3 Y101.112 E24.96214
G1 X62.524 Y100.642 E24.98805
G1 X62.818 Y100.212 E25.01397
G1 X63.174 Y99.832 E25.03988
G1 X63.765 Y99.398 E25.07637
G1 X75.702 Y92.492 E25.76267
G1 X63.768 Y85.604 E26.4484
G1 X63.339 Y85.31 E26.47428
G1 X62.959 Y84.953 E26.50023
G1 X62.639 Y84.543 E26.52611
G1 X62.3 Y83.888 E26.56282
G1 X62.249 Y83.756 E26.56986
G1 X62.099 Y83.258 E26.59574
G1 X62.027 Y82.742 E26.62167
G1 X62.035 Y82.222 E26.64755
G1 X62.187 Y81.485 E26.685
G1 X62.785 Y79.646 E26.78123
G1 X63.074 Y78.998 E26.81654
G1 X64.277 Y76.916 E26.93621
G1 X64.571 Y76.487 E26.96209
G1 X64.633 Y76.421 E26.9666
G1 X64.644 Y76.381 E26.96866
G1 X64.894 Y75.847 E26.998
G1 X66.107 Y73.75 E27.11856
G1 X66.522 Y73.179 E27.15369
G1 X67.803 Y71.756 E27.24898
M204 S5000
G0 F2400 X68.1 Y72.023
M204 S200
G1 F1200 X68.455 Y71.687 E27.2733
G1 X68.861 Y71.414 E27.29765
G1 X69.305 Y71.211 E27.32195
G1 X69.859 Y71.068 E27.35042
G1 X69.999 Y71.046 E27.35747
G1 X70.487 Y71.01 E27.38182
G1 X70.974 Y71.054 E27.40616
G1 X71.447 Y71.176 E27.43047
G1 X71.957 Y71.409 E27.45837
G1 X83.325 Y77.953 E28.11114
G1 X83.706 Y76.732 E28.1748
G1 X83.889 Y76.279 E28.19911
G1 X84.093 Y75.933 E28.2191
G1 X85.2 Y74.315 E28.31666
G1 X85.508 Y73.935 E28.34101
G1 X85.809 Y73.661 E28.36126
G1 X86.907 Y72.789 E28.43104
G1 X86.907 Y65.617 E28.78796
G1 X86.947 Y65.13 E28.81227
G1 X87.066 Y64.655 E28.83664
G1 X87.26 Y64.207 E28.86094
G1 X87.525 Y63.796 E28.88528
G1 X87.784 Y63.501 E28.90481
G1 X87.901 Y63.384 E28.91305
G1 X88.273 Y63.067 E28.93737
G1 X88.693 Y62.816 E28.96172
G1 X89.147 Y62.636 E28.98602
G1 X89.625 Y62.533 E29.01036
G1 X90.017 Y62.507 E29.02991
G1 X91.383 Y62.507 E29.09789
G1 X91.87 Y62.547 E29.12221
G1 X92.345 Y62.666 E29.14657
G1 X92.501 Y62.734 E29.15504
G1 X92.747 Y62.636 E29.16822
G1 X93.225 Y62.533 E29.19256
G1 X93.617 Y62.507 E29.21211
G1 X94.983 Y62.507 E29.28009
G1 X95.47 Y62.547 E29.3044
G1 X95.945 Y62.666 E29.32877
G1 X96.393 Y62.86 E29.35307
G1 X96.804 Y63.125 E29.3774
G1 X97.099 Y63.384 E29.39694
G1 X97.216 Y63.501 E29.40517
G1 X97.533 Y63.873 E29.4295
G1 X97.784 Y64.293 E29.45385
G1 X97.964 Y64.747 E29.47815
G1 X98.067 Y65.225 E29.50249
G1 X98.093 Y65.617 E29.52204
G1 X98.093 Y72.741 E29.87657
G1 X98.125 Y72.76 E29.87842
G1 X98.526 Y73.039 E29.90273
G1 X98.824 Y73.32 E29.92311
G1 X100.158 Y74.765 E30.02098
G1 X100.459 Y75.15 E30.0453
G1 X100.657 Y75.5 E30.06531
G1 X101.507 Y77.271 E30.16307
G1 X101.682 Y77.728 E30.18743
G1 X101.729 Y77.942 E30.19833
G1 X113.039 Y71.411 E30.84828
G1 X113.481 Y71.202 E30.87261
G1 X113.951 Y71.068 E30.89693
G1 X114.437 Y71.012 E30.92128
G1 X115.001 Y71.046 E30.9494
G1 X115.141 Y71.068 E30.95645
G1 X115.616 Y71.183 E30.98077
G1 X116.066 Y71.374 E31.0051
G1 X116.479 Y71.636 E31.02944
G1 X116.902 Y72.024 E31.05801
G1 X118.196 Y73.464 E31.15435
G1 X118.562 Y73.969 E31.18539
G1 X119.762 Y76.049 E31.30489
G1 X119.971 Y76.491 E31.32922
G1 X120.009 Y76.625 E31.33616
G1 X120.164 Y76.796 E31.34764
G1 X120.379 Y77.118 E31.36691
G1 X121.589 Y79.217 E31.48748
G1 X121.843 Y79.789 E31.51863
G1 X122.434 Y81.611 E31.61395
G1 X122.546 Y82.086 E31.63824
G1 X122.58 Y82.574 E31.66258
G1 X122.533 Y83.061 E31.68693
G1 X122.379 Y83.613 E31.71545
G1 X122.328 Y83.745 E31.72249
G1 X122.115 Y84.185 E31.74682
G1 X121.833 Y84.584 E31.77113
G1 X121.49 Y84.933 E31.79549
G1 X121.035 Y85.257 E31.82328
G1 X108.5 Y92.509 E32.54397
G1 X121.032 Y99.742 E33.26405
G1 X121.434 Y100.02 E33.28838
G1 X121.786 Y100.36 E33.31273
G1 X122.077 Y100.752 E33.33703
G1 X122.328 Y101.255 E33.365
G1 X122.379 Y101.387 E33.37204
G1 X122.517 Y101.856 E33.39637
G1 X122.577 Y102.341 E33.42069
G1 X122.558 Y102.83 E33.44505
G1 X122.433 Y103.392 E33.4737
G1 X121.835 Y105.231 E33.56994
G1 X121.58 Y105.802 E33.60106
