;FLAVOR:Marlin
;TIME:7346
;Filament used: 5.83817m
;Layer height: 0.2
;Generated with Cura_SteamEngine 2.7.0
M190 S60
M104 S220
M109 S220
G21 ;metric values
G90 ;absolute positioning
M82 ;set extruder to absolute mode
M107 ;start with the fan off
G92 E0 ;zero the extruded length
G1 F200 E3 ;extrude 3mm of feed stock
G92 E0 ;zero the extruded length again
G1 F9000
M117 Printing...
;LAYER_COUNT:40
;LAYER:0
M107
M204 S5000
G0 F2400 X76.86 Y46.68 Z0.3
M204 S200
;TYPE:SKIRT
G1 F1200 X77.169 Y46.225 E0.02737
G1 X77.541 Y45.819 E0.05477
G1 X77.967 Y45.471 E0.08215
G1 X78.44 Y45.189 E0.10955
G1 X79.153 Y44.916 E0.14755
G1 X79.312 Y44.873 E0.15575
G1 X79.853 Y44.769 E0.18316
G1 X80.402 Y44.743 E0.21051
G1 X80.95 Y44.798 E0.23792
G1 X81.484 Y44.931 E0.26531
G1 X82.198 Y45.25 E0.30423
G1 X86.726 Y47.865 E0.56444
G1 X86.888 Y47.745 E0.57448
G1 X88.518 Y46.668 E0.6717
G1 X88.998 Y46.399 E0.69908
G1 X89.512 Y46.202 E0.72648
G1 X89.881 Y46.11 E0.7454
G1 X91.791 Y45.737 E0.84225
G1 X92.338 Y45.671 E0.86967
G1 X92.888 Y45.685 E0.89705
G1 X93.274 Y45.743 E0.91648
G1 X95.186 Y46.132 E1.01358
G1 X95.716 Y46.281 E1.04098
G1 X96.219 Y46.504 E1.06836
G1 X96.544 Y46.7 E1.08724
G1 X98.161 Y47.786 E1.18418
G1 X98.267 Y47.869 E1.19088
G1 X102.803 Y45.249 E1.45157
G1 X103.298 Y45.009 E1.47894
G1 X103.823 Y44.844 E1.50633
G1 X104.366 Y44.756 E1.5337
G1 X104.917 Y44.747 E1.56113
G1 X105.689 Y44.872 E1.60005
G1 X105.848 Y44.915 E1.60825
G1 X106.367 Y45.097 E1.63562
G1 X106.855 Y45.352 E1.66302
G1 X107.3 Y45.676 E1.69041
G1 X107.694 Y46.06 E1.71779
G1 X108.141 Y46.68 E1.75583
G1 X111.274 Y52.109 E2.06777
G1 X111.514 Y52.605 E2.09519
G1 X111.68 Y53.129 E2.12254
G1 X111.767 Y53.673 E2.14996
G1 X111.776 Y54.223 E2.17733
G1 X111.651 Y54.994 E2.2162
G1 X111.608 Y55.153 E2.2244
G1 X111.426 Y55.672 E2.25177
G1 X111.171 Y56.16 E2.27917
G1 X110.847 Y56.605 E2.30656
G1 X110.463 Y56.999 E2.33394
G1 X109.843 Y57.446 E2.37198
G1 X102.68 Y61.58 E2.78356
G1 X101.925 Y62.16 E2.83094
G1 X101.498 Y62.717 E2.86587
G1 X101.229 Y63.364 E2.90074
G1 X101.138 Y64.054 E2.93537
G1 X101.229 Y64.744 E2.97001
G1 X101.498 Y65.391 E3.00488
G1 X101.924 Y65.946 E3.0397
G1 X102.478 Y66.371 E3.07444
G1 X103.125 Y66.64 E3.10931
G1 X103.816 Y66.731 E3.144
G1 X104.492 Y66.641 E3.17794
G1 X105.471 Y66.226 E3.23085
G1 X112.555 Y62.137 E3.63791
G1 X113.05 Y61.897 E3.66528
G1 X113.575 Y61.731 E3.69269
G1 X114.118 Y61.644 E3.72005
G1 X114.668 Y61.635 E3.74743
G1 X115.446 Y61.762 E3.78666
G1 X115.604 Y61.805 E3.79481
G1 X116.123 Y61.988 E3.82219
G1 X116.61 Y62.244 E3.84957
G1 X117.055 Y62.567 E3.87694
G1 X117.448 Y62.952 E3.90432
G1 X117.891 Y63.568 E3.94208
G1 X121.024 Y68.996 E4.25397
G1 X121.264 Y69.491 E4.28135
G1 X121.43 Y70.016 E4.30875
G1 X121.517 Y70.559 E4.33612
G1 X121.526 Y71.11 E4.36354
G1 X121.401 Y71.881 E4.40241
G1 X121.358 Y72.04 E4.41061
G1 X121.176 Y72.559 E4.43798
G1 X120.921 Y73.047 E4.46538
G1 X120.597 Y73.492 E4.49277
G1 X120.213 Y73.886 E4.52015
G1 X119.594 Y74.333 E4.55815
G1 X116.657 Y76.029 E4.72693
G1 X119.597 Y79.296 E4.94566
G1 X120.063 Y79.939 E4.98517
G1 X123.193 Y85.368 E5.29704
G1 X123.515 Y86.09 E5.33638
G1 X124.865 Y90.248 E5.55394
G1 X127.803 Y88.551 E5.72279
G1 X128.298 Y88.311 E5.75016
G1 X128.823 Y88.146 E5.77755
G1 X129.366 Y88.058 E5.80493
G1 X129.917 Y88.049 E5.83235
G1 X130.689 Y88.174 E5.87127
G1 X130.848 Y88.217 E5.87947
G1 X131.367 Y88.399 E5.90684
G1 X131.855 Y88.654 E5.93424
G1 X132.3 Y88.978 E5.96163
G1 X132.694 Y89.362 E5.98901
G1 X133.141 Y89.982 E6.02705
G1 X136.274 Y95.41 E6.33894
G1 X136.514 Y95.905 E6.36632
G1 X136.68 Y96.43 E6.39372
G1 X136.767 Y96.973 E6.42109
G1 X136.776 Y97.524 E6.44851
G1 X136.651 Y98.295 E6.48738
G1 X136.608 Y98.454 E6.49558
G1 X136.426 Y98.973 E6.52295
G1 X136.171 Y99.461 E6.55035
G1 X135.847 Y99.906 E6.57775
G1 X135.463 Y100.3 E6.60513
G1 X134.843 Y100.747 E6.64316
G1 X127.68 Y104.881 E7.05474
G1 X126.925 Y105.461 E7.10212
G1 X126.498 Y106.018 E7.13705
G1 X126.229 Y106.665 E7.17192
G1 X126.138 Y107.355 E7.20655
G1 X126.229 Y108.045 E7.24119
G1 X126.498 Y108.692 E7.27606
G1 X126.923 Y109.247 E7.31085
G1 X127.479 Y109.673 E7.3457
G1 X128.125 Y109.942 E7.38053
G1 X128.815 Y110.033 E7.41516
G1 X129.492 Y109.943 E7.44915
G1 X130.47 Y109.528 E7.50202
G1 X137.555 Y105.438 E7.90914
G1 X138.05 Y105.198 E7.93652
G1 X138.575 Y105.032 E7.96392
G1 X139.118 Y104.945 E7.99129
G1 X139.668 Y104.936 E8.01866
G1 X140.446 Y105.063 E8.05789
G1 X140.604 Y105.106 E8.06604
G1 X141.123 Y105.289 E8.09343
G1 X141.61 Y105.545 E8.12081
G1 X142.055 Y105.868 E8.14817
G1 X142.448 Y106.253 E8.17555
G1 X142.891 Y106.869 E8.21331
G1 X146.024 Y112.297 E8.52521
G1 X146.264 Y112.792 E8.55258
G1 X146.43 Y113.317 E8.57999
G1 X146.517 Y113.86 E8.60735
G1 X146.526 Y114.411 E8.63478
G1 X146.401 Y115.182 E8.67365
G1 X146.358 Y115.341 E8.68185
G1 X146.176 Y115.86 E8.70922
G1 X145.921 Y116.348 E8.73662
G1 X145.597 Y116.793 E8.76401
G1 X145.213 Y117.187 E8.79139
G1 X144.593 Y117.634 E8.82943
G1 X140.063 Y120.249 E9.08973
G1 X140.085 Y120.441 E9.09935
G1 X140.206 Y122.395 E9.19678
G1 X140.2 Y122.945 E9.22415
G1 X140.114 Y123.489 E9.25156
G1 X140.006 Y123.865 E9.27103
G1 X139.371 Y125.707 E9.36799
G1 X139.154 Y126.212 E9.39534
G1 X138.867 Y126.682 E9.42275
G1 X138.628 Y126.981 E9.4418
G1 X137.339 Y128.44 E9.53868
G1 X136.946 Y128.825 E9.56606
G1 X136.501 Y129.149 E9.59346
G1 X136.162 Y129.336 E9.61272
G1 X134.414 Y130.19 E9.70954
G1 X134.291 Y130.239 E9.71613
G1 X134.291 Y135.479 E9.9769
G1 X134.251 Y136.028 E10.00429
G1 X134.132 Y136.565 E10.03166
G1 X133.937 Y137.08 E10.05907
G1 X133.669 Y137.56 E10.08643
G1 X133.181 Y138.16 E10.12492
G1 X133.064 Y138.277 E10.13315
G1 X132.647 Y138.637 E10.16057
G1 X132.183 Y138.932 E10.18793
G1 X131.681 Y139.158 E10.21533
G1 X131.152 Y139.308 E10.24269
G1 X130.382 Y139.387 E10.28121
G1 X124.116 Y139.386 E10.59304
G1 X123.568 Y139.346 E10.62039
G1 X123.03 Y139.227 E10.64781
G1 X122.516 Y139.031 E10.67518
G1 X122.035 Y138.763 E10.70259
G1 X121.436 Y138.276 E10.741
G1 X121.319 Y138.159 E10.74924
G1 X120.959 Y137.742 E10.77665
G1 X120.664 Y137.278 E10.80402
G1 X120.438 Y136.776 E10.83141
G1 X120.288 Y136.247 E10.85878
G1 X120.209 Y135.478 E10.89725
G1 X120.209 Y127.198 E11.30931
G1 X120.085 Y126.262 E11.35629
G1 X119.819 Y125.619 E11.39092
G1 X119.391 Y125.061 E11.42592
G1 X118.837 Y124.636 E11.46067
G1 X118.192 Y124.369 E11.49541
G1 X117.5 Y124.277 E11.53015
G1 X116.808 Y124.369 E11.56489
G1 X116.163 Y124.636 E11.59963
G1 X115.609 Y125.061 E11.63438
G1 X115.181 Y125.619 E11.66938
G1 X114.915 Y126.262 E11.70401
G1 X114.791 Y127.2 E11.75109
G1 X114.791 Y135.479 E12.1631
G1 X114.751 Y136.028 E12.19049
G1 X114.632 Y136.565 E12.21787
G1 X114.437 Y137.08 E12.24527
G1 X114.169 Y137.56 E12.27263
G1 X113.681 Y138.16 E12.31112
G1 X113.564 Y138.277 E12.31935
G1 X113.147 Y138.637 E12.34677
G1 X112.683 Y138.932 E12.37413
G1 X112.181 Y139.158 E12.40153
G1 X111.652 Y139.308 E12.42889
G1 X110.882 Y139.387 E12.46741
G1 X104.616 Y139.386 E12.77924
G1 X104.068 Y139.346 E12.80659
G1 X103.53 Y139.227 E12.83401
G1 X103.016 Y139.031 E12.86138
G1 X102.535 Y138.763 E12.88879
G1 X101.936 Y138.276 E12.9272
G1 X101.819 Y138.159 E12.93544
G1 X101.459 Y137.742 E12.96285
G1 X101.164 Y137.278 E12.99022
G1 X100.938 Y136.776 E13.01761
G1 X100.788 Y136.247 E13.04498
G1 X100.709 Y135.478 E13.08345
G1 X100.709 Y132.087 E13.2522
G1 X96.433 Y132.996 E13.46976
G1 X95.645 Y133.079 E13.50919
G1 X89.378 Y133.081 E13.82107
G1 X88.589 Y132.998 E13.86055
G1 X84.291 Y132.085 E14.07922
G1 X84.291 Y135.479 E14.24812
G1 X84.251 Y136.028 E14.27551
G1 X84.132 Y136.565 E14.30289
G1 X83.937 Y137.08 E14.33029
G1 X83.669 Y137.56 E14.35765
G1 X83.181 Y138.16 E14.39614
G1 X83.064 Y138.277 E14.40437
G1 X82.647 Y138.637 E14.43179
G1 X82.183 Y138.932 E14.45915
G1 X81.681 Y139.158 E14.48655
G1 X81.152 Y139.308 E14.51391
G1 X80.382 Y139.387 E14.55243
G1 X74.116 Y139.386 E14.86426
G1 X73.568 Y139.346 E14.89161
G1 X73.03 Y139.227 E14.91903
G1 X72.516 Y139.031 E14.9464
G1 X72.035 Y138.763 E14.97381
G1 X71.436 Y138.276 E15.01222
G1 X71.319 Y138.159 E15.02046
G1 X70.959 Y137.742 E15.04787
G1 X70.664 Y137.278 E15.07524
G1 X70.438 Y136.776 E15.10263
G1 X70.288 Y136.247 E15.13
G1 X70.209 Y135.478 E15.16847
G1 X70.209 Y127.198 E15.58053
G1 X70.085 Y126.262 E15.62751
G1 X69.819 Y125.619 E15.66214
G1 X69.391 Y125.061 E15.69714
G1 X68.837 Y124.636 E15.73189
G1 X68.192 Y124.369 E15.76663
G1 X67.5 Y124.277 E15.80137
G1 X66.808 Y124.369 E15.83611
G1 X66.163 Y124.636 E15.87085
G1 X65.609 Y125.061 E15.9056
G1 X65.181 Y125.619 E15.9406
G1 X64.915 Y126.262 E15.97523
G1 X64.791 Y127.2 E16.02231
G1 X64.791 Y135.479 E16.43432
G1 X64.751 Y136.028 E16.46171
G1 X64.632 Y136.565 E16.48909
G1 X64.437 Y137.08 E16.51649
G1 X64.169 Y137.56 E16.54385
G1 X63.681 Y138.16 E16.58234
G1 X63.564 Y138.277 E16.59057
G1 X63.147 Y138.637 E16.61799
G1 X62.683 Y138.932 E16.64535
G1 X62.181 Y139.158 E16.67275
G1 X61.652 Y139.308 E16.70011
G1 X60.882 Y139.387 E16.73863
G1 X54.616 Y139.386 E17.05046
G1 X54.068 Y139.346 E17.07781
G1 X53.53 Y139.227 E17.10523
G1 X53.016 Y139.031 E17.1326
G1 X52.535 Y138.763 E17.16001
G1 X51.936 Y138.276 E17.19843
G1 X51.819 Y138.159 E17.20666
G1 X51.459 Y137.742 E17.23408
G1 X51.164 Y137.278 E17.26144
G1 X50.938 Y136.776 E17.28884
G1 X50.788 Y136.247 E17.3162
G1 X50.709 Y135.478 E17.35467
G1 X50.709 Y130.248 E17.61494
G1 X50.528 Y130.169 E17.62477
G1 X48.782 Y129.3 E17.72183
G1 X48.308 Y129.02 E17.74923
G1 X47.88 Y128.674 E17.77662
G1 X47.608 Y128.392 E17.79611
G1 X46.329 Y126.919 E17.8932
G1 X46 Y126.478 E17.92058
G1 X45.737 Y125.994 E17.94799
G1 X45.599 Y125.641 E17.96685
G1 X44.98 Y123.8 E18.06351
G1 X44.843 Y123.267 E18.0909
G1 X44.784 Y122.72 E18.11828
G1 X44.791 Y122.33 E18.13769
G1 X44.926 Y120.38 E18.23496
G1 X44.944 Y120.254 E18.2413
G1 X40.407 Y117.634 E18.50203
G1 X39.952 Y117.325 E18.5294
G1 X39.546 Y116.953 E18.5568
G1 X39.198 Y116.527 E18.58418
G1 X38.916 Y116.054 E18.61158
G1 X38.643 Y115.341 E18.64958
G1 X38.6 Y115.182 E18.65777
G1 X38.496 Y114.641 E18.68519
G1 X38.47 Y114.092 E18.71254
G1 X38.525 Y113.544 E18.73995
G1 X38.658 Y113.01 E18.76734
G1 X38.977 Y112.296 E18.80625
G1 X42.111 Y106.869 E19.11813
G1 X42.42 Y106.414 E19.1455
G1 X42.792 Y106.008 E19.1729
G1 X43.219 Y105.66 E19.20032
G1 X43.691 Y105.378 E19.22768
G1 X44.404 Y105.105 E19.26568
G1 X44.563 Y105.062 E19.27387
G1 X45.104 Y104.958 E19.30129
G1 X45.653 Y104.932 E19.32864
G1 X46.201 Y104.987 E19.35605
G1 X46.735 Y105.12 E19.38344
G1 X47.449 Y105.439 E19.42235
G1 X54.616 Y109.578 E19.83423
G1 X55.492 Y109.941 E19.88142
G1 X56.185 Y110.033 E19.91621
G1 X56.875 Y109.942 E19.95084
G1 X57.521 Y109.673 E19.98567
G1 X58.077 Y109.247 E20.02052
G1 X58.502 Y108.692 E20.05531
G1 X58.771 Y108.045 E20.09018
G1 X58.862 Y107.355 E20.12482
G1 X58.771 Y106.665 E20.15945
G1 X58.502 Y106.018 E20.19432
G1 X58.076 Y105.462 E20.22918
G1 X57.325 Y104.885 E20.27631
G1 X50.157 Y100.747 E20.6882
G1 X49.702 Y100.438 E20.71558
G1 X49.296 Y100.066 E20.74298
G1 X48.949 Y99.64 E20.77032
G1 X48.666 Y99.167 E20.79775
G1 X48.393 Y98.454 E20.83575
G1 X48.35 Y98.295 E20.84394
G1 X48.246 Y97.754 E20.87136
G1 X48.22 Y97.205 E20.89871
G1 X48.275 Y96.657 E20.92612
G1 X48.408 Y96.123 E20.95351
G1 X48.727 Y95.409 E20.99243
G1 X51.861 Y89.982 E21.3043
G1 X52.17 Y89.527 E21.33167
G1 X52.542 Y89.121 E21.35908
G1 X52.969 Y88.773 E21.38649
G1 X53.441 Y88.491 E21.41385
G1 X54.154 Y88.218 E21.45185
G1 X54.313 Y88.175 E21.46004
G1 X54.854 Y88.071 E21.48746
G1 X55.403 Y88.045 E21.51481
G1 X55.951 Y88.1 E21.54222
G1 X56.485 Y88.233 E21.56961
G1 X57.199 Y88.552 E21.60852
G1 X60.135 Y90.248 E21.77726
G1 X61.493 Y86.072 E21.99579
G1 X61.815 Y85.348 E22.03523
G1 X64.951 Y79.919 E22.34724
G1 X65.418 Y79.277 E22.38675
G1 X68.345 Y76.029 E22.60434
G1 X65.407 Y74.333 E22.77316
G1 X64.952 Y74.024 E22.80053
G1 X64.546 Y73.652 E22.82794
G1 X64.199 Y73.226 E22.85528
G1 X63.916 Y72.753 E22.88271
G1 X63.643 Y72.04 E22.9207
G1 X63.6 Y71.881 E22.9289
G1 X63.496 Y71.34 E22.95632
G1 X63.47 Y70.791 E22.98367
G1 X63.525 Y70.243 E23.01108
G1 X63.658 Y69.709 E23.03846
G1 X63.977 Y68.995 E23.07738
G1 X67.111 Y63.568 E23.38926
G1 X67.42 Y63.113 E23.41663
G1 X67.792 Y62.707 E23.44403
G1 X68.219 Y62.359 E23.47145
G1 X68.691 Y62.077 E23.49881
G1 X69.404 Y61.804 E23.5368
G1 X69.563 Y61.761 E23.545
G1 X70.104 Y61.657 E23.57242
G1 X70.653 Y61.631 E23.59977
G1 X71.201 Y61.686 E23.62718
G1 X71.735 Y61.819 E23.65456
G1 X72.449 Y62.138 E23.69348
G1 X79.614 Y66.276 E24.10524
G1 X80.491 Y66.639 E24.15248
G1 X81.184 Y66.731 E24.18727
G1 X81.875 Y66.64 E24.22195
G1 X82.522 Y66.371 E24.25682
G1 X83.076 Y65.946 E24.29157
G1 X83.502 Y65.391 E24.32639
G1 X83.771 Y64.744 E24.36126
G1 X83.862 Y64.054 E24.3959
G1 X83.771 Y63.364 E24.43053
G1 X83.502 Y62.717 E24.4654
G1 X83.075 Y62.16 E24.50033
G1 X82.32 Y61.58 E24.54771
G1 X75.157 Y57.446 E24.95929
G1 X74.702 Y57.137 E24.98666
G1 X74.296 Y56.766 E25.01403
G1 X73.948 Y56.339 E25.04144
G1 X73.666 Y55.867 E25.0688
G1 X73.392 Y55.153 E25.10686
G1 X73.349 Y54.994 E25.11506
G1 X73.245 Y54.453 E25.14248
G1 X73.219 Y53.904 E25.16983
G1 X73.274 Y53.356 E25.19724
G1 X73.407 Y52.822 E25.22462
G1 X73.726 Y52.108 E25.26354
G1 X76.86 Y46.68 E25.57546
M204 S5000
G0 F2400 X77.205 Y46.88
M204 S200
G1 F1200 X77.5 Y46.45 E25.60141
G1 X77.856 Y46.071 E25.62729
G1 X78.266 Y45.751 E25.65317
G1 X78.721 Y45.497 E25.6791
G1 X79.257 Y45.302 E25.70749
G1 X79.416 Y45.259 E25.71568
G1 X79.928 Y45.162 E25.74162
G1 X80.448 Y45.144 E25.76751
G1 X80.965 Y45.206 E25.79342
G1 X81.466 Y45.347 E25.81933
G1 X81.998 Y45.596 E25.84856
G1 X86.764 Y48.348 E26.12244
G1 X86.866 Y48.254 E26.12934
G1 X87.108 Y48.078 E26.14423
G1 X88.738 Y47.001 E26.24146
G1 X89.193 Y46.748 E26.26737
G1 X89.681 Y46.568 E26.29325
G1 X89.958 Y46.502 E26.30742
G1 X91.868 Y46.129 E26.40427
G1 X92.385 Y46.069 E26.43017
G1 X92.905 Y46.088 E26.45607
G1 X93.194 Y46.134 E26.47063
G1 X95.106 Y46.523 E26.56773
G1 X95.607 Y46.666 E26.59366
G1 X96.08 Y46.883 E26.61956
G1 X96.321 Y47.031 E26.63363
G1 X97.938 Y48.117 E26.73057
G1 X98.233 Y48.35 E26.74928
G1 X103.003 Y45.595 E27.02341
G1 X103.472 Y45.37 E27.04929
G1 X103.97 Y45.219 E27.07519
G1 X104.486 Y45.147 E27.10112
G1 X105.006 Y45.154 E27.127
G1 X105.585 Y45.258 E27.15627
G1 X105.744 Y45.301 E27.16447
G1 X106.234 Y45.475 E27.19035
G1 X106.692 Y45.722 E27.21624
G1 X107.107 Y46.036 E27.24214
G1 X107.469 Y46.41 E27.26805
G1 X107.796 Y46.88 E27.29654
G1 X110.929 Y52.309 E27.60848
G1 X111.154 Y52.778 E27.63436
G1 X111.304 Y53.276 E27.66025
G1 X111.376 Y53.792 E27.68617
G1 X111.369 Y54.312 E27.71206
G1 X111.265 Y54.89 E27.74128
G1 X111.222 Y55.049 E27.74948
G1 X111.048 Y55.539 E27.77536
G1 X110.801 Y55.997 E27.80125
G1 X110.487 Y56.412 E27.82715
G1 X110.113 Y56.774 E27.85305
G1 X109.643 Y57.101 E27.88155
G1 X102.459 Y61.247 E28.29433
G1 X101.639 Y61.877 E28.34579
G1 X101.149 Y62.516 E28.38586
G1 X100.842 Y63.255 E28.42569
G1 X100.737 Y64.054 E28.46579
G1 X100.842 Y64.853 E28.50589
G1 X101.149 Y65.592 E28.54572
G1 X101.637 Y66.229 E28.58565
G1 X102.28 Y66.722 E28.62597
G1 X103.017 Y67.027 E28.66567
G1 X103.815 Y67.133 E28.70573
G1 X104.599 Y67.029 E28.74509
G1 X105.646 Y66.585 E28.80168
G1 X112.754 Y62.482 E29.21012
G1 X113.224 Y62.257 E29.23605
G1 X113.722 Y62.107 E29.26193
G1 X114.237 Y62.035 E29.28781
G1 X114.758 Y62.042 E29.31374
G1 X115.341 Y62.147 E29.34322
G1 X115.499 Y62.19 E29.35137
G1 X115.989 Y62.365 E29.37727
G1 X116.447 Y62.613 E29.40319
G1 X116.861 Y62.928 E29.42907
G1 X117.223 Y63.302 E29.45498
G1 X117.546 Y63.767 E29.48315
G1 X120.679 Y69.195 E29.79505
G1 X120.904 Y69.665 E29.82098
G1 X121.054 Y70.163 E29.84686
G1 X121.126 Y70.679 E29.87279
G1 X121.119 Y71.199 E29.89867
G1 X121.015 Y71.777 E29.9279
G1 X120.972 Y71.936 E29.93609
G1 X120.798 Y72.426 E29.96197
G1 X120.551 Y72.884 E29.98787
G1 X120.237 Y73.299 E30.01376
G1 X119.863 Y73.661 E30.03967
G1 X119.394 Y73.987 E30.06809
G1 X116.03 Y75.93 E30.26142
G1 X119.3 Y79.563 E30.50467
G1 X119.718 Y80.138 E30.54005
G1 X122.848 Y85.567 E30.85191
G1 X123.135 Y86.214 E30.88713
G1 X124.637 Y90.841 E31.12923
