;Generated from tpge-xcar-beltholder.stl 822f52766d174a3a874a26ee243ba97992f94086
;Generated with Cura_SteamEngine 15.04
M140 S55.0
M109 T0 S210.0
T0
M190 S55.0

;Basic settings: Layer height: 0.15 Walls: 1.2 Fill: 50
;Print time: ?print_time?
;Filament used: ?filament_amount?m ?filament_weight?g
;Filament cost: ?filament_cost?
;M190 S55 ;Uncomment to add your own bed temperature line
;M109 S210 ;Uncomment to add your own temperature line
G21        ;metric values
G90        ;absolute positioning
M82        ;set extruder to absolute mode
M107       ;start with the fan off
G28 X0 Y0  ;move X/Y to min endstops
G28 Z0     ;move Z to min endstops
G1 Z5.0 F9000 ;move the platform down 15mm
G92 E0                  ;zero the extruded length
G1 F200 E3              ;extrude 3mm of feed stock
G92 E0                  ;zero the extruded length again
G1 F9000
;Put printing message on LCD screen
M117 Printing...

;Layer count: 103
;LAYER:0
M107
G0 F9000 X79.718 Y91.775 Z0.300
;TYPE:SKIRT
G1 F1200 X120.282 Y91.775 E2.02375
G1 X123.891 Y95.384 E2.27838
G1 X123.891 Y103.521 E2.68434
G1 X122.334 Y105.526 E2.81099
G1 X122.109 Y105.803 E2.82879
G1 X120.676 Y107.200 E2.92863
G1 X80.233 Y107.200 E4.94634
G1 X78.627 Y106.254 E5.03933
G1 X76.109 Y103.809 E5.21444
G1 X76.109 Y95.384 E5.63476
G1 X79.718 Y91.775 E5.88940
G0 F9000 X79.884 Y92.175
G1 F1200 X120.116 Y92.175 E7.89658
G1 X123.491 Y95.550 E8.13470
G1 X123.491 Y103.383 E8.52549
G1 X122.021 Y105.277 E8.64511
G1 X121.813 Y105.533 E8.66156
G1 X120.513 Y106.800 E8.75213
G1 X80.342 Y106.800 E10.75627
G1 X78.871 Y105.934 E10.84143
G1 X76.509 Y103.640 E11.00570
G1 X76.509 Y95.550 E11.40931
G1 X79.884 Y92.175 E11.64744
G1 F2400 E7.14744
G0 F9000 X81.623 Y96.375
;TYPE:WALL-INNER
G1 F2400 E11.64744
G1 F1200 X118.377 Y96.375 E13.48110
G1 X119.291 Y97.289 E13.54559
G1 X119.291 Y101.944 E13.77783
G1 X118.782 Y102.600 E13.81925
G1 X81.487 Y102.600 E15.67991
G1 X81.435 Y102.570 E15.68290
G1 X80.709 Y101.864 E15.73342
G1 X80.709 Y97.289 E15.96167
G1 X81.623 Y96.375 E16.02616
G0 F9000 X81.457 Y95.975
G1 F1200 X118.543 Y95.975 E17.87639
G1 X119.691 Y97.123 E17.95738
G1 X119.691 Y102.081 E18.20474
G1 X119.047 Y102.911 E18.25715
G1 X118.967 Y103.000 E18.26312
G1 X81.377 Y103.000 E20.13850
G1 X81.191 Y102.891 E20.14925
G1 X80.309 Y102.034 E20.21061
G1 X80.309 Y97.123 E20.45562
G1 X81.457 Y95.975 E20.53661
G0 F9000 X81.291 Y95.575
;TYPE:WALL-OUTER
G1 F1200 X118.709 Y95.575 E22.40341
G1 X120.091 Y96.957 E22.50091
G1 X120.091 Y102.218 E22.76339
G1 X119.355 Y103.166 E22.82326
G1 X119.131 Y103.400 E22.83942
G1 X81.267 Y103.400 E24.72847
G1 X80.947 Y103.211 E24.74701
G1 X79.909 Y102.203 E24.81919
G1 X79.909 Y96.957 E25.08092
G1 X81.291 Y95.575 E25.17842
G0 F9000 X81.601 Y96.592
;TYPE:SKIN
G1 F1200 X87.468 Y102.459 E25.59237
G0 F9000 X86.902 Y102.459
G1 F1200 X81.318 Y96.875 E25.98635
G0 F9000 X81.035 Y97.157
G1 F1200 X86.337 Y102.459 E26.36044
G0 F9000 X85.771 Y102.459
G1 F1200 X80.848 Y97.536 E26.70778
G0 F9000 X80.848 Y98.101
G1 F1200 X85.205 Y102.459 E27.01523
G0 F9000 X84.639 Y102.459
G1 F1200 X80.848 Y98.667 E27.28274
G0 F9000 X80.848 Y99.233
G1 F1200 X84.074 Y102.459 E27.51035
G0 F9000 X83.508 Y102.459
G1 F1200 X80.848 Y99.798 E27.69806
G0 F9000 X82.089 Y96.514
G1 F1200 X88.034 Y102.459 E28.11752
G0 F9000 X88.599 Y102.459
G1 F1200 X82.655 Y96.514 E28.53693
G0 F9000 X83.220 Y96.514
G1 F1200 X89.165 Y102.459 E28.95638
G0 F9000 X89.731 Y102.459
G1 F1200 X83.786 Y96.514 E29.37584
G0 F9000 X84.352 Y96.514
G1 F1200 X90.296 Y102.459 E29.79525
G0 F9000 X90.862 Y102.459
G1 F1200 X84.917 Y96.514 E30.21470
G0 F9000 X85.483 Y96.514
G1 F1200 X91.428 Y102.459 E30.63416
G0 F9000 X91.993 Y102.459
G1 F1200 X86.049 Y96.514 E31.05357
G0 F9000 X86.614 Y96.514
G1 F1200 X92.559 Y102.459 E31.47302
G0 F9000 X93.125 Y102.459
G1 F1200 X87.180 Y96.514 E31.89248
G0 F9000 X87.746 Y96.514
G1 F1200 X93.690 Y102.459 E32.31189
G0 F9000 X94.256 Y102.459
G1 F1200 X88.311 Y96.514 E32.73134
G0 F9000 X88.877 Y96.514
G1 F1200 X94.822 Y102.459 E33.15080
G0 F9000 X95.387 Y102.459
G1 F1200 X89.443 Y96.514 E33.57021
G0 F9000 X90.009 Y96.514
G1 F1200 X95.953 Y102.459 E33.98963
G0 F9000 X96.519 Y102.459
G1 F1200 X90.574 Y96.514 E34.40908
G0 F9000 X91.140 Y96.514
G1 F1200 X97.085 Y102.459 E34.82853
G0 F9000 X97.650 Y102.459
G1 F1200 X91.706 Y96.514 E35.24795
G0 F9000 X92.271 Y96.514
G1 F1200 X98.216 Y102.459 E35.66740
G0 F9000 X98.782 Y102.459
G1 F1200 X92.837 Y96.514 E36.08685
G0 F9000 X93.403 Y96.514
G1 F1200 X99.347 Y102.459 E36.50627
G0 F9000 X99.913 Y102.459
G1 F1200 X93.968 Y96.514 E36.92572
G0 F9000 X94.534 Y96.514
G1 F1200 X100.479 Y102.459 E37.34517
G0 F9000 X101.044 Y102.459
G1 F1200 X95.100 Y96.514 E37.76459
G0 F9000 X95.665 Y96.514
G1 F1200 X101.610 Y102.459 E38.18404
G0 F9000 X102.176 Y102.459
G1 F1200 X96.231 Y96.514 E38.60349
G0 F9000 X96.797 Y96.514
G1 F1200 X102.741 Y102.459 E39.02291
G0 F9000 X103.307 Y102.459
G1 F1200 X97.362 Y96.514 E39.44236
G0 F9000 X97.928 Y96.514
G1 F1200 X103.873 Y102.459 E39.86181
G0 F9000 X104.438 Y102.459
G1 F1200 X98.494 Y96.514 E40.28123
G0 F9000 X99.060 Y96.514
G1 F1200 X105.004 Y102.459 E40.70065
G0 F9000 X105.570 Y102.459
G1 F1200 X99.625 Y96.514 E41.12010
G0 F9000 X100.192 Y96.515
G1 F1200 X106.136 Y102.459 E41.53948
G0 F9000 X106.701 Y102.459
G1 F1200 X100.757 Y96.515 E41.95886
G0 F9000 X101.323 Y96.515
G1 F1200 X107.267 Y102.459 E42.37824
G0 F9000 X107.833 Y102.459
G1 F1200 X101.889 Y96.515 E42.79763
G0 F9000 X102.454 Y96.515
G1 F1200 X108.398 Y102.459 E43.21701
G0 F9000 X108.964 Y102.459
G1 F1200 X103.020 Y96.515 E43.63639
G0 F9000 X103.586 Y96.515
G1 F1200 X109.530 Y102.459 E44.05577
G0 F9000 X110.095 Y102.459
G1 F1200 X104.151 Y96.515 E44.47515
G0 F9000 X104.717 Y96.515
G1 F1200 X110.661 Y102.459 E44.89453
G0 F9000 X111.227 Y102.459
G1 F1200 X105.283 Y96.515 E45.31391
G0 F9000 X105.848 Y96.515
G1 F1200 X111.792 Y102.459 E45.73329
G0 F9000 X112.358 Y102.459
G1 F1200 X106.414 Y96.515 E46.15268
G0 F9000 X106.980 Y96.515
G1 F1200 X112.924 Y102.459 E46.57206
G0 F9000 X113.489 Y102.459
G1 F1200 X107.545 Y96.515 E46.99144
G0 F9000 X108.111 Y96.515
G1 F1200 X114.055 Y102.459 E47.41082
G0 F9000 X114.621 Y102.459
G1 F1200 X108.677 Y96.515 E47.83020
G0 F9000 X109.243 Y96.515
G1 F1200 X115.186 Y102.459 E48.24955
G0 F9000 X115.752 Y102.459
G1 F1200 X109.808 Y96.515 E48.66893
G0 F9000 X110.374 Y96.515
G1 F1200 X116.318 Y102.459 E49.08831
G0 F9000 X116.884 Y102.459
G1 F1200 X110.940 Y96.515 E49.50769
G0 F9000 X111.505 Y96.515
G1 F1200 X117.449 Y102.459 E49.92707
G0 F9000 X118.015 Y102.459
G1 F1200 X112.071 Y96.515 E50.34645
G0 F9000 X112.637 Y96.515
G1 F1200 X118.581 Y102.459 E50.76583
G0 F9000 X118.902 Y102.215
G1 F1200 X113.202 Y96.515 E51.16800
G0 F9000 X113.768 Y96.515
G1 F1200 X119.150 Y101.896 E51.54769
G0 F9000 X119.150 Y101.331
G1 F1200 X114.334 Y96.515 E51.88749
G0 F9000 X114.899 Y96.515
G1 F1200 X119.150 Y100.765 E52.18738
G0 F9000 X119.150 Y100.199
G1 F1200 X115.465 Y96.515 E52.44735
G0 F9000 X116.031 Y96.515
G1 F1200 X119.150 Y99.634 E52.66741
G0 F9000 X119.150 Y99.068
G1 F1200 X116.596 Y96.515 E52.84757
G0 F9000 X117.162 Y96.515
G1 F1200 X119.150 Y98.502 E52.98780
G0 F9000 X119.150 Y97.937
G1 F1200 X117.728 Y96.515 E53.08813
G0 F9000 X118.294 Y96.515
G1 F1200 X119.150 Y97.371 E53.14853
G0 F9000 X82.942 Y102.459
G1 F1200 X80.848 Y100.364 E53.29630
G0 F9000 X80.848 Y100.930
G1 F1200 X82.377 Y102.459 E53.40418
G0 F9000 X81.811 Y102.459
G1 F1200 X80.848 Y101.495 E53.47216
;LAYER:1
M106 S127
G0 F9000 X81.419 Y102.560 Z0.450
;TYPE:WALL-INNER
G1 F1500 X80.709 Y101.873 E53.49681
G1 X80.709 Y97.289 E53.61116
G1 X81.623 Y96.375 E53.64340
G1 X118.377 Y96.375 E54.56023
G1 X119.291 Y97.289 E54.59248
G1 X119.291 Y101.945 E54.70862
G1 X118.739 Y102.655 E54.73105
G1 X118.652 Y102.750 E54.73427
G1 X117.640 Y102.750 E54.75951
G1 X117.520 Y102.747 E54.76251
G1 X117.281 Y102.712 E54.76853
G1 X117.050 Y102.750 E54.77437
G1 X115.568 Y102.750 E54.81134
G1 X115.532 Y102.748 E54.81224
G1 X115.281 Y102.712 E54.81857
G1 X115.050 Y102.750 E54.82441
G1 X113.568 Y102.750 E54.86137
G1 X113.532 Y102.748 E54.86227
G1 X113.281 Y102.712 E54.86860
G1 X113.050 Y102.750 E54.87444
G1 X111.568 Y102.750 E54.91141
G1 X111.532 Y102.748 E54.91231
G1 X111.281 Y102.712 E54.91863
G1 X111.050 Y102.750 E54.92447
G1 X109.568 Y102.750 E54.96144
G1 X109.532 Y102.748 E54.96234
G1 X109.281 Y102.712 E54.96866
G1 X109.050 Y102.750 E54.97450
G1 X107.568 Y102.750 E55.01147
G1 X107.532 Y102.748 E55.01237
G1 X107.281 Y102.712 E55.01870
G1 X107.050 Y102.750 E55.02454
G1 X105.568 Y102.750 E55.06151
G1 X105.532 Y102.748 E55.06241
G1 X105.281 Y102.712 E55.06873
G1 X105.050 Y102.750 E55.07457
G1 X103.568 Y102.750 E55.11154
G1 X103.532 Y102.748 E55.11244
G1 X103.281 Y102.712 E55.11876
G1 X103.050 Y102.750 E55.12460
G1 X101.568 Y102.750 E55.16157
G1 X101.532 Y102.748 E55.16247
G1 X101.281 Y102.712 E55.16880
G1 X101.050 Y102.750 E55.17464
G1 X99.569 Y102.750 E55.21158
G1 X99.533 Y102.748 E55.21248
G1 X99.282 Y102.712 E55.21881
G1 X99.051 Y102.750 E55.22465
G1 X97.569 Y102.750 E55.26161
G1 X97.533 Y102.748 E55.26251
G1 X97.282 Y102.712 E55.26884
G1 X97.051 Y102.750 E55.27468
G1 X95.569 Y102.750 E55.31165
G1 X95.533 Y102.748 E55.31255
G1 X95.282 Y102.712 E55.31887
G1 X95.051 Y102.750 E55.32471
G1 X93.596 Y102.750 E55.36101
G1 X93.263 Y102.716 E55.36936
G1 X93.052 Y102.750 E55.37469
G1 X91.569 Y102.750 E55.41168
G1 X91.533 Y102.748 E55.41258
G1 X91.282 Y102.712 E55.41891
G1 X91.051 Y102.750 E55.42475
G1 X89.843 Y102.750 E55.45488
G1 X89.516 Y102.746 E55.46304
G1 X89.282 Y102.712 E55.46894
G1 X89.051 Y102.750 E55.47478
G1 X87.940 Y102.750 E55.50249
G1 X87.515 Y102.746 E55.51309
G1 X87.282 Y102.712 E55.51897
G1 X87.051 Y102.750 E55.52481
G1 X85.569 Y102.750 E55.56177
G1 X85.533 Y102.748 E55.56267
G1 X85.282 Y102.712 E55.56900
G1 X85.051 Y102.750 E55.57484
G1 X83.736 Y102.750 E55.60764
G1 X83.518 Y102.746 E55.61308
G1 X83.282 Y102.712 E55.61903
G1 X83.051 Y102.750 E55.62487
G1 X81.741 Y102.750 E55.65755
G1 X81.419 Y102.560 E55.66687
G0 F9000 X81.181 Y102.883
G1 F1500 X80.309 Y102.039 E55.69714
G1 X80.309 Y97.123 E55.81977
G1 X81.457 Y95.975 E55.86027
G1 X118.543 Y95.975 E56.78539
G1 X119.691 Y97.123 E56.82589
G1 X119.691 Y102.081 E56.94956
G1 X119.052 Y102.905 E56.97557
G1 X119.004 Y102.966 E56.97751
G1 X118.813 Y103.150 E56.98413
G1 X117.628 Y103.150 E57.01369
G1 X117.488 Y103.146 E57.01718
G1 X117.285 Y103.117 E57.02230
G1 X117.084 Y103.150 E57.02738
G1 X115.549 Y103.150 E57.06567
G1 X115.499 Y103.148 E57.06692
G1 X115.285 Y103.117 E57.07231
G1 X115.084 Y103.150 E57.07739
G1 X113.549 Y103.150 E57.11568
G1 X113.499 Y103.148 E57.11693
G1 X113.285 Y103.117 E57.12232
G1 X113.084 Y103.150 E57.12741
G1 X111.549 Y103.150 E57.16570
G1 X111.499 Y103.148 E57.16694
G1 X111.285 Y103.117 E57.17234
G1 X111.084 Y103.150 E57.17742
G1 X109.549 Y103.150 E57.21571
G1 X109.499 Y103.148 E57.21696
G1 X109.285 Y103.117 E57.22235
G1 X109.084 Y103.150 E57.22743
G1 X107.549 Y103.150 E57.26572
G1 X107.499 Y103.148 E57.26697
G1 X107.285 Y103.117 E57.27237
G1 X107.084 Y103.150 E57.27745
G1 X105.549 Y103.150 E57.31574
G1 X105.499 Y103.148 E57.31699
G1 X105.285 Y103.117 E57.32238
G1 X105.084 Y103.150 E57.32746
G1 X103.549 Y103.150 E57.36575
G1 X103.499 Y103.148 E57.36700
G1 X103.285 Y103.117 E57.37239
G1 X103.084 Y103.150 E57.37748
G1 X101.549 Y103.150 E57.41577
G1 X101.499 Y103.148 E57.41701
G1 X101.285 Y103.117 E57.42241
G1 X101.084 Y103.150 E57.42749
G1 X99.550 Y103.150 E57.46576
G1 X99.500 Y103.148 E57.46700
G1 X99.286 Y103.117 E57.47240
G1 X99.085 Y103.150 E57.47748
G1 X97.550 Y103.150 E57.51577
G1 X97.500 Y103.148 E57.51702
G1 X97.286 Y103.117 E57.52241
G1 X97.085 Y103.150 E57.52749
G1 X95.550 Y103.150 E57.56578
G1 X95.500 Y103.148 E57.56703
G1 X95.286 Y103.117 E57.57243
G1 X95.085 Y103.150 E57.57751
G1 X93.575 Y103.150 E57.61517
G1 X93.275 Y103.119 E57.62270
G1 X93.085 Y103.150 E57.62750
G1 X91.550 Y103.150 E57.66579
G1 X91.500 Y103.148 E57.66704
G1 X91.286 Y103.117 E57.67243
G1 X91.085 Y103.150 E57.67751
G1 X89.838 Y103.150 E57.70862
G1 X89.485 Y103.145 E57.71743
G1 X89.286 Y103.117 E57.72244
G1 X89.085 Y103.150 E57.72752
G1 X87.936 Y103.150 E57.75618
G1 X87.485 Y103.145 E57.76743
G1 X87.286 Y103.117 E57.77245
G1 X87.085 Y103.150 E57.77753
G1 X85.550 Y103.150 E57.81582
G1 X85.500 Y103.148 E57.81707
G1 X85.286 Y103.117 E57.82246
G1 X85.085 Y103.150 E57.82754
G1 X83.729 Y103.150 E57.86137
G1 X83.487 Y103.146 E57.86740
G1 X83.286 Y103.117 E57.87247
G1 X83.085 Y103.150 E57.87755
G1 X81.632 Y103.150 E57.91380
G1 X81.181 Y102.883 E57.92687
G0 F9000 X80.661 Y102.956
;TYPE:WALL-OUTER
G1 F1500 X79.909 Y102.205 E57.95338
G1 X79.909 Y96.957 E58.08429
G1 X81.291 Y95.575 E58.13305
G1 X118.709 Y95.575 E59.06644
G1 X120.091 Y96.957 E59.11520
G1 X120.091 Y102.218 E59.24643
G1 X119.365 Y103.154 E59.27598
G1 X119.299 Y103.237 E59.27863
G1 X118.976 Y103.550 E59.28985
G1 X117.617 Y103.550 E59.32375
G1 X117.454 Y103.545 E59.32782
G1 X117.289 Y103.522 E59.33197
G1 X117.117 Y103.550 E59.33632
G1 X115.551 Y103.550 E59.37538
G1 X115.289 Y103.522 E59.38196
G1 X115.117 Y103.550 E59.38630
G1 X113.551 Y103.550 E59.42537
G1 X113.289 Y103.522 E59.43194
G1 X113.117 Y103.550 E59.43629
G1 X111.551 Y103.550 E59.47535
G1 X111.289 Y103.522 E59.48192
G1 X111.117 Y103.550 E59.48627
G1 X109.551 Y103.550 E59.52533
G1 X109.289 Y103.522 E59.53191
G1 X109.117 Y103.550 E59.53625
G1 X107.551 Y103.550 E59.57532
G1 X107.289 Y103.522 E59.58189
G1 X107.117 Y103.550 E59.58624
G1 X105.551 Y103.550 E59.62530
G1 X105.289 Y103.522 E59.63187
G1 X105.117 Y103.550 E59.63622
G1 X103.551 Y103.550 E59.67529
G1 X103.289 Y103.522 E59.68186
G1 X103.117 Y103.550 E59.68621
G1 X101.551 Y103.550 E59.72527
G1 X101.289 Y103.522 E59.73184
G1 X101.117 Y103.550 E59.73619
G1 X99.552 Y103.550 E59.77523
G1 X99.290 Y103.522 E59.78180
G1 X99.118 Y103.550 E59.78615
G1 X97.552 Y103.550 E59.82521
G1 X97.290 Y103.522 E59.83179
G1 X97.118 Y103.550 E59.83613
G1 X95.552 Y103.550 E59.87520
G1 X95.290 Y103.522 E59.88177
G1 X95.118 Y103.550 E59.88612
G1 X93.553 Y103.550 E59.92516
G1 X93.286 Y103.522 E59.93185
G1 X93.118 Y103.550 E59.93610
G1 X91.552 Y103.550 E59.97516
G1 X91.290 Y103.522 E59.98174
G1 X91.118 Y103.550 E59.98608
G1 X89.833 Y103.550 E60.01814
G1 X89.454 Y103.545 E60.02759
G1 X89.290 Y103.522 E60.03173
G1 X89.118 Y103.550 E60.03607
G1 X87.932 Y103.550 E60.06566
G1 X87.454 Y103.545 E60.07758
G1 X87.290 Y103.522 E60.08171
G1 X87.118 Y103.550 E60.08606
G1 X85.552 Y103.550 E60.12512
G1 X85.290 Y103.522 E60.13170
G1 X85.118 Y103.550 E60.13604
G1 X83.722 Y103.550 E60.17087
G1 X83.454 Y103.545 E60.17755
G1 X83.290 Y103.522 E60.18168
G1 X83.118 Y103.550 E60.18603
G1 X81.522 Y103.550 E60.22584
G1 X80.946 Y103.209 E60.24254
G1 X80.661 Y102.956 E60.25205
G0 F9000 X81.308 Y102.256
;TYPE:SKIN
G1 F1500 X87.051 Y96.513 E60.45465
G0 F9000 X87.616 Y96.513
G1 F1500 X81.617 Y102.513 E60.66630
G0 F9000 X82.086 Y102.609
G1 F1500 X88.182 Y96.513 E60.88135
G0 F9000 X88.748 Y96.513
G1 F1500 X82.652 Y102.609 E61.09640
G0 F9000 X83.253 Y102.574
G1 F1500 X89.313 Y96.513 E61.31020
G0 F9000 X89.879 Y96.513
G1 F1500 X83.783 Y102.609 E61.52526
G0 F9000 X84.349 Y102.609
G1 F1500 X90.445 Y96.513 E61.74031
G0 F9000 X91.011 Y96.513
G1 F1500 X84.915 Y102.609 E61.95536
G0 F9000 X85.490 Y102.599
G1 F1500 X91.576 Y96.513 E62.17006
G0 F9000 X92.142 Y96.513
G1 F1500 X86.046 Y102.609 E62.38511
G0 F9000 X86.612 Y102.609
G1 F1500 X92.708 Y96.513 E62.60017
G0 F9000 X93.273 Y96.513
G1 F1500 X87.205 Y102.582 E62.81425
G0 F9000 X87.747 Y102.606
G1 F1500 X93.839 Y96.513 E63.02918
G0 F9000 X94.405 Y96.513
G1 F1500 X88.310 Y102.608 E63.24420
G0 F9000 X88.874 Y102.609
G1 F1500 X94.970 Y96.513 E63.45925
G0 F9000 X95.536 Y96.513
G1 F1500 X89.455 Y102.594 E63.67377
G0 F9000 X90.009 Y102.606
G1 F1500 X96.102 Y96.513 E63.88872
G0 F9000 X96.667 Y96.513
G1 F1500 X90.573 Y102.608 E64.10372
G0 F9000 X91.156 Y102.590
G1 F1500 X97.233 Y96.513 E64.31810
G0 F9000 X97.799 Y96.513
G1 F1500 X91.703 Y102.608 E64.53314
G0 F9000 X92.269 Y102.608
G1 F1500 X98.364 Y96.513 E64.74816
G0 F9000 X98.930 Y96.513
