;FLAVOR:RepRap
;TIME:13027
;Filament used: 9.91774m
;Layer height: 0.15
;Generated with Cura_SteamEngine 2.6.2
M190 S60
M104 S220
M109 S220
G21 ;metric values
G90 ;absolute positioning
M82 ;set extruder to absolute mode
M107 ;start with the fan off
G92 E0 ;zero the extruded length
G1 F200 E3 ;extrude 3mm of feed stock
G92 E0 ;zero the extruded length again
G1 F9000
M117 Printing...
;LAYER_COUNT:139
;LAYER:0
M107
M204 S5000
G0 F2400 X66.874 Y68.835 Z0.3
M204 S200
;TYPE:SKIRT
G1 F1200 X67.291 Y68.475 E0.02742
G1 X67.755 Y68.18 E0.05478
G1 X68.257 Y67.954 E0.08218
G1 X68.786 Y67.804 E0.10954
G1 X69.443 Y67.737 E0.14241
G1 X69.757 Y67.595 E0.15956
G1 X70.286 Y67.445 E0.18692
G1 X71.055 Y67.366 E0.22539
G1 X73.821 Y67.366 E0.36304
G1 X74.37 Y67.406 E0.39044
G1 X74.907 Y67.525 E0.41781
G1 X75.422 Y67.72 E0.44521
G1 X75.431 Y67.725 E0.44572
G1 X109.592 Y67.725 E2.14576
G1 X109.881 Y67.595 E2.16153
G1 X110.41 Y67.445 E2.1889
G1 X111.179 Y67.366 E2.22737
G1 X113.945 Y67.366 E2.36502
G1 X114.494 Y67.406 E2.39241
G1 X115.031 Y67.525 E2.41979
G1 X115.546 Y67.72 E2.44719
G1 X115.571 Y67.734 E2.44862
G1 X115.994 Y67.765 E2.46972
G1 X116.531 Y67.884 E2.4971
G1 X117.046 Y68.079 E2.5245
G1 X117.526 Y68.347 E2.55186
G1 X118.126 Y68.835 E2.59035
G1 X118.243 Y68.952 E2.59858
G1 X118.603 Y69.369 E2.626
G1 X118.898 Y69.833 E2.65336
G1 X119.124 Y70.335 E2.68076
G1 X119.274 Y70.864 E2.70812
G1 X119.343 Y71.531 E2.74149
G1 X119.473 Y71.819 E2.75722
G1 X119.626 Y72.347 E2.78457
G1 X119.708 Y73.127 E2.82361
G1 X119.712 Y75.894 E2.96131
G1 X119.673 Y76.442 E2.98865
G1 X119.555 Y76.98 E3.01606
G1 X119.36 Y77.495 E3.04346
G1 X119.353 Y77.508 E3.0442
G1 X119.353 Y107.522 E4.53786
G1 X119.473 Y107.787 E4.55234
G1 X119.626 Y108.315 E4.57969
G1 X119.708 Y109.095 E4.61872
G1 X119.712 Y111.862 E4.75642
G1 X119.673 Y112.41 E4.78377
G1 X119.555 Y112.948 E4.81118
G1 X119.36 Y113.463 E4.83858
G1 X119.344 Y113.492 E4.84023
G1 X119.313 Y113.916 E4.86139
G1 X119.194 Y114.453 E4.88876
G1 X118.999 Y114.968 E4.91616
G1 X118.731 Y115.448 E4.94352
G1 X118.243 Y116.048 E4.98201
G1 X118.126 Y116.165 E4.99024
G1 X117.709 Y116.525 E5.01766
G1 X117.245 Y116.82 E5.04502
G1 X116.743 Y117.046 E5.07242
G1 X116.214 Y117.196 E5.09978
G1 X115.557 Y117.263 E5.13265
G1 X115.243 Y117.405 E5.1498
G1 X114.714 Y117.555 E5.17716
G1 X113.945 Y117.634 E5.21563
G1 X111.179 Y117.634 E5.35329
G1 X110.63 Y117.594 E5.38068
G1 X110.093 Y117.475 E5.40805
G1 X109.578 Y117.28 E5.43546
G1 X109.569 Y117.275 E5.43597
G1 X75.408 Y117.275 E7.13601
G1 X75.119 Y117.405 E7.15178
G1 X74.59 Y117.555 E7.17914
G1 X73.821 Y117.634 E7.21761
G1 X71.055 Y117.634 E7.35526
G1 X70.506 Y117.594 E7.38266
G1 X69.969 Y117.475 E7.41003
G1 X69.454 Y117.28 E7.43743
G1 X69.429 Y117.266 E7.43886
G1 X69.006 Y117.235 E7.45997
G1 X68.469 Y117.116 E7.48734
G1 X67.954 Y116.921 E7.51475
G1 X67.474 Y116.653 E7.5421
G1 X66.874 Y116.165 E7.58059
G1 X66.757 Y116.048 E7.58883
G1 X66.397 Y115.631 E7.61624
G1 X66.102 Y115.167 E7.64361
G1 X65.876 Y114.665 E7.671
G1 X65.726 Y114.136 E7.69837
G1 X65.647 Y113.367 E7.73684
G1 X65.647 Y113.346 E7.73788
G1 X65.527 Y113.081 E7.75236
G1 X65.374 Y112.553 E7.77972
G1 X65.292 Y111.774 E7.8187
G1 X65.288 Y109.107 E7.95142
G1 X65.327 Y108.558 E7.97881
G1 X65.445 Y108.02 E8.00622
G1 X65.64 Y107.506 E8.03358
G1 X65.647 Y107.493 E8.03432
G1 X65.647 Y77.478 E9.52803
G1 X65.527 Y77.213 E9.5425
G1 X65.374 Y76.685 E9.56986
G1 X65.292 Y75.905 E9.60889
G1 X65.288 Y73.038 E9.75157
G1 X65.327 Y72.489 E9.77896
G1 X65.445 Y71.952 E9.80632
G1 X65.64 Y71.437 E9.83373
G1 X65.664 Y71.393 E9.83622
G1 X65.687 Y71.084 E9.85164
G1 X65.806 Y70.547 E9.87901
G1 X66.001 Y70.032 E9.90642
G1 X66.269 Y69.552 E9.93378
G1 X66.757 Y68.952 E9.97227
G1 X66.874 Y68.835 E9.9805
M204 S5000
G0 F2400 X67.156 Y69.117
M204 S200
G1 F1200 X67.552 Y68.779 E10.00641
G1 X67.994 Y68.504 E10.03232
G1 X68.473 Y68.301 E10.05821
G1 X68.978 Y68.173 E10.08413
G1 X69.541 Y68.125 E10.11225
G1 X69.973 Y67.942 E10.1356
G1 X70.478 Y67.814 E10.16153
G1 X71.055 Y67.765 E10.19034
G1 X73.821 Y67.765 E10.328
G1 X74.34 Y67.805 E10.3539
G1 X74.847 Y67.924 E10.37982
G1 X75.329 Y68.119 E10.40569
G1 X75.337 Y68.124 E10.40616
G1 X109.668 Y68.124 E12.11466
G1 X110.097 Y67.942 E12.13785
G1 X110.602 Y67.814 E12.16378
G1 X111.179 Y67.765 E12.1926
G1 X113.945 Y67.765 E12.33025
G1 X114.464 Y67.805 E12.35615
G1 X114.971 Y67.924 E12.38207
G1 X115.453 Y68.119 E12.40794
G1 X115.464 Y68.125 E12.40857
G1 X115.964 Y68.164 E12.43353
G1 X116.471 Y68.283 E12.45944
G1 X116.953 Y68.478 E12.48532
G1 X117.401 Y68.744 E12.51125
G1 X117.844 Y69.117 E12.54007
G1 X117.961 Y69.234 E12.5483
G1 X118.299 Y69.63 E12.57421
G1 X118.574 Y70.072 E12.60012
G1 X118.777 Y70.551 E12.62601
G1 X118.905 Y71.056 E12.65193
G1 X118.954 Y71.633 E12.68075
G1 X119.127 Y72.037 E12.70262
G1 X119.257 Y72.541 E12.72853
G1 X119.309 Y73.127 E12.7578
G1 X119.313 Y75.894 E12.8955
G1 X119.274 Y76.413 E12.92141
G1 X119.156 Y76.92 E12.94731
G1 X118.961 Y77.403 E12.97323
G1 X118.954 Y77.415 E12.97392
G1 X118.954 Y107.601 E14.47614
G1 X119.127 Y108.005 E14.49802
G1 X119.257 Y108.509 E14.52392
G1 X119.309 Y109.095 E14.5532
G1 X119.313 Y111.862 E14.6909
G1 X119.274 Y112.381 E14.7168
G1 X119.156 Y112.888 E14.7427
G1 X118.961 Y113.371 E14.76863
G1 X118.953 Y113.385 E14.76943
G1 X118.914 Y113.886 E14.79444
G1 X118.795 Y114.393 E14.82035
G1 X118.6 Y114.875 E14.84623
G1 X118.334 Y115.323 E14.87216
G1 X117.961 Y115.766 E14.90098
G1 X117.844 Y115.883 E14.90921
G1 X117.448 Y116.221 E14.93512
G1 X117.006 Y116.496 E14.96103
G1 X116.527 Y116.699 E14.98692
G1 X116.022 Y116.827 E15.01284
G1 X115.459 Y116.875 E15.04096
G1 X115.027 Y117.058 E15.06431
G1 X114.522 Y117.186 E15.09024
G1 X113.945 Y117.235 E15.11906
G1 X111.179 Y117.235 E15.25671
G1 X110.66 Y117.195 E15.28261
G1 X110.153 Y117.076 E15.30853
G1 X109.671 Y116.881 E15.3344
G1 X109.663 Y116.876 E15.33487
G1 X75.332 Y116.876 E17.04337
G1 X74.903 Y117.058 E17.06656
G1 X74.398 Y117.186 E17.09249
G1 X73.821 Y117.235 E17.12131
G1 X71.055 Y117.235 E17.25896
G1 X70.536 Y117.195 E17.28486
G1 X70.029 Y117.076 E17.31078
G1 X69.547 Y116.881 E17.33666
G1 X69.536 Y116.875 E17.33728
G1 X69.036 Y116.836 E17.36224
G1 X68.529 Y116.717 E17.38815
G1 X68.047 Y116.522 E17.41403
G1 X67.599 Y116.256 E17.43996
G1 X67.156 Y115.883 E17.46878
G1 X67.039 Y115.766 E17.47701
G1 X66.701 Y115.37 E17.50292
G1 X66.426 Y114.928 E17.52883
G1 X66.223 Y114.449 E17.55472
G1 X66.095 Y113.944 E17.58065
G1 X66.046 Y113.367 E17.60946
G1 X66.046 Y113.267 E17.61444
G1 X65.873 Y112.863 E17.63631
G1 X65.743 Y112.359 E17.66221
G1 X65.691 Y111.773 E17.69149
G1 X65.687 Y109.106 E17.82422
G1 X65.726 Y108.587 E17.85012
G1 X65.844 Y108.08 E17.87602
G1 X66.039 Y107.597 E17.90194
G1 X66.046 Y107.585 E17.90264
G1 X66.046 Y77.399 E19.40486
G1 X65.873 Y76.995 E19.42673
G1 X65.743 Y76.491 E19.45263
G1 X65.691 Y75.905 E19.48191
G1 X65.687 Y73.038 E19.62458
G1 X65.726 Y72.519 E19.65049
G1 X65.844 Y72.012 E19.67639
G1 X66.039 Y71.529 E19.70231
G1 X66.056 Y71.5 E19.70399
G1 X66.086 Y71.114 E19.72325
G1 X66.205 Y70.607 E19.74917
G1 X66.4 Y70.125 E19.77505
G1 X66.666 Y69.677 E19.80097
G1 X67.039 Y69.234 E19.82979
G1 X67.156 Y69.117 E19.83803
M204 S5000
G0 F2400 X67.322 Y69.517
M204 S200
G1 F1200 X67.439 Y69.4 E19.84626
G1 X67.811 Y69.083 E19.87059
G1 X68.231 Y68.832 E19.89494
G1 X68.685 Y68.652 E19.91924
G1 X69.163 Y68.549 E19.94357
G1 X69.555 Y68.523 E19.96312
G1 X69.647 Y68.523 E19.9677
G1 X69.731 Y68.473 E19.97257
G1 X70.185 Y68.293 E19.99687
G1 X70.663 Y68.19 E20.02121
G1 X71.055 Y68.164 E20.04076
G1 X73.821 Y68.164 E20.17841
G1 X74.308 Y68.204 E20.20273
G1 X74.783 Y68.323 E20.2271
G1 X75.231 Y68.517 E20.25139
G1 X75.24 Y68.523 E20.25193
G1 X109.771 Y68.523 E21.97038
G1 X109.855 Y68.473 E21.97525
G1 X110.309 Y68.293 E21.99955
G1 X110.787 Y68.19 E22.02388
G1 X111.179 Y68.164 E22.04343
G1 X113.945 Y68.164 E22.18109
G1 X114.432 Y68.204 E22.2054
G1 X114.907 Y68.323 E22.22977
G1 X115.355 Y68.517 E22.25407
G1 X115.364 Y68.523 E22.25461
G1 X115.445 Y68.523 E22.25864
G1 X115.932 Y68.563 E22.28295
G1 X116.407 Y68.682 E22.30732
G1 X116.855 Y68.876 E22.33162
G1 X117.266 Y69.141 E22.35596
G1 X117.561 Y69.4 E22.37549
G1 X117.678 Y69.517 E22.38373
G1 X117.995 Y69.889 E22.40805
G1 X118.246 Y70.309 E22.4324
G1 X118.426 Y70.763 E22.4567
G1 X118.529 Y71.241 E22.48104
G1 X118.555 Y71.633 E22.50059
G1 X118.555 Y71.73 E22.50542
G1 X118.595 Y71.796 E22.50926
G1 X118.777 Y72.25 E22.5336
G1 X118.883 Y72.728 E22.55796
G1 X118.91 Y73.128 E22.57791
G1 X118.914 Y75.895 E22.71562
G1 X118.875 Y76.382 E22.73993
G1 X118.757 Y76.856 E22.76424
G1 X118.563 Y77.305 E22.78858
G1 X118.555 Y77.317 E22.7893
G1 X118.555 Y107.698 E24.30122
G1 X118.595 Y107.764 E24.30506
G1 X118.777 Y108.218 E24.3294
G1 X118.883 Y108.696 E24.35377
G1 X118.91 Y109.096 E24.37372
G1 X118.914 Y111.863 E24.51142
G1 X118.875 Y112.35 E24.53574
G1 X118.757 Y112.824 E24.56004
G1 X118.563 Y113.273 E24.58439
G1 X118.555 Y113.285 E24.5851
G1 X118.555 Y113.367 E24.58918
G1 X118.515 Y113.854 E24.6135
G1 X118.396 Y114.329 E24.63787
G1 X118.202 Y114.777 E24.66217
G1 X117.937 Y115.188 E24.6865
G1 X117.678 Y115.483 E24.70604
G1 X117.561 Y115.6 E24.71427
G1 X117.189 Y115.917 E24.7386
G1 X116.769 Y116.168 E24.76295
G1 X116.315 Y116.348 E24.78725
G1 X115.837 Y116.451 E24.81158
G1 X115.445 Y116.477 E24.83114
G1 X115.353 Y116.477 E24.83571
G1 X115.269 Y116.527 E24.84058
G1 X114.815 Y116.707 E24.86488
G1 X114.337 Y116.81 E24.88922
G1 X113.945 Y116.836 E24.90877
G1 X111.179 Y116.836 E25.04642
G1 X110.692 Y116.796 E25.07074
G1 X110.217 Y116.677 E25.09511
G1 X109.769 Y116.483 E25.1194
G1 X109.76 Y116.477 E25.11994
G1 X75.229 Y116.477 E26.83839
G1 X75.145 Y116.527 E26.84326
G1 X74.691 Y116.707 E26.86756
G1 X74.213 Y116.81 E26.89189
G1 X73.821 Y116.836 E26.91145
G1 X71.055 Y116.836 E27.0491
G1 X70.568 Y116.796 E27.07341
G1 X70.093 Y116.677 E27.09778
G1 X69.645 Y116.483 E27.12208
G1 X69.636 Y116.477 E27.12262
G1 X69.555 Y116.477 E27.12665
G1 X69.068 Y116.437 E27.15097
G1 X68.593 Y116.318 E27.17533
G1 X68.145 Y116.124 E27.19963
G1 X67.734 Y115.859 E27.22397
G1 X67.439 Y115.6 E27.2435
G1 X67.322 Y115.483 E27.25174
G1 X67.005 Y115.111 E27.27606
G1 X66.754 Y114.691 E27.30041
G1 X66.574 Y114.237 E27.32471
G1 X66.471 Y113.759 E27.34905
G1 X66.445 Y113.367 E27.3686
G1 X66.445 Y113.17 E27.3784
G1 X66.405 Y113.104 E27.38224
G1 X66.223 Y112.65 E27.40658
G1 X66.117 Y112.172 E27.43095
G1 X66.09 Y111.772 E27.4509
G1 X66.086 Y109.105 E27.58363
G1 X66.125 Y108.618 E27.60794
G1 X66.243 Y108.144 E27.63225
G1 X66.437 Y107.695 E27.65659
G1 X66.445 Y107.683 E27.65731
G1 X66.445 Y77.302 E29.16923
G1 X66.405 Y77.236 E29.17307
G1 X66.223 Y76.782 E29.19741
G1 X66.117 Y76.304 E29.22178
G1 X66.09 Y75.904 E29.24173
G1 X66.086 Y73.037 E29.38441
G1 X66.125 Y72.55 E29.40872
G1 X66.243 Y72.075 E29.43308
G1 X66.437 Y71.626 E29.45742
G1 X66.447 Y71.611 E29.45832
G1 X66.485 Y71.146 E29.48154
G1 X66.604 Y70.671 E29.50591
G1 X66.798 Y70.223 E29.5302
G1 X67.063 Y69.812 E29.55454
G1 X67.322 Y69.517 E29.57407
M204 S5000
G0 F2400 X66.844 Y71.719
M204 S200
G1 F1200 X66.844 Y71.633 E29.57835
G1 X66.884 Y71.18 E29.60099
G1 X67.002 Y70.74 E29.62366
G1 X67.196 Y70.328 E29.64632
G1 X67.604 Y69.799 E29.67956
G1 X67.721 Y69.682 E29.6878
G1 X68.07 Y69.389 E29.71048
G1 X68.464 Y69.163 E29.73308
G1 X68.892 Y69.008 E29.75573
G1 X69.555 Y68.922 E29.78901
G1 X69.758 Y68.922 E29.79911
G1 X69.964 Y68.804 E29.81092
G1 X70.392 Y68.649 E29.83358
G1 X71.055 Y68.563 E29.86685
G1 X73.821 Y68.563 E30.0045
G1 X74.274 Y68.603 E30.02713
G1 X74.714 Y68.721 E30.0498
G1 X75.126 Y68.915 E30.07246
G1 X75.135 Y68.922 E30.07303
G1 X109.882 Y68.922 E31.80223
G1 X110.088 Y68.804 E31.81405
G1 X110.516 Y68.649 E31.8367
G1 X111.179 Y68.563 E31.86997
G1 X113.945 Y68.563 E32.00762
G1 X114.398 Y68.603 E32.03025
G1 X114.838 Y68.721 E32.05292
G1 X115.25 Y68.915 E32.07559
G1 X115.259 Y68.922 E32.07615
G1 X115.445 Y68.922 E32.08541
G1 X115.898 Y68.962 E32.10804
G1 X116.338 Y69.08 E32.13071
G1 X116.75 Y69.274 E32.15337
G1 X117.279 Y69.682 E32.18662
G1 X117.396 Y69.799 E32.19485
G1 X117.689 Y70.148 E32.21753
G1 X117.915 Y70.542 E32.24014
G1 X118.07 Y70.97 E32.26279
G1 X118.156 Y71.633 E32.29606
G1 X118.156 Y71.842 E32.30646
G1 X118.266 Y72.031 E32.31734
G1 X118.422 Y72.458 E32.33997
G1 X118.511 Y73.128 E32.3736
G1 X118.515 Y75.895 E32.51131
G1 X118.476 Y76.349 E32.53398
G1 X118.358 Y76.788 E32.5566
G1 X118.165 Y77.2 E32.57925
G1 X118.156 Y77.212 E32.57999
G1 X118.156 Y107.81 E34.10272
G1 X118.266 Y107.999 E34.1136
G1 X118.422 Y108.426 E34.13622
G1 X118.511 Y109.096 E34.16986
G1 X118.515 Y111.863 E34.30756
G1 X118.476 Y112.317 E34.33024
G1 X118.358 Y112.756 E34.35286
G1 X118.165 Y113.168 E34.3755
G1 X118.156 Y113.18 E34.37625
G1 X118.156 Y113.367 E34.38555
G1 X118.116 Y113.82 E34.40818
G1 X117.998 Y114.26 E34.43086
G1 X117.804 Y114.672 E34.45352
G1 X117.396 Y115.201 E34.48676
G1 X117.279 Y115.318 E34.495
G1 X116.93 Y115.611 E34.51768
G1 X116.536 Y115.837 E34.54028
G1 X116.108 Y115.992 E34.56293
G1 X115.445 Y116.078 E34.5962
G1 X115.242 Y116.078 E34.60631
G1 X115.036 Y116.196 E34.61812
G1 X114.608 Y116.351 E34.64077
G1 X113.945 Y116.437 E34.67405
G1 X111.179 Y116.437 E34.8117
G1 X110.726 Y116.397 E34.83433
G1 X110.286 Y116.279 E34.857
G1 X109.874 Y116.085 E34.87966
G1 X109.865 Y116.078 E34.88023
G1 X75.118 Y116.078 E36.60943
G1 X74.912 Y116.196 E36.62124
G1 X74.484 Y116.351 E36.6439
G1 X73.821 Y116.437 E36.67717
G1 X71.055 Y116.437 E36.81482
G1 X70.602 Y116.397 E36.83745
G1 X70.162 Y116.279 E36.86012
G1 X69.75 Y116.085 E36.88278
G1 X69.741 Y116.078 E36.88335
G1 X69.555 Y116.078 E36.89261
G1 X69.102 Y116.038 E36.91524
G1 X68.662 Y115.92 E36.93791
G1 X68.25 Y115.726 E36.96057
G1 X67.721 Y115.318 E36.99382
G1 X67.604 Y115.201 E37.00205
G1 X67.311 Y114.852 E37.02473
G1 X67.085 Y114.458 E37.04734
G1 X66.93 Y114.03 E37.06999
G1 X66.844 Y113.367 E37.10326
G1 X66.844 Y113.058 E37.11864
G1 X66.734 Y112.869 E37.12952
G1 X66.578 Y112.442 E37.15214
G1 X66.489 Y111.772 E37.18578
G1 X66.485 Y109.105 E37.3185
G1 X66.524 Y108.651 E37.34118
G1 X66.642 Y108.212 E37.3638
G1 X66.835 Y107.8 E37.38645
G1 X66.844 Y107.788 E37.38719
G1 X66.844 Y77.19 E38.90992
G1 X66.734 Y77.001 E38.9208
G1 X66.578 Y76.574 E38.94342
G1 X66.489 Y75.904 E38.97706
G1 X66.485 Y73.037 E39.11974
G1 X66.524 Y72.583 E39.14241
G1 X66.642 Y72.144 E39.16503
G1 X66.835 Y71.731 E39.18772
G1 X66.844 Y71.719 E39.18847
M204 S5000
G0 F2400 X67.243 Y71.834
M204 S200
G1 F1200 X67.243 Y71.633 E39.19847
G1 X67.283 Y71.216 E39.21932
G1 X67.401 Y70.815 E39.24012
G1 X67.594 Y70.443 E39.26098
G1 X67.886 Y70.081 E39.28412
G1 X68.003 Y69.964 E39.29236
G1 X68.326 Y69.697 E39.31321
G1 X68.693 Y69.497 E39.33401
G1 X69.092 Y69.37 E39.35485
G1 X69.555 Y69.321 E39.37802
G1 X69.857 Y69.321 E39.39305
G1 X70.193 Y69.138 E39.41209
G1 X70.592 Y69.011 E39.43293
G1 X71.055 Y68.962 E39.4561
G1 X73.821 Y68.962 E39.59375
G1 X74.238 Y69.002 E39.6146
G1 X74.639 Y69.12 E39.6354
G1 X75.011 Y69.313 E39.65625
G1 X75.021 Y69.321 E39.65689
G1 X109.981 Y69.321 E41.39669
G1 X110.317 Y69.138 E41.41573
G1 X110.716 Y69.011 E41.43657
G1 X111.179 Y68.962 E41.45974
G1 X113.945 Y68.962 E41.59739
G1 X114.362 Y69.002 E41.61824
G1 X114.763 Y69.12 E41.63904
G1 X115.135 Y69.313 E41.6599
G1 X115.145 Y69.321 E41.66053
G1 X115.445 Y69.321 E41.67546
G1 X115.862 Y69.361 E41.69631
G1 X116.263 Y69.479 E41.71711
G1 X116.635 Y69.672 E41.73797
G1 X116.997 Y69.964 E41.76112
G1 X117.114 Y70.081 E41.76935
G1 X117.381 Y70.404 E41.7902
G1 X117.581 Y70.771 E41.811
G1 X117.708 Y71.17 E41.83184
G1 X117.757 Y71.633 E41.85501
G1 X117.757 Y71.944 E41.87049
G1 X117.932 Y72.262 E41.88855
G1 X118.061 Y72.66 E41.90937
G1 X118.112 Y73.129 E41.93285
G1 X118.116 Y75.896 E42.07055
G1 X118.077 Y76.313 E42.0914
G1 X117.959 Y76.714 E42.1122
G1 X117.767 Y77.086 E42.13303
G1 X117.757 Y77.098 E42.13381
G1 X117.757 Y107.912 E43.66728
G1 X117.932 Y108.23 E43.68535
G1 X118.061 Y108.628 E43.70617
G1 X118.112 Y109.097 E43.72964
G1 X118.116 Y111.864 E43.86735
G1 X118.077 Y112.281 E43.88819
G1 X117.959 Y112.682 E43.90899
