;FLAVOR:RepRap
;TIME:4955
;Filament used: 3.21161m
;Layer height: 0.15
;Generated with Cura_SteamEngine 2.6.2
M190 S60
M104 S220
M109 S220
G21 ;metric values
G90 ;absolute positioning
M82 ;set extruder to absolute mode
M107 ;start with the fan off
G92 E0 ;zero the extruded length
G1 F200 E3 ;extrude 3mm of feed stock
G92 E0 ;zero the extruded length again
G1 F9000
M117 Printing...
;LAYER_COUNT:38
;LAYER:0
M107
M204 S5000
G0 F2400 X72.729 Y66.557 Z0.3
M204 S200
;TYPE:SKIRT
G1 F1200 X72.955 Y66.319 E0.01633
G1 X74.134 Y65.179 E0.09795
G1 X74.332 Y65 E0.11123
G1 X75.588 Y63.946 E0.19283
G1 X75.795 Y63.784 E0.20591
G1 X77.12 Y62.82 E0.28746
G1 X77.343 Y62.67 E0.30083
G1 X78.742 Y61.797 E0.3829
G1 X78.966 Y61.667 E0.39578
G1 X80.407 Y60.899 E0.47705
G1 X80.648 Y60.782 E0.49038
G1 X82.146 Y60.115 E0.57198
G1 X82.392 Y60.016 E0.58518
G1 X83.942 Y59.452 E0.66726
G1 X84.259 Y59.352 E0.68381
G1 X86.638 Y58.716 E0.80636
G1 X87.022 Y58.634 E0.8259
G1 X89.45 Y58.248 E0.94824
G1 X89.784 Y58.21 E0.96497
G1 X91.42 Y58.097 E1.04658
G1 X91.681 Y58.088 E1.05958
G1 X93.315 Y58.088 E1.1409
G1 X93.578 Y58.097 E1.15399
G1 X95.216 Y58.211 E1.23571
G1 X95.61 Y58.259 E1.25546
G1 X98.848 Y58.829 E1.41908
G1 X99.237 Y58.919 E1.43895
G1 X100.808 Y59.37 E1.52029
G1 X101.059 Y59.452 E1.53343
G1 X102.608 Y60.016 E1.61546
G1 X102.851 Y60.114 E1.6285
G1 X104.345 Y60.778 E1.70987
G1 X104.645 Y60.928 E1.72656
G1 X106.797 Y62.123 E1.84906
G1 X107.076 Y62.293 E1.86532
G1 X108.429 Y63.205 E1.94652
G1 X108.64 Y63.359 E1.95952
G1 X109.936 Y64.369 E2.04129
G1 X110.145 Y64.543 E2.05482
G1 X111.365 Y65.643 E2.13657
G1 X111.552 Y65.825 E2.14955
G1 X112.692 Y67.005 E2.23121
G1 X112.871 Y67.203 E2.24449
G1 X113.927 Y68.462 E2.32627
G1 X114.087 Y68.667 E2.33921
G1 X115.052 Y69.993 E2.42082
G1 X115.203 Y70.217 E2.43426
G1 X116.075 Y71.614 E2.51622
G1 X116.206 Y71.841 E2.52926
G1 X116.973 Y73.283 E2.61054
G1 X117.089 Y73.521 E2.62372
G1 X117.757 Y75.021 E2.70544
G1 X117.856 Y75.264 E2.71849
G1 X118.418 Y76.805 E2.80012
G1 X118.502 Y77.064 E2.81367
G1 X118.953 Y78.645 E2.89549
G1 X119.015 Y78.894 E2.90826
G1 X119.357 Y80.498 E2.98988
G1 X119.403 Y80.76 E3.00312
G1 X119.633 Y82.391 E3.08509
G1 X119.661 Y82.657 E3.0984
G1 X119.774 Y84.285 E3.17961
G1 X119.783 Y84.546 E3.19261
G1 X119.797 Y114.936 E4.70498
G1 X119.757 Y115.485 E4.73237
G1 X119.639 Y116.023 E4.75979
G1 X119.443 Y116.537 E4.78716
G1 X119.175 Y117.018 E4.81456
G1 X118.841 Y117.455 E4.84194
G1 X118.35 Y117.918 E4.87552
G1 X108.324 Y125.804 E5.51032
G1 X107.868 Y126.112 E5.5377
G1 X107.372 Y126.35 E5.56508
G1 X106.846 Y126.515 E5.59251
G1 X106.303 Y126.601 E5.61987
G1 X105.753 Y126.608 E5.64725
G1 X105.207 Y126.535 E5.67466
G1 X104.678 Y126.384 E5.70204
G1 X104.334 Y126.239 E5.72062
G1 X104.11 Y126.131 E5.73299
G1 X103.632 Y125.856 E5.76044
G1 X103.2 Y125.516 E5.78779
G1 X102.822 Y125.116 E5.81518
G1 X102.505 Y124.666 E5.84258
G1 X102.257 Y124.175 E5.86995
G1 X102.083 Y123.653 E5.89733
G1 X101.986 Y123.111 E5.92473
G1 X101.965 Y122.716 E5.94442
G1 X101.965 Y96.838 E7.23225
G1 X101.391 Y96.426 E7.26741
G1 X101.203 Y96.579 E7.27948
G1 X100.312 Y97.218 E7.33404
G1 X99.865 Y97.494 E7.36019
G1 X98.291 Y98.32 E7.44865
G1 X97.749 Y98.552 E7.47799
G1 X96.387 Y99.015 E7.54958
G1 X95.885 Y99.148 E7.57542
G1 X94.481 Y99.419 E7.64658
G1 X93.899 Y99.486 E7.67574
G1 X92.111 Y99.55 E7.76477
G1 X91.461 Y99.517 E7.79716
G1 X89.687 Y99.274 E7.88627
G1 X89.17 Y99.166 E7.91256
G1 X88.133 Y98.873 E7.96618
G1 X87.707 Y98.725 E7.98863
G1 X86.391 Y98.177 E8.05957
G1 X85.921 Y97.942 E8.08572
G1 X84.686 Y97.213 E8.15709
G1 X84.259 Y96.92 E8.18286
G1 X83.646 Y96.434 E8.22179
G1 X83.096 Y96.831 E8.25555
G1 X83.096 Y122.72 E9.54393
G1 X83.056 Y123.269 E9.57132
G1 X82.937 Y123.806 E9.59869
G1 X82.742 Y124.321 E9.6261
G1 X82.474 Y124.801 E9.65345
G1 X82.139 Y125.238 E9.68086
G1 X81.744 Y125.622 E9.70827
G1 X81.298 Y125.945 E9.73568
G1 X80.97 Y126.126 E9.75432
G1 X80.747 Y126.235 E9.76667
G1 X80.236 Y126.44 E9.79407
G1 X79.701 Y126.569 E9.82146
G1 X79.153 Y126.619 E9.84885
G1 X78.603 Y126.59 E9.87625
G1 X78.064 Y126.481 E9.90362
G1 X77.546 Y126.295 E9.93101
G1 X77.06 Y126.036 E9.95842
G1 X76.746 Y125.815 E9.97753
G1 X66.658 Y117.924 E10.6149
G1 X66.251 Y117.554 E10.64228
G1 X65.901 Y117.13 E10.66964
G1 X65.616 Y116.659 E10.69703
G1 X65.402 Y116.151 E10.72447
G1 X65.265 Y115.619 E10.75181
G1 X65.203 Y114.931 E10.78618
G1 X65.26 Y83.723 E12.33927
G1 X65.281 Y83.334 E12.35865
G1 X65.452 Y81.707 E12.44007
G1 X65.489 Y81.445 E12.45324
G1 X65.774 Y79.829 E12.5349
G1 X65.845 Y79.508 E12.55126
G1 X66.481 Y77.13 E12.67376
G1 X66.58 Y76.813 E12.69029
G1 X67.141 Y75.271 E12.77195
G1 X67.241 Y75.025 E12.78516
G1 X67.91 Y73.522 E12.86704
G1 X68.026 Y73.283 E12.88026
G1 X68.797 Y71.834 E12.96194
G1 X68.928 Y71.607 E12.97498
G1 X69.796 Y70.217 E13.05654
G1 X69.947 Y69.994 E13.06994
G1 X70.911 Y68.67 E13.15144
G1 X71.115 Y68.414 E13.16773
G1 X72.729 Y66.557 E13.29017
M204 S5000
G0 F2400 X73.03 Y66.819
M204 S200
G1 F1200 X73.232 Y66.606 E13.30478
G1 X74.411 Y65.466 E13.3864
G1 X74.589 Y65.306 E13.39831
G1 X75.845 Y64.252 E13.47991
G1 X76.029 Y64.107 E13.49157
G1 X77.354 Y63.143 E13.57311
G1 X77.554 Y63.008 E13.58512
G1 X78.953 Y62.135 E13.66718
G1 X79.154 Y62.02 E13.67871
G1 X80.595 Y61.252 E13.75997
G1 X80.81 Y61.146 E13.7719
G1 X82.308 Y60.479 E13.8535
G1 X82.528 Y60.39 E13.86531
G1 X84.078 Y59.826 E13.9474
G1 X84.362 Y59.737 E13.96221
G1 X86.741 Y59.101 E14.08476
G1 X87.084 Y59.028 E14.10221
G1 X89.512 Y58.642 E14.22456
G1 X89.811 Y58.608 E14.23953
G1 X91.447 Y58.495 E14.32114
G1 X91.681 Y58.487 E14.3328
G1 X93.315 Y58.487 E14.41411
G1 X93.551 Y58.495 E14.42586
G1 X95.189 Y58.609 E14.50758
G1 X95.541 Y58.652 E14.52523
G1 X98.779 Y59.222 E14.68884
G1 X99.127 Y59.303 E14.70663
G1 X100.698 Y59.754 E14.78796
G1 X100.923 Y59.827 E14.79974
G1 X102.472 Y60.391 E14.88177
G1 X102.689 Y60.478 E14.89341
G1 X104.183 Y61.142 E14.97477
G1 X104.452 Y61.277 E14.98975
G1 X106.604 Y62.472 E15.11225
G1 X106.853 Y62.624 E15.12677
G1 X108.206 Y63.536 E15.20797
G1 X108.395 Y63.674 E15.21961
G1 X109.691 Y64.684 E15.30138
G1 X109.877 Y64.84 E15.31346
G1 X111.097 Y65.94 E15.39521
G1 X111.265 Y66.102 E15.40683
G1 X112.405 Y67.282 E15.48848
G1 X112.565 Y67.459 E15.50035
G1 X113.621 Y68.718 E15.58213
G1 X113.765 Y68.902 E15.59376
G1 X114.73 Y70.228 E15.67537
G1 X114.864 Y70.428 E15.68735
G1 X115.736 Y71.825 E15.7693
G1 X115.854 Y72.028 E15.78099
G1 X116.621 Y73.47 E15.86227
G1 X116.725 Y73.683 E15.87407
G1 X117.393 Y75.183 E15.95578
G1 X117.481 Y75.401 E15.96748
G1 X118.043 Y76.942 E16.04911
G1 X118.118 Y77.174 E16.06125
G1 X118.569 Y78.755 E16.14306
G1 X118.624 Y78.978 E16.15449
G1 X118.966 Y80.582 E16.23611
G1 X119.008 Y80.815 E16.24789
G1 X119.238 Y82.446 E16.32987
G1 X119.263 Y82.685 E16.34182
G1 X119.376 Y84.313 E16.42304
G1 X119.384 Y84.546 E16.43464
G1 X119.398 Y114.936 E17.94701
G1 X119.358 Y115.455 E17.97292
G1 X119.24 Y115.962 E17.99882
G1 X119.045 Y116.445 E18.02474
G1 X118.778 Y116.892 E18.05066
G1 X118.447 Y117.293 E18.07653
G1 X118.103 Y117.604 E18.09961
G1 X108.077 Y125.49 E18.73441
G1 X107.644 Y125.78 E18.76034
G1 X107.173 Y125.999 E18.78619
G1 X106.673 Y126.145 E18.81211
G1 X106.156 Y126.211 E18.83805
G1 X105.636 Y126.199 E18.86394
G1 X105.124 Y126.106 E18.88983
G1 X104.507 Y125.879 E18.92255
G1 X104.283 Y125.771 E18.93493
G1 X103.833 Y125.51 E18.96081
G1 X103.428 Y125.183 E18.98672
G1 X103.078 Y124.798 E19.01261
G1 X102.791 Y124.363 E19.03855
G1 X102.574 Y123.89 E19.06445
G1 X102.432 Y123.389 E19.09036
G1 X102.364 Y122.716 E19.12402
G1 X102.364 Y96.633 E20.42206
G1 X101.371 Y95.92 E20.48289
G1 X101.287 Y95.997 E20.48856
G1 X100.971 Y96.254 E20.50883
G1 X100.08 Y96.893 E20.5634
G1 X99.679 Y97.141 E20.58686
G1 X98.105 Y97.967 E20.67532
G1 X97.621 Y98.175 E20.70154
G1 X96.259 Y98.638 E20.77313
G1 X95.81 Y98.757 E20.79625
G1 X94.406 Y99.028 E20.86741
G1 X93.884 Y99.087 E20.89355
G1 X92.096 Y99.151 E20.98259
G1 X91.515 Y99.122 E21.01154
G1 X89.741 Y98.879 E21.10065
G1 X89.279 Y98.782 E21.12414
G1 X88.242 Y98.489 E21.17777
G1 X87.86 Y98.356 E21.1979
G1 X86.544 Y97.808 E21.26884
G1 X86.124 Y97.598 E21.29221
G1 X84.889 Y96.869 E21.36358
G1 X84.507 Y96.607 E21.38663
G1 X83.658 Y95.934 E21.44054
G1 X82.697 Y96.628 E21.49954
G1 X82.697 Y122.72 E22.79802
G1 X82.657 Y123.239 E22.82392
G1 X82.538 Y123.746 E22.84984
G1 X82.343 Y124.228 E22.87571
G1 X82.077 Y124.676 E22.90164
G1 X81.745 Y125.077 E22.92755
G1 X81.355 Y125.422 E22.95346
G1 X80.795 Y125.767 E22.9862
G1 X80.572 Y125.876 E22.99855
G1 X80.088 Y126.068 E23.02446
G1 X79.58 Y126.184 E23.05039
G1 X79.061 Y126.221 E23.07629
G1 X78.542 Y126.178 E23.1022
G1 X78.036 Y126.056 E23.12811
G1 X77.555 Y125.858 E23.15399
G1 X76.992 Y125.501 E23.18717
G1 X66.904 Y117.61 E23.82455
G1 X66.52 Y117.258 E23.85047
G1 X66.194 Y116.853 E23.87634
G1 X65.934 Y116.402 E23.90225
G1 X65.746 Y115.916 E23.92818
G1 X65.635 Y115.408 E23.95406
G1 X65.602 Y114.932 E23.97781
G1 X65.659 Y83.724 E25.53089
G1 X65.678 Y83.375 E25.54828
G1 X65.849 Y81.748 E25.6297
G1 X65.882 Y81.514 E25.64146
G1 X66.167 Y79.898 E25.72312
G1 X66.23 Y79.611 E25.73774
G1 X66.866 Y77.233 E25.86024
G1 X66.955 Y76.949 E25.87506
G1 X67.516 Y75.407 E25.95671
G1 X67.605 Y75.188 E25.96848
G1 X68.274 Y73.685 E26.05035
G1 X68.379 Y73.471 E26.06221
G1 X69.15 Y72.022 E26.1439
G1 X69.267 Y71.818 E26.1556
G1 X70.135 Y70.428 E26.23715
G1 X70.27 Y70.228 E26.24916
G1 X71.234 Y68.904 E26.33067
G1 X71.416 Y68.676 E26.34518
G1 X73.03 Y66.819 E26.46763
M204 S5000
G0 F2400 X73.331 Y67.081
M204 S200
G1 F1200 X73.51 Y66.892 E26.48058
G1 X74.689 Y65.752 E26.5622
G1 X74.845 Y65.611 E26.57266
G1 X76.101 Y64.557 E26.65426
G1 X76.264 Y64.43 E26.66454
G1 X77.589 Y63.466 E26.74609
G1 X77.766 Y63.347 E26.7567
G1 X79.165 Y62.474 E26.83877
G1 X79.341 Y62.372 E26.84889
G1 X80.782 Y61.604 E26.93015
G1 X80.973 Y61.511 E26.94072
G1 X82.471 Y60.844 E27.02233
G1 X82.665 Y60.765 E27.03275
G1 X84.215 Y60.201 E27.11484
G1 X84.465 Y60.123 E27.12787
G1 X86.844 Y59.487 E27.25042
G1 X87.147 Y59.422 E27.26584
G1 X89.575 Y59.036 E27.38819
G1 X89.839 Y59.006 E27.40141
G1 X91.475 Y58.893 E27.48302
G1 X91.681 Y58.886 E27.49328
G1 X93.315 Y58.886 E27.5746
G1 X93.523 Y58.893 E27.58495
G1 X95.161 Y59.007 E27.66667
G1 X95.472 Y59.045 E27.68226
G1 X98.71 Y59.615 E27.84588
G1 X99.017 Y59.686 E27.86156
G1 X100.588 Y60.137 E27.9429
G1 X100.786 Y60.202 E27.95327
G1 X102.335 Y60.766 E28.03531
G1 X102.527 Y60.843 E28.0456
G1 X104.021 Y61.507 E28.12696
G1 X104.258 Y61.625 E28.14014
G1 X106.41 Y62.82 E28.26264
G1 X106.63 Y62.955 E28.27548
G1 X107.983 Y63.867 E28.35668
G1 X108.15 Y63.988 E28.36695
G1 X109.446 Y64.998 E28.44872
G1 X109.61 Y65.136 E28.45938
G1 X110.83 Y66.236 E28.54113
G1 X110.979 Y66.379 E28.55141
G1 X112.119 Y67.559 E28.63306
G1 X112.259 Y67.716 E28.64353
G1 X113.315 Y68.975 E28.7253
G1 X113.442 Y69.137 E28.73555
G1 X114.407 Y70.463 E28.81716
G1 X114.526 Y70.639 E28.82774
G1 X115.398 Y72.036 E28.90969
G1 X115.501 Y72.215 E28.91997
G1 X116.268 Y73.657 E29.00125
G1 X116.36 Y73.845 E29.01167
G1 X117.028 Y75.345 E29.09338
G1 X117.106 Y75.538 E29.10374
G1 X117.668 Y77.079 E29.18537
G1 X117.734 Y77.283 E29.19604
G1 X118.185 Y78.864 E29.27786
G1 X118.234 Y79.061 E29.28796
G1 X118.576 Y80.665 E29.36958
G1 X118.613 Y80.871 E29.37999
G1 X118.843 Y82.502 E29.46196
G1 X118.865 Y82.713 E29.47252
G1 X118.978 Y84.341 E29.55374
G1 X118.985 Y84.547 E29.56399
G1 X118.999 Y114.937 E31.07637
G1 X118.959 Y115.424 E31.10068
G1 X118.841 Y115.898 E31.12499
G1 X118.647 Y116.347 E31.14933
G1 X118.382 Y116.758 E31.17367
G1 X118.054 Y117.121 E31.19802
G1 X117.856 Y117.29 E31.21097
G1 X107.83 Y125.176 E31.84577
G1 X107.423 Y125.446 E31.87008
G1 X106.976 Y125.646 E31.89445
G1 X106.504 Y125.771 E31.91874
G1 X106.017 Y125.817 E31.94309
G1 X105.529 Y125.783 E31.96743
G1 X105.054 Y125.67 E31.99173
G1 X104.68 Y125.52 E32.01178
G1 X104.456 Y125.412 E32.02416
G1 X104.035 Y125.164 E32.04848
G1 X103.659 Y124.851 E32.07282
G1 X103.339 Y124.482 E32.09713
G1 X103.084 Y124.065 E32.12145
G1 X102.9 Y123.612 E32.14579
G1 X102.792 Y123.135 E32.17013
G1 X102.763 Y122.716 E32.19103
G1 X102.763 Y96.428 E33.49926
G1 X101.341 Y95.407 E33.58638
G1 X101.018 Y95.703 E33.60818
G1 X100.738 Y95.93 E33.62612
G1 X99.847 Y96.569 E33.68069
G1 X99.494 Y96.787 E33.70133
G1 X97.92 Y97.613 E33.7898
G1 X97.492 Y97.797 E33.81298
G1 X96.13 Y98.26 E33.88457
G1 X95.734 Y98.365 E33.90496
G1 X94.33 Y98.636 E33.97612
G1 X93.87 Y98.688 E33.99916
G1 X92.082 Y98.752 E34.08819
G1 X91.569 Y98.726 E34.11376
G1 X89.795 Y98.483 E34.20287
G1 X89.387 Y98.398 E34.22361
G1 X88.35 Y98.105 E34.27723
G1 X88.013 Y97.988 E34.29499
G1 X86.697 Y97.44 E34.36593
G1 X86.327 Y97.254 E34.38654
G1 X85.092 Y96.525 E34.45791
G1 X84.755 Y96.294 E34.47824
G1 X83.669 Y95.434 E34.54718
G1 X82.298 Y96.423 E34.63131
G1 X82.298 Y122.72 E35.93999
G1 X82.258 Y123.207 E35.96431
G1 X82.139 Y123.682 E35.98868
G1 X81.945 Y124.13 E36.01297
G1 X81.68 Y124.541 E36.03731
G1 X81.352 Y124.904 E36.06165
G1 X80.969 Y125.208 E36.08599
G1 X80.619 Y125.409 E36.10608
G1 X80.396 Y125.518 E36.11843
G1 X79.941 Y125.696 E36.14274
G1 X79.463 Y125.798 E36.16707
G1 X78.974 Y125.82 E36.19143
G1 X78.489 Y125.763 E36.21573
G1 X78.019 Y125.627 E36.24008
G1 X77.578 Y125.417 E36.26438
G1 X77.238 Y125.186 E36.28484
G1 X67.15 Y117.295 E36.92222
G1 X66.791 Y116.964 E36.94652
G1 X66.49 Y116.578 E36.97088
G1 X66.257 Y116.149 E36.99517
G1 X66.096 Y115.687 E37.01952
G1 X66.013 Y115.205 E37.04386
G1 X66.001 Y114.933 E37.05741
G1 X66.058 Y83.725 E38.6105
G1 X66.074 Y83.417 E38.62584
G1 X66.245 Y81.79 E38.70726
G1 X66.274 Y81.583 E38.71766
G1 X66.559 Y79.967 E38.79932
G1 X66.616 Y79.714 E38.81223
G1 X67.252 Y77.336 E38.93473
G1 X67.33 Y77.086 E38.94776
G1 X67.891 Y75.544 E39.02942
G1 X67.97 Y75.35 E39.03985
G1 X68.639 Y73.847 E39.12172
G1 X68.731 Y73.658 E39.13218
G1 X69.502 Y72.209 E39.21386
G1 X69.605 Y72.03 E39.22414
G1 X70.473 Y70.64 E39.30569
G1 X70.592 Y70.463 E39.31631
G1 X71.556 Y69.139 E39.39781
G1 X71.717 Y68.938 E39.41063
G1 X73.331 Y67.081 E39.53307
M204 S5000
G0 F2400 X73.632 Y67.342
M204 S200
G1 F1200 X73.787 Y67.179 E39.54426
G1 X74.966 Y66.039 E39.62588
G1 X75.102 Y65.917 E39.63497
G1 X76.358 Y64.863 E39.71657
G1 X76.499 Y64.752 E39.7255
G1 X77.824 Y63.788 E39.80704
G1 X77.977 Y63.685 E39.81622
G1 X79.376 Y62.812 E39.89829
G1 X79.529 Y62.724 E39.90707
G1 X80.97 Y61.956 E39.98833
G1 X81.135 Y61.875 E39.99748
G1 X82.633 Y61.208 E40.07909
G1 X82.801 Y61.14 E40.0881
G1 X84.351 Y60.576 E40.17019
G1 X84.568 Y60.508 E40.18151
G1 X86.947 Y59.872 E40.30406
G1 X87.21 Y59.816 E40.31744
G1 X89.638 Y59.43 E40.43979
G1 X89.866 Y59.404 E40.45121
G1 X91.502 Y59.291 E40.53282
G1 X91.681 Y59.285 E40.54173
G1 X93.315 Y59.285 E40.62305
G1 X93.495 Y59.291 E40.63201
G1 X95.133 Y59.405 E40.71372
G1 X95.403 Y59.438 E40.72726
G1 X98.641 Y60.008 E40.89088
G1 X98.907 Y60.07 E40.90447
G1 X100.478 Y60.521 E40.98581
G1 X100.649 Y60.577 E40.99476
G1 X102.198 Y61.141 E41.0768
G1 X102.365 Y61.208 E41.08576
G1 X103.859 Y61.872 E41.16712
G1 X104.064 Y61.974 E41.17851
G1 X106.216 Y63.169 E41.30101
G1 X106.407 Y63.286 E41.31216
G1 X107.76 Y64.198 E41.39336
G1 X107.905 Y64.303 E41.40227
G1 X109.201 Y65.313 E41.48404
G1 X109.343 Y65.432 E41.49326
G1 X110.563 Y66.532 E41.57501
G1 X110.692 Y66.657 E41.58395
G1 X111.832 Y67.837 E41.6656
G1 X111.953 Y67.972 E41.67462
G1 X113.009 Y69.231 E41.7564
G1 X113.119 Y69.372 E41.7653
G1 X114.084 Y70.698 E41.84691
G1 X114.188 Y70.85 E41.85607
G1 X115.06 Y72.247 E41.93803
G1 X115.149 Y72.403 E41.94697
G1 X115.916 Y73.845 E42.02825
G1 X115.996 Y74.008 E42.03728
G1 X116.664 Y75.508 E42.119
G1 X116.731 Y75.674 E42.12791
G1 X117.293 Y77.215 E42.20954
G1 X117.35 Y77.392 E42.21879
G1 X117.801 Y78.973 E42.30061
G1 X117.844 Y79.144 E42.30939
G1 X118.186 Y80.748 E42.391
G1 X118.218 Y80.927 E42.40005
G1 X118.448 Y82.558 E42.48202
G1 X118.467 Y82.74 E42.49113
G1 X118.58 Y84.368 E42.57234
G1 X118.586 Y84.547 E42.58126
G1 X118.6 Y114.937 E44.09363
G1 X118.56 Y115.39 E44.11626
G1 X118.442 Y115.83 E44.13893
G1 X118.249 Y116.242 E44.16157
