;FLAVOR:RepRap
;TIME:4884
;Filament used: 3.15343m
;Layer height: 0.15
;Generated with Cura_SteamEngine 2.6.2
M190 S60
M104 S220
M109 S220
G21 ;metric values
G90 ;absolute positioning
M82 ;set extruder to absolute mode
M107 ;start with the fan off
G92 E0 ;zero the extruded length
G1 F200 E3 ;extrude 3mm of feed stock
G92 E0 ;zero the extruded length again
G1 F9000
M117 Printing...
;LAYER_COUNT:37
;LAYER:0
M107
M204 S5000
G0 F2400 X66.158 Y67.576 Z0.3
G0 X66.65 Y67.111
M204 S200
;TYPE:SKIRT
G1 F1200 X76.676 Y59.224 E0.63483
G1 X77.132 Y58.916 E0.66221
G1 X77.628 Y58.678 E0.68959
G1 X78.153 Y58.513 E0.71698
G1 X78.697 Y58.427 E0.74439
G1 X79.247 Y58.42 E0.77176
G1 X79.793 Y58.493 E0.79917
G1 X80.322 Y58.644 E0.82655
G1 X80.666 Y58.789 E0.84513
G1 X80.89 Y58.897 E0.8575
G1 X81.368 Y59.172 E0.88495
G1 X81.8 Y59.512 E0.91231
G1 X82.178 Y59.912 E0.93969
G1 X82.495 Y60.362 E0.96709
G1 X82.743 Y60.853 E0.99446
G1 X82.917 Y61.375 E1.02185
G1 X83.014 Y61.917 E1.04925
G1 X83.035 Y62.312 E1.06893
G1 X83.035 Y88.19 E2.35676
G1 X83.631 Y88.618 E2.39328
G1 X84.019 Y88.288 E2.41863
G1 X84.5 Y87.94 E2.44817
G1 X85.729 Y87.19 E2.51982
G1 X86.195 Y86.948 E2.54595
G1 X87.525 Y86.371 E2.6181
G1 X88.08 Y86.18 E2.64731
G1 X89.803 Y85.732 E2.73591
G1 X90.388 Y85.628 E2.76548
G1 X91.851 Y85.485 E2.83863
G1 X92.38 Y85.47 E2.86497
G1 X93.823 Y85.531 E2.93684
G1 X94.349 Y85.591 E2.96319
G1 X95.773 Y85.853 E3.03525
G1 X96.283 Y85.983 E3.06144
G1 X97.649 Y86.437 E3.13307
G1 X98.131 Y86.635 E3.15901
G1 X99.426 Y87.274 E3.23087
G1 X99.937 Y87.579 E3.26049
G1 X101.363 Y88.588 E3.34742
G1 X101.904 Y88.197 E3.38064
G1 X101.904 Y62.309 E4.66897
G1 X101.944 Y61.76 E4.69636
G1 X102.063 Y61.223 E4.72373
G1 X102.258 Y60.708 E4.75114
G1 X102.526 Y60.228 E4.7785
G1 X102.861 Y59.791 E4.8059
G1 X103.256 Y59.407 E4.83332
G1 X103.702 Y59.084 E4.86072
G1 X104.03 Y58.903 E4.87936
G1 X104.253 Y58.794 E4.89172
G1 X104.764 Y58.589 E4.91912
G1 X105.299 Y58.46 E4.9465
G1 X105.847 Y58.41 E4.97389
G1 X106.397 Y58.439 E5.0013
G1 X106.936 Y58.548 E5.02866
G1 X107.454 Y58.734 E5.05605
G1 X107.94 Y58.993 E5.08346
G1 X108.254 Y59.214 E5.10257
G1 X118.342 Y67.105 E5.73995
G1 X118.749 Y67.475 E5.76732
G1 X119.099 Y67.899 E5.79468
G1 X119.384 Y68.37 E5.82208
G1 X119.598 Y68.878 E5.84951
G1 X119.735 Y69.41 E5.87685
G1 X119.797 Y70.098 E5.91123
G1 X119.74 Y101.305 E7.46426
G1 X119.716 Y101.726 E7.48525
G1 X119.485 Y103.759 E7.58707
G1 X119.439 Y104.054 E7.60193
G1 X119.124 Y105.675 E7.68411
G1 X119.065 Y105.934 E7.69733
G1 X118.642 Y107.511 E7.77858
G1 X118.564 Y107.765 E7.7918
G1 X118.029 Y109.316 E7.87345
G1 X117.936 Y109.559 E7.8864
G1 X117.296 Y111.07 E7.96806
G1 X117.183 Y111.312 E7.98136
G1 X116.438 Y112.774 E8.06302
G1 X116.309 Y113.006 E8.07623
G1 X115.464 Y114.412 E8.15786
G1 X115.32 Y114.633 E8.17099
G1 X114.379 Y115.977 E8.25264
G1 X114.22 Y116.189 E8.26582
G1 X113.188 Y117.463 E8.34742
G1 X113.016 Y117.661 E8.36047
G1 X111.897 Y118.862 E8.44216
G1 X111.708 Y119.051 E8.45546
G1 X110.502 Y120.175 E8.5375
G1 X110.302 Y120.348 E8.55066
G1 X109.031 Y121.377 E8.63205
G1 X108.82 Y121.537 E8.64522
G1 X107.477 Y122.477 E8.7268
G1 X107.256 Y122.62 E8.7399
G1 X105.852 Y123.464 E8.82143
G1 X105.623 Y123.591 E8.83446
G1 X104.164 Y124.336 E8.91598
G1 X103.921 Y124.45 E8.92934
G1 X102.411 Y125.091 E9.01098
G1 X102.164 Y125.186 E9.02415
G1 X100.604 Y125.723 E9.10625
G1 X100.352 Y125.8 E9.11937
G1 X98.775 Y126.223 E9.20062
G1 X98.515 Y126.283 E9.2139
G1 X96.897 Y126.597 E9.29592
G1 X96.637 Y126.638 E9.30902
G1 X95.015 Y126.837 E9.39035
G1 X94.751 Y126.86 E9.40353
G1 X93.106 Y126.946 E9.48551
G1 X92.775 Y126.949 E9.50198
G1 X90.316 Y126.863 E9.62443
G1 X89.989 Y126.837 E9.64076
G1 X88.368 Y126.639 E9.72203
G1 X88.103 Y126.597 E9.73538
G1 X86.487 Y126.282 E9.81731
G1 X86.234 Y126.224 E9.83023
G1 X84.654 Y125.802 E9.91162
G1 X84.397 Y125.723 E9.925
G1 X82.839 Y125.186 E10.00701
G1 X82.592 Y125.091 E10.02018
G1 X81.078 Y124.448 E10.10204
G1 X80.838 Y124.336 E10.11522
G1 X79.375 Y123.59 E10.19694
G1 X79.143 Y123.462 E10.21013
G1 X77.74 Y122.618 E10.29161
G1 X77.52 Y122.474 E10.30469
G1 X76.176 Y121.533 E10.38634
G1 X75.965 Y121.374 E10.39949
G1 X74.694 Y120.345 E10.48087
G1 X74.493 Y120.171 E10.4941
G1 X73.288 Y119.047 E10.57611
G1 X73.099 Y118.858 E10.58941
G1 X71.981 Y117.657 E10.67107
G1 X71.81 Y117.46 E10.68405
G1 X70.777 Y116.185 E10.76571
G1 X70.58 Y115.918 E10.78223
G1 X69.206 Y113.88 E10.90454
G1 X69.032 Y113.597 E10.92108
G1 X68.238 Y112.163 E11.00265
G1 X68.12 Y111.931 E11.0156
G1 X67.429 Y110.451 E11.09689
G1 X67.325 Y110.207 E11.11009
G1 X66.734 Y108.669 E11.19208
G1 X66.647 Y108.415 E11.20544
G1 X66.168 Y106.844 E11.28718
G1 X66.1 Y106.59 E11.30027
G1 X65.732 Y104.994 E11.38178
G1 X65.682 Y104.735 E11.3949
G1 X65.425 Y103.112 E11.47668
G1 X65.392 Y102.85 E11.48982
G1 X65.249 Y101.218 E11.57135
G1 X65.235 Y100.891 E11.58764
G1 X65.203 Y70.095 E13.12021
G1 X65.242 Y69.546 E13.1476
G1 X65.361 Y69.009 E13.17498
G1 X65.556 Y68.494 E13.20238
G1 X65.823 Y68.013 E13.22976
G1 X66.158 Y67.576 E13.25716
G1 X66.65 Y67.111 E13.29085
M204 S5000
G0 F2400 X66.897 Y67.425
M204 S200
G1 F1200 X76.923 Y59.538 E13.92568
G1 X77.355 Y59.249 E13.95155
G1 X77.827 Y59.029 E13.97746
G1 X78.327 Y58.884 E14.00337
G1 X78.843 Y58.817 E14.02926
G1 X79.364 Y58.829 E14.0552
G1 X79.876 Y58.922 E14.0811
G1 X80.493 Y59.149 E14.11381
G1 X80.717 Y59.257 E14.12619
G1 X81.167 Y59.518 E14.15208
G1 X81.572 Y59.845 E14.17798
G1 X81.922 Y60.23 E14.20388
G1 X82.209 Y60.665 E14.22981
G1 X82.426 Y61.138 E14.25571
G1 X82.568 Y61.639 E14.28162
G1 X82.636 Y62.312 E14.31529
G1 X82.636 Y88.395 E15.61332
G1 X83.652 Y89.125 E15.67558
G1 X84.278 Y88.592 E15.71649
G1 X84.708 Y88.281 E15.7429
G1 X85.937 Y87.531 E15.81455
G1 X86.354 Y87.314 E15.83795
G1 X87.684 Y86.737 E15.9101
G1 X88.18 Y86.566 E15.93621
G1 X89.903 Y86.118 E16.0248
G1 X90.427 Y86.025 E16.05129
G1 X91.89 Y85.882 E16.12444
G1 X92.363 Y85.869 E16.14799
G1 X93.806 Y85.93 E16.21987
G1 X94.277 Y85.983 E16.24345
G1 X95.701 Y86.245 E16.31551
G1 X96.157 Y86.362 E16.33894
G1 X97.523 Y86.816 E16.41057
G1 X97.954 Y86.993 E16.43376
G1 X99.249 Y87.632 E16.50562
G1 X99.707 Y87.905 E16.53216
G1 X101.176 Y88.944 E16.6217
G1 X101.35 Y89.088 E16.63294
G1 X102.303 Y88.4 E16.69144
G1 X102.303 Y62.309 E17.98987
G1 X102.343 Y61.79 E18.01577
G1 X102.462 Y61.283 E18.04169
G1 X102.657 Y60.801 E18.06756
G1 X102.923 Y60.353 E18.09349
G1 X103.255 Y59.952 E18.1194
G1 X103.645 Y59.607 E18.14531
G1 X104.205 Y59.262 E18.17805
G1 X104.428 Y59.153 E18.1904
G1 X104.912 Y58.961 E18.21631
G1 X105.42 Y58.845 E18.24224
G1 X105.939 Y58.808 E18.26814
G1 X106.458 Y58.851 E18.29405
G1 X106.964 Y58.973 E18.31996
G1 X107.445 Y59.171 E18.34584
G1 X108.008 Y59.528 E18.37902
G1 X118.096 Y67.419 E19.0164
G1 X118.48 Y67.771 E19.04232
G1 X118.806 Y68.176 E19.06819
G1 X119.066 Y68.627 E19.0941
G1 X119.254 Y69.113 E19.12003
G1 X119.365 Y69.621 E19.14591
G1 X119.398 Y70.097 E19.16966
G1 X119.341 Y101.304 E20.72269
G1 X119.319 Y101.681 E20.74148
G1 X119.088 Y103.714 E20.84331
G1 X119.048 Y103.978 E20.8566
G1 X118.733 Y105.599 E20.93877
G1 X118.679 Y105.831 E20.95063
G1 X118.256 Y107.408 E21.03188
G1 X118.187 Y107.635 E21.04369
G1 X117.652 Y109.186 E21.12534
G1 X117.568 Y109.403 E21.13692
G1 X116.928 Y110.914 E21.21858
G1 X116.827 Y111.131 E21.23049
G1 X116.082 Y112.593 E21.31215
G1 X115.967 Y112.8 E21.32394
G1 X115.122 Y114.206 E21.40557
G1 X114.994 Y114.404 E21.4173
G1 X114.053 Y115.748 E21.49895
G1 X113.91 Y115.938 E21.51079
G1 X112.878 Y117.212 E21.59238
G1 X112.724 Y117.389 E21.60406
G1 X111.605 Y118.59 E21.68575
G1 X111.436 Y118.759 E21.69764
G1 X110.23 Y119.883 E21.77968
G1 X110.051 Y120.038 E21.79147
G1 X108.78 Y121.067 E21.87285
G1 X108.591 Y121.21 E21.88464
G1 X107.248 Y122.15 E21.96622
G1 X107.051 Y122.278 E21.97792
G1 X105.647 Y123.122 E22.05944
G1 X105.442 Y123.236 E22.07111
G1 X103.983 Y123.981 E22.15264
G1 X103.765 Y124.082 E22.16459
G1 X102.255 Y124.723 E22.24623
G1 X102.034 Y124.808 E22.25801
G1 X100.474 Y125.345 E22.34012
G1 X100.249 Y125.414 E22.35183
G1 X98.672 Y125.837 E22.43309
G1 X98.439 Y125.891 E22.44499
G1 X96.821 Y126.205 E22.52701
G1 X96.588 Y126.242 E22.53875
G1 X94.966 Y126.441 E22.62008
G1 X94.73 Y126.461 E22.63186
G1 X93.085 Y126.547 E22.71384
G1 X92.789 Y126.55 E22.72857
G1 X90.33 Y126.464 E22.85102
G1 X90.038 Y126.441 E22.8656
G1 X88.417 Y126.243 E22.94687
G1 X88.179 Y126.205 E22.95886
G1 X86.563 Y125.89 E23.04079
G1 X86.337 Y125.838 E23.05233
G1 X84.757 Y125.416 E23.13372
G1 X84.527 Y125.346 E23.14568
G1 X82.969 Y124.809 E23.2277
G1 X82.748 Y124.724 E23.23948
G1 X81.234 Y124.081 E23.32134
G1 X81.019 Y123.981 E23.33314
G1 X79.556 Y123.235 E23.41486
G1 X79.348 Y123.12 E23.42669
G1 X77.945 Y122.276 E23.50817
G1 X77.749 Y122.148 E23.51982
G1 X76.405 Y121.207 E23.60147
G1 X76.216 Y121.064 E23.61327
G1 X74.945 Y120.035 E23.69465
G1 X74.765 Y119.879 E23.7065
G1 X73.56 Y118.755 E23.78851
G1 X73.391 Y118.586 E23.8004
G1 X72.273 Y117.385 E23.88206
G1 X72.12 Y117.209 E23.89366
G1 X71.087 Y115.934 E23.97533
G1 X70.91 Y115.695 E23.99013
G1 X69.536 Y113.657 E24.11245
G1 X69.382 Y113.404 E24.12719
G1 X68.588 Y111.97 E24.20876
G1 X68.481 Y111.762 E24.2204
G1 X67.79 Y110.282 E24.30169
G1 X67.698 Y110.064 E24.31346
G1 X67.107 Y108.526 E24.39546
G1 X67.028 Y108.298 E24.40746
G1 X66.549 Y106.727 E24.4892
G1 X66.489 Y106.5 E24.50088
G1 X66.121 Y104.904 E24.58239
G1 X66.076 Y104.673 E24.59411
G1 X65.819 Y103.05 E24.67588
G1 X65.79 Y102.815 E24.68767
G1 X65.647 Y101.183 E24.76919
G1 X65.634 Y100.891 E24.78374
G1 X65.602 Y70.095 E26.31632
G1 X65.641 Y69.575 E26.34227
G1 X65.76 Y69.069 E26.36814
G1 X65.954 Y68.586 E26.39404
G1 X66.22 Y68.138 E26.41997
G1 X66.552 Y67.737 E26.44588
G1 X66.897 Y67.425 E26.46903
M204 S5000
G0 F2400 X67.143 Y67.739
M204 S200
G1 F1200 X77.169 Y59.852 E27.10385
G1 X77.577 Y59.582 E27.1282
G1 X78.023 Y59.382 E27.15253
G1 X78.496 Y59.257 E27.17687
G1 X78.983 Y59.211 E27.20122
G1 X79.471 Y59.245 E27.22556
G1 X79.946 Y59.358 E27.24986
G1 X80.32 Y59.508 E27.26991
G1 X80.544 Y59.616 E27.28229
G1 X80.965 Y59.864 E27.3066
G1 X81.341 Y60.177 E27.33095
G1 X81.661 Y60.546 E27.35526
G1 X81.916 Y60.963 E27.37958
G1 X82.1 Y61.416 E27.40392
G1 X82.208 Y61.893 E27.42825
G1 X82.237 Y62.312 E27.44916
G1 X82.237 Y88.6 E28.75739
G1 X83.672 Y89.631 E28.84533
G1 X84.536 Y88.896 E28.90178
G1 X84.916 Y88.621 E28.92512
G1 X86.145 Y87.871 E28.99677
G1 X86.513 Y87.68 E29.0174
G1 X87.843 Y87.103 E29.08955
G1 X88.281 Y86.952 E29.11261
G1 X90.004 Y86.504 E29.20121
G1 X90.466 Y86.422 E29.22456
G1 X91.929 Y86.279 E29.29771
G1 X92.346 Y86.268 E29.31847
G1 X93.789 Y86.329 E29.39035
G1 X94.205 Y86.375 E29.41117
G1 X95.629 Y86.637 E29.48323
G1 X96.031 Y86.741 E29.50389
G1 X97.397 Y87.195 E29.57553
G1 X97.777 Y87.351 E29.59597
G1 X99.072 Y87.99 E29.66784
G1 X99.476 Y88.23 E29.69122
G1 X100.945 Y89.269 E29.78077
G1 X101.305 Y89.569 E29.80409
G1 X101.331 Y89.594 E29.80588
G1 X102.702 Y88.605 E29.89001
G1 X102.702 Y62.309 E31.19864
G1 X102.742 Y61.822 E31.22296
G1 X102.861 Y61.347 E31.24733
G1 X103.055 Y60.899 E31.27162
G1 X103.32 Y60.488 E31.29596
G1 X103.648 Y60.125 E31.32031
G1 X104.031 Y59.821 E31.34464
G1 X104.381 Y59.62 E31.36473
G1 X104.604 Y59.511 E31.37708
G1 X105.059 Y59.333 E31.4014
G1 X105.537 Y59.231 E31.42572
G1 X106.026 Y59.209 E31.45008
G1 X106.511 Y59.266 E31.47438
G1 X106.981 Y59.402 E31.49873
G1 X107.422 Y59.612 E31.52304
G1 X107.762 Y59.843 E31.54349
G1 X117.85 Y67.734 E32.18087
G1 X118.209 Y68.065 E32.20517
G1 X118.51 Y68.451 E32.22953
G1 X118.743 Y68.88 E32.25383
G1 X118.904 Y69.342 E32.27818
G1 X118.987 Y69.824 E32.30252
G1 X118.999 Y70.096 E32.31607
G1 X118.942 Y101.303 E33.8691
G1 X118.923 Y101.636 E33.8857
G1 X118.692 Y103.669 E33.98752
G1 X118.656 Y103.902 E33.99925
G1 X118.341 Y105.523 E34.08143
G1 X118.294 Y105.727 E34.09185
G1 X117.871 Y107.304 E34.17311
G1 X117.809 Y107.505 E34.18357
G1 X117.274 Y109.056 E34.26522
G1 X117.201 Y109.247 E34.2754
G1 X116.561 Y110.758 E34.35706
G1 X116.472 Y110.95 E34.36759
G1 X115.727 Y112.412 E34.44925
G1 X115.625 Y112.595 E34.45968
G1 X114.78 Y114.001 E34.54131
G1 X114.667 Y114.176 E34.55168
G1 X113.726 Y115.52 E34.63333
G1 X113.6 Y115.687 E34.64374
G1 X112.568 Y116.961 E34.72533
G1 X112.432 Y117.117 E34.73563
G1 X111.313 Y118.318 E34.81732
G1 X111.164 Y118.467 E34.82781
G1 X109.958 Y119.591 E34.90985
G1 X109.8 Y119.728 E34.92026
G1 X108.529 Y120.757 E35.00164
G1 X108.362 Y120.883 E35.01205
G1 X107.019 Y121.823 E35.09363
G1 X106.845 Y121.936 E35.10396
G1 X105.441 Y122.78 E35.18548
G1 X105.26 Y122.881 E35.1958
G1 X103.801 Y123.626 E35.27732
G1 X103.61 Y123.715 E35.28781
G1 X102.1 Y124.356 E35.36944
G1 X101.904 Y124.431 E35.37989
G1 X100.344 Y124.968 E35.46199
G1 X100.145 Y125.029 E35.47235
G1 X98.568 Y125.452 E35.55361
G1 X98.363 Y125.499 E35.56407
G1 X96.745 Y125.813 E35.64609
G1 X96.539 Y125.846 E35.65648
G1 X94.917 Y126.045 E35.7378
G1 X94.709 Y126.063 E35.74819
G1 X93.064 Y126.149 E35.83017
G1 X92.803 Y126.151 E35.84316
G1 X90.344 Y126.065 E35.96561
G1 X90.086 Y126.045 E35.97848
G1 X88.465 Y125.847 E36.05975
G1 X88.255 Y125.814 E36.07033
G1 X86.639 Y125.499 E36.15227
G1 X86.44 Y125.453 E36.16243
G1 X84.86 Y125.031 E36.24382
G1 X84.657 Y124.969 E36.25438
G1 X83.099 Y124.432 E36.33639
G1 X82.904 Y124.357 E36.34679
G1 X81.39 Y123.714 E36.42865
G1 X81.2 Y123.625 E36.43909
G1 X79.737 Y122.879 E36.52081
G1 X79.554 Y122.778 E36.53122
G1 X78.151 Y121.934 E36.6127
G1 X77.977 Y121.821 E36.62302
G1 X76.633 Y120.88 E36.70467
G1 X76.467 Y120.754 E36.71504
G1 X75.196 Y119.725 E36.79642
G1 X75.037 Y119.588 E36.80687
G1 X73.832 Y118.464 E36.88888
G1 X73.683 Y118.314 E36.8994
G1 X72.565 Y117.113 E36.98105
G1 X72.43 Y116.958 E36.99128
G1 X71.397 Y115.683 E37.07295
G1 X71.241 Y115.472 E37.086
G1 X69.867 Y113.434 E37.20832
G1 X69.731 Y113.211 E37.22132
G1 X68.937 Y111.777 E37.30289
G1 X68.843 Y111.593 E37.31318
G1 X68.152 Y110.113 E37.39446
G1 X68.07 Y109.921 E37.40485
G1 X67.479 Y108.383 E37.48685
G1 X67.41 Y108.182 E37.49742
G1 X66.931 Y106.611 E37.57916
G1 X66.878 Y106.41 E37.5895
G1 X66.51 Y104.814 E37.67101
G1 X66.47 Y104.61 E37.68136
G1 X66.213 Y102.987 E37.76313
G1 X66.187 Y102.78 E37.77352
G1 X66.044 Y101.148 E37.85505
G1 X66.033 Y100.89 E37.8679
G1 X66.001 Y70.094 E39.40047
G1 X66.04 Y69.607 E39.42479
G1 X66.159 Y69.132 E39.44916
G1 X66.353 Y68.684 E39.47345
G1 X66.617 Y68.272 E39.4978
G1 X66.945 Y67.91 E39.52211
G1 X67.143 Y67.739 E39.53513
M204 S5000
G0 F2400 X67.39 Y68.052
M204 S200
G1 F1200 X77.416 Y60.165 E40.16996
G1 X77.797 Y59.916 E40.19261
G1 X78.216 Y59.738 E40.21527
G1 X78.659 Y59.635 E40.2379
G1 X79.114 Y59.612 E40.26057
G1 X79.565 Y59.668 E40.28319
G1 X80.147 Y59.867 E40.3138
G1 X80.371 Y59.975 E40.32618
G1 X80.762 Y60.208 E40.34883
G1 X81.106 Y60.506 E40.37148
G1 X81.393 Y60.859 E40.39412
G1 X81.614 Y61.257 E40.41677
G1 X81.762 Y61.687 E40.4394
G1 X81.838 Y62.312 E40.47074
G1 X81.838 Y88.805 E41.78917
G1 X83.693 Y90.137 E41.90282
G1 X84.795 Y89.2 E41.97481
G1 X85.124 Y88.962 E41.99502
G1 X86.353 Y88.212 E42.06667
G1 X86.672 Y88.046 E42.08456
G1 X88.002 Y87.469 E42.15671
G1 X88.381 Y87.338 E42.17667
G1 X90.104 Y86.89 E42.26526
G1 X90.505 Y86.819 E42.28553
G1 X91.968 Y86.676 E42.35868
G1 X92.33 Y86.666 E42.37671
G1 X93.773 Y86.727 E42.44858
G1 X94.132 Y86.768 E42.46656
G1 X95.556 Y87.03 E42.53862
G1 X95.905 Y87.119 E42.55654
G1 X97.271 Y87.573 E42.62818
G1 X97.601 Y87.709 E42.64594
G1 X98.896 Y88.348 E42.71781
G1 X99.246 Y88.556 E42.73807
G1 X100.715 Y89.595 E42.82761
G1 X101.027 Y89.855 E42.84782
G1 X101.292 Y90.113 E42.86623
G1 X103.101 Y88.808 E42.97724
G1 X103.101 Y62.309 E44.29597
G1 X103.141 Y61.856 E44.3186
G1 X103.259 Y61.416 E44.34127
G1 X103.453 Y61.004 E44.36394
G1 X103.715 Y60.633 E44.38654
G1 X104.039 Y60.312 E44.40924
G1 X104.556 Y59.978 E44.43987
G1 X104.779 Y59.869 E44.45222
G1 X105.204 Y59.706 E44.47487
G1 X105.651 Y59.62 E44.49752
G1 X106.106 Y59.613 E44.52017
G1 X106.555 Y59.685 E44.5428
G1 X106.985 Y59.835 E44.56546
G1 X107.516 Y60.157 E44.59637
G1 X117.604 Y68.048 E45.23375
G1 X117.937 Y68.359 E45.25642
