;FLAVOR:RepRap
;TIME:880
;Filament used: 0.645112m
;Layer height: 0.15
;Generated with Cura_SteamEngine 2.6.2
M190 S60
M104 S220
M109 S220
G21 ;metric values
G90 ;absolute positioning
M82 ;set extruder to absolute mode
M107 ;start with the fan off
G92 E0 ;zero the extruded length
G1 F200 E3 ;extrude 3mm of feed stock
G92 E0 ;zero the extruded length again
G1 F9000
M117 Printing...
;LAYER_COUNT:40
;LAYER:0
M107
M204 S5000
G0 F2400 X80.155 Y80.919 Z0.3
M204 S200
;TYPE:SKIRT
G1 F1200 X80.572 Y80.559 E0.02742
G1 X81.036 Y80.264 E0.05478
G1 X81.538 Y80.038 E0.08218
G1 X82.067 Y79.888 E0.10954
G1 X82.836 Y79.809 E0.14801
G1 X102.294 Y79.809 E1.11635
G1 X102.843 Y79.849 E1.14374
G1 X103.38 Y79.968 E1.17111
G1 X103.895 Y80.163 E1.19852
G1 X104.375 Y80.431 E1.22588
G1 X104.975 Y80.919 E1.26437
G1 X105.092 Y81.036 E1.2726
G1 X105.452 Y81.453 E1.30002
G1 X105.747 Y81.917 E1.32738
G1 X105.973 Y82.419 E1.35478
G1 X106.123 Y82.948 E1.38214
G1 X106.202 Y83.717 E1.42061
G1 X106.202 Y101.283 E2.29479
G1 X106.162 Y101.832 E2.32218
G1 X106.043 Y102.369 E2.34956
G1 X105.848 Y102.884 E2.37696
G1 X105.58 Y103.364 E2.40432
G1 X105.092 Y103.964 E2.44281
G1 X104.975 Y104.081 E2.45104
G1 X104.558 Y104.441 E2.47846
G1 X104.094 Y104.736 E2.50582
G1 X103.592 Y104.962 E2.53322
G1 X103.063 Y105.112 E2.56058
G1 X102.294 Y105.191 E2.59905
G1 X82.836 Y105.191 E3.56739
G1 X82.287 Y105.151 E3.59478
G1 X81.75 Y105.032 E3.62216
G1 X81.235 Y104.837 E3.64956
G1 X80.755 Y104.569 E3.67692
G1 X80.155 Y104.081 E3.71541
G1 X80.038 Y103.964 E3.72364
G1 X79.678 Y103.547 E3.75106
G1 X79.383 Y103.083 E3.77842
G1 X79.157 Y102.581 E3.80582
G1 X79.007 Y102.052 E3.83318
G1 X78.928 Y101.283 E3.87165
G1 X78.928 Y83.717 E4.74583
G1 X78.968 Y83.168 E4.77323
G1 X79.087 Y82.631 E4.8006
G1 X79.282 Y82.116 E4.82801
G1 X79.55 Y81.636 E4.85536
G1 X80.038 Y81.036 E4.89385
G1 X80.155 Y80.919 E4.90209
M204 S5000
G0 F2400 X80.437 Y81.201
M204 S200
G1 F1200 X80.833 Y80.863 E4.928
G1 X81.275 Y80.588 E4.9539
G1 X81.754 Y80.385 E4.97979
G1 X82.259 Y80.257 E5.00572
G1 X82.836 Y80.208 E5.03454
G1 X102.294 Y80.208 E6.00287
G1 X102.813 Y80.248 E6.02878
G1 X103.32 Y80.367 E6.05469
G1 X103.802 Y80.562 E6.08057
G1 X104.25 Y80.828 E6.1065
G1 X104.693 Y81.201 E6.13532
G1 X104.81 Y81.318 E6.14355
G1 X105.148 Y81.714 E6.16946
G1 X105.423 Y82.156 E6.19537
G1 X105.626 Y82.635 E6.22126
G1 X105.754 Y83.14 E6.24719
G1 X105.803 Y83.717 E6.276
G1 X105.803 Y101.283 E7.15018
G1 X105.763 Y101.802 E7.17609
G1 X105.644 Y102.309 E7.20201
G1 X105.449 Y102.791 E7.22788
G1 X105.183 Y103.239 E7.25381
G1 X104.81 Y103.682 E7.28263
G1 X104.693 Y103.799 E7.29086
G1 X104.297 Y104.137 E7.31677
G1 X103.855 Y104.412 E7.34268
G1 X103.376 Y104.615 E7.36857
G1 X102.871 Y104.743 E7.3945
G1 X102.294 Y104.792 E7.42331
G1 X82.836 Y104.792 E8.39165
G1 X82.317 Y104.752 E8.41756
G1 X81.81 Y104.633 E8.44347
G1 X81.328 Y104.438 E8.46935
G1 X80.88 Y104.172 E8.49528
G1 X80.437 Y103.799 E8.5241
G1 X80.32 Y103.682 E8.53233
G1 X79.982 Y103.286 E8.55824
G1 X79.707 Y102.844 E8.58415
G1 X79.504 Y102.365 E8.61004
G1 X79.376 Y101.86 E8.63596
G1 X79.327 Y101.283 E8.66478
G1 X79.327 Y83.717 E9.53896
G1 X79.367 Y83.198 E9.56487
G1 X79.486 Y82.691 E9.59078
G1 X79.681 Y82.209 E9.61666
G1 X79.947 Y81.761 E9.64259
G1 X80.32 Y81.318 E9.67141
G1 X80.437 Y81.201 E9.67964
M204 S5000
G0 F2400 X80.603 Y81.601
M204 S200
G1 F1200 X80.72 Y81.484 E9.68788
G1 X81.092 Y81.167 E9.7122
G1 X81.512 Y80.916 E9.73655
G1 X81.966 Y80.736 E9.76085
G1 X82.444 Y80.633 E9.78519
G1 X82.836 Y80.607 E9.80474
G1 X102.294 Y80.607 E10.77308
G1 X102.781 Y80.647 E10.79739
G1 X103.256 Y80.766 E10.82176
G1 X103.704 Y80.96 E10.84606
G1 X104.115 Y81.225 E10.87039
G1 X104.41 Y81.484 E10.88993
G1 X104.527 Y81.601 E10.89816
G1 X104.844 Y81.973 E10.92249
G1 X105.095 Y82.393 E10.94684
G1 X105.275 Y82.847 E10.97114
G1 X105.378 Y83.325 E10.99548
G1 X105.404 Y83.717 E11.01503
G1 X105.404 Y101.283 E11.88921
G1 X105.364 Y101.77 E11.91352
G1 X105.245 Y102.245 E11.93789
G1 X105.051 Y102.693 E11.96219
G1 X104.786 Y103.104 E11.98653
G1 X104.527 Y103.399 E12.00606
G1 X104.41 Y103.516 E12.0143
G1 X104.038 Y103.833 E12.03862
G1 X103.618 Y104.084 E12.06297
G1 X103.164 Y104.264 E12.08727
G1 X102.686 Y104.367 E12.11161
G1 X102.294 Y104.393 E12.13116
G1 X82.836 Y104.393 E13.09949
G1 X82.349 Y104.353 E13.12381
G1 X81.874 Y104.234 E13.14818
G1 X81.426 Y104.04 E13.17248
G1 X81.015 Y103.775 E13.19681
G1 X80.72 Y103.516 E13.21635
G1 X80.603 Y103.399 E13.22458
G1 X80.286 Y103.027 E13.24891
G1 X80.035 Y102.607 E13.27326
G1 X79.855 Y102.153 E13.29756
G1 X79.752 Y101.675 E13.32189
G1 X79.726 Y101.283 E13.34144
G1 X79.726 Y83.717 E14.21562
G1 X79.766 Y83.23 E14.23994
G1 X79.885 Y82.755 E14.26431
G1 X80.079 Y82.307 E14.28861
G1 X80.344 Y81.896 E14.31294
G1 X80.603 Y81.601 E14.33248
M204 S5000
G0 F2400 X81.002 Y81.766
M204 S200
G1 F1200 X81.351 Y81.473 E14.35516
G1 X81.745 Y81.247 E14.37776
G1 X82.173 Y81.092 E14.40041
G1 X82.836 Y81.006 E14.43369
G1 X102.294 Y81.006 E15.40202
G1 X102.747 Y81.046 E15.42465
G1 X103.187 Y81.164 E15.44732
G1 X103.599 Y81.358 E15.46999
G1 X104.128 Y81.766 E15.50323
G1 X104.245 Y81.883 E15.51147
G1 X104.538 Y82.232 E15.53415
G1 X104.764 Y82.626 E15.55675
G1 X104.919 Y83.054 E15.5794
G1 X105.005 Y83.717 E15.61267
G1 X105.005 Y101.283 E16.48685
G1 X104.965 Y101.736 E16.50949
G1 X104.847 Y102.176 E16.53216
G1 X104.653 Y102.588 E16.55482
G1 X104.245 Y103.117 E16.58807
G1 X104.128 Y103.234 E16.5963
G1 X103.779 Y103.527 E16.61898
G1 X103.385 Y103.753 E16.64158
G1 X102.957 Y103.908 E16.66423
G1 X102.294 Y103.994 E16.69751
G1 X82.836 Y103.994 E17.66584
G1 X82.383 Y103.954 E17.68847
G1 X81.943 Y103.836 E17.71114
G1 X81.531 Y103.642 E17.73381
G1 X81.002 Y103.234 E17.76705
G1 X80.885 Y103.117 E17.77529
G1 X80.592 Y102.768 E17.79797
G1 X80.366 Y102.374 E17.82057
G1 X80.211 Y101.946 E17.84322
G1 X80.125 Y101.283 E17.87649
G1 X80.125 Y83.717 E18.75067
G1 X80.165 Y83.264 E18.77331
G1 X80.283 Y82.824 E18.79598
G1 X80.477 Y82.412 E18.81864
G1 X80.885 Y81.883 E18.85189
G1 X81.002 Y81.766 E18.86012
M204 S5000
G0 F2400 X81.284 Y82.048
M204 S200
G1 F1200 X81.607 Y81.781 E18.88097
G1 X81.974 Y81.581 E18.90177
G1 X82.373 Y81.454 E18.92261
G1 X82.836 Y81.405 E18.94578
G1 X102.294 Y81.405 E19.91412
G1 X102.711 Y81.445 E19.93497
G1 X103.112 Y81.563 E19.95577
G1 X103.484 Y81.756 E19.97662
G1 X103.846 Y82.048 E19.99977
G1 X103.963 Y82.165 E20.008
G1 X104.23 Y82.488 E20.02886
G1 X104.43 Y82.855 E20.04966
G1 X104.557 Y83.254 E20.0705
G1 X104.606 Y83.717 E20.09367
G1 X104.606 Y101.283 E20.96785
G1 X104.566 Y101.7 E20.9887
G1 X104.448 Y102.101 E21.0095
G1 X104.255 Y102.473 E21.03035
G1 X103.963 Y102.835 E21.0535
G1 X103.846 Y102.952 E21.06173
G1 X103.523 Y103.219 E21.08259
G1 X103.156 Y103.419 E21.10339
G1 X102.757 Y103.546 E21.12423
G1 X102.294 Y103.595 E21.1474
G1 X82.836 Y103.595 E22.11573
G1 X82.419 Y103.555 E22.13658
G1 X82.018 Y103.437 E22.15738
G1 X81.646 Y103.244 E22.17824
G1 X81.284 Y102.952 E22.20138
G1 X81.167 Y102.835 E22.20962
G1 X80.9 Y102.512 E22.23047
G1 X80.7 Y102.145 E22.25127
G1 X80.573 Y101.746 E22.27211
G1 X80.524 Y101.283 E22.29528
G1 X80.524 Y83.717 E23.16946
G1 X80.564 Y83.3 E23.19031
G1 X80.682 Y82.899 E23.21111
G1 X80.875 Y82.527 E23.23197
G1 X81.167 Y82.165 E23.25511
G1 X81.284 Y82.048 E23.26335
M204 S5000
G0 F2400 X81.449 Y82.447
M204 S200
G1 F1200 X81.566 Y82.33 E23.27158
G1 X81.86 Y82.092 E23.29041
G1 X82.198 Y81.921 E23.30926
G1 X82.564 Y81.825 E23.32809
G1 X82.836 Y81.804 E23.34166
G1 X102.294 Y81.804 E24.31
G1 X102.67 Y81.844 E24.32882
G1 X103.03 Y81.962 E24.34767
G1 X103.357 Y82.152 E24.36649
G1 X103.564 Y82.33 E24.38008
G1 X103.681 Y82.447 E24.38831
G1 X103.919 Y82.741 E24.40714
G1 X104.09 Y83.079 E24.42599
G1 X104.186 Y83.445 E24.44482
G1 X104.207 Y83.717 E24.45839
G1 X104.207 Y101.283 E25.33257
G1 X104.167 Y101.659 E25.35139
G1 X104.049 Y102.019 E25.37025
G1 X103.859 Y102.346 E25.38907
G1 X103.681 Y102.553 E25.40265
G1 X103.564 Y102.67 E25.41089
G1 X103.27 Y102.908 E25.42971
G1 X102.932 Y103.079 E25.44856
G1 X102.566 Y103.175 E25.46739
G1 X102.294 Y103.196 E25.48097
G1 X82.836 Y103.196 E26.44931
G1 X82.46 Y103.156 E26.46812
G1 X82.1 Y103.038 E26.48698
G1 X81.773 Y102.848 E26.5058
G1 X81.566 Y102.67 E26.51938
G1 X81.449 Y102.553 E26.52762
G1 X81.211 Y102.259 E26.54644
G1 X81.04 Y101.921 E26.56529
G1 X80.944 Y101.555 E26.58412
G1 X80.923 Y101.283 E26.5977
G1 X80.923 Y83.717 E27.47188
G1 X80.963 Y83.341 E27.4907
G1 X81.081 Y82.981 E27.50955
G1 X81.271 Y82.654 E27.52837
G1 X81.449 Y82.447 E27.54196
M204 S5000
G0 F2400 X81.848 Y82.612
M204 S200
G1 F1200 X82.111 Y82.406 E27.55858
G1 X82.414 Y82.268 E27.57515
G1 X82.836 Y82.203 E27.5964
G1 X102.294 Y82.203 E28.56474
G1 X102.625 Y82.243 E28.58133
G1 X102.938 Y82.36 E28.59796
G1 X103.282 Y82.612 E28.61918
G1 X103.399 Y82.729 E28.62742
G1 X103.605 Y82.992 E28.64404
G1 X103.743 Y83.295 E28.66061
G1 X103.808 Y83.717 E28.68186
G1 X103.808 Y101.283 E29.55604
G1 X103.768 Y101.614 E29.57263
G1 X103.651 Y101.927 E29.58926
G1 X103.399 Y102.271 E29.61048
G1 X103.282 Y102.388 E29.61872
G1 X103.019 Y102.594 E29.63534
G1 X102.716 Y102.732 E29.65191
G1 X102.294 Y102.797 E29.67316
G1 X82.836 Y102.797 E30.6415
G1 X82.505 Y102.757 E30.65809
G1 X82.192 Y102.64 E30.67472
G1 X81.848 Y102.388 E30.69594
G1 X81.731 Y102.271 E30.70417
G1 X81.525 Y102.008 E30.7208
G1 X81.387 Y101.705 E30.73737
G1 X81.322 Y101.283 E30.75862
G1 X81.322 Y83.717 E31.6328
G1 X81.362 Y83.386 E31.64939
G1 X81.479 Y83.073 E31.66602
G1 X81.731 Y82.729 E31.68724
G1 X81.848 Y82.612 E31.69547
M204 S5000
G0 F2400 X82.013 Y83.011
M204 S200
G1 F1200 X82.13 Y82.894 E31.70371
G1 X82.356 Y82.725 E31.71775
G1 X82.62 Y82.626 E31.73178
G1 X82.836 Y82.602 E31.7426
G1 X102.294 Y82.602 E32.71094
G1 X102.573 Y82.642 E32.72496
G1 X102.83 Y82.758 E32.73899
G1 X103 Y82.894 E32.74983
G1 X103.117 Y83.011 E32.75806
G1 X103.286 Y83.237 E32.77211
G1 X103.385 Y83.501 E32.78614
G1 X103.409 Y83.717 E32.79695
G1 X103.409 Y101.283 E33.67113
G1 X103.369 Y101.562 E33.68516
G1 X103.253 Y101.819 E33.69919
G1 X103.117 Y101.989 E33.71003
G1 X103 Y102.106 E33.71826
G1 X102.774 Y102.275 E33.73231
G1 X102.51 Y102.374 E33.74634
G1 X102.294 Y102.398 E33.75715
G1 X82.836 Y102.398 E34.72549
G1 X82.557 Y102.358 E34.73952
G1 X82.3 Y102.242 E34.75355
G1 X82.13 Y102.106 E34.76438
G1 X82.013 Y101.989 E34.77262
G1 X81.844 Y101.763 E34.78666
G1 X81.745 Y101.499 E34.80069
G1 X81.721 Y101.283 E34.81151
G1 X81.721 Y83.717 E35.68569
G1 X81.761 Y83.438 E35.69971
G1 X81.877 Y83.181 E35.71375
G1 X82.013 Y83.011 E35.72458
M204 S5000
G0 F2400 X82.412 Y83.176
M204 S200
G1 F1200 X82.592 Y83.053 E35.73543
G1 X82.836 Y83.001 E35.74785
G1 X102.294 Y83.001 E36.71618
G1 X102.508 Y83.041 E36.72702
G1 X102.718 Y83.176 E36.73944
G1 X102.835 Y83.293 E36.74767
G1 X102.958 Y83.473 E36.75852
G1 X103.01 Y83.717 E36.77094
G1 X103.01 Y101.283 E37.64512
G1 X102.97 Y101.497 E37.65595
G1 X102.835 Y101.707 E37.66838
G1 X102.718 Y101.824 E37.67661
G1 X102.538 Y101.947 E37.68746
G1 X102.294 Y101.999 E37.69988
G1 X82.836 Y101.999 E38.66821
G1 X82.622 Y101.959 E38.67905
G1 X82.412 Y101.824 E38.69147
G1 X82.295 Y101.707 E38.69971
G1 X82.172 Y101.527 E38.71056
G1 X82.12 Y101.283 E38.72297
G1 X82.12 Y83.717 E39.59715
G1 X82.16 Y83.503 E39.60799
G1 X82.295 Y83.293 E39.62041
G1 X82.412 Y83.176 E39.62864
M204 S5000
G0 F2400 X82.695 Y83.459
M204 S200
G1 F1200 X82.836 Y83.4 E39.63625
G1 X102.294 Y83.4 E40.60459
G1 X102.435 Y83.459 E40.61219
G1 X102.552 Y83.576 E40.62043
G1 X102.611 Y83.717 E40.62803
G1 X102.611 Y101.283 E41.50222
G1 X102.552 Y101.424 E41.50982
G1 X102.435 Y101.541 E41.51806
G1 X102.294 Y101.6 E41.52566
G1 X82.836 Y101.6 E42.494
G1 X82.695 Y101.541 E42.50161
G1 X82.578 Y101.424 E42.50984
G1 X82.519 Y101.283 E42.51745
G1 X82.519 Y83.717 E43.39163
G1 X82.578 Y83.576 E43.39923
G1 X82.695 Y83.459 E43.40747
M204 S5000
G0 F2400 X82.918 Y83.799
M204 S200
;TYPE:WALL-OUTER
G1 F1200 X102.212 Y83.799 E44.36764
G1 X102.212 Y101.201 E45.23366
G1 X82.918 Y101.201 E46.19384
G1 X82.918 Y83.799 E47.05986
M204 S5000
G0 F2400 X83.118 Y83.799
G0 X83.316 Y84.197
M204 S200
;TYPE:WALL-INNER
G1 F1200 X101.814 Y84.197 E47.98042
G1 X101.814 Y100.803 E48.80682
G1 X83.316 Y100.803 E49.72738
G1 X83.316 Y84.197 E50.55379
M204 S5000
G0 F2400 X83.715 Y84.596
M204 S200
G1 F1200 X101.415 Y84.596 E51.43464
G1 X101.415 Y100.404 E52.22133
G1 X83.715 Y100.404 E53.10218
G1 X83.715 Y84.596 E53.88887
M204 S5000
G0 F2400 X83.894 Y85.023
M204 S200
;TYPE:SKIN
G1 F1200 X99.095 Y100.223 E54.95867
G1 X99.165 Y100.293
M204 S5000
G0 F2400 X99.659 Y100.223
M204 S200
G1 F1200 X84.211 Y84.775 E56.04588
G1 X84.141 Y84.705
M204 S5000
G0 F2400 X84.775 Y84.775
M204 S200
G1 F1200 X100.223 Y100.223 E57.1331
G1 X100.293 Y100.293
M204 S5000
G0 F2400 X100.788 Y100.223
M204 S200
G1 F1200 X85.34 Y84.775 E58.22031
G1 X85.27 Y84.705
M204 S5000
G0 F2400 X85.904 Y84.775
M204 S200
G1 F1200 X101.234 Y100.105 E59.29922
G1 X101.304 Y100.175
M204 S5000
G0 F2400 X101.234 Y99.541
M204 S200
G1 F1200 X86.468 Y84.775 E60.33844
G1 X86.398 Y84.705
M204 S5000
G0 F2400 X87.032 Y84.775
M204 S200
G1 F1200 X101.234 Y98.977 E61.33796
G1 X101.304 Y99.047
M204 S5000
G0 F2400 X101.234 Y98.413
M204 S200
G1 F1200 X87.597 Y84.775 E62.29776
G1 X87.527 Y84.705
M204 S5000
G0 F2400 X88.161 Y84.775
M204 S200
G1 F1200 X101.234 Y97.848 E63.21782
G1 X101.304 Y97.918
M204 S5000
G0 F2400 X101.234 Y97.284
M204 S200
G1 F1200 X88.725 Y84.775 E64.09819
G1 X88.655 Y84.705
M204 S5000
G0 F2400 X89.289 Y84.775
M204 S200
G1 F1200 X101.234 Y96.72 E64.93887
G1 X101.304 Y96.79
M204 S5000
G0 F2400 X101.234 Y96.155
M204 S200
G1 F1200 X89.854 Y84.775 E65.73978
G1 X89.784 Y84.705
M204 S5000
G0 F2400 X90.418 Y84.775
M204 S200
G1 F1200 X101.234 Y95.591 E66.501
G1 X101.304 Y95.661
M204 S5000
G0 F2400 X101.234 Y95.027
M204 S200
G1 F1200 X90.982 Y84.775 E67.22253
G1 X90.912 Y84.705
M204 S5000
G0 F2400 X91.546 Y84.775
M204 S200
G1 F1200 X101.234 Y94.463 E67.90436
G1 X101.304 Y94.533
M204 S5000
G0 F2400 X101.234 Y93.898
M204 S200
G1 F1200 X92.111 Y84.775 E68.54643
G1 X92.041 Y84.705
M204 S5000
G0 F2400 X92.675 Y84.775
M204 S200
G1 F1200 X101.234 Y93.334 E69.1488
G1 X101.304 Y93.404
M204 S5000
G0 F2400 X101.234 Y92.77
M204 S200
G1 F1200 X93.239 Y84.775 E69.71148
G1 X93.169 Y84.705
M204 S5000
G0 F2400 X93.804 Y84.775
M204 S200
G1 F1200 X101.234 Y92.206 E70.23443
G1 X101.304 Y92.276
M204 S5000
G0 F2400 X101.234 Y91.641
M204 S200
G1 F1200 X94.368 Y84.775 E70.71766
G1 X94.298 Y84.705
M204 S5000
G0 F2400 X94.932 Y84.775
M204 S200
G1 F1200 X101.234 Y91.077 E71.16118
G1 X101.304 Y91.147
M204 S5000
G0 F2400 X101.234 Y90.513
M204 S200
G1 F1200 X95.496 Y84.775 E71.56502
G1 X95.426 Y84.705
M204 S5000
G0 F2400 X96.061 Y84.775
M204 S200
G1 F1200 X101.234 Y89.948 E71.92909
G1 X101.304 Y90.018
M204 S5000
G0 F2400 X101.234 Y89.384
M204 S200
G1 F1200 X96.625 Y84.775 E72.25347
G1 X96.555 Y84.705
M204 S5000
G0 F2400 X97.189 Y84.775
M204 S200
G1 F1200 X101.234 Y88.82 E72.53815
G1 X101.304 Y88.89
M204 S5000
G0 F2400 X101.234 Y88.256
M204 S200
G1 F1200 X97.753 Y84.775 E72.78314
G1 X97.683 Y84.705
M204 S5000
G0 F2400 X98.318 Y84.775
M204 S200
G1 F1200 X101.234 Y87.691 E72.98836
G1 X101.304 Y87.761
M204 S5000
G0 F2400 X101.234 Y87.127
M204 S200
G1 F1200 X98.882 Y84.775 E73.1539
G1 X98.812 Y84.705
M204 S5000
G0 F2400 X99.446 Y84.775
M204 S200
G1 F1200 X101.234 Y86.563 E73.27973
G1 X101.304 Y86.633
M204 S5000
G0 F2400 X101.234 Y85.999
M204 S200
G1 F1200 X100.011 Y84.775 E73.36584
G1 X99.942 Y84.705
M204 S5000
G0 F2400 X100.575 Y84.775
M204 S200
G1 F1200 X101.234 Y85.434 E73.41222
G1 X101.304 Y85.504
M204 S5000
G0 F2400 X101.234 Y84.87
M204 S200
G1 F1200 X101.139 Y84.775 E73.41891
M204 S5000
G0 F2400 X98.531 Y100.223
M204 S200
G1 F1200 X83.894 Y85.587 E74.44901
G1 X83.824 Y85.517
M204 S5000
G0 F2400 X83.894 Y86.151
M204 S200
G1 F1200 X97.966 Y100.223 E75.43938
G1 X98.036 Y100.293
M204 S5000
G0 F2400 X97.402 Y100.223
M204 S200
G1 F1200 X83.894 Y86.716 E76.39003
G1 X83.824 Y86.646
M204 S5000
G0 F2400 X83.894 Y87.28
M204 S200
G1 F1200 X96.838 Y100.223 E77.30098
G1 X96.908 Y100.293
M204 S5000
