;FLAVOR:RepRap
;TIME:549
;Filament used: 0.337535m
;Layer height: 0.15
;Generated with Cura_SteamEngine 2.6.2
M190 S60
M104 S220
M109 S220
G21 ;metric values
G90 ;absolute positioning
M82 ;set extruder to absolute mode
M107 ;start with the fan off
G92 E0 ;zero the extruded length
G1 F200 E3 ;extrude 3mm of feed stock
G92 E0 ;zero the extruded length again
G1 F9000
M117 Printing...
;LAYER_COUNT:40
;LAYER:0
M107
M204 S5000
G0 F2400 X85.135 Y84.075 Z0.3
M204 S200
;TYPE:SKIRT
G1 F1200 X85.709 Y83.601 E0.03705
G1 X86.693 Y82.94 E0.09604
G1 X87.171 Y82.667 E0.12343
G1 X87.683 Y82.466 E0.15081
G1 X88.219 Y82.342 E0.17818
G1 X88.814 Y82.296 E0.20788
G1 X96.249 Y82.309 E0.57789
G1 X96.797 Y82.35 E0.60524
G1 X97.335 Y82.47 E0.63267
G1 X97.849 Y82.666 E0.66005
G1 X98.471 Y83.033 E0.69599
G1 X99.66 Y83.897 E0.76913
G1 X100.146 Y84.318 E0.80113
G1 X100.876 Y85.067 E0.85318
G1 X101.181 Y85.421 E0.87643
G1 X101.647 Y86.035 E0.91479
G1 X101.902 Y86.417 E0.93765
G1 X102.424 Y87.312 E0.98921
G1 X102.705 Y87.907 E1.02196
G1 X103.24 Y89.354 E1.09873
G1 X103.414 Y89.993 E1.13169
G1 X103.597 Y91.003 E1.18277
G1 X103.655 Y91.519 E1.20861
G1 X103.698 Y92.536 E1.25927
G1 X103.689 Y92.994 E1.28207
G1 X103.627 Y93.779 E1.32125
G1 X103.564 Y94.234 E1.34411
G1 X103.362 Y95.231 E1.39474
G1 X103.242 Y95.678 E1.41777
G1 X102.994 Y96.421 E1.45675
G1 X102.818 Y96.858 E1.4802
G1 X102.371 Y97.792 E1.53173
G1 X102.077 Y98.3 E1.56094
G1 X101.355 Y99.352 E1.62443
G1 X100.978 Y99.817 E1.65422
G1 X100.262 Y100.571 E1.70597
G1 X99.882 Y100.921 E1.73168
G1 X99.085 Y101.559 E1.78249
G1 X98.7 Y101.829 E1.80589
G1 X98.039 Y102.235 E1.84449
G1 X97.638 Y102.45 E1.86714
G1 X96.687 Y102.887 E1.91922
G1 X96.059 Y103.111 E1.9524
G1 X94.572 Y103.498 E2.02887
G1 X93.989 Y103.602 E2.05834
G1 X93.208 Y103.679 E2.09739
G1 X92.744 Y103.696 E2.1205
G1 X91.712 Y103.671 E2.17187
G1 X91.059 Y103.598 E2.20457
G1 X89.553 Y103.296 E2.28101
G1 X88.925 Y103.113 E2.31356
G1 X87.96 Y102.738 E2.36509
G1 X87.367 Y102.445 E2.398
G1 X86.05 Y101.646 E2.47466
G1 X85.518 Y101.257 E2.50746
G1 X84.736 Y100.572 E2.5592
G1 X84.278 Y100.094 E2.59214
G1 X83.312 Y98.891 E2.66892
G1 X82.945 Y98.342 E2.70179
G1 X82.449 Y97.439 E2.75306
G1 X82.184 Y96.837 E2.78579
G1 X81.683 Y95.367 E2.86308
G1 X81.525 Y94.724 E2.89603
G1 X81.367 Y93.703 E2.94744
G1 X81.322 Y93.179 E2.97362
G1 X81.307 Y92.161 E3.02428
G1 X81.335 Y91.645 E3.05
G1 X81.46 Y90.623 E3.10124
G1 X81.58 Y90.035 E3.1311
G1 X81.936 Y88.797 E3.19521
G1 X82.199 Y88.128 E3.23098
G1 X82.898 Y86.752 E3.30779
G1 X83.214 Y86.236 E3.3379
G1 X83.671 Y85.609 E3.37651
G1 X84.047 Y85.169 E3.40532
G1 X85.135 Y84.075 E3.4821
M204 S5000
G0 F2400 X85.418 Y84.356
M204 S200
G1 F1200 X85.932 Y83.932 E3.51526
G1 X86.916 Y83.271 E3.57425
G1 X87.369 Y83.015 E3.60015
G1 X87.856 Y82.831 E3.62605
G1 X88.365 Y82.724 E3.65194
G1 X88.813 Y82.695 E3.67428
G1 X96.248 Y82.708 E4.04429
G1 X96.767 Y82.749 E4.0702
G1 X97.273 Y82.869 E4.09608
G1 X97.756 Y83.064 E4.122
G1 X98.236 Y83.356 E4.14996
G1 X99.425 Y84.22 E4.2231
G1 X99.86 Y84.597 E4.25175
G1 X100.59 Y85.346 E4.3038
G1 X100.863 Y85.662 E4.32458
G1 X101.329 Y86.276 E4.36294
G1 X101.557 Y86.618 E4.38339
G1 X102.079 Y87.513 E4.43496
G1 X102.331 Y88.046 E4.4643
G1 X102.866 Y89.493 E4.54107
G1 X103.022 Y90.064 E4.57053
G1 X103.205 Y91.074 E4.62161
G1 X103.256 Y91.536 E4.64474
G1 X103.299 Y92.553 E4.6954
G1 X103.291 Y92.963 E4.71581
G1 X103.229 Y93.748 E4.75499
G1 X103.172 Y94.155 E4.77545
G1 X102.97 Y95.152 E4.82607
G1 X102.864 Y95.552 E4.84666
G1 X102.616 Y96.295 E4.88565
G1 X102.458 Y96.685 E4.90659
G1 X102.011 Y97.619 E4.95812
G1 X101.748 Y98.074 E4.98427
G1 X101.026 Y99.126 E5.04777
G1 X100.689 Y99.543 E5.07445
G1 X99.973 Y100.297 E5.12619
G1 X99.633 Y100.609 E5.14916
G1 X98.836 Y101.247 E5.19997
G1 X98.491 Y101.489 E5.22094
G1 X97.83 Y101.895 E5.25954
G1 X97.471 Y102.087 E5.2798
G1 X96.52 Y102.524 E5.33189
G1 X95.958 Y102.725 E5.36159
G1 X94.471 Y103.112 E5.43806
G1 X93.95 Y103.205 E5.46439
G1 X93.169 Y103.282 E5.50345
G1 X92.754 Y103.297 E5.52412
G1 X91.722 Y103.272 E5.57549
G1 X91.137 Y103.207 E5.60478
G1 X89.631 Y102.905 E5.68122
G1 X89.069 Y102.741 E5.71035
G1 X88.104 Y102.366 E5.76188
G1 X87.574 Y102.104 E5.7913
G1 X86.257 Y101.305 E5.86796
G1 X85.781 Y100.957 E5.8973
G1 X84.999 Y100.272 E5.94904
G1 X84.589 Y99.844 E5.97853
G1 X83.623 Y98.641 E6.05531
G1 X83.295 Y98.15 E6.0847
G1 X82.799 Y97.247 E6.13597
G1 X82.561 Y96.708 E6.16529
G1 X82.06 Y95.238 E6.24258
G1 X81.919 Y94.663 E6.27204
G1 X81.761 Y93.642 E6.32346
G1 X81.721 Y93.173 E6.34688
G1 X81.706 Y92.155 E6.39755
G1 X81.731 Y91.693 E6.42057
G1 X81.856 Y90.671 E6.47181
G1 X81.963 Y90.146 E6.49848
G1 X82.319 Y88.908 E6.56258
G1 X82.555 Y88.309 E6.59462
G1 X83.254 Y86.933 E6.67143
G1 X83.537 Y86.471 E6.69839
G1 X83.994 Y85.844 E6.737
G1 X84.33 Y85.45 E6.76277
G1 X85.418 Y84.356 E6.83956
M204 S5000
G0 F2400 X85.701 Y84.637
M204 S200
G1 F1200 X86.154 Y84.264 E6.86876
G1 X87.138 Y83.603 E6.92775
G1 X87.565 Y83.364 E6.9521
G1 X88.025 Y83.198 E6.97644
G1 X88.506 Y83.109 E7.00078
G1 X88.812 Y83.094 E7.01603
G1 X96.247 Y83.107 E7.38604
G1 X96.734 Y83.148 E7.41036
G1 X97.209 Y83.267 E7.43473
G1 X97.657 Y83.463 E7.45906
G1 X98.001 Y83.679 E7.47928
G1 X99.19 Y84.543 E7.55242
G1 X99.574 Y84.875 E7.57768
G1 X100.304 Y85.624 E7.62973
G1 X100.545 Y85.904 E7.64812
G1 X101.011 Y86.518 E7.68648
G1 X101.212 Y86.819 E7.70449
G1 X101.734 Y87.714 E7.75605
G1 X101.956 Y88.184 E7.78192
G1 X102.491 Y89.631 E7.8587
G1 X102.629 Y90.135 E7.8847
G1 X102.812 Y91.145 E7.93578
G1 X102.857 Y91.553 E7.95621
G1 X102.9 Y92.57 E8.00687
G1 X102.894 Y92.932 E8.02488
G1 X102.832 Y93.717 E8.06407
G1 X102.781 Y94.075 E8.08207
G1 X102.579 Y95.072 E8.13269
G1 X102.485 Y95.426 E8.15092
G1 X102.237 Y96.169 E8.1899
G1 X102.098 Y96.513 E8.20836
G1 X101.651 Y97.447 E8.25989
G1 X101.419 Y97.849 E8.28299
G1 X100.697 Y98.901 E8.34649
G1 X100.399 Y99.268 E8.37002
G1 X99.683 Y100.022 E8.42176
G1 X99.383 Y100.298 E8.44205
G1 X98.586 Y100.936 E8.49285
G1 X98.282 Y101.149 E8.51133
G1 X97.621 Y101.555 E8.54993
G1 X97.305 Y101.725 E8.56779
G1 X96.354 Y102.162 E8.61987
G1 X95.858 Y102.339 E8.64608
G1 X94.371 Y102.726 E8.72255
G1 X93.911 Y102.808 E8.7458
G1 X93.13 Y102.885 E8.78486
G1 X92.764 Y102.898 E8.80308
G1 X91.732 Y102.873 E8.85446
G1 X91.216 Y102.816 E8.88029
G1 X89.71 Y102.514 E8.95673
G1 X89.214 Y102.369 E8.98245
G1 X88.249 Y101.994 E9.03397
G1 X87.781 Y101.763 E9.05994
G1 X86.464 Y100.964 E9.1366
G1 X86.044 Y100.656 E9.16252
G1 X85.262 Y99.971 E9.21426
G1 X84.9 Y99.594 E9.24027
G1 X83.934 Y98.391 E9.31705
G1 X83.645 Y97.958 E9.34295
G1 X83.149 Y97.055 E9.39423
G1 X82.939 Y96.58 E9.42007
G1 X82.438 Y95.11 E9.49736
G1 X82.313 Y94.602 E9.52339
G1 X82.155 Y93.581 E9.57481
G1 X82.12 Y93.167 E9.59548
G1 X82.105 Y92.149 E9.64615
G1 X82.127 Y91.742 E9.66644
G1 X82.252 Y90.72 E9.71768
G1 X82.347 Y90.256 E9.74125
G1 X82.703 Y89.018 E9.80535
G1 X82.911 Y88.489 E9.83364
G1 X83.61 Y87.113 E9.91045
G1 X83.859 Y86.706 E9.93419
G1 X84.316 Y86.079 E9.9728
G1 X84.613 Y85.731 E9.99557
G1 X85.701 Y84.637 E10.07235
M204 S5000
G0 F2400 X85.984 Y84.919
M204 S200
G1 F1200 X86.377 Y84.595 E10.0977
G1 X87.361 Y83.934 E10.15669
G1 X87.759 Y83.714 E10.17932
G1 X88.19 Y83.567 E10.20199
G1 X88.812 Y83.493 E10.23316
G1 X96.247 Y83.506 E10.60317
G1 X96.7 Y83.547 E10.6258
G1 X97.139 Y83.666 E10.64844
G1 X97.551 Y83.86 E10.6711
G1 X97.767 Y84.002 E10.68396
G1 X98.956 Y84.866 E10.75711
G1 X99.289 Y85.153 E10.77899
G1 X100.019 Y85.902 E10.83103
G1 X100.227 Y86.145 E10.84695
G1 X100.693 Y86.759 E10.88531
G1 X100.868 Y87.02 E10.90095
G1 X101.39 Y87.915 E10.95251
G1 X101.582 Y88.322 E10.97491
G1 X102.117 Y89.769 E11.05168
G1 X102.236 Y90.207 E11.07427
G1 X102.419 Y91.217 E11.12535
G1 X102.459 Y91.569 E11.14298
G1 X102.502 Y92.586 E11.19364
G1 X102.496 Y92.9 E11.20927
G1 X102.434 Y93.685 E11.24846
G1 X102.39 Y93.996 E11.26409
G1 X102.188 Y94.993 E11.31471
G1 X102.107 Y95.299 E11.33046
G1 X101.859 Y96.042 E11.36945
G1 X101.738 Y96.341 E11.3855
G1 X101.291 Y97.275 E11.43703
G1 X101.09 Y97.623 E11.45703
G1 X100.368 Y98.675 E11.52052
G1 X100.11 Y98.993 E11.5409
G1 X99.394 Y99.747 E11.59265
G1 X99.134 Y99.986 E11.61022
G1 X98.337 Y100.624 E11.66103
G1 X98.074 Y100.809 E11.67703
G1 X97.413 Y101.215 E11.71564
G1 X97.138 Y101.362 E11.73115
G1 X96.187 Y101.799 E11.78324
G1 X95.757 Y101.952 E11.80595
G1 X94.27 Y102.339 E11.88242
G1 X93.872 Y102.41 E11.90254
G1 X93.091 Y102.487 E11.94159
G1 X92.773 Y102.499 E11.95743
G1 X91.741 Y102.474 E12.0088
G1 X91.294 Y102.424 E12.03119
G1 X89.788 Y102.122 E12.10763
G1 X89.358 Y101.997 E12.12991
G1 X88.393 Y101.622 E12.18143
G1 X87.988 Y101.422 E12.20391
G1 X86.671 Y100.623 E12.28057
G1 X86.307 Y100.356 E12.30304
G1 X85.525 Y99.671 E12.35477
G1 X85.211 Y99.344 E12.37733
G1 X84.245 Y98.141 E12.45411
G1 X83.994 Y97.766 E12.47657
G1 X83.498 Y96.863 E12.52784
G1 X83.317 Y96.451 E12.55024
G1 X82.816 Y94.981 E12.62752
G1 X82.708 Y94.541 E12.65007
G1 X82.55 Y93.52 E12.70149
G1 X82.519 Y93.161 E12.71942
G1 X82.504 Y92.143 E12.77009
G1 X82.523 Y91.79 E12.78768
G1 X82.648 Y90.768 E12.83892
G1 X82.73 Y90.366 E12.85933
G1 X83.086 Y89.128 E12.92344
G1 X83.266 Y88.67 E12.94793
G1 X83.965 Y87.294 E13.02474
G1 X84.182 Y86.941 E13.04536
G1 X84.639 Y86.314 E13.08397
G1 X84.896 Y86.013 E13.10367
G1 X85.984 Y84.919 E13.18045
M204 S5000
G0 F2400 X86.267 Y85.2
M204 S200
G1 F1200 X86.599 Y84.926 E13.20187
G1 X87.583 Y84.265 E13.26086
G1 X87.951 Y84.066 E13.28168
G1 X88.35 Y83.94 E13.30251
G1 X88.811 Y83.892 E13.32557
G1 X96.246 Y83.905 E13.69558
G1 X96.662 Y83.946 E13.71638
G1 X97.064 Y84.065 E13.73725
G1 X97.532 Y84.324 E13.76387
G1 X98.721 Y85.188 E13.83701
G1 X99.003 Y85.432 E13.85557
G1 X99.733 Y86.181 E13.90762
G1 X99.909 Y86.386 E13.92106
G1 X100.375 Y87 E13.95942
G1 X100.523 Y87.221 E13.97266
G1 X101.045 Y88.116 E14.02422
G1 X101.208 Y88.461 E14.04321
G1 X101.743 Y89.908 E14.11999
G1 X101.844 Y90.278 E14.13907
G1 X102.027 Y91.288 E14.19015
G1 X102.06 Y91.586 E14.20507
G1 X102.103 Y92.603 E14.25573
G1 X102.098 Y92.869 E14.26897
G1 X102.036 Y93.654 E14.30816
G1 X101.999 Y93.917 E14.32138
G1 X101.797 Y94.914 E14.372
G1 X101.728 Y95.173 E14.38534
G1 X101.48 Y95.916 E14.42432
G1 X101.378 Y96.169 E14.4379
G1 X100.931 Y97.103 E14.48943
G1 X100.761 Y97.397 E14.50633
G1 X100.039 Y98.449 E14.56982
G1 X99.821 Y98.718 E14.58705
G1 X99.105 Y99.472 E14.6388
G1 X98.885 Y99.675 E14.6537
G1 X98.088 Y100.313 E14.7045
G1 X97.865 Y100.469 E14.71805
G1 X97.204 Y100.875 E14.75665
G1 X96.972 Y101 E14.76977
G1 X96.021 Y101.437 E14.82185
G1 X95.657 Y101.566 E14.84107
G1 X94.17 Y101.953 E14.91754
G1 X93.832 Y102.013 E14.93462
G1 X93.051 Y102.09 E14.97368
G1 X92.783 Y102.1 E14.98702
G1 X91.751 Y102.075 E15.03839
G1 X91.372 Y102.033 E15.05737
G1 X89.866 Y101.731 E15.13381
G1 X89.503 Y101.625 E15.15263
G1 X88.538 Y101.25 E15.20415
G1 X88.194 Y101.081 E15.22323
G1 X86.877 Y100.282 E15.29988
G1 X86.57 Y100.056 E15.31886
G1 X85.788 Y99.371 E15.37059
G1 X85.522 Y99.094 E15.3897
G1 X84.556 Y97.891 E15.46648
G1 X84.344 Y97.574 E15.48546
G1 X83.848 Y96.671 E15.53673
G1 X83.694 Y96.322 E15.55572
G1 X83.193 Y94.852 E15.633
G1 X83.102 Y94.48 E15.65206
G1 X82.944 Y93.459 E15.70348
G1 X82.918 Y93.155 E15.71866
G1 X82.903 Y92.137 E15.76933
G1 X82.919 Y91.839 E15.78418
G1 X83.044 Y90.817 E15.83542
G1 X83.113 Y90.476 E15.85273
G1 X83.469 Y89.238 E15.91684
G1 X83.622 Y88.851 E15.93755
G1 X84.321 Y87.475 E16.01436
G1 X84.504 Y87.176 E16.0318
G1 X84.961 Y86.549 E16.07041
G1 X85.179 Y86.294 E16.08711
G1 X86.267 Y85.2 E16.16389
M204 S5000
G0 F2400 X86.55 Y85.482
M204 S200
G1 F1200 X86.822 Y85.257 E16.18146
G1 X87.806 Y84.596 E16.24045
G1 X88.14 Y84.419 E16.25926
G1 X88.505 Y84.317 E16.27812
G1 X88.81 Y84.291 E16.29336
G1 X96.245 Y84.304 E16.66336
G1 X96.621 Y84.345 E16.68219
G1 X96.981 Y84.463 E16.70104
G1 X97.298 Y84.647 E16.71928
G1 X98.487 Y85.511 E16.79243
G1 X98.717 Y85.71 E16.80756
G1 X99.447 Y86.459 E16.85961
G1 X99.592 Y86.627 E16.87065
G1 X100.058 Y87.241 E16.90901
G1 X100.178 Y87.422 E16.91982
G1 X100.7 Y88.317 E16.97138
G1 X100.834 Y88.599 E16.98692
G1 X101.369 Y90.046 E17.0637
G1 X101.451 Y90.349 E17.07932
G1 X101.634 Y91.359 E17.1304
G1 X101.661 Y91.603 E17.14262
G1 X101.704 Y92.62 E17.19327
G1 X101.7 Y92.837 E17.20407
G1 X101.638 Y93.622 E17.24326
G1 X101.608 Y93.838 E17.25411
G1 X101.406 Y94.835 E17.30474
G1 X101.35 Y95.047 E17.31565
G1 X101.102 Y95.79 E17.35463
G1 X101.018 Y95.996 E17.3657
G1 X100.571 Y96.93 E17.41723
G1 X100.432 Y97.171 E17.43108
G1 X99.71 Y98.223 E17.49457
G1 X99.531 Y98.444 E17.50873
G1 X98.815 Y99.198 E17.56047
G1 X98.635 Y99.363 E17.57263
G1 X97.838 Y100.001 E17.62343
G1 X97.656 Y100.129 E17.6345
G1 X96.995 Y100.535 E17.67311
G1 X96.805 Y100.637 E17.68384
G1 X95.854 Y101.074 E17.73593
G1 X95.556 Y101.18 E17.75167
G1 X94.069 Y101.567 E17.82813
G1 X93.793 Y101.616 E17.84208
G1 X93.012 Y101.693 E17.88114
G1 X92.793 Y101.701 E17.89204
G1 X91.761 Y101.676 E17.94342
G1 X91.451 Y101.642 E17.95894
G1 X89.945 Y101.34 E18.03538
G1 X89.647 Y101.253 E18.05082
G1 X88.682 Y100.878 E18.10235
G1 X88.401 Y100.74 E18.11793
G1 X87.084 Y99.941 E18.19459
G1 X86.833 Y99.756 E18.2101
G1 X86.051 Y99.071 E18.26184
G1 X85.834 Y98.845 E18.27743
G1 X84.868 Y97.642 E18.35421
G1 X84.694 Y97.382 E18.36978
G1 X84.198 Y96.479 E18.42105
G1 X84.072 Y96.193 E18.43661
G1 X83.571 Y94.723 E18.51389
G1 X83.496 Y94.419 E18.52947
G1 X83.338 Y93.398 E18.58089
G1 X83.317 Y93.149 E18.59333
G1 X83.302 Y92.131 E18.64399
G1 X83.315 Y91.887 E18.65615
G1 X83.44 Y90.865 E18.70739
G1 X83.497 Y90.587 E18.72151
G1 X83.853 Y89.349 E18.78562
G1 X83.978 Y89.032 E18.80258
G1 X84.677 Y87.656 E18.87938
G1 X84.827 Y87.411 E18.89368
G1 X85.284 Y86.784 E18.93229
G1 X85.462 Y86.576 E18.94592
G1 X86.55 Y85.482 E19.0227
M204 S5000
G0 F2400 X86.832 Y85.763
M204 S200
G1 F1200 X87.044 Y85.588 E19.03638
G1 X88.028 Y84.927 E19.09537
G1 X88.325 Y84.776 E19.11195
G1 X88.809 Y84.69 E19.13642
G1 X96.244 Y84.703 E19.50642
G1 X96.576 Y84.743 E19.52307
G1 X96.888 Y84.861 E19.53967
G1 X97.063 Y84.97 E19.54993
G1 X98.252 Y85.834 E19.62307
G1 X98.431 Y85.989 E19.63485
G1 X99.161 Y86.738 E19.6869
G1 X99.274 Y86.868 E19.69548
G1 X99.74 Y87.482 E19.73384
G1 X99.834 Y87.623 E19.74227
G1 X100.356 Y88.518 E19.79383
G1 X100.459 Y88.738 E19.80592
G1 X100.994 Y90.185 E19.88269
G1 X101.059 Y90.42 E19.89483
G1 X101.242 Y91.43 E19.94591
G1 X101.263 Y91.62 E19.95542
G1 X101.306 Y92.637 E20.00608
G1 X101.303 Y92.806 E20.01449
G1 X101.241 Y93.591 E20.05368
G1 X101.217 Y93.758 E20.06208
G1 X101.015 Y94.755 E20.1127
G1 X100.971 Y94.92 E20.1212
G1 X100.723 Y95.663 E20.16018
G1 X100.658 Y95.824 E20.16882
G1 X100.211 Y96.758 E20.22035
G1 X100.103 Y96.946 E20.23114
G1 X99.381 Y97.998 E20.29464
G1 X99.242 Y98.169 E20.3056
G1 X98.526 Y98.923 E20.35735
G1 X98.386 Y99.052 E20.36682
G1 X97.589 Y99.69 E20.41763
G1 X97.447 Y99.789 E20.42624
G1 X96.786 Y100.195 E20.46485
G1 X96.638 Y100.274 E20.4732
G1 X95.687 Y100.711 E20.52528
G1 X95.456 Y100.794 E20.5375
G1 X93.969 Y101.181 E20.61396
G1 X93.754 Y101.219 E20.62483
G1 X92.973 Y101.296 E20.66388
G1 X92.802 Y101.303 E20.6724
G1 X91.77 Y101.278 E20.72377
G1 X91.529 Y101.251 E20.73584
G1 X90.023 Y100.949 E20.81228
G1 X89.792 Y100.881 E20.82426
G1 X88.827 Y100.506 E20.87579
G1 X88.608 Y100.398 E20.88794
G1 X87.291 Y99.599 E20.9646
G1 X87.095 Y99.456 E20.97667
G1 X86.313 Y98.771 E21.02841
G1 X86.145 Y98.595 E21.04052
G1 X85.179 Y97.392 E21.1173
G1 X85.044 Y97.19 E21.12939
G1 X84.548 Y96.287 E21.18066
G1 X84.45 Y96.065 E21.19274
G1 X83.949 Y94.595 E21.27002
G1 X83.89 Y94.358 E21.28218
G1 X83.732 Y93.337 E21.33359
G1 X83.716 Y93.144 E21.34323
G1 X83.701 Y92.126 E21.3939
G1 X83.711 Y91.935 E21.40342
G1 X83.836 Y90.913 E21.45465
G1 X83.88 Y90.697 E21.46562
G1 X84.236 Y89.459 E21.52973
G1 X84.333 Y89.212 E21.54294
G1 X85.032 Y87.836 E21.61974
G1 X85.149 Y87.646 E21.63085
G1 X85.606 Y87.019 E21.66946
G1 X85.744 Y86.857 E21.68005
G1 X86.832 Y85.763 E21.75683
M204 S5000
G0 F2400 X87.115 Y86.044
M204 S200
G1 F1200 X87.266 Y85.92 E21.76656
G1 X88.25 Y85.259 E21.82555
G1 X88.504 Y85.136 E21.83959
