;FLAVOR:RepRap
;TIME:1910
;Filament used: 1.14303m
;Layer height: 0.15
;Generated with Cura_SteamEngine 2.6.2
M190 S60
M104 S220
M109 S220
G21 ;metric values
G90 ;absolute positioning
M82 ;set extruder to absolute mode
M107 ;start with the fan off
G92 E0 ;zero the extruded length
G1 F200 E3 ;extrude 3mm of feed stock
G92 E0 ;zero the extruded length again
G1 F9000
M117 Printing...
;LAYER_COUNT:73
;LAYER:0
M107
M204 S5000
G0 F2400 X86.913 Y62.144 Z0.3
M204 S200
;TYPE:SKIRT
G1 F1200 X87.235 Y61.698 E0.02738
G1 X87.601 Y61.318 E0.05363
G1 X87.713 Y61.217 E0.06114
G1 X88.148 Y60.879 E0.08855
G1 X88.626 Y60.607 E0.11592
G1 X89.139 Y60.408 E0.1433
G1 X89.676 Y60.285 E0.17072
G1 X90.252 Y60.241 E0.19947
G1 X94.748 Y60.241 E0.42321
G1 X95.297 Y60.281 E0.45061
G1 X95.834 Y60.4 E0.47798
G1 X96.349 Y60.595 E0.50539
G1 X96.829 Y60.863 E0.53274
G1 X97.287 Y61.217 E0.56155
G1 X97.399 Y61.318 E0.56906
G1 X97.78 Y61.715 E0.59644
G1 X98.099 Y62.163 E0.62381
G1 X98.35 Y62.653 E0.65121
G1 X98.528 Y63.174 E0.67861
G1 X98.626 Y63.695 E0.70499
G1 X99.881 Y74.474 E1.24504
G1 X99.904 Y75.023 E1.27238
G1 X99.8 Y75.802 E1.31149
G1 X98.766 Y80.084 E1.53071
G1 X98.286 Y83.483 E1.70154
G1 X98.691 Y83.81 E1.72745
G1 X98.808 Y83.927 E1.73568
G1 X99.168 Y84.344 E1.7631
G1 X99.463 Y84.808 E1.79046
G1 X99.689 Y85.31 E1.81786
G1 X99.839 Y85.839 E1.84522
G1 X99.918 Y86.609 E1.88374
G1 X99.911 Y111.048 E3.09996
G1 X99.871 Y111.597 E3.12735
G1 X99.676 Y112.361 E3.16659
G1 X98.567 Y115.362 E3.32581
G1 X98.566 Y120.852 E3.59902
G1 X98.526 Y121.401 E3.62642
G1 X98.407 Y121.938 E3.65379
G1 X98.211 Y122.452 E3.68117
G1 X97.943 Y122.933 E3.70857
G1 X97.456 Y123.532 E3.74699
G1 X97.339 Y123.649 E3.75522
G1 X96.922 Y124.009 E3.78264
G1 X96.458 Y124.304 E3.81
G1 X95.956 Y124.53 E3.8374
G1 X95.427 Y124.68 E3.86476
G1 X94.658 Y124.759 E3.90323
G1 X90.342 Y124.759 E4.11802
G1 X89.793 Y124.719 E4.14541
G1 X89.256 Y124.6 E4.17279
G1 X88.741 Y124.405 E4.20019
G1 X88.261 Y124.137 E4.22755
G1 X87.661 Y123.649 E4.26604
G1 X87.544 Y123.532 E4.27427
G1 X87.184 Y123.115 E4.30169
G1 X86.889 Y122.651 E4.32905
G1 X86.663 Y122.149 E4.35645
G1 X86.513 Y121.62 E4.38381
G1 X86.434 Y120.852 E4.42223
G1 X86.433 Y115.359 E4.6956
G1 X85.316 Y112.322 E4.85663
G1 X85.164 Y111.793 E4.88402
G1 X85.083 Y111.013 E4.92305
G1 X85.082 Y86.617 E6.13713
G1 X85.122 Y86.068 E6.16452
G1 X85.241 Y85.531 E6.19189
G1 X85.436 Y85.016 E6.2193
G1 X85.704 Y84.536 E6.24666
G1 X86.192 Y83.936 E6.28514
G1 X86.309 Y83.819 E6.29338
G1 X86.711 Y83.472 E6.31981
G1 X86.232 Y80.082 E6.49019
G1 X85.196 Y75.759 E6.71142
G1 X85.107 Y75.216 E6.7388
G1 X85.118 Y74.435 E6.77767
G1 X86.375 Y63.692 E7.31595
G1 X86.478 Y63.152 E7.34331
G1 X86.659 Y62.632 E7.37071
G1 X86.913 Y62.144 E7.39808
M204 S5000
G0 F2400 X87.298 Y62.282
M204 S200
G1 F1200 X87.614 Y61.869 E7.42396
G1 X87.868 Y61.614 E7.44188
G1 X87.98 Y61.513 E7.44938
G1 X88.393 Y61.195 E7.47532
G1 X88.849 Y60.944 E7.50122
G1 X89.338 Y60.766 E7.52712
G1 X89.848 Y60.664 E7.553
G1 X90.252 Y60.64 E7.57315
G1 X94.748 Y60.64 E7.79689
G1 X95.267 Y60.68 E7.8228
G1 X95.774 Y60.799 E7.84871
G1 X96.256 Y60.994 E7.87459
G1 X96.704 Y61.26 E7.90052
G1 X97.02 Y61.513 E7.92066
G1 X97.132 Y61.614 E7.92817
G1 X97.49 Y61.991 E7.95404
G1 X97.787 Y62.419 E7.97997
G1 X98.015 Y62.887 E8.00587
G1 X98.168 Y63.384 E8.03175
G1 X98.229 Y63.741 E8.04978
G1 X99.484 Y74.52 E8.58982
G1 X99.505 Y75.04 E8.61572
G1 X99.412 Y75.708 E8.64928
G1 X98.374 Y80.006 E8.86933
G1 X97.859 Y83.655 E9.05272
G1 X97.947 Y83.707 E9.05781
G1 X98.409 Y84.092 E9.08773
G1 X98.526 Y84.209 E9.09597
G1 X98.864 Y84.605 E9.12188
G1 X99.139 Y85.047 E9.14778
G1 X99.342 Y85.526 E9.17367
G1 X99.47 Y86.031 E9.1996
G1 X99.519 Y86.609 E9.22847
G1 X99.512 Y111.048 E10.44469
G1 X99.472 Y111.567 E10.47059
G1 X99.302 Y112.223 E10.50432
G1 X98.168 Y115.291 E10.66709
G1 X98.167 Y120.852 E10.94384
G1 X98.127 Y121.371 E10.96974
G1 X98.008 Y121.877 E10.99561
G1 X97.813 Y122.36 E11.02153
G1 X97.546 Y122.807 E11.04745
G1 X97.174 Y123.25 E11.07623
G1 X97.057 Y123.367 E11.08447
G1 X96.661 Y123.705 E11.11038
G1 X96.219 Y123.98 E11.13628
G1 X95.74 Y124.183 E11.16217
G1 X95.235 Y124.311 E11.1881
G1 X94.658 Y124.36 E11.21692
G1 X90.342 Y124.36 E11.43171
G1 X89.823 Y124.32 E11.45761
G1 X89.316 Y124.201 E11.48353
G1 X88.834 Y124.006 E11.5094
G1 X88.386 Y123.74 E11.53533
G1 X87.943 Y123.367 E11.56415
G1 X87.826 Y123.25 E11.57239
G1 X87.488 Y122.854 E11.5983
G1 X87.213 Y122.412 E11.6242
G1 X87.01 Y121.933 E11.65009
G1 X86.882 Y121.428 E11.67602
G1 X86.833 Y120.852 E11.70479
G1 X86.832 Y115.286 E11.98178
G1 X85.691 Y112.184 E12.14627
G1 X85.549 Y111.683 E12.17218
G1 X85.482 Y111.013 E12.20569
G1 X85.481 Y86.617 E13.41977
G1 X85.521 Y86.098 E13.44567
G1 X85.64 Y85.591 E13.47159
G1 X85.835 Y85.109 E13.49747
G1 X86.101 Y84.662 E13.52335
G1 X86.474 Y84.218 E13.55221
G1 X86.591 Y84.101 E13.56044
G1 X86.987 Y83.763 E13.58635
G1 X87.141 Y83.667 E13.59538
G1 X86.624 Y80.007 E13.77933
G1 X85.584 Y75.666 E14.00148
G1 X85.502 Y75.152 E14.02738
G1 X85.514 Y74.482 E14.06073
G1 X86.771 Y63.739 E14.59901
G1 X86.871 Y63.228 E14.62492
G1 X87.048 Y62.738 E14.65085
G1 X87.298 Y62.282 E14.67673
M204 S5000
G0 F2400 X87.437 Y62.849
M204 S200
G1 F1200 X87.682 Y62.426 E14.70105
G1 X88.136 Y61.91 E14.73526
G1 X88.248 Y61.809 E14.74276
G1 X88.636 Y61.513 E14.76705
G1 X89.068 Y61.283 E14.79141
G1 X89.531 Y61.127 E14.81572
G1 X90.252 Y61.039 E14.85187
G1 X94.748 Y61.039 E15.07561
G1 X95.235 Y61.079 E15.09993
G1 X95.71 Y61.198 E15.1243
G1 X96.158 Y61.392 E15.14859
G1 X96.752 Y61.809 E15.18471
G1 X96.864 Y61.91 E15.19222
G1 X97.2 Y62.266 E15.21658
G1 X97.472 Y62.672 E15.2409
G1 X97.675 Y63.117 E15.26524
G1 X97.833 Y63.787 E15.2995
G1 X99.088 Y74.566 E15.83954
G1 X99.105 Y75.054 E15.86384
G1 X99.024 Y75.615 E15.89205
G1 X97.982 Y79.931 E16.11301
G1 X97.427 Y83.858 E16.31038
G1 X97.816 Y84.104 E16.33329
G1 X98.126 Y84.375 E16.35378
G1 X98.243 Y84.492 E16.36201
G1 X98.56 Y84.864 E16.38633
G1 X98.811 Y85.284 E16.41068
G1 X98.991 Y85.738 E16.43499
G1 X99.094 Y86.216 E16.45932
G1 X99.12 Y86.609 E16.47892
G1 X99.113 Y111.048 E17.69514
G1 X99.073 Y111.535 E17.71946
G1 X98.927 Y112.085 E17.74778
G1 X97.769 Y115.218 E17.914
G1 X97.768 Y120.851 E18.19433
G1 X97.728 Y121.339 E18.2187
G1 X97.609 Y121.813 E18.24302
G1 X97.415 Y122.262 E18.26736
G1 X97.15 Y122.673 E18.2917
G1 X96.891 Y122.967 E18.3112
G1 X96.774 Y123.084 E18.31943
G1 X96.402 Y123.401 E18.34375
G1 X95.982 Y123.652 E18.3681
G1 X95.528 Y123.832 E18.39241
G1 X95.05 Y123.935 E18.41674
G1 X94.658 Y123.961 E18.43629
G1 X90.342 Y123.961 E18.65108
G1 X89.855 Y123.921 E18.6754
G1 X89.38 Y123.802 E18.69977
G1 X88.932 Y123.608 E18.72406
G1 X88.521 Y123.343 E18.7484
G1 X88.226 Y123.084 E18.76793
G1 X88.109 Y122.967 E18.77617
G1 X87.792 Y122.595 E18.80049
G1 X87.541 Y122.175 E18.82484
G1 X87.361 Y121.721 E18.84915
G1 X87.258 Y121.243 E18.87348
G1 X87.232 Y120.851 E18.89303
G1 X87.231 Y115.216 E19.17346
G1 X86.065 Y112.046 E19.34155
G1 X85.934 Y111.575 E19.36588
G1 X85.881 Y111.013 E19.39397
G1 X85.88 Y86.617 E20.60805
G1 X85.92 Y86.13 E20.63237
G1 X86.039 Y85.656 E20.65669
G1 X86.233 Y85.207 E20.68103
G1 X86.498 Y84.796 E20.70537
G1 X86.757 Y84.501 E20.7249
G1 X86.874 Y84.384 E20.73314
G1 X87.246 Y84.067 E20.75746
G1 X87.573 Y83.871 E20.77643
G1 X87.017 Y79.933 E20.97435
G1 X85.972 Y75.573 E21.19747
G1 X85.898 Y75.09 E21.22179
G1 X85.91 Y74.528 E21.24977
G1 X87.167 Y63.785 E21.78804
G1 X87.264 Y63.306 E21.81236
G1 X87.437 Y62.849 E21.83668
M204 S5000
G0 F2400 X87.825 Y62.963
M204 S200
G1 F1200 X88.065 Y62.577 E21.8593
G1 X88.403 Y62.207 E21.88424
G1 X88.515 Y62.106 E21.89175
G1 X88.878 Y61.832 E21.91438
G1 X89.284 Y61.625 E21.93706
G1 X89.719 Y61.493 E21.95968
G1 X90.252 Y61.438 E21.98635
G1 X94.748 Y61.438 E22.21009
G1 X95.201 Y61.478 E22.23273
G1 X95.641 Y61.596 E22.2554
G1 X96.053 Y61.79 E22.27806
G1 X96.485 Y62.106 E22.3047
G1 X96.597 Y62.207 E22.3122
G1 X96.907 Y62.54 E22.33484
G1 X97.154 Y62.922 E22.35748
G1 X97.33 Y63.342 E22.38014
G1 X97.437 Y63.833 E22.40515
G1 X98.692 Y74.612 E22.9452
G1 X98.704 Y75.067 E22.96785
G1 X98.636 Y75.521 E22.99069
G1 X97.59 Y79.853 E23.21247
G1 X96.991 Y84.098 E23.42582
G1 X97.3 Y84.24 E23.44274
G1 X97.673 Y84.501 E23.4654
G1 X97.844 Y84.657 E23.47692
G1 X97.961 Y84.774 E23.48515
G1 X98.254 Y85.123 E23.50783
G1 X98.48 Y85.517 E23.53043
G1 X98.635 Y85.945 E23.55309
G1 X98.721 Y86.609 E23.58641
G1 X98.714 Y111.048 E24.80263
G1 X98.674 Y111.501 E24.82526
G1 X98.553 Y111.946 E24.84821
G1 X97.37 Y115.147 E25.01804
G1 X97.369 Y120.851 E25.3019
G1 X97.329 Y121.305 E25.32458
G1 X97.21 Y121.744 E25.34722
G1 X97.017 Y122.156 E25.36986
G1 X96.609 Y122.685 E25.4031
G1 X96.492 Y122.802 E25.41134
G1 X96.143 Y123.095 E25.43402
G1 X95.749 Y123.321 E25.45662
G1 X95.321 Y123.476 E25.47927
G1 X94.658 Y123.562 E25.51255
G1 X90.342 Y123.562 E25.72733
G1 X89.889 Y123.522 E25.74996
G1 X89.449 Y123.404 E25.77263
G1 X89.037 Y123.21 E25.7953
G1 X88.508 Y122.802 E25.82854
G1 X88.391 Y122.685 E25.83678
G1 X88.098 Y122.336 E25.85946
G1 X87.872 Y121.942 E25.88206
G1 X87.717 Y121.514 E25.90471
G1 X87.631 Y120.851 E25.93798
G1 X87.63 Y115.147 E26.22185
G1 X86.439 Y111.909 E26.39354
G1 X86.32 Y111.469 E26.41623
G1 X86.28 Y111.013 E26.43901
G1 X86.279 Y86.617 E27.65308
G1 X86.319 Y86.164 E27.67572
G1 X86.437 Y85.724 E27.69839
G1 X86.631 Y85.312 E27.72105
G1 X87.039 Y84.783 E27.7543
G1 X87.156 Y84.666 E27.76253
G1 X87.505 Y84.373 E27.78521
G1 X87.899 Y84.147 E27.80781
G1 X88.01 Y84.107 E27.81368
G1 X87.411 Y79.868 E28.02673
G1 X86.36 Y75.48 E28.25128
G1 X86.294 Y75.03 E28.27392
G1 X86.307 Y74.575 E28.29657
G1 X87.564 Y63.832 E28.83485
G1 X87.656 Y63.386 E28.85751
G1 X87.825 Y62.963 E28.88018
M204 S5000
G0 F2400 X88.67 Y62.503
M204 S200
G1 F1200 X88.782 Y62.402 E28.88768
G1 X89.118 Y62.153 E28.9085
G1 X89.496 Y61.971 E28.92937
G1 X89.9 Y61.865 E28.95016
G1 X90.252 Y61.837 E28.96773
G1 X94.748 Y61.837 E29.19148
G1 X95.165 Y61.877 E29.21233
G1 X95.566 Y61.995 E29.23313
G1 X95.938 Y62.188 E29.25398
G1 X96.218 Y62.402 E29.27152
G1 X96.33 Y62.503 E29.27903
G1 X96.613 Y62.812 E29.29988
G1 X96.832 Y63.168 E29.32068
G1 X96.979 Y63.56 E29.34151
G1 X97.04 Y63.879 E29.35768
G1 X98.295 Y74.658 E29.89772
G1 X98.304 Y75.077 E29.91858
G1 X98.249 Y75.427 E29.93621
G1 X97.194 Y79.794 E30.15979
G1 X96.548 Y84.372 E30.38987
G1 X96.815 Y84.449 E30.4037
G1 X97.188 Y84.639 E30.42453
G1 X97.562 Y84.939 E30.44839
G1 X97.679 Y85.056 E30.45663
G1 X97.946 Y85.379 E30.47748
G1 X98.146 Y85.746 E30.49828
G1 X98.273 Y86.145 E30.51912
G1 X98.322 Y86.609 E30.54234
G1 X98.315 Y111.048 E31.75856
G1 X98.275 Y111.464 E31.77936
G1 X98.179 Y111.808 E31.79713
G1 X96.971 Y115.076 E31.97052
G1 X96.97 Y120.851 E32.25791
G1 X96.93 Y121.268 E32.27876
G1 X96.812 Y121.67 E32.29961
G1 X96.619 Y122.041 E32.32042
G1 X96.327 Y122.403 E32.34357
G1 X96.21 Y122.52 E32.3518
G1 X95.887 Y122.787 E32.37266
G1 X95.52 Y122.987 E32.39346
G1 X95.121 Y123.114 E32.4143
G1 X94.658 Y123.163 E32.43747
G1 X90.342 Y123.163 E32.65225
G1 X89.925 Y123.123 E32.6731
G1 X89.524 Y123.005 E32.6939
G1 X89.152 Y122.812 E32.71476
G1 X88.79 Y122.52 E32.73791
G1 X88.673 Y122.403 E32.74614
G1 X88.406 Y122.08 E32.76699
G1 X88.206 Y121.713 E32.78779
G1 X88.079 Y121.314 E32.80863
G1 X88.03 Y120.851 E32.8318
G1 X88.029 Y115.074 E33.1193
G1 X86.814 Y111.771 E33.29444
G1 X86.708 Y111.366 E33.31528
G1 X86.679 Y111.013 E33.3329
G1 X86.678 Y86.617 E34.54698
G1 X86.718 Y86.2 E34.56783
G1 X86.836 Y85.799 E34.58863
G1 X87.028 Y85.427 E34.60946
G1 X87.321 Y85.065 E34.63264
G1 X87.438 Y84.948 E34.64087
G1 X87.761 Y84.681 E34.66173
G1 X88.128 Y84.481 E34.68253
G1 X88.452 Y84.378 E34.69945
G1 X87.804 Y79.793 E34.92989
G1 X86.748 Y75.387 E35.15537
G1 X86.69 Y74.973 E35.17617
G1 X86.703 Y74.621 E35.1937
G1 X87.96 Y63.878 E35.73198
G1 X88.048 Y63.469 E35.7528
G1 X88.212 Y63.084 E35.77362
G1 X88.446 Y62.737 E35.79445
G1 X88.67 Y62.503 E35.81057
M204 S5000
G0 F2400 X89.049 Y62.698
M204 S200
G1 F1200 X89.355 Y62.476 E35.82939
G1 X89.702 Y62.322 E35.84828
G1 X90.252 Y62.236 E35.87598
G1 X94.748 Y62.236 E36.09973
G1 X95.124 Y62.276 E36.11855
G1 X95.484 Y62.394 E36.1374
G1 X95.951 Y62.698 E36.16513
G1 X96.063 Y62.799 E36.17264
G1 X96.316 Y63.081 E36.19149
G1 X96.504 Y63.409 E36.2103
G1 X96.644 Y63.925 E36.23691
G1 X97.899 Y74.704 E36.77696
G1 X97.903 Y75.083 E36.79582
G1 X97.861 Y75.334 E36.80848
G1 X96.802 Y79.719 E37.03298
G1 X96.098 Y84.705 E37.28357
G1 X96.375 Y84.732 E37.29742
G1 X96.735 Y84.848 E37.31624
G1 X97.064 Y85.036 E37.3351
G1 X97.28 Y85.221 E37.34925
G1 X97.397 Y85.338 E37.35749
G1 X97.635 Y85.632 E37.37631
G1 X97.806 Y85.97 E37.39516
G1 X97.902 Y86.336 E37.41399
G1 X97.923 Y86.609 E37.42762
G1 X97.916 Y111.048 E38.64384
G1 X97.876 Y111.424 E38.66266
G1 X97.805 Y111.67 E38.6754
G1 X96.572 Y115.006 E38.85239
G1 X96.571 Y120.851 E39.14327
G1 X96.531 Y121.228 E39.16214
G1 X96.413 Y121.587 E39.18094
G1 X96.222 Y121.914 E39.19979
G1 X96.045 Y122.121 E39.21334
G1 X95.928 Y122.238 E39.22158
G1 X95.634 Y122.476 E39.2404
G1 X95.296 Y122.647 E39.25925
G1 X94.93 Y122.743 E39.27808
G1 X94.658 Y122.764 E39.29166
G1 X90.342 Y122.764 E39.50645
G1 X89.966 Y122.724 E39.52527
G1 X89.606 Y122.606 E39.54412
G1 X89.279 Y122.416 E39.56294
G1 X89.072 Y122.238 E39.57653
G1 X88.955 Y122.121 E39.58476
G1 X88.717 Y121.827 E39.60359
G1 X88.546 Y121.489 E39.62244
G1 X88.45 Y121.123 E39.64127
G1 X88.429 Y120.851 E39.65484
G1 X88.428 Y115.004 E39.94582
G1 X87.188 Y111.633 E40.12457
G1 X87.096 Y111.266 E40.1434
G1 X87.078 Y111.013 E40.15602
G1 X87.077 Y86.617 E41.3701
G1 X87.117 Y86.241 E41.38892
G1 X87.235 Y85.881 E41.40777
G1 X87.425 Y85.554 E41.42659
G1 X87.603 Y85.347 E41.44018
G1 X87.72 Y85.23 E41.44841
G1 X88.014 Y84.992 E41.46724
G1 X88.352 Y84.821 E41.48609
G1 X88.718 Y84.725 E41.50492
G1 X88.902 Y84.711 E41.5141
G1 X88.196 Y79.718 E41.76505
G1 X87.136 Y75.294 E41.99145
G1 X87.088 Y74.919 E42.01026
G1 X87.099 Y74.667 E42.02281
G1 X88.356 Y63.924 E42.56109
G1 X88.44 Y63.555 E42.57992
G1 X88.598 Y63.211 E42.59876
G1 X88.937 Y62.799 E42.62532
G1 X89.049 Y62.698 E42.63282
M204 S5000
G0 F2400 X89.316 Y62.995
M204 S200
G1 F1200 X89.589 Y62.802 E42.64946
G1 X89.9 Y62.68 E42.66608
G1 X90.252 Y62.635 E42.68374
G1 X94.748 Y62.635 E42.90749
G1 X95.079 Y62.675 E42.92408
G1 X95.392 Y62.792 E42.94071
G1 X95.684 Y62.995 E42.95841
G1 X95.796 Y63.096 E42.96591
G1 X96.015 Y63.347 E42.98249
G1 X96.168 Y63.643 E42.99907
G1 X96.248 Y63.971 E43.01588
G1 X97.503 Y74.75 E43.55592
G1 X97.473 Y75.24 E43.58035
G1 X96.41 Y79.641 E43.80567
G1 X95.64 Y85.096 E44.07983
G1 X96.001 Y85.094 E44.0978
G1 X96.332 Y85.132 E44.11438
G1 X96.646 Y85.247 E44.13102
G1 X96.998 Y85.503 E44.15268
G1 X97.115 Y85.62 E44.16091
G1 X97.321 Y85.883 E44.17754
G1 X97.459 Y86.186 E44.19411
G1 X97.524 Y86.608 E44.21536
G1 X97.517 Y111.047 E45.43157
G1 X97.43 Y111.531 E45.45605
G1 X96.173 Y114.932 E45.63649
G1 X96.172 Y120.851 E45.93105
G1 X96.132 Y121.183 E45.94769
G1 X96.015 Y121.495 E45.96428
G1 X95.763 Y121.839 E45.9855
G1 X95.646 Y121.956 E45.99373
G1 X95.383 Y122.162 E46.01036
G1 X95.08 Y122.3 E46.02693
G1 X94.658 Y122.365 E46.04817
G1 X90.342 Y122.365 E46.26296
G1 X90.011 Y122.325 E46.27955
G1 X89.698 Y122.208 E46.29618
G1 X89.354 Y121.956 E46.3174
G1 X89.237 Y121.839 E46.32564
G1 X89.031 Y121.576 E46.34226
G1 X88.893 Y121.273 E46.35883
G1 X88.828 Y120.851 E46.38008
G1 X88.827 Y114.931 E46.67469
G1 X87.563 Y111.495 E46.85689
G1 X87.477 Y111.013 E46.88126
G1 X87.476 Y86.617 E48.09534
G1 X87.516 Y86.286 E48.11193
G1 X87.633 Y85.973 E48.12856
G1 X87.885 Y85.629 E48.14978
G1 X88.002 Y85.512 E48.15801
G1 X88.265 Y85.306 E48.17464
G1 X88.568 Y85.168 E48.19121
G1 X88.99 Y85.103 E48.21246
G1 X89.36 Y85.103 E48.23087
G1 X88.589 Y79.645 E48.50519
G1 X87.524 Y75.202 E48.73256
G1 X87.495 Y74.714 E48.75689
G1 X88.752 Y63.971 E49.29516
G1 X88.831 Y63.646 E49.31181
G1 X88.983 Y63.35 E49.32837
G1 X89.204 Y63.096 E49.34512
G1 X89.316 Y62.995 E49.35263
M204 S5000
G0 F2400 X89.472 Y63.392
M204 S200
G1 F1200 X89.584 Y63.291 E49.36013
G1 X89.818 Y63.134 E49.37416
G1 X90.086 Y63.048 E49.38816
