;FLAVOR:Marlin
;TIME:875
;Filament used: 0.679988m
;Layer height: 0.2
;Generated with Cura_SteamEngine 2.7.0
M190 S60
M104 S220
M109 S220
G21 ;metric values
G90 ;absolute positioning
M82 ;set extruder to absolute mode
M107 ;start with the fan off
G92 E0 ;zero the extruded length
G1 F200 E3 ;extrude 3mm of feed stock
G92 E0 ;zero the extruded length again
G1 F9000
M117 Printing...
;LAYER_COUNT:80
;LAYER:0
M107
M204 S5000
G0 F2400 X43.858 Y87.044 Z0.3
M204 S200
;TYPE:SKIRT
G1 F1200 X44.375 Y86.856 E0.02738
G1 X44.914 Y86.744 E0.05477
G1 X45.516 Y86.714 E0.08477
G1 X143.06 Y89.476 E4.94104
G1 X143.608 Y89.531 E4.96845
G1 X144.142 Y89.665 E4.99585
G1 X144.65 Y89.875 E5.0232
G1 X145.123 Y90.157 E5.05061
G1 X145.55 Y90.504 E5.07799
G1 X145.821 Y90.785 E5.09742
G1 X145.936 Y90.918 E5.10617
G1 X146.264 Y91.36 E5.13356
G1 X146.526 Y91.844 E5.16095
G1 X146.714 Y92.361 E5.18832
G1 X146.826 Y92.9 E5.21572
G1 X146.859 Y93.449 E5.24309
G1 X146.831 Y93.856 E5.26339
G1 X146.705 Y94.892 E5.31533
G1 X146.599 Y95.432 E5.34272
G1 X146.416 Y95.951 E5.3701
G1 X146.16 Y96.438 E5.39748
G1 X145.836 Y96.883 E5.42488
G1 X145.467 Y97.262 E5.4512
G1 X145.355 Y97.362 E5.45867
G1 X144.919 Y97.698 E5.48607
G1 X144.439 Y97.967 E5.51345
G1 X143.925 Y98.163 E5.54083
G1 X143.388 Y98.284 E5.56822
G1 X142.831 Y98.325 E5.59601
G1 X44.949 Y98.338 E10.46716
G1 X44.4 Y98.298 E10.49455
G1 X43.862 Y98.179 E10.52197
G1 X43.348 Y97.984 E10.54933
G1 X42.867 Y97.716 E10.57673
G1 X42.43 Y97.381 E10.60414
G1 X42.103 Y97.052 E10.62722
G1 X41.985 Y96.918 E10.63611
G1 X41.652 Y96.48 E10.66349
G1 X41.386 Y95.998 E10.69088
G1 X41.193 Y95.483 E10.71825
G1 X41.077 Y94.945 E10.74564
G1 X41.039 Y94.396 E10.77303
G1 X41.067 Y93.957 E10.79492
G1 X41.529 Y90.148 E10.98587
G1 X41.634 Y89.607 E11.01329
G1 X41.817 Y89.088 E11.04068
G1 X42.073 Y88.601 E11.06806
G1 X42.397 Y88.156 E11.09545
G1 X42.815 Y87.734 E11.12501
G1 X42.932 Y87.633 E11.13271
G1 X43.373 Y87.305 E11.16006
G1 X43.858 Y87.044 E11.18747
M204 S5000
G0 F2400 X44.073 Y87.385
M204 S200
G1 F1200 X44.566 Y87.218 E11.21337
G1 X45.078 Y87.127 E11.23925
G1 X45.505 Y87.112 E11.26051
G1 X143.049 Y89.874 E16.11678
G1 X143.567 Y89.929 E16.1427
G1 X144.07 Y90.062 E16.1686
G1 X144.547 Y90.271 E16.19451
G1 X144.986 Y90.55 E16.2204
G1 X145.519 Y91.046 E16.25663
G1 X145.634 Y91.179 E16.26538
G1 X145.943 Y91.598 E16.29129
G1 X146.185 Y92.059 E16.3172
G1 X146.353 Y92.552 E16.34312
G1 X146.444 Y93.064 E16.369
G1 X146.435 Y93.808 E16.40603
G1 X146.309 Y94.844 E16.45797
G1 X146.207 Y95.354 E16.48385
G1 X146.028 Y95.843 E16.50976
G1 X145.776 Y96.298 E16.53565
G1 X145.457 Y96.71 E16.56158
G1 X145.201 Y96.964 E16.57953
G1 X145.089 Y97.064 E16.587
G1 X144.675 Y97.38 E16.61292
G1 X144.218 Y97.629 E16.63882
G1 X143.728 Y97.805 E16.66473
G1 X143.217 Y97.904 E16.69063
G1 X142.83 Y97.926 E16.70992
G1 X44.948 Y97.939 E21.58106
G1 X44.429 Y97.899 E21.60697
G1 X43.923 Y97.78 E21.63284
G1 X43.44 Y97.585 E21.65876
G1 X42.993 Y97.319 E21.68465
G1 X42.592 Y96.987 E21.71055
G1 X42.402 Y96.789 E21.72421
G1 X42.284 Y96.655 E21.7331
G1 X41.971 Y96.239 E21.759
G1 X41.726 Y95.78 E21.7849
G1 X41.553 Y95.289 E21.8108
G1 X41.458 Y94.777 E21.83672
G1 X41.463 Y94.005 E21.87514
G1 X41.925 Y90.196 E22.06608
G1 X42.027 Y89.685 E22.09202
G1 X42.206 Y89.196 E22.11793
G1 X42.458 Y88.741 E22.14381
G1 X42.776 Y88.329 E22.16972
G1 X43.075 Y88.036 E22.19055
G1 X43.192 Y87.935 E22.19824
G1 X43.611 Y87.626 E22.22415
G1 X44.073 Y87.385 E22.25008
M204 S5000
G0 F2400 X44.285 Y87.729
M204 S200
G1 F1200 X44.751 Y87.583 E22.27438
G1 X45.236 Y87.515 E22.29876
G1 X45.494 Y87.511 E22.3116
G1 X143.038 Y90.273 E27.16787
G1 X143.524 Y90.327 E27.1922
G1 X143.994 Y90.459 E27.2165
G1 X144.437 Y90.666 E27.24083
G1 X144.841 Y90.942 E27.26518
G1 X145.217 Y91.307 E27.29126
G1 X145.332 Y91.44 E27.30001
G1 X145.621 Y91.835 E27.32436
G1 X145.841 Y92.272 E27.34871
G1 X145.987 Y92.738 E27.37301
G1 X146.056 Y93.222 E27.39734
G1 X146.039 Y93.759 E27.42408
G1 X145.913 Y94.795 E27.47602
G1 X145.815 Y95.274 E27.50035
G1 X145.64 Y95.731 E27.5247
G1 X145.392 Y96.153 E27.54906
G1 X144.935 Y96.667 E27.58329
G1 X144.823 Y96.767 E27.59076
G1 X144.433 Y97.061 E27.61507
G1 X144 Y97.289 E27.63942
G1 X143.536 Y97.442 E27.66374
G1 X142.83 Y97.527 E27.69912
G1 X44.948 Y97.54 E32.57027
G1 X44.461 Y97.5 E32.59459
G1 X43.987 Y97.381 E32.61891
G1 X43.538 Y97.187 E32.64325
G1 X43.127 Y96.922 E32.66758
G1 X42.702 Y96.525 E32.69653
G1 X42.584 Y96.391 E32.70541
G1 X42.292 Y95.999 E32.72974
G1 X42.067 Y95.565 E32.75407
G1 X41.917 Y95.099 E32.77843
G1 X41.844 Y94.616 E32.80274
G1 X41.859 Y94.053 E32.83077
G1 X42.321 Y90.244 E33.02171
G1 X42.419 Y89.765 E33.04604
G1 X42.594 Y89.308 E33.0704
G1 X42.841 Y88.886 E33.09473
G1 X43.153 Y88.51 E33.11905
G1 X43.336 Y88.338 E33.13154
G1 X43.453 Y88.237 E33.13924
G1 X43.848 Y87.949 E33.16356
G1 X44.285 Y87.729 E33.18791
M204 S5000
G0 F2400 X44.493 Y88.076
M204 S200
G1 F1200 X44.932 Y87.953 E33.2106
G1 X45.482 Y87.91 E33.23805
G1 X143.026 Y90.672 E38.09432
G1 X143.478 Y90.725 E38.11697
G1 X143.914 Y90.856 E38.13963
G1 X144.321 Y91.061 E38.16231
G1 X144.685 Y91.334 E38.18495
G1 X144.915 Y91.568 E38.20128
G1 X145.03 Y91.701 E38.21003
G1 X145.297 Y92.07 E38.23269
G1 X145.494 Y92.48 E38.25533
G1 X145.617 Y92.918 E38.27797
G1 X145.662 Y93.371 E38.30063
G1 X145.643 Y93.711 E38.31757
G1 X145.517 Y94.747 E38.36951
G1 X145.423 Y95.192 E38.39214
G1 X145.252 Y95.614 E38.4148
G1 X145.01 Y96 E38.43748
G1 X144.67 Y96.369 E38.46245
G1 X144.558 Y96.469 E38.46992
G1 X144.193 Y96.741 E38.49257
G1 X143.786 Y96.945 E38.51523
G1 X143.35 Y97.075 E38.53787
G1 X142.83 Y97.128 E38.56388
G1 X44.948 Y97.141 E43.43503
G1 X44.495 Y97.101 E43.45766
G1 X44.056 Y96.983 E43.48028
G1 X43.644 Y96.789 E43.50294
G1 X43.272 Y96.527 E43.52559
G1 X43.001 Y96.261 E43.54448
G1 X42.883 Y96.127 E43.55337
G1 X42.614 Y95.761 E43.57598
G1 X42.412 Y95.353 E43.59863
G1 X42.285 Y94.916 E43.62128
G1 X42.236 Y94.463 E43.64395
G1 X42.255 Y94.101 E43.66199
G1 X42.717 Y90.292 E43.85294
G1 X42.811 Y89.846 E43.87562
G1 X42.982 Y89.424 E43.89828
G1 X43.223 Y89.039 E43.92089
G1 X43.597 Y88.64 E43.9481
G1 X43.714 Y88.539 E43.95579
G1 X44.083 Y88.273 E43.97843
G1 X44.493 Y88.076 E44.00107
M204 S5000
G0 F2400 X43.975 Y88.841
M204 S200
G1 F1200 X44.316 Y88.599 E44.02188
G1 X44.697 Y88.427 E44.04268
G1 X45.104 Y88.329 E44.06351
G1 X45.471 Y88.309 E44.08181
G1 X143.015 Y91.071 E48.93807
G1 X143.43 Y91.123 E48.95889
G1 X143.828 Y91.252 E48.97971
G1 X144.195 Y91.455 E49.00058
G1 X144.613 Y91.829 E49.02849
G1 X144.728 Y91.962 E49.03724
G1 X144.971 Y92.304 E49.05812
G1 X145.144 Y92.685 E49.07895
G1 X145.242 Y93.092 E49.09978
G1 X145.247 Y93.663 E49.1282
G1 X145.121 Y94.699 E49.18013
G1 X145.031 Y95.108 E49.20098
G1 X144.865 Y95.492 E49.22179
G1 X144.629 Y95.838 E49.24264
G1 X144.404 Y96.071 E49.25876
G1 X144.292 Y96.171 E49.26623
G1 X143.955 Y96.419 E49.28705
G1 X143.576 Y96.598 E49.30791
G1 X143.171 Y96.702 E49.32872
G1 X142.83 Y96.729 E49.34574
G1 X44.948 Y96.742 E54.21689
G1 X44.532 Y96.702 E54.23769
G1 X44.13 Y96.584 E54.25853
G1 X43.758 Y96.392 E54.27937
G1 X43.301 Y95.998 E54.3094
G1 X43.183 Y95.864 E54.31828
G1 X42.937 Y95.525 E54.33913
G1 X42.761 Y95.145 E54.35997
G1 X42.659 Y94.739 E54.3808
G1 X42.651 Y94.149 E54.41016
G1 X43.113 Y90.34 E54.60111
G1 X43.203 Y89.931 E54.62195
G1 X43.369 Y89.547 E54.64277
G1 X43.604 Y89.201 E54.66359
G1 X43.858 Y88.942 E54.68164
G1 X43.975 Y88.841 E54.68933
M204 S5000
G0 F2400 X44.235 Y89.143
M204 S200
G1 F1200 X44.546 Y88.928 E54.70815
G1 X44.896 Y88.782 E54.72702
G1 X45.268 Y88.713 E54.74585
G1 X45.46 Y88.708 E54.7554
G1 X143.004 Y91.47 E59.61167
G1 X143.379 Y91.52 E59.6305
G1 X143.735 Y91.648 E59.64933
G1 X144.057 Y91.848 E59.66819
G1 X144.312 Y92.09 E59.68569
G1 X144.427 Y92.223 E59.69444
G1 X144.643 Y92.534 E59.71328
G1 X144.789 Y92.883 E59.73211
G1 X144.858 Y93.255 E59.75094
G1 X144.851 Y93.615 E59.76886
G1 X144.725 Y94.651 E59.82079
G1 X144.64 Y95.02 E59.83964
G1 X144.479 Y95.363 E59.85849
G1 X144.138 Y95.774 E59.88507
G1 X144.026 Y95.874 E59.89254
G1 X143.719 Y96.095 E59.91137
G1 X143.372 Y96.246 E59.9302
G1 X142.83 Y96.33 E59.95749
G1 X44.948 Y96.343 E64.82864
G1 X44.572 Y96.303 E64.84746
G1 X44.212 Y96.185 E64.86631
G1 X43.885 Y95.995 E64.88513
G1 X43.6 Y95.734 E64.90436
G1 X43.482 Y95.6 E64.91325
G1 X43.263 Y95.291 E64.9321
G1 X43.114 Y94.943 E64.95094
G1 X43.041 Y94.572 E64.96975
G1 X43.047 Y94.197 E64.98842
G1 X43.509 Y90.388 E65.17936
G1 X43.594 Y90.019 E65.19821
G1 X43.754 Y89.676 E65.21704
G1 X44.118 Y89.244 E65.24516
G1 X44.235 Y89.143 E65.25285
M204 S5000
G0 F2400 X44.496 Y89.446
M204 S200
G1 F1200 X44.773 Y89.259 E65.26948
G1 X45.086 Y89.144 E65.28607
G1 X45.449 Y89.107 E65.30423
G1 X142.993 Y91.869 E70.1605
G1 X143.323 Y91.918 E70.1771
G1 X143.632 Y92.044 E70.19371
G1 X144.01 Y92.351 E70.21795
G1 X144.125 Y92.484 E70.2267
G1 X144.311 Y92.761 E70.2433
G1 X144.427 Y93.074 E70.25991
G1 X144.455 Y93.567 E70.28449
G1 X144.329 Y94.603 E70.33642
G1 X144.249 Y94.927 E70.35303
G1 X144.095 Y95.223 E70.36964
G1 X143.872 Y95.476 E70.38642
G1 X143.76 Y95.576 E70.39389
G1 X143.487 Y95.767 E70.41047
G1 X143.176 Y95.888 E70.42708
G1 X142.83 Y95.931 E70.44443
G1 X44.948 Y95.944 E75.31558
G1 X44.617 Y95.904 E75.33217
G1 X44.304 Y95.787 E75.3488
G1 X44.029 Y95.599 E75.36537
G1 X43.9 Y95.47 E75.37445
G1 X43.782 Y95.336 E75.38334
G1 X43.593 Y95.061 E75.39995
G1 X43.474 Y94.749 E75.41656
G1 X43.433 Y94.418 E75.43316
G1 X43.443 Y94.245 E75.44179
G1 X43.905 Y90.436 E75.63273
G1 X43.985 Y90.112 E75.64934
G1 X44.139 Y89.816 E75.66594
G1 X44.379 Y89.547 E75.68389
G1 X44.496 Y89.446 E75.69158
M204 S5000
G0 F2400 X44.64 Y89.849
M204 S200
G1 F1200 X44.757 Y89.748 E75.69927
G1 X44.994 Y89.595 E75.71331
G1 X45.264 Y89.516 E75.72731
G1 X45.437 Y89.505 E75.73593
G1 X142.981 Y92.267 E80.5922
G1 X143.259 Y92.315 E80.60624
G1 X143.512 Y92.439 E80.62026
G1 X143.708 Y92.612 E80.63327
G1 X143.823 Y92.745 E80.64202
G1 X143.975 Y92.982 E80.65604
G1 X144.055 Y93.253 E80.6701
G1 X144.059 Y93.518 E80.68329
G1 X143.933 Y94.554 E80.73522
G1 X143.86 Y94.827 E80.74929
G1 X143.713 Y95.068 E80.76334
G1 X143.607 Y95.178 E80.77094
G1 X143.495 Y95.278 E80.77841
G1 X143.26 Y95.435 E80.79248
G1 X142.991 Y95.519 E80.8065
G1 X142.83 Y95.532 E80.81454
G1 X44.948 Y95.545 E85.68568
G1 X44.669 Y95.505 E85.69971
G1 X44.412 Y95.389 E85.71374
G1 X44.199 Y95.207 E85.72768
G1 X44.081 Y95.073 E85.73657
G1 X43.926 Y94.837 E85.75062
G1 X43.844 Y94.567 E85.76466
G1 X43.839 Y94.293 E85.7783
G1 X44.301 Y90.484 E85.96925
G1 X44.374 Y90.212 E85.98326
G1 X44.521 Y89.971 E85.99731
G1 X44.64 Y89.849 E86.00579
M204 S5000
G0 F2400 X44.901 Y90.151
M204 S200
G1 F1200 X45.018 Y90.05 E86.01348
G1 X45.206 Y89.94 E86.02432
G1 X45.426 Y89.904 E86.03542
G1 X142.97 Y92.666 E90.89169
G1 X143.183 Y92.712 E90.90253
G1 X143.406 Y92.873 E90.91622
G1 X143.521 Y93.006 E90.92497
G1 X143.631 Y93.194 E90.93581
G1 X143.663 Y93.47 E90.94964
G1 X143.537 Y94.506 E91.00157
G1 X143.471 Y94.714 E91.01243
G1 X143.341 Y94.881 E91.02297
G1 X143.229 Y94.981 E91.03044
G1 X143.043 Y95.094 E91.04127
G1 X142.83 Y95.133 E91.05204
G1 X44.948 Y95.146 E95.92319
G1 X44.734 Y95.106 E95.93402
G1 X44.498 Y94.943 E95.9483
G1 X44.38 Y94.809 E95.95718
G1 X44.269 Y94.622 E95.968
G1 X44.235 Y94.341 E95.98209
G1 X44.697 Y90.532 E96.17304
G1 X44.763 Y90.324 E96.1839
G1 X44.901 Y90.151 E96.19491
M204 S5000
G0 F2400 X45.161 Y90.453
M204 S200
G1 F1200 X45.278 Y90.352 E96.2026
G1 X45.415 Y90.303 E96.20984
G1 X142.959 Y93.065 E101.06611
G1 X143.104 Y93.134 E101.0741
G1 X143.219 Y93.267 E101.08285
G1 X143.267 Y93.422 E101.09093
G1 X143.141 Y94.458 E101.14287
G1 X143.075 Y94.583 E101.1499
G1 X142.963 Y94.683 E101.15737
G1 X142.83 Y94.734 E101.16446
G1 X44.948 Y94.747 E106.03561
G1 X44.798 Y94.679 E106.0438
G1 X44.68 Y94.545 E106.05269
G1 X44.631 Y94.389 E106.06082
G1 X45.093 Y90.58 E106.25177
G1 X45.161 Y90.453 E106.25894
M204 S5000
G0 F2400 X45.48 Y90.704
M204 S200
;TYPE:WALL-OUTER
G1 F1200 X142.643 Y93.455 E111.09624
G1 X142.86 Y93.461 E111.10704
G1 X142.834 Y93.677 E111.11387
G1 X142.754 Y94.335 E111.14685
G1 X45.263 Y94.348 E115.99854
G1 X45.262 Y94.348 E115.99859
G1 X45.038 Y94.348 E116.00974
G1 X45.065 Y94.125 E116.01674
G1 X45.48 Y90.704 E116.18823
M204 S5000
G0 F2400 X45.679 Y90.709
G0 X45.896 Y91.187
G0 X45.612 Y93.74
G0 X45.514 Y93.727
M204 S200
;TYPE:WALL-INNER
G1 F1200 X45.831 Y91.112 E116.31932
G1 X131.555 Y93.54 E120.58713
G1 X142.412 Y93.847 E121.12765
G1 X142.401 Y93.937 E121.13216
G1 X131.539 Y93.938 E121.46365
G1 X45.712 Y93.95 E125.73487
G1 X45.711 Y93.95 E125.73492
G1 X45.487 Y93.95 E125.74607
G1 X45.514 Y93.727 E125.75307
M204 S5000
G0 F2400 X45.753 Y93.717
G1 F1200 X46.066 Y93.465 E125.77803
M204 S200
;TYPE:SKIN
G1 X45.693 Y93.092
M204 S5000
G0 F2400 X45.824 Y92.659
M204 S200
G1 F1200 X46.933 Y93.768 E125.85608
G1 X47.003 Y93.838
M204 S5000
G0 F2400 X47.497 Y93.768
M204 S200
G1 F1200 X45.885 Y92.155 E125.96957
G1 X45.816 Y92.085
M204 S5000
G0 F2400 X45.946 Y91.652
M204 S200
G1 F1200 X48.062 Y93.768 E126.11849
G1 X48.132 Y93.838
M204 S5000
G0 F2400 X48.626 Y93.768
M204 S200
G1 F1200 X46.159 Y91.3 E126.29215
G1 X46.089 Y91.23
M204 S5000
G0 F2400 X46.74 Y91.317
M204 S200
G1 F1200 X49.19 Y93.768 E126.46461
G1 X49.26 Y93.838
M204 S5000
G0 F2400 X49.754 Y93.768
M204 S200
G1 F1200 X47.321 Y91.334 E126.63588
G1 X47.252 Y91.264
M204 S5000
G0 F2400 X47.901 Y91.35
M204 S200
G1 F1200 X50.319 Y93.768 E126.80605
G1 X50.389 Y93.838
M204 S5000
G0 F2400 X50.883 Y93.768
M204 S200
G1 F1200 X48.482 Y91.366 E126.97507
G1 X48.413 Y91.296
M204 S5000
G0 F2400 X49.063 Y91.383
M204 S200
G1 F1200 X51.446 Y93.767 E127.14282
G1 X51.516 Y93.837
M204 S5000
G0 F2400 X52.011 Y93.767
M204 S200
G1 F1200 X49.643 Y91.399 E127.30948
G1 X49.573 Y91.329
M204 S5000
G0 F2400 X50.224 Y91.416
M204 S200
G1 F1200 X52.575 Y93.767 E127.47494
G1 X52.645 Y93.837
M204 S5000
G0 F2400 X53.139 Y93.767
M204 S200
G1 F1200 X50.804 Y91.432 E127.63927
G1 X50.734 Y91.362
M204 S5000
G0 F2400 X51.386 Y91.449
M204 S200
G1 F1200 X53.704 Y93.767 E127.80241
G1 X53.774 Y93.837
M204 S5000
G0 F2400 X54.268 Y93.767
M204 S200
G1 F1200 X51.966 Y91.465 E127.96442
G1 X51.896 Y91.395
M204 S5000
G0 F2400 X52.547 Y91.481
M204 S200
G1 F1200 X54.832 Y93.767 E128.12527
G1 X54.901 Y93.837
M204 S5000
G0 F2400 X55.396 Y93.767
M204 S200
G1 F1200 X53.127 Y91.498 E128.28496
G1 X53.057 Y91.428
M204 S5000
G0 F2400 X53.709 Y91.515
M204 S200
G1 F1200 X55.961 Y93.767 E128.44346
G1 X56.031 Y93.837
M204 S5000
G0 F2400 X56.525 Y93.767
M204 S200
G1 F1200 X54.289 Y91.531 E128.60083
G1 X54.219 Y91.461
M204 S5000
G0 F2400 X54.87 Y91.547
M204 S200
G1 F1200 X57.089 Y93.767 E128.75703
G1 X57.159 Y93.837
M204 S5000
G0 F2400 X57.653 Y93.766
M204 S200
G1 F1200 X55.451 Y91.564 E128.91201
G1 X55.381 Y91.494
M204 S5000
G0 F2400 X56.031 Y91.58
M204 S200
G1 F1200 X58.217 Y93.766 E129.06585
G1 X58.287 Y93.836
M204 S5000
G0 F2400 X58.781 Y93.766
M204 S200
G1 F1200 X56.612 Y91.597 E129.21851
G1 X56.542 Y91.527
M204 S5000
G0 F2400 X57.192 Y91.613
M204 S200
G1 F1200 X59.346 Y93.766 E129.37007
G1 X59.416 Y93.835
M204 S5000
G0 F2400 X59.91 Y93.766
M204 S200
G1 F1200 X57.774 Y91.63 E129.5204
G1 X57.704 Y91.56
M204 S5000
G0 F2400 X58.354 Y91.646
M204 S200
G1 F1200 X60.474 Y93.766 E129.6696
G1 X60.544 Y93.836
M204 S5000
G0 F2400 X61.038 Y93.766
M204 S200
G1 F1200 X58.935 Y91.662 E129.81764
G1 X58.865 Y91.592
M204 S5000
G0 F2400 X59.515 Y91.679
M204 S200
G1 F1200 X61.603 Y93.766 E129.96456
G1 X61.673 Y93.835
M204 S5000
G0 F2400 X62.167 Y93.766
M204 S200
G1 F1200 X60.097 Y91.696 E130.11024
G1 X60.027 Y91.626
M204 S5000
G0 F2400 X60.677 Y91.712
M204 S200
G1 F1200 X62.731 Y93.766 E130.2548
G1 X62.801 Y93.836
M204 S5000
G0 F2400 X63.295 Y93.765
M204 S200
G1 F1200 X61.258 Y91.728 E130.39816
G1 X61.188 Y91.658
M204 S5000
G0 F2400 X61.838 Y91.744
M204 S200
G1 F1200 X63.859 Y93.765 E130.5404
G1 X63.929 Y93.835
M204 S5000
G0 F2400 X64.423 Y93.765
M204 S200
G1 F1200 X62.419 Y91.761 E130.68144
G1 X62.349 Y91.691
M204 S5000
G0 F2400 X63 Y91.778
M204 S200
G1 F1200 X64.988 Y93.765 E130.82132
G1 X65.058 Y93.835
