;FLAVOR:Marlin
;TIME:1177
;Filament used: 0.942672m
;Layer height: 0.2
;Generated with Cura_SteamEngine 2.7.0
M190 S60
M104 S220
M109 S220
G21 ;metric values
G90 ;absolute positioning
M82 ;set extruder to absolute mode
M107 ;start with the fan off
G92 E0 ;zero the extruded length
G1 F200 E3 ;extrude 3mm of feed stock
G92 E0 ;zero the extruded length again
G1 F9000
M117 Printing...
;LAYER_COUNT:45
;LAYER:0
M107
M204 S5000
G0 F2400 X41.286 Y86.303 Z0.3
M204 S200
;TYPE:SKIRT
G1 F1200 X41.805 Y86.119 E0.0274
G1 X42.344 Y86.012 E0.05475
G1 X42.808 Y85.984 E0.07788
G1 X140.69 Y85.997 E4.94903
G1 X141.238 Y86.037 E4.97637
G1 X141.776 Y86.156 E5.00379
G1 X142.29 Y86.352 E5.03117
G1 X142.771 Y86.62 E5.05857
G1 X143.214 Y86.96 E5.08636
G1 X143.326 Y87.06 E5.09383
G1 X143.709 Y87.456 E5.12125
G1 X144.03 Y87.902 E5.1486
G1 X144.284 Y88.391 E5.17602
G1 X144.464 Y88.911 E5.2034
G1 X144.564 Y89.428 E5.22961
G1 X144.703 Y90.564 E5.28656
G1 X144.73 Y91.113 E5.31392
G1 X144.677 Y91.661 E5.34132
G1 X144.545 Y92.195 E5.36869
G1 X144.338 Y92.705 E5.39608
G1 X144.059 Y93.179 E5.42346
G1 X143.818 Y93.491 E5.44308
G1 X143.704 Y93.624 E5.45179
G1 X143.317 Y94.015 E5.47917
G1 X142.877 Y94.345 E5.50654
G1 X142.394 Y94.609 E5.53393
G1 X141.877 Y94.799 E5.56135
G1 X141.339 Y94.913 E5.58871
G1 X140.933 Y94.946 E5.60899
G1 X43.386 Y97.704 E10.4654
G1 X42.836 Y97.68 E10.4928
G1 X42.296 Y97.576 E10.52016
G1 X41.776 Y97.395 E10.54756
G1 X41.288 Y97.141 E10.57494
G1 X40.802 Y96.785 E10.60492
G1 X40.685 Y96.684 E10.61261
G1 X40.295 Y96.295 E10.64003
G1 X39.966 Y95.854 E10.66741
G1 X39.705 Y95.369 E10.69482
G1 X39.516 Y94.852 E10.72221
G1 X39.399 Y94.27 E10.75175
G1 X38.926 Y90.365 E10.94751
G1 X38.899 Y89.815 E10.97491
G1 X38.953 Y89.267 E11.00232
G1 X39.085 Y88.733 E11.02969
G1 X39.293 Y88.224 E11.05705
G1 X39.573 Y87.75 E11.08445
G1 X39.844 Y87.404 E11.10632
G1 X39.962 Y87.27 E11.11521
G1 X40.355 Y86.884 E11.14262
G1 X40.799 Y86.559 E11.17001
G1 X41.286 Y86.303 E11.19739
M204 S5000
G0 F2400 X41.524 Y86.635
M204 S200
G1 F1200 X42.019 Y86.476 E11.22326
G1 X42.533 Y86.394 E11.24916
G1 X42.807 Y86.383 E11.26281
G1 X140.689 Y86.396 E16.13395
G1 X141.208 Y86.436 E16.15986
G1 X141.715 Y86.555 E16.18578
G1 X142.198 Y86.75 E16.2117
G1 X142.645 Y87.017 E16.23761
G1 X142.948 Y87.258 E16.25688
G1 X143.06 Y87.358 E16.26435
G1 X143.421 Y87.733 E16.29025
G1 X143.72 Y88.159 E16.31615
G1 X143.95 Y88.626 E16.34206
G1 X144.106 Y89.123 E16.36798
G1 X144.168 Y89.476 E16.38582
G1 X144.307 Y90.612 E16.44277
G1 X144.33 Y91.132 E16.46868
G1 X144.274 Y91.65 E16.49461
G1 X144.139 Y92.152 E16.52048
G1 X143.929 Y92.628 E16.54637
G1 X143.515 Y93.231 E16.58277
G1 X143.401 Y93.364 E16.59148
G1 X143.033 Y93.733 E16.61742
G1 X142.613 Y94.04 E16.64331
G1 X142.151 Y94.279 E16.6692
G1 X141.658 Y94.445 E16.69508
G1 X140.922 Y94.548 E16.73207
G1 X43.375 Y97.306 E21.58848
G1 X42.855 Y97.28 E21.61439
G1 X42.345 Y97.176 E21.64029
G1 X41.857 Y96.995 E21.6662
G1 X41.403 Y96.741 E21.69208
G1 X41.062 Y96.483 E21.71336
G1 X40.945 Y96.382 E21.72106
G1 X40.579 Y96.012 E21.74696
G1 X40.273 Y95.591 E21.77286
G1 X40.035 Y95.128 E21.79876
G1 X39.871 Y94.634 E21.82467
G1 X39.795 Y94.222 E21.84552
G1 X39.322 Y90.317 E22.04127
G1 X39.299 Y89.797 E22.06718
G1 X39.356 Y89.279 E22.09311
G1 X39.492 Y88.777 E22.11899
G1 X39.702 Y88.301 E22.14488
G1 X40.143 Y87.667 E22.18332
G1 X40.261 Y87.533 E22.1922
G1 X40.634 Y87.17 E22.2181
G1 X41.058 Y86.868 E22.24401
G1 X41.524 Y86.635 E22.26994
M204 S5000
G0 F2400 X41.758 Y86.972
M204 S200
G1 F1200 X42.228 Y86.839 E22.29425
G1 X42.807 Y86.782 E22.3232
G1 X140.689 Y86.795 E27.19434
G1 X141.177 Y86.835 E27.21871
G1 X141.651 Y86.954 E27.24303
G1 X142.1 Y87.148 E27.26737
G1 X142.682 Y87.555 E27.30272
G1 X142.794 Y87.655 E27.31019
G1 X143.131 Y88.01 E27.33455
G1 X143.406 Y88.414 E27.35887
G1 X143.611 Y88.858 E27.38321
G1 X143.772 Y89.524 E27.41731
G1 X143.911 Y90.66 E27.47426
G1 X143.93 Y91.149 E27.49861
G1 X143.87 Y91.634 E27.52293
G1 X143.732 Y92.103 E27.54726
G1 X143.519 Y92.543 E27.57159
G1 X143.212 Y92.972 E27.59784
G1 X143.098 Y93.105 E27.60656
G1 X142.751 Y93.449 E27.63088
G1 X142.352 Y93.732 E27.65522
G1 X141.913 Y93.946 E27.67953
G1 X141.444 Y94.085 E27.70387
G1 X140.911 Y94.149 E27.73059
G1 X43.364 Y96.907 E32.587
G1 X42.875 Y96.881 E32.61137
G1 X42.398 Y96.775 E32.63569
G1 X41.944 Y96.594 E32.66001
G1 X41.526 Y96.341 E32.68432
G1 X41.323 Y96.181 E32.69719
G1 X41.206 Y96.08 E32.70488
G1 X40.863 Y95.731 E32.72923
G1 X40.582 Y95.331 E32.75356
G1 X40.369 Y94.891 E32.77789
G1 X40.231 Y94.422 E32.80222
G1 X40.191 Y94.174 E32.81472
G1 X39.718 Y90.269 E33.01047
G1 X39.699 Y89.78 E33.03482
G1 X39.76 Y89.295 E33.05915
G1 X39.899 Y88.826 E33.08349
G1 X40.112 Y88.387 E33.10778
G1 X40.443 Y87.931 E33.13582
G1 X40.561 Y87.797 E33.1447
G1 X40.913 Y87.458 E33.16902
G1 X41.315 Y87.18 E33.19335
G1 X41.758 Y86.972 E33.2177
M204 S5000
G0 F2400 X41.987 Y87.314
M204 S200
G1 F1200 X42.429 Y87.209 E33.24031
G1 X42.807 Y87.181 E33.25917
G1 X140.689 Y87.194 E38.13032
G1 X141.143 Y87.234 E38.153
G1 X141.582 Y87.353 E38.17564
G1 X141.994 Y87.546 E38.19828
G1 X142.417 Y87.853 E38.22429
G1 X142.529 Y87.953 E38.23176
G1 X142.84 Y88.285 E38.2544
G1 X143.089 Y88.666 E38.27705
G1 X143.267 Y89.085 E38.2997
G1 X143.376 Y89.573 E38.32459
G1 X143.515 Y90.709 E38.38154
G1 X143.53 Y91.164 E38.4042
G1 X143.466 Y91.614 E38.42682
G1 X143.324 Y92.047 E38.4495
G1 X143.108 Y92.448 E38.47216
G1 X142.91 Y92.712 E38.48859
G1 X142.796 Y92.845 E38.4973
G1 X142.47 Y93.163 E38.51997
G1 X142.094 Y93.42 E38.54263
G1 X141.679 Y93.607 E38.56529
G1 X141.238 Y93.718 E38.58792
G1 X140.899 Y93.75 E38.60486
G1 X43.352 Y96.508 E43.46128
G1 X42.898 Y96.481 E43.48391
G1 X42.455 Y96.375 E43.50658
G1 X42.038 Y96.193 E43.52922
G1 X41.584 Y95.879 E43.55669
G1 X41.467 Y95.778 E43.56438
G1 X41.15 Y95.451 E43.58705
G1 X40.895 Y95.074 E43.6097
G1 X40.709 Y94.659 E43.63233
G1 X40.587 Y94.126 E43.65954
G1 X40.114 Y90.221 E43.8553
G1 X40.099 Y89.766 E43.87795
G1 X40.164 Y89.316 E43.90058
G1 X40.306 Y88.883 E43.92326
G1 X40.522 Y88.483 E43.94588
G1 X40.742 Y88.195 E43.96391
G1 X40.86 Y88.061 E43.9728
G1 X41.19 Y87.747 E43.99547
G1 X41.569 Y87.495 E44.01812
G1 X41.987 Y87.314 E44.04079
M204 S5000
G0 F2400 X41.819 Y87.815
M204 S200
G1 F1200 X42.209 Y87.663 E44.06162
G1 X42.807 Y87.58 E44.09166
G1 X140.689 Y87.593 E48.96281
G1 X141.106 Y87.633 E48.98365
G1 X141.507 Y87.751 E49.00446
G1 X141.879 Y87.944 E49.02531
G1 X142.151 Y88.151 E49.04232
G1 X142.263 Y88.251 E49.0498
G1 X142.547 Y88.558 E49.07061
G1 X142.768 Y88.914 E49.09146
G1 X142.917 Y89.305 E49.11228
G1 X142.98 Y89.621 E49.12832
G1 X143.119 Y90.757 E49.18527
G1 X143.13 Y91.176 E49.20613
G1 X143.061 Y91.589 E49.22697
G1 X142.915 Y91.981 E49.24779
G1 X142.607 Y92.452 E49.27579
G1 X142.493 Y92.585 E49.28451
G1 X142.191 Y92.876 E49.30538
G1 X141.84 Y93.104 E49.32621
G1 X141.452 Y93.261 E49.34704
G1 X140.888 Y93.351 E49.37547
G1 X43.341 Y96.109 E54.23188
G1 X42.923 Y96.081 E54.25273
G1 X42.519 Y95.974 E54.27353
G1 X42.142 Y95.792 E54.29436
G1 X41.845 Y95.577 E54.31261
G1 X41.728 Y95.476 E54.3203
G1 X41.438 Y95.173 E54.34117
G1 X41.212 Y94.821 E54.36199
G1 X41.056 Y94.433 E54.3828
G1 X40.983 Y94.078 E54.40083
G1 X40.51 Y90.173 E54.59659
G1 X40.499 Y89.755 E54.6174
G1 X40.569 Y89.342 E54.63824
G1 X40.715 Y88.949 E54.65911
G1 X41.042 Y88.458 E54.68847
G1 X41.16 Y88.324 E54.69735
G1 X41.465 Y88.038 E54.71816
G1 X41.819 Y87.815 E54.73898
M204 S5000
G0 F2400 X41.459 Y88.588
M204 S200
G1 F1200 X41.738 Y88.332 E54.75782
G1 X42.064 Y88.14 E54.77665
G1 X42.423 Y88.02 E54.79549
G1 X42.807 Y87.979 E54.81471
G1 X140.689 Y87.992 E59.68585
G1 X141.066 Y88.032 E59.70472
G1 X141.425 Y88.15 E59.72353
G1 X141.885 Y88.448 E59.7508
G1 X141.997 Y88.548 E59.75827
G1 X142.251 Y88.829 E59.77712
G1 X142.441 Y89.156 E59.79595
G1 X142.584 Y89.67 E59.8225
G1 X142.723 Y90.806 E59.87945
G1 X142.729 Y91.184 E59.89827
G1 X142.655 Y91.556 E59.91714
G1 X142.506 Y91.903 E59.93593
G1 X142.304 Y92.193 E59.95352
G1 X142.19 Y92.326 E59.96224
G1 X141.914 Y92.586 E59.98111
G1 X141.591 Y92.782 E59.99991
G1 X141.233 Y92.906 E60.01877
G1 X140.877 Y92.952 E60.03663
G1 X43.33 Y95.71 E64.89304
G1 X42.952 Y95.681 E64.91191
G1 X42.589 Y95.573 E64.93076
G1 X42.257 Y95.392 E64.94958
G1 X42.105 Y95.275 E64.95912
G1 X41.988 Y95.174 E64.96681
G1 X41.73 Y94.897 E64.98565
G1 X41.534 Y94.573 E65.0045
G1 X41.379 Y94.03 E65.0326
G1 X40.906 Y90.125 E65.22835
G1 X40.9 Y89.746 E65.24722
G1 X40.974 Y89.375 E65.26604
G1 X41.124 Y89.028 E65.28486
G1 X41.341 Y88.722 E65.30352
G1 X41.459 Y88.588 E65.31241
M204 S5000
G0 F2400 X41.641 Y88.986
M204 S200
G1 F1200 X41.759 Y88.852 E65.3213
G1 X42.007 Y88.629 E65.33789
G1 X42.302 Y88.472 E65.35452
G1 X42.625 Y88.39 E65.37111
G1 X42.807 Y88.378 E65.38018
G1 X140.689 Y88.391 E70.25133
G1 X141.02 Y88.431 E70.26792
G1 X141.333 Y88.548 E70.28455
G1 X141.619 Y88.746 E70.30186
G1 X141.731 Y88.846 E70.30933
G1 X141.952 Y89.096 E70.32594
G1 X142.107 Y89.392 E70.34257
G1 X142.188 Y89.718 E70.35928
G1 X142.327 Y90.854 E70.41624
G1 X142.327 Y91.188 E70.43286
G1 X142.249 Y91.512 E70.44945
G1 X142.001 Y91.933 E70.47376
G1 X141.887 Y92.066 E70.48248
G1 X141.641 Y92.292 E70.4991
G1 X141.348 Y92.453 E70.51574
G1 X140.865 Y92.553 E70.54029
G1 X43.318 Y95.311 E75.3967
G1 X42.986 Y95.281 E75.41329
G1 X42.671 Y95.173 E75.42986
G1 X42.366 Y94.972 E75.44804
G1 X42.249 Y94.871 E75.45573
G1 X42.024 Y94.625 E75.47232
G1 X41.865 Y94.332 E75.48891
G1 X41.775 Y93.982 E75.5069
G1 X41.302 Y90.077 E75.70265
G1 X41.302 Y89.743 E75.71927
G1 X41.381 Y89.419 E75.73587
G1 X41.534 Y89.123 E75.75245
G1 X41.641 Y88.986 E75.7611
M204 S5000
G0 F2400 X41.94 Y89.249
M204 S200
G1 F1200 X42.058 Y89.115 E75.76999
G1 X42.272 Y88.932 E75.784
G1 X42.529 Y88.816 E75.79803
G1 X42.807 Y88.777 E75.812
G1 X140.689 Y88.79 E80.68315
G1 X140.968 Y88.83 E80.69717
G1 X141.225 Y88.946 E80.71121
G1 X141.354 Y89.044 E80.71927
G1 X141.466 Y89.144 E80.72674
G1 X141.647 Y89.359 E80.74073
G1 X141.761 Y89.617 E80.75476
G1 X141.792 Y89.767 E80.76239
G1 X141.931 Y90.903 E80.81934
G1 X141.925 Y91.185 E80.83338
G1 X141.841 Y91.454 E80.8474
G1 X141.698 Y91.673 E80.86042
G1 X141.584 Y91.806 E80.86914
G1 X141.372 Y91.992 E80.88317
G1 X141.117 Y92.112 E80.8972
G1 X140.854 Y92.155 E80.91046
G1 X43.307 Y94.913 E85.76687
G1 X43.027 Y94.881 E85.7809
G1 X42.767 Y94.772 E85.79493
G1 X42.627 Y94.67 E85.80355
G1 X42.51 Y94.569 E85.81124
G1 X42.325 Y94.357 E85.82524
G1 X42.206 Y94.101 E85.83929
G1 X42.171 Y93.934 E85.84778
G1 X41.698 Y90.029 E86.04354
G1 X41.704 Y89.747 E86.05758
G1 X41.789 Y89.478 E86.07161
G1 X41.94 Y89.249 E86.08527
M204 S5000
G0 F2400 X42.357 Y89.379
M204 S200
G1 F1200 X42.529 Y89.244 E86.09615
G1 X42.807 Y89.176 E86.11039
G1 X140.689 Y89.189 E90.98153
G1 X140.903 Y89.229 E90.99237
G1 X141.088 Y89.341 E91.00313
G1 X141.2 Y89.441 E91.0106
G1 X141.333 Y89.614 E91.02146
G1 X141.396 Y89.815 E91.03194
G1 X141.535 Y90.951 E91.0889
G1 X141.521 Y91.169 E91.09977
G1 X141.395 Y91.414 E91.11348
G1 X141.281 Y91.547 E91.1222
G1 X141.111 Y91.684 E91.13306
G1 X140.843 Y91.756 E91.14687
G1 X43.296 Y94.514 E96.00329
G1 X43.081 Y94.48 E96.01412
G1 X42.888 Y94.368 E96.02523
G1 X42.771 Y94.267 E96.03292
G1 X42.634 Y94.097 E96.04378
G1 X42.567 Y93.886 E96.0548
G1 X42.094 Y89.981 E96.25055
G1 X42.108 Y89.763 E96.26143
G1 X42.239 Y89.513 E96.27547
G1 X42.357 Y89.379 E96.28436
M204 S5000
G0 F2400 X42.539 Y89.777
M204 S200
G1 F1200 X42.657 Y89.643 E96.29324
G1 X42.807 Y89.575 E96.30144
G1 X140.689 Y89.588 E101.17258
G1 X140.822 Y89.639 E101.17967
G1 X140.934 Y89.739 E101.18714
G1 X141 Y89.864 E101.19418
G1 X141.139 Y91 E101.25113
G1 X141.092 Y91.154 E101.25915
G1 X140.978 Y91.287 E101.26786
G1 X140.832 Y91.357 E101.27592
G1 X43.285 Y94.115 E106.13233
G1 X43.148 Y94.066 E106.13958
G1 X43.031 Y93.965 E106.14727
G1 X42.963 Y93.838 E106.15444
G1 X42.49 Y89.933 E106.35019
G1 X42.539 Y89.777 E106.35833
M204 S5000
G0 F2400 X42.924 Y90.197
M204 S200
;TYPE:WALL-OUTER
G1 F1200 X42.897 Y89.974 E106.36951
G1 X43.121 Y89.974 E106.37649
G1 X43.122 Y89.974 E106.37654
G1 X140.613 Y89.987 E111.22822
G1 X140.706 Y90.744 E111.26618
G1 X140.732 Y90.961 E111.27705
G1 X140.514 Y90.967 E111.2839
G1 X43.35 Y93.714 E116.12125
G1 X42.924 Y90.197 E116.29755
M204 S5000
G0 F2400 X42.9 Y89.998
G0 X43.373 Y90.595
M204 S200
;TYPE:WALL-INNER
G1 F1200 X43.346 Y90.372 E116.30873
G1 X43.57 Y90.372 E116.31571
G1 X43.571 Y90.372 E116.31576
G1 X132.905 Y90.385 E120.76151
G1 X140.261 Y90.385 E121.12758
G1 X140.284 Y90.575 E121.13711
G1 X140.268 Y90.575
G1 X132.915 Y90.782 E121.4073
G1 X43.701 Y93.306 E125.84886
G1 X43.373 Y90.595 E125.98475
M204 S5000
G0 F2400 X43.472 Y90.583
G0 X44.023 Y93.115
M204 S200
;TYPE:SKIN
G1 F1200 X43.837 Y92.928 E125.99788
M204 S5000
G0 F2400 X43.759 Y92.286
M204 S200
G1 F1200 X44.572 Y93.099 E126.0551
G1 X44.642 Y93.169
M204 S5000
G0 F2400 X45.121 Y93.084
M204 S200
G1 F1200 X43.681 Y91.644 E126.15644
G1 X43.611 Y91.574
M204 S5000
G0 F2400 X43.604 Y91.003
M204 S200
G1 F1200 X45.669 Y93.068 E126.30178
G1 X45.739 Y93.138
M204 S5000
G0 F2400 X46.218 Y93.053
M204 S200
G1 F1200 X43.717 Y90.552 E126.47779
G1 X43.647 Y90.482
M204 S5000
G0 F2400 X44.281 Y90.552
M204 S200
G1 F1200 X46.767 Y93.037 E126.65272
G1 X46.837 Y93.106
M204 S5000
G0 F2400 X47.316 Y93.022
M204 S200
G1 F1200 X44.846 Y90.552 E126.82656
G1 X44.776 Y90.482
M204 S5000
G0 F2400 X45.41 Y90.552
M204 S200
G1 F1200 X47.864 Y93.006 E126.99927
G1 X47.934 Y93.076
M204 S5000
G0 F2400 X48.413 Y92.99
M204 S200
G1 F1200 X45.974 Y90.552 E127.17089
G1 X45.904 Y90.482
M204 S5000
G0 F2400 X46.538 Y90.552
M204 S200
G1 F1200 X48.962 Y92.975 E127.34145
G1 X49.032 Y93.044
M204 S5000
G0 F2400 X49.511 Y92.96
M204 S200
G1 F1200 X47.103 Y90.552 E127.51092
G1 X47.033 Y90.482
M204 S5000
G0 F2400 X47.667 Y90.552
M204 S200
G1 F1200 X50.06 Y92.944 E127.6793
G1 X50.13 Y93.013
M204 S5000
G0 F2400 X50.609 Y92.929
M204 S200
G1 F1200 X48.231 Y90.552 E127.84663
G1 X48.161 Y90.483
M204 S5000
G0 F2400 X48.796 Y90.552
M204 S200
G1 F1200 X51.157 Y92.913 E128.01279
G1 X51.227 Y92.983
M204 S5000
G0 F2400 X51.706 Y92.898
M204 S200
G1 F1200 X49.361 Y90.552 E128.17787
G1 X49.292 Y90.482
M204 S5000
G0 F2400 X49.925 Y90.552
M204 S200
G1 F1200 X52.255 Y92.882 E128.34185
G1 X52.325 Y92.952
M204 S5000
G0 F2400 X52.803 Y92.867
M204 S200
G1 F1200 X50.489 Y90.552 E128.50474
G1 X50.42 Y90.482
M204 S5000
G0 F2400 X51.053 Y90.552
M204 S200
G1 F1200 X53.352 Y92.851 E128.66655
G1 X53.422 Y92.921
M204 S5000
G0 F2400 X53.901 Y92.836
M204 S200
G1 F1200 X51.618 Y90.552 E128.82726
G1 X51.549 Y90.482
M204 S5000
G0 F2400 X52.182 Y90.552
M204 S200
G1 F1200 X54.45 Y92.82 E128.98688
G1 X54.52 Y92.89
M204 S5000
G0 F2400 X54.998 Y92.804
M204 S200
G1 F1200 X52.746 Y90.552 E129.14537
G1 X52.676 Y90.482
M204 S5000
G0 F2400 X53.31 Y90.552
M204 S200
G1 F1200 X55.547 Y92.789 E129.30281
G1 X55.617 Y92.859
M204 S5000
G0 F2400 X56.096 Y92.773
M204 S200
G1 F1200 X53.875 Y90.553 E129.45908
G1 X53.805 Y90.484
M204 S5000
G0 F2400 X54.44 Y90.553
M204 S200
G1 F1200 X56.644 Y92.758 E129.61423
G1 X56.714 Y92.828
M204 S5000
G0 F2400 X57.193 Y92.742
M204 S200
G1 F1200 X55.004 Y90.553 E129.76829
G1 X54.934 Y90.483
M204 S5000
G0 F2400 X55.568 Y90.553
M204 S200
G1 F1200 X57.742 Y92.727 E129.9213
G1 X57.812 Y92.797
M204 S5000
G0 F2400 X58.291 Y92.712
M204 S200
G1 F1200 X56.132 Y90.553 E130.07325
G1 X56.062 Y90.483
M204 S5000
G0 F2400 X56.697 Y90.553
M204 S200
G1 F1200 X58.84 Y92.696 E130.22407
G1 X58.91 Y92.766
M204 S5000
G0 F2400 X59.389 Y92.681
M204 S200
G1 F1200 X57.261 Y90.553 E130.37383
G1 X57.191 Y90.483
M204 S5000
G0 F2400 X57.825 Y90.553
M204 S200
G1 F1200 X59.937 Y92.665 E130.52248
G1 X60.007 Y92.735
M204 S5000
G0 F2400 X60.486 Y92.65
M204 S200
G1 F1200 X58.39 Y90.553 E130.67002
G1 X58.32 Y90.483
M204 S5000
G0 F2400 X58.955 Y90.554
M204 S200
G1 F1200 X61.035 Y92.634 E130.81641
G1 X61.105 Y92.704
M204 S5000
G0 F2400 X61.584 Y92.618
M204 S200
G1 F1200 X59.519 Y90.554 E130.96171
G1 X59.449 Y90.484
M204 S5000
G0 F2400 X60.083 Y90.554
M204 S200
G1 F1200 X62.132 Y92.603 E131.10592
G1 X62.202 Y92.673
M204 S5000
