;FLAVOR:Marlin
;TIME:877
;Filament used: 0.679202m
;Layer height: 0.2
;Generated with Cura_SteamEngine 2.7.0
M190 S60
M104 S220
M109 S220
G21 ;metric values
G90 ;absolute positioning
M82 ;set extruder to absolute mode
M107 ;start with the fan off
G92 E0 ;zero the extruded length
G1 F200 E3 ;extrude 3mm of feed stock
G92 E0 ;zero the extruded length again
G1 F9000
M117 Printing...
;LAYER_COUNT:80
;LAYER:0
M107
M204 S5000
G0 F2400 X43.568 Y87.065 Z0.3
M204 S200
;TYPE:SKIRT
G1 F1200 X44.075 Y86.85 E0.02741
G1 X44.608 Y86.712 E0.05481
G1 X45.295 Y86.649 E0.08914
G1 X142.909 Y86.686 E4.94695
G1 X143.458 Y86.726 E4.97434
G1 X143.996 Y86.845 E5.00176
G1 X144.51 Y87.041 E5.02914
G1 X144.991 Y87.309 E5.05654
G1 X145.427 Y87.644 E5.0839
G1 X145.644 Y87.853 E5.09889
G1 X145.761 Y87.975 E5.10731
G1 X146.112 Y88.399 E5.1347
G1 X146.398 Y88.869 E5.16208
G1 X146.613 Y89.376 E5.18949
G1 X146.753 Y89.908 E5.21686
G1 X146.813 Y90.455 E5.24425
G1 X146.812 Y90.779 E5.26037
G1 X146.764 Y91.787 E5.31059
G1 X146.698 Y92.334 E5.33801
G1 X146.553 Y92.865 E5.3654
G1 X146.333 Y93.369 E5.39277
G1 X146.043 Y93.837 E5.42017
G1 X145.633 Y94.312 E5.4514
G1 X145.522 Y94.421 E5.45914
G1 X145.103 Y94.777 E5.4865
G1 X144.636 Y95.069 E5.51391
G1 X144.132 Y95.289 E5.54128
G1 X143.601 Y95.435 E5.56868
G1 X142.974 Y95.505 E5.60008
G1 X45.23 Y98.299 E10.46634
G1 X44.681 Y98.275 E10.49369
G1 X44.14 Y98.172 E10.5211
G1 X43.62 Y97.991 E10.5485
G1 X43.132 Y97.737 E10.57588
G1 X42.686 Y97.415 E10.60325
G1 X42.42 Y97.169 E10.62128
G1 X42.298 Y97.045 E10.62994
G1 X41.941 Y96.625 E10.65737
G1 X41.649 Y96.159 E10.68474
G1 X41.428 Y95.655 E10.71213
G1 X41.282 Y95.125 E10.73948
G1 X41.214 Y94.578 E10.76692
G1 X41.213 Y94.209 E10.78528
G1 X41.392 Y90.373 E10.97639
G1 X41.458 Y89.827 E11.00376
G1 X41.602 Y89.296 E11.03114
G1 X41.821 Y88.791 E11.05853
G1 X42.111 Y88.323 E11.08593
G1 X42.559 Y87.81 E11.11982
G1 X42.674 Y87.7 E11.12774
G1 X43.098 Y87.35 E11.1551
G1 X43.568 Y87.065 E11.18246
M204 S5000
G0 F2400 X43.8 Y87.395
M204 S200
G1 F1200 X44.284 Y87.202 E11.20839
G1 X44.791 Y87.085 E11.23428
G1 X45.295 Y87.048 E11.25943
G1 X142.909 Y87.085 E16.11724
G1 X143.428 Y87.125 E16.14315
G1 X143.935 Y87.244 E16.16906
G1 X144.418 Y87.439 E16.19498
G1 X144.865 Y87.706 E16.2209
G1 X145.356 Y88.129 E16.25315
G1 X145.473 Y88.251 E16.26156
G1 X145.804 Y88.653 E16.28747
G1 X146.069 Y89.101 E16.31338
G1 X146.262 Y89.585 E16.33931
G1 X146.379 Y90.092 E16.3652
G1 X146.413 Y90.76 E16.39849
G1 X146.365 Y91.768 E16.44871
G1 X146.301 Y92.285 E16.47463
G1 X146.158 Y92.785 E16.50052
G1 X145.94 Y93.258 E16.52643
G1 X145.652 Y93.692 E16.55235
G1 X145.354 Y94.027 E16.57467
G1 X145.243 Y94.136 E16.58241
G1 X144.844 Y94.471 E16.60834
G1 X144.399 Y94.742 E16.63427
G1 X143.918 Y94.941 E16.66017
G1 X143.413 Y95.064 E16.68604
G1 X142.963 Y95.107 E16.70853
G1 X45.219 Y97.901 E21.5748
G1 X44.699 Y97.876 E21.60071
G1 X44.189 Y97.771 E21.62662
G1 X43.701 Y97.59 E21.65252
G1 X43.246 Y97.336 E21.67845
G1 X42.704 Y96.889 E21.71342
G1 X42.582 Y96.765 E21.72207
G1 X42.247 Y96.367 E21.74796
G1 X41.976 Y95.922 E21.77389
G1 X41.776 Y95.442 E21.79977
G1 X41.653 Y94.936 E21.82568
G1 X41.612 Y94.228 E21.86098
G1 X41.791 Y90.392 E22.05208
G1 X41.855 Y89.875 E22.07801
G1 X41.997 Y89.375 E22.10388
G1 X42.214 Y88.902 E22.12977
G1 X42.502 Y88.467 E22.15574
G1 X42.834 Y88.099 E22.1804
G1 X42.949 Y87.989 E22.18832
G1 X43.352 Y87.659 E22.21424
G1 X43.8 Y87.395 E22.24012
M204 S5000
G0 F2400 X44.03 Y87.727
M204 S200
G1 F1200 X44.488 Y87.557 E22.26443
G1 X44.968 Y87.465 E22.28876
G1 X45.295 Y87.447 E22.30505
G1 X142.909 Y87.484 E27.16286
G1 X143.396 Y87.524 E27.18718
G1 X143.871 Y87.643 E27.21155
G1 X144.319 Y87.838 E27.23586
G1 X144.73 Y88.103 E27.2602
G1 X145.068 Y88.405 E27.28276
G1 X145.185 Y88.527 E27.29117
G1 X145.494 Y88.907 E27.31554
G1 X145.736 Y89.331 E27.33984
G1 X145.906 Y89.79 E27.3642
G1 X146 Y90.269 E27.38849
G1 X146.015 Y90.741 E27.41199
G1 X145.967 Y91.749 E27.46221
G1 X145.904 Y92.234 E27.48655
G1 X145.762 Y92.702 E27.51089
G1 X145.547 Y93.141 E27.53521
G1 X145.263 Y93.539 E27.55955
G1 X145.074 Y93.743 E27.57339
G1 X144.963 Y93.852 E27.58113
G1 X144.587 Y94.164 E27.60544
G1 X144.166 Y94.412 E27.62976
G1 X143.71 Y94.588 E27.65408
G1 X143.231 Y94.687 E27.67843
G1 X142.952 Y94.708 E27.69235
G1 X45.208 Y97.502 E32.55861
G1 X44.719 Y97.476 E32.58298
G1 X44.242 Y97.371 E32.60729
G1 X43.788 Y97.189 E32.63163
G1 X43.369 Y96.936 E32.65599
G1 X42.988 Y96.609 E32.68098
G1 X42.866 Y96.485 E32.68963
G1 X42.553 Y96.11 E32.71394
G1 X42.305 Y95.688 E32.7383
G1 X42.129 Y95.232 E32.76262
G1 X42.03 Y94.754 E32.78692
G1 X42.01 Y94.246 E32.81222
G1 X42.189 Y90.41 E33.00333
G1 X42.252 Y89.926 E33.02762
G1 X42.393 Y89.457 E33.05199
G1 X42.608 Y89.018 E33.07631
G1 X42.891 Y88.62 E33.10062
G1 X43.11 Y88.387 E33.11653
G1 X43.225 Y88.277 E33.12445
G1 X43.605 Y87.969 E33.14879
G1 X44.03 Y87.727 E33.17313
M204 S5000
G0 F2400 X44.256 Y88.063
M204 S200
G1 F1200 X44.687 Y87.918 E33.19576
G1 X45.295 Y87.846 E33.22623
G1 X142.909 Y87.883 E38.08404
G1 X143.362 Y87.923 E38.10667
G1 X143.802 Y88.042 E38.12935
G1 X144.214 Y88.235 E38.15199
G1 X144.585 Y88.498 E38.17463
G1 X144.78 Y88.682 E38.18797
G1 X144.897 Y88.804 E38.19638
G1 X145.182 Y89.158 E38.219
G1 X145.401 Y89.558 E38.24169
G1 X145.546 Y89.989 E38.26432
G1 X145.614 Y90.439 E38.28697
G1 X145.616 Y90.722 E38.30105
G1 X145.568 Y91.73 E38.35128
G1 X145.507 Y92.181 E38.37392
G1 X145.367 Y92.615 E38.39662
G1 X145.154 Y93.017 E38.41926
G1 X144.794 Y93.458 E38.44759
G1 X144.683 Y93.567 E38.45533
G1 X144.332 Y93.856 E38.47796
G1 X143.935 Y94.079 E38.50062
G1 X143.506 Y94.23 E38.52325
G1 X142.94 Y94.309 E38.55169
G1 X45.196 Y97.103 E43.41796
G1 X44.742 Y97.076 E43.44059
G1 X44.299 Y96.97 E43.46326
G1 X43.882 Y96.788 E43.4859
G1 X43.503 Y96.537 E43.50852
G1 X43.273 Y96.329 E43.52395
G1 X43.151 Y96.205 E43.53261
G1 X42.861 Y95.854 E43.55527
G1 X42.638 Y95.458 E43.57789
G1 X42.487 Y95.028 E43.60057
G1 X42.413 Y94.579 E43.62321
G1 X42.409 Y94.265 E43.63884
G1 X42.588 Y90.429 E43.82995
G1 X42.649 Y89.978 E43.8526
G1 X42.788 Y89.545 E43.87523
G1 X43 Y89.142 E43.89789
G1 X43.386 Y88.675 E43.92804
G1 X43.501 Y88.565 E43.93596
G1 X43.856 Y88.281 E43.95859
G1 X44.256 Y88.063 E43.98126
M204 S5000
G0 F2400 X43.777 Y88.854
M204 S200
G1 F1200 X44.105 Y88.595 E44.00206
G1 X44.477 Y88.403 E44.02289
G1 X44.879 Y88.285 E44.04374
G1 X45.295 Y88.245 E44.06454
G1 X142.909 Y88.282 E48.92234
G1 X143.325 Y88.322 E48.94314
G1 X143.727 Y88.44 E48.96399
G1 X144.099 Y88.633 E48.98485
G1 X144.492 Y88.958 E49.01023
G1 X144.609 Y89.08 E49.01864
G1 X144.869 Y89.408 E49.03947
G1 X145.061 Y89.78 E49.0603
G1 X145.18 Y90.181 E49.08112
G1 X145.218 Y90.703 E49.10716
G1 X145.17 Y91.711 E49.15738
G1 X145.11 Y92.126 E49.17825
G1 X144.973 Y92.521 E49.19906
G1 X144.763 Y92.883 E49.21988
G1 X144.515 Y93.173 E49.23887
G1 X144.404 Y93.282 E49.24662
G1 X144.079 Y93.546 E49.26745
G1 X143.709 Y93.743 E49.28831
G1 X143.309 Y93.866 E49.30914
G1 X142.929 Y93.91 E49.32818
G1 X45.185 Y96.704 E54.19444
G1 X44.767 Y96.676 E54.21529
G1 X44.362 Y96.569 E54.23614
G1 X43.985 Y96.388 E54.25695
G1 X43.557 Y96.049 E54.28412
G1 X43.435 Y95.925 E54.29278
G1 X43.172 Y95.6 E54.31358
G1 X42.974 Y95.231 E54.33442
G1 X42.851 Y94.831 E54.35525
G1 X42.807 Y94.284 E54.38256
G1 X42.986 Y90.448 E54.57367
G1 X43.046 Y90.033 E54.59453
G1 X43.183 Y89.638 E54.61534
G1 X43.392 Y89.275 E54.63619
G1 X43.662 Y88.964 E54.65668
G1 X43.777 Y88.854 E54.6646
M204 S5000
G0 F2400 X43.938 Y89.252
M204 S200
G1 F1200 X44.053 Y89.142 E54.67252
G1 X44.352 Y88.911 E54.69132
G1 X44.694 Y88.747 E54.7102
G1 X45.062 Y88.659 E54.72903
G1 X45.295 Y88.644 E54.74065
G1 X142.909 Y88.681 E59.59846
G1 X143.285 Y88.721 E59.61727
G1 X143.645 Y88.839 E59.63613
G1 X143.972 Y89.03 E59.65497
G1 X144.204 Y89.234 E59.67035
G1 X144.321 Y89.356 E59.67876
G1 X144.553 Y89.655 E59.69759
G1 X144.717 Y89.996 E59.71642
G1 X144.806 Y90.364 E59.73527
G1 X144.819 Y90.684 E59.7512
G1 X144.771 Y91.692 E59.80142
G1 X144.713 Y92.067 E59.82031
G1 X144.578 Y92.42 E59.83912
G1 X144.372 Y92.738 E59.85797
G1 X144.235 Y92.888 E59.86808
G1 X144.124 Y92.997 E59.87582
G1 X143.828 Y93.233 E59.89466
G1 X143.489 Y93.401 E59.91349
G1 X143.122 Y93.494 E59.93233
G1 X142.917 Y93.511 E59.94257
G1 X45.173 Y96.305 E64.80883
G1 X44.796 Y96.276 E64.82765
G1 X44.433 Y96.169 E64.84648
G1 X44.101 Y95.987 E64.86533
G1 X43.842 Y95.77 E64.88214
G1 X43.72 Y95.646 E64.8908
G1 X43.484 Y95.349 E64.90968
G1 X43.316 Y95.01 E64.9285
G1 X43.223 Y94.643 E64.94735
G1 X43.206 Y94.302 E64.96434
G1 X43.385 Y90.466 E65.15545
G1 X43.442 Y90.092 E65.17427
G1 X43.577 Y89.738 E65.19313
G1 X43.783 Y89.421 E65.21194
G1 X43.938 Y89.252 E65.22335
M204 S5000
G0 F2400 X44.328 Y89.43
M204 S200
G1 F1200 X44.595 Y89.23 E65.23995
G1 X44.902 Y89.099 E65.25657
G1 X45.295 Y89.043 E65.27632
G1 X142.909 Y89.08 E70.13413
G1 X143.24 Y89.12 E70.15072
G1 X143.552 Y89.237 E70.1673
G1 X143.916 Y89.51 E70.18995
G1 X144.033 Y89.632 E70.19836
G1 X144.234 Y89.899 E70.21499
G1 X144.365 Y90.205 E70.23156
G1 X144.42 Y90.665 E70.25461
G1 X144.372 Y91.673 E70.30483
G1 X144.317 Y92.002 E70.32143
G1 X144.185 Y92.309 E70.33806
G1 X143.956 Y92.604 E70.35665
G1 X143.845 Y92.713 E70.36439
G1 X143.58 Y92.916 E70.381
G1 X143.275 Y93.052 E70.39762
G1 X142.906 Y93.112 E70.41622
G1 X45.162 Y95.906 E75.28249
G1 X44.83 Y95.876 E75.29908
G1 X44.514 Y95.768 E75.3157
G1 X44.126 Y95.49 E75.33945
G1 X44.004 Y95.366 E75.34811
G1 X43.8 Y95.102 E75.36471
G1 X43.665 Y94.797 E75.38131
G1 X43.605 Y94.321 E75.40519
G1 X43.784 Y90.485 E75.59629
G1 X43.839 Y90.156 E75.61289
G1 X43.971 Y89.849 E75.62952
G1 X44.213 Y89.54 E75.64906
G1 X44.328 Y89.43 E75.65698
M204 S5000
G0 F2400 X44.489 Y89.829
M204 S200
G1 F1200 X44.604 Y89.719 E75.6649
G1 X44.833 Y89.555 E75.67891
G1 X45.099 Y89.461 E75.69295
G1 X45.294 Y89.442 E75.7027
G1 X142.908 Y89.479 E80.56051
G1 X143.187 Y89.519 E80.57454
G1 X143.444 Y89.635 E80.58857
G1 X143.628 Y89.786 E80.60042
G1 X143.745 Y89.908 E80.60883
G1 X143.91 Y90.137 E80.62287
G1 X144.004 Y90.403 E80.63691
G1 X144.022 Y90.646 E80.64904
G1 X143.974 Y91.654 E80.69926
G1 X143.921 Y91.931 E80.7133
G1 X143.793 Y92.182 E80.72732
G1 X143.676 Y92.319 E80.73628
G1 X143.565 Y92.428 E80.74402
G1 X143.338 Y92.595 E80.75805
G1 X143.074 Y92.692 E80.77205
G1 X142.895 Y92.714 E80.78102
G1 X45.151 Y95.508 E85.64728
G1 X44.87 Y95.476 E85.66136
G1 X44.61 Y95.367 E85.67539
G1 X44.411 Y95.21 E85.688
G1 X44.289 Y95.086 E85.69666
G1 X44.121 Y94.859 E85.71071
G1 X44.024 Y94.595 E85.72471
G1 X44.003 Y94.339 E85.73749
G1 X44.182 Y90.503 E85.9286
G1 X44.235 Y90.227 E85.94259
G1 X44.363 Y89.976 E85.95661
G1 X44.489 Y89.829 E85.96625
M204 S5000
G0 F2400 X44.88 Y90.007
M204 S200
G1 F1200 X45.062 Y89.888 E85.97707
G1 X45.294 Y89.841 E85.98885
G1 X142.908 Y89.878 E90.84665
G1 X143.123 Y89.918 E90.85754
G1 X143.34 Y90.062 E90.8705
G1 X143.457 Y90.184 E90.87891
G1 X143.577 Y90.367 E90.8898
G1 X143.623 Y90.627 E90.90294
G1 X143.575 Y91.635 E90.95316
G1 X143.526 Y91.848 E90.96404
G1 X143.397 Y92.034 E90.9753
G1 X143.286 Y92.143 E90.98304
G1 X143.105 Y92.265 E90.99391
G1 X142.883 Y92.315 E91.00523
G1 X45.139 Y95.109 E95.8715
G1 X44.924 Y95.075 E95.88233
G1 X44.695 Y94.93 E95.89582
G1 X44.573 Y94.806 E95.90447
G1 X44.451 Y94.625 E95.91534
G1 X44.402 Y94.358 E95.92885
G1 X44.581 Y90.522 E96.11995
G1 X44.63 Y90.31 E96.13078
G1 X44.765 Y90.117 E96.1425
G1 X44.88 Y90.007 E96.15042
M204 S5000
G0 F2400 X45.041 Y90.405
M204 S200
G1 F1200 X45.156 Y90.295 E96.15834
G1 X45.294 Y90.24 E96.16574
G1 X142.908 Y90.277 E101.02354
G1 X143.052 Y90.339 E101.03135
G1 X143.169 Y90.461 E101.03976
G1 X143.225 Y90.609 E101.04763
G1 X143.177 Y91.617 E101.09785
G1 X143.117 Y91.75 E101.10511
G1 X143.006 Y91.859 E101.11286
G1 X142.872 Y91.916 E101.1201
G1 X45.128 Y94.71 E105.98637
G1 X44.979 Y94.65 E105.99436
G1 X44.857 Y94.526 E106.00302
G1 X44.8 Y94.377 E106.01096
G1 X44.979 Y90.541 E106.20206
G1 X45.041 Y90.405 E106.2095
M204 S5000
G0 F2400 X45.374 Y90.639
M204 S200
;TYPE:WALL-OUTER
G1 F1200 X142.613 Y90.676 E111.04865
G1 X142.614 Y90.676 E111.0487
G1 X142.822 Y90.676 E111.05905
G1 X142.814 Y90.884 E111.06569
G1 X142.813 Y90.885 E111.06576
G1 X142.782 Y91.519 E111.09734
G1 X45.417 Y94.303 E115.94474
G1 X45.203 Y94.309 E115.95539
G1 X45.213 Y94.095 E115.96216
G1 X45.374 Y90.639 E116.13433
M204 S5000
G0 F2400 X45.574 Y90.639
G0 X45.823 Y91.109
G0 X45.729 Y93.69
G0 X45.63 Y93.685
M204 S200
;TYPE:WALL-INNER
G1 F1200 X45.754 Y91.037 E116.26626
G1 X130.633 Y91.07 E120.4903
G1 X142.404 Y91.074 E121.07609
G1 X142.401 Y91.132 E121.07898
G1 X130.635 Y91.468 E121.41446
G1 X45.835 Y93.893 E125.63629
G1 X45.834 Y93.894 E125.63637
G1 X45.621 Y93.899 E125.64697
G1 X45.629 Y93.686 E125.65372
G1 X45.63 Y93.685 E125.65379
M204 S5000
G0 F2400 X45.831 Y93.23
M204 S200
;TYPE:SKIN
G1 F1200 X46.3 Y93.699 E125.68679
M204 S5000
G0 F2400 X46.848 Y93.683
M204 S200
G1 F1200 X45.856 Y92.691 E125.75661
G1 X45.786 Y92.621
M204 S5000
G0 F2400 X45.882 Y92.152
M204 S200
G1 F1200 X47.397 Y93.667 E125.86323
G1 X47.467 Y93.737
M204 S5000
G0 F2400 X47.946 Y93.652
M204 S200
G1 F1200 X45.906 Y91.612 E126.00681
G1 X45.836 Y91.542
M204 S5000
G0 F2400 X46.075 Y91.216
M204 S200
G1 F1200 X48.494 Y93.636 E126.17709
G1 X48.564 Y93.706
M204 S5000
G0 F2400 X49.043 Y93.62
M204 S200
G1 F1200 X46.639 Y91.216 E126.34628
G1 X46.569 Y91.146
M204 S5000
G0 F2400 X47.203 Y91.216
M204 S200
G1 F1200 X49.592 Y93.605 E126.51442
G1 X49.662 Y93.675
M204 S5000
G0 F2400 X50.14 Y93.589
M204 S200
G1 F1200 X47.768 Y91.217 E126.68136
G1 X47.698 Y91.147
M204 S5000
G0 F2400 X48.332 Y91.217
M204 S200
G1 F1200 X50.688 Y93.573 E126.84717
G1 X50.758 Y93.643
M204 S5000
G0 F2400 X51.237 Y93.558
M204 S200
G1 F1200 X48.897 Y91.217 E127.01189
G1 X48.827 Y91.147
M204 S5000
G0 F2400 X49.461 Y91.217
M204 S200
G1 F1200 X51.786 Y93.542 E127.17552
G1 X51.856 Y93.612
M204 S5000
G0 F2400 X52.335 Y93.526
M204 S200
G1 F1200 X50.026 Y91.218 E127.33799
G1 X49.956 Y91.148
M204 S5000
G0 F2400 X50.59 Y91.218
M204 S200
G1 F1200 X52.883 Y93.51 E127.49934
G1 X52.953 Y93.579
M204 S5000
G0 F2400 X53.431 Y93.495
M204 S200
G1 F1200 X51.154 Y91.218 E127.65959
G1 X51.084 Y91.148
M204 S5000
G0 F2400 X51.719 Y91.218
M204 S200
G1 F1200 X53.98 Y93.479 E127.81872
G1 X54.05 Y93.549
M204 S5000
G0 F2400 X54.529 Y93.463
M204 S200
G1 F1200 X52.284 Y91.218 E127.97672
G1 X52.214 Y91.148
M204 S5000
G0 F2400 X52.848 Y91.218
M204 S200
G1 F1200 X55.077 Y93.448 E128.13363
G1 X55.147 Y93.518
M204 S5000
G0 F2400 X55.626 Y93.432
M204 S200
G1 F1200 X53.413 Y91.219 E128.28938
G1 X53.343 Y91.149
M204 S5000
G0 F2400 X53.977 Y91.219
M204 S200
G1 F1200 X56.174 Y93.416 E128.444
G1 X56.244 Y93.486
M204 S5000
G0 F2400 X56.723 Y93.401
M204 S200
G1 F1200 X54.541 Y91.219 E128.59756
G1 X54.471 Y91.149
M204 S5000
G0 F2400 X55.106 Y91.22
M204 S200
G1 F1200 X57.272 Y93.385 E128.74997
G1 X57.342 Y93.454
M204 S5000
G0 F2400 X57.82 Y93.369
M204 S200
G1 F1200 X55.671 Y91.22 E128.90122
G1 X55.601 Y91.15
M204 S5000
G0 F2400 X56.235 Y91.22
M204 S200
G1 F1200 X58.369 Y93.354 E129.0514
G1 X58.439 Y93.424
M204 S5000
G0 F2400 X58.917 Y93.338
M204 S200
G1 F1200 X56.8 Y91.221 E129.2004
G1 X56.73 Y91.151
M204 S5000
G0 F2400 X57.364 Y91.221
M204 S200
G1 F1200 X59.466 Y93.322 E129.3483
G1 X59.536 Y93.392
M204 S5000
G0 F2400 X60.014 Y93.306
M204 S200
G1 F1200 X57.929 Y91.221 E129.49504
G1 X57.859 Y91.151
M204 S5000
G0 F2400 X58.493 Y91.221
M204 S200
G1 F1200 X60.563 Y93.291 E129.64072
G1 X60.633 Y93.361
M204 S5000
G0 F2400 X61.112 Y93.275
M204 S200
G1 F1200 X59.058 Y91.221 E129.78528
G1 X58.988 Y91.151
M204 S5000
G0 F2400 X59.622 Y91.221
M204 S200
G1 F1200 X61.66 Y93.259 E129.92871
G1 X61.73 Y93.329
M204 S5000
G0 F2400 X62.209 Y93.244
M204 S200
G1 F1200 X60.186 Y91.221 E130.07109
G1 X60.116 Y91.151
M204 S5000
G0 F2400 X60.751 Y91.222
M204 S200
G1 F1200 X62.757 Y93.228 E130.21227
G1 X62.827 Y93.298
M204 S5000
G0 F2400 X63.306 Y93.212
M204 S200
G1 F1200 X61.316 Y91.222 E130.35232
G1 X61.246 Y91.152
M204 S5000
G0 F2400 X61.88 Y91.222
M204 S200
G1 F1200 X63.855 Y93.197 E130.49132
G1 X63.925 Y93.267
