;FLAVOR:Marlin
;TIME:3683
;Filament used: 3.36519m
;Layer height: 0.2
;Generated with Cura_SteamEngine 2.7.0
M190 S60
M104 S220
M109 S220
G21 ;metric values
G90 ;absolute positioning
M82 ;set extruder to absolute mode
M107 ;start with the fan off
G92 E0 ;zero the extruded length
G1 F200 E3 ;extrude 3mm of feed stock
G92 E0 ;zero the extruded length again
G1 F9000
M117 Printing...
;LAYER_COUNT:375
;LAYER:0
M107
M204 S5000
G0 F2400 X73.43 Y72.888 Z0.3
G0 X73.313 Y73.014
M204 S200
;TYPE:SKIRT
G1 F1200 X73.43 Y72.888 E0.00856
G1 X73.833 Y72.513 E0.03595
G1 X74.286 Y72.201 E0.06333
G1 X74.779 Y71.957 E0.0907
G1 X75.302 Y71.787 E0.11807
G1 X75.845 Y71.694 E0.14548
G1 X76.208 Y71.677 E0.16357
G1 X77.279 Y71.677 E0.21687
G1 X77.828 Y71.717 E0.24426
G1 X78.365 Y71.836 E0.27163
G1 X78.88 Y72.031 E0.29904
G1 X78.993 Y72.094 E0.30548
G1 X79.375 Y71.624 E0.33562
G1 X79.492 Y71.507 E0.34385
G1 X79.909 Y71.147 E0.37127
G1 X80.373 Y70.852 E0.39863
G1 X80.875 Y70.626 E0.42603
G1 X81.404 Y70.476 E0.45339
G1 X82.173 Y70.397 E0.49186
G1 X102.827 Y70.397 E1.51972
G1 X103.376 Y70.437 E1.54711
G1 X103.913 Y70.556 E1.57449
G1 X104.428 Y70.751 E1.60189
G1 X104.908 Y71.019 E1.62925
G1 X105.508 Y71.507 E1.66774
G1 X105.625 Y71.624 E1.67597
G1 X105.985 Y72.041 E1.70339
G1 X106.013 Y72.085 E1.70598
G1 X106.502 Y71.878 E1.73241
G1 X107.035 Y71.74 E1.75981
G1 X107.721 Y71.677 E1.79409
G1 X108.789 Y71.677 E1.84724
G1 X109.338 Y71.717 E1.87463
G1 X109.875 Y71.836 E1.90201
G1 X110.39 Y72.031 E1.92941
G1 X110.87 Y72.299 E1.95677
G1 X111.307 Y72.634 E1.98417
G1 X111.535 Y72.855 E1.99997
G1 X111.653 Y72.979 E2.00849
G1 X112.003 Y73.404 E2.03589
G1 X112.287 Y73.875 E2.06326
G1 X112.5 Y74.383 E2.09068
G1 X112.637 Y74.915 E2.11802
G1 X112.696 Y75.463 E2.14544
G1 X112.687 Y75.876 E2.166
G1 X112.458 Y78.919 E2.31787
G1 X112.439 Y79.113 E2.32757
G1 X112.172 Y81.215 E2.43302
G1 X112.139 Y81.425 E2.44359
G1 X111.515 Y84.806 E2.61469
G1 X111.454 Y85.08 E2.62866
G1 X110.51 Y88.679 E2.81383
G1 X110.428 Y88.949 E2.82787
G1 X109.594 Y91.376 E2.95558
G1 X109.519 Y91.577 E2.96626
G1 X108.777 Y93.394 E3.06393
G1 X108.532 Y93.887 E3.09133
G1 X108.328 Y94.182 E3.10918
G1 X108.27 Y94.413 E3.12103
G1 X107.989 Y95.056 E3.15595
G1 X106.716 Y97.358 E3.28686
G1 X106.558 Y97.617 E3.30196
G1 X105.786 Y98.782 E3.37151
G1 X105.617 Y99.017 E3.38592
G1 X104.42 Y100.554 E3.48287
G1 X104.13 Y100.885 E3.50477
G1 X102.516 Y102.524 E3.61924
G1 X102.092 Y102.895 E3.64728
G1 X100.399 Y104.167 E3.75266
G1 X99.894 Y104.487 E3.78241
G1 X98.324 Y105.317 E3.87079
G1 X97.735 Y105.568 E3.90266
G1 X95.93 Y106.161 E3.99721
G1 X95.385 Y106.296 E4.02515
G1 X94.267 Y106.487 E4.08159
G1 X93.833 Y106.536 E4.10333
G1 X92.7 Y106.597 E4.15979
G1 X92.149 Y106.586 E4.18722
G1 X90.333 Y106.419 E4.27797
G1 X89.816 Y106.335 E4.30404
G1 X88.816 Y106.101 E4.35515
G1 X88.413 Y105.983 E4.37605
G1 X87.299 Y105.588 E4.43487
G1 X86.794 Y105.366 E4.46232
G1 X84.986 Y104.41 E4.5641
G1 X84.448 Y104.065 E4.59591
G1 X82.769 Y102.775 E4.70128
G1 X82.442 Y102.492 E4.7228
G1 X81.523 Y101.602 E4.78646
G1 X81.317 Y101.386 E4.80132
G1 X80.459 Y100.413 E4.86588
G1 X80.29 Y100.207 E4.87914
G1 X79.374 Y99.008 E4.95423
G1 X79.214 Y98.783 E4.96797
G1 X78.307 Y97.397 E5.0504
G1 X78.154 Y97.141 E5.06524
G1 X77.005 Y95.042 E5.18432
G1 X76.776 Y94.542 E5.21169
G1 X76.669 Y94.176 E5.23067
G1 X76.5 Y93.94 E5.24511
G1 X76.21 Y93.359 E5.27743
G1 X75.19 Y90.789 E5.41503
G1 X75.114 Y90.579 E5.42615
G1 X74.499 Y88.715 E5.52383
G1 X74.442 Y88.527 E5.5336
G1 X73.839 Y86.321 E5.64741
G1 X73.79 Y86.12 E5.65771
G1 X73.171 Y83.25 E5.80382
G1 X73.128 Y83.015 E5.81571
G1 X72.637 Y79.75 E5.98002
G1 X72.608 Y79.496 E5.99274
G1 X72.313 Y75.904 E6.1721
G1 X72.308 Y75.354 E6.19948
G1 X72.382 Y74.809 E6.22685
G1 X72.535 Y74.28 E6.25425
G1 X72.763 Y73.779 E6.28164
G1 X73.061 Y73.316 E6.30905
G1 X73.313 Y73.014 E6.32862
M204 S5000
G0 F2400 X73.722 Y73.16
M204 S200
G1 F1200 X74.105 Y72.807 E6.35454
G1 X74.537 Y72.516 E6.38046
G1 X75.008 Y72.295 E6.40635
G1 X75.508 Y72.149 E6.43228
G1 X76.208 Y72.076 E6.4673
G1 X77.279 Y72.076 E6.5206
G1 X77.798 Y72.116 E6.5465
G1 X78.305 Y72.235 E6.57242
G1 X78.787 Y72.43 E6.5983
G1 X79.119 Y72.627 E6.61751
G1 X79.284 Y72.349 E6.6336
G1 X79.657 Y71.906 E6.66242
G1 X79.774 Y71.789 E6.67065
G1 X80.17 Y71.451 E6.69656
G1 X80.612 Y71.176 E6.72247
G1 X81.091 Y70.973 E6.74836
G1 X81.596 Y70.845 E6.77428
G1 X82.173 Y70.796 E6.8031
G1 X102.827 Y70.796 E7.83096
G1 X103.346 Y70.836 E7.85686
G1 X103.853 Y70.955 E7.88278
G1 X104.335 Y71.15 E7.90865
G1 X104.783 Y71.416 E7.93458
G1 X105.226 Y71.789 E7.9634
G1 X105.343 Y71.906 E7.97164
G1 X105.681 Y72.302 E7.99755
G1 X105.883 Y72.626 E8.01655
G1 X106.227 Y72.423 E8.03643
G1 X106.711 Y72.23 E8.06236
G1 X107.218 Y72.113 E8.08825
G1 X107.721 Y72.076 E8.11335
G1 X108.789 Y72.076 E8.1665
G1 X109.308 Y72.116 E8.19241
G1 X109.815 Y72.235 E8.21832
G1 X110.297 Y72.43 E8.2442
G1 X110.745 Y72.696 E8.27013
G1 X111.246 Y73.13 E8.30311
G1 X111.364 Y73.254 E8.31163
G1 X111.693 Y73.657 E8.33752
G1 X111.956 Y74.106 E8.36342
G1 X112.148 Y74.59 E8.38933
G1 X112.263 Y75.098 E8.41525
G1 X112.289 Y75.847 E8.45255
G1 X112.06 Y78.89 E8.60441
G1 X112.043 Y79.062 E8.61301
G1 X111.776 Y81.164 E8.71846
G1 X111.747 Y81.353 E8.72798
G1 X111.123 Y84.734 E8.89908
G1 X111.068 Y84.979 E8.91157
G1 X110.124 Y88.578 E9.09674
G1 X110.051 Y88.819 E9.10927
G1 X109.217 Y91.246 E9.23698
G1 X109.149 Y91.426 E9.24656
G1 X108.407 Y93.243 E9.34423
G1 X108.174 Y93.709 E9.37016
G1 X107.97 Y93.996 E9.38768
G1 X107.834 Y94.447 E9.41112
G1 X107.639 Y94.862 E9.43394
G1 X106.366 Y97.164 E9.56485
G1 X106.226 Y97.397 E9.57838
G1 X105.454 Y98.562 E9.64793
G1 X105.302 Y98.772 E9.66083
G1 X104.105 Y100.309 E9.75778
G1 X103.846 Y100.605 E9.77735
G1 X102.232 Y102.244 E9.89183
G1 X101.853 Y102.576 E9.9169
G1 X100.16 Y103.848 E10.02229
G1 X99.707 Y104.135 E10.04897
G1 X98.137 Y104.965 E10.13735
G1 X97.611 Y105.189 E10.1658
G1 X95.806 Y105.782 E10.26035
G1 X95.318 Y105.903 E10.28537
G1 X94.2 Y106.094 E10.34182
G1 X93.811 Y106.137 E10.3613
G1 X92.678 Y106.198 E10.41776
G1 X92.185 Y106.189 E10.4423
G1 X90.369 Y106.022 E10.53306
G1 X89.907 Y105.947 E10.55635
G1 X88.907 Y105.713 E10.60746
G1 X88.546 Y105.607 E10.62618
G1 X87.432 Y105.212 E10.685
G1 X86.98 Y105.014 E10.70956
G1 X85.172 Y104.058 E10.81134
G1 X84.691 Y103.749 E10.83979
G1 X83.012 Y102.459 E10.94516
G1 X82.719 Y102.206 E10.96443
G1 X81.8 Y101.316 E11.02809
G1 X81.616 Y101.122 E11.0414
G1 X80.758 Y100.149 E11.10596
G1 X80.607 Y99.965 E11.1178
G1 X79.691 Y98.766 E11.19289
G1 X79.548 Y98.564 E11.20521
G1 X78.641 Y97.178 E11.28764
G1 X78.504 Y96.95 E11.30088
G1 X77.355 Y94.851 E11.41996
G1 X77.14 Y94.376 E11.44591
G1 X77.038 Y94.01 E11.46482
G1 X76.798 Y93.659 E11.48598
G1 X76.581 Y93.212 E11.51071
G1 X75.561 Y90.642 E11.64831
G1 X75.493 Y90.454 E11.65826
G1 X74.878 Y88.59 E11.75594
G1 X74.827 Y88.421 E11.76472
G1 X74.224 Y86.215 E11.87853
G1 X74.18 Y86.036 E11.88771
G1 X73.561 Y83.166 E12.03382
G1 X73.523 Y82.955 E12.04449
G1 X73.032 Y79.69 E12.2088
G1 X73.005 Y79.464 E12.22013
G1 X72.71 Y75.872 E12.39948
G1 X72.708 Y75.351 E12.42541
G1 X72.785 Y74.836 E12.45133
G1 X72.94 Y74.339 E12.47724
G1 X73.169 Y73.872 E12.50312
G1 X73.605 Y73.286 E12.53947
G1 X73.722 Y73.16 E12.54803
M204 S5000
G0 F2400 X74.015 Y73.431
M204 S200
G1 F1200 X74.376 Y73.102 E12.57233
G1 X74.785 Y72.835 E12.59664
G1 X75.233 Y72.638 E12.62099
G1 X75.707 Y72.517 E12.64534
G1 X76.208 Y72.475 E12.67036
G1 X77.279 Y72.475 E12.72366
G1 X77.766 Y72.515 E12.74798
G1 X78.241 Y72.634 E12.77235
G1 X78.689 Y72.828 E12.79664
G1 X79.1 Y73.093 E12.82098
G1 X79.268 Y73.237 E12.83199
G1 X79.416 Y72.895 E12.85053
G1 X79.681 Y72.484 E12.87487
G1 X79.94 Y72.189 E12.89441
G1 X80.057 Y72.072 E12.90264
G1 X80.429 Y71.755 E12.92696
G1 X80.849 Y71.504 E12.95131
G1 X81.303 Y71.324 E12.97562
G1 X81.781 Y71.221 E12.99995
G1 X82.173 Y71.195 E13.0195
G1 X102.827 Y71.195 E14.04736
G1 X103.314 Y71.235 E14.07168
G1 X103.789 Y71.354 E14.09605
G1 X104.237 Y71.548 E14.12034
G1 X104.648 Y71.813 E14.14468
G1 X104.943 Y72.072 E14.16421
G1 X105.06 Y72.189 E14.17245
G1 X105.377 Y72.561 E14.19677
G1 X105.628 Y72.981 E14.22112
G1 X105.731 Y73.241 E14.23504
G1 X106.032 Y72.997 E14.25432
G1 X106.457 Y72.755 E14.27866
G1 X106.915 Y72.585 E14.30297
G1 X107.395 Y72.493 E14.32729
G1 X107.721 Y72.475 E14.34354
G1 X108.789 Y72.475 E14.39669
G1 X109.276 Y72.515 E14.42101
G1 X109.751 Y72.634 E14.44538
G1 X110.199 Y72.828 E14.46967
G1 X110.61 Y73.093 E14.49401
G1 X110.957 Y73.405 E14.51723
G1 X111.075 Y73.529 E14.52575
G1 X111.382 Y73.909 E14.55006
G1 X111.623 Y74.335 E14.57442
G1 X111.792 Y74.794 E14.59876
G1 X111.883 Y75.274 E14.62307
G1 X111.892 Y75.817 E14.6501
G1 X111.663 Y78.86 E14.80197
G1 X111.647 Y79.012 E14.80957
G1 X111.38 Y81.114 E14.91502
G1 X111.354 Y81.28 E14.92338
G1 X110.73 Y84.661 E15.09448
G1 X110.682 Y84.877 E15.10549
G1 X109.738 Y88.476 E15.29066
G1 X109.674 Y88.69 E15.30177
G1 X108.84 Y91.117 E15.42948
G1 X108.78 Y91.276 E15.43794
G1 X108.038 Y93.093 E15.53561
G1 X107.817 Y93.529 E15.55994
G1 X107.591 Y93.837 E15.57895
G1 X107.559 Y94.007 E15.58756
G1 X107.29 Y94.669 E15.62312
G1 X106.017 Y96.971 E15.75403
G1 X105.893 Y97.176 E15.76595
G1 X105.121 Y98.341 E15.83551
G1 X104.987 Y98.527 E15.84691
G1 X103.79 Y100.064 E15.94386
G1 X103.562 Y100.325 E15.96111
G1 X101.948 Y101.964 E16.07558
G1 X101.613 Y102.257 E16.09773
G1 X99.92 Y103.529 E16.20312
G1 X99.521 Y103.782 E16.22663
G1 X97.951 Y104.612 E16.31501
G1 X97.486 Y104.809 E16.34014
G1 X95.681 Y105.402 E16.43469
G1 X95.251 Y105.509 E16.45674
G1 X94.133 Y105.7 E16.51318
G1 X93.79 Y105.739 E16.53036
G1 X92.657 Y105.8 E16.58683
G1 X92.222 Y105.791 E16.60848
G1 X90.406 Y105.624 E16.69924
G1 X89.998 Y105.558 E16.71981
G1 X88.998 Y105.324 E16.77092
G1 X88.68 Y105.231 E16.7874
G1 X87.566 Y104.836 E16.84622
G1 X87.167 Y104.661 E16.86791
G1 X85.359 Y103.705 E16.96969
G1 X84.935 Y103.432 E16.99478
G1 X83.256 Y102.142 E17.10015
G1 X82.997 Y101.919 E17.11716
G1 X82.078 Y101.029 E17.18083
G1 X81.915 Y100.859 E17.19255
G1 X81.057 Y99.886 E17.25711
G1 X80.924 Y99.723 E17.26758
G1 X80.008 Y98.524 E17.34267
G1 X79.882 Y98.346 E17.35352
G1 X78.975 Y96.96 E17.43595
G1 X78.854 Y96.758 E17.44767
G1 X77.705 Y94.659 E17.56675
G1 X77.506 Y94.213 E17.59106
G1 X77.408 Y93.837 E17.61039
G1 X77.366 Y93.791 E17.61349
G1 X77.1 Y93.381 E17.63782
G1 X76.952 Y93.065 E17.65518
G1 X75.932 Y90.495 E17.79278
G1 X75.872 Y90.329 E17.80157
G1 X75.257 Y88.465 E17.89925
G1 X75.212 Y88.316 E17.90699
G1 X74.609 Y86.11 E18.02081
G1 X74.57 Y85.952 E18.0289
G1 X73.951 Y83.082 E18.17502
G1 X73.917 Y82.896 E18.18442
G1 X73.426 Y79.631 E18.34874
G1 X73.403 Y79.431 E18.35875
G1 X73.108 Y75.839 E18.53811
G1 X73.108 Y75.35 E18.56245
G1 X73.187 Y74.868 E18.58676
G1 X73.344 Y74.405 E18.61109
G1 X73.575 Y73.973 E18.63547
G1 X73.898 Y73.557 E18.66168
G1 X74.015 Y73.431 E18.67023
M204 S5000
G0 F2400 X74.19 Y73.829
M204 S200
G1 F1200 X74.307 Y73.703 E18.67879
G1 X74.645 Y73.398 E18.70145
G1 X75.031 Y73.157 E18.72409
G1 X75.453 Y72.986 E18.74675
G1 X75.898 Y72.893 E18.76938
G1 X76.208 Y72.874 E18.78483
G1 X77.279 Y72.874 E18.83813
G1 X77.732 Y72.914 E18.86076
G1 X78.172 Y73.032 E18.88343
G1 X78.584 Y73.226 E18.9061
G1 X79.072 Y73.593 E18.93648
G1 X79.187 Y73.703 E18.9444
G1 X79.485 Y74.044 E18.96694
G1 X79.502 Y73.852 E18.97653
G1 X79.62 Y73.412 E18.9992
G1 X79.814 Y73 E19.02187
G1 X80.222 Y72.471 E19.05511
G1 X80.339 Y72.354 E19.06335
G1 X80.688 Y72.061 E19.08602
G1 X81.082 Y71.835 E19.10863
G1 X81.51 Y71.68 E19.13128
G1 X82.173 Y71.594 E19.16455
G1 X102.827 Y71.594 E20.19241
G1 X103.28 Y71.634 E20.21504
G1 X103.72 Y71.752 E20.23771
G1 X104.132 Y71.946 E20.26037
G1 X104.661 Y72.354 E20.29362
G1 X104.778 Y72.471 E20.30185
G1 X105.071 Y72.82 E20.32453
G1 X105.297 Y73.214 E20.34714
G1 X105.452 Y73.642 E20.36979
G1 X105.508 Y74.071 E20.39132
G1 X105.813 Y73.703 E20.41511
G1 X105.928 Y73.593 E20.42302
G1 X106.283 Y73.309 E20.44565
G1 X106.683 Y73.091 E20.46832
G1 X107.114 Y72.946 E20.49095
G1 X107.721 Y72.874 E20.52137
G1 X108.789 Y72.874 E20.57452
G1 X109.242 Y72.914 E20.59715
G1 X109.682 Y73.032 E20.61982
G1 X110.094 Y73.226 E20.64248
G1 X110.465 Y73.488 E20.66509
G1 X110.668 Y73.68 E20.67899
G1 X110.786 Y73.804 E20.68751
G1 X111.07 Y74.16 E20.71017
G1 X111.287 Y74.56 E20.73282
G1 X111.431 Y74.992 E20.75548
G1 X111.497 Y75.442 E20.77812
G1 X111.494 Y75.787 E20.79529
G1 X111.265 Y78.83 E20.94715
G1 X111.251 Y78.962 E20.95376
G1 X110.984 Y81.064 E21.0592
G1 X110.962 Y81.208 E21.06645
G1 X110.338 Y84.589 E21.23755
G1 X110.296 Y84.776 E21.24709
G1 X109.352 Y88.375 E21.43225
G1 X109.296 Y88.56 E21.44187
G1 X108.462 Y90.987 E21.56959
G1 X108.41 Y91.125 E21.57693
G1 X107.668 Y92.942 E21.6746
G1 X107.46 Y93.346 E21.69721
G1 X107.226 Y93.653 E21.71642
G1 X107.128 Y94.053 E21.73692
G1 X106.941 Y94.476 E21.75993
G1 X105.668 Y96.778 E21.89084
G1 X105.56 Y96.956 E21.9012
G1 X104.788 Y98.121 E21.97076
G1 X104.673 Y98.282 E21.9806
G1 X103.476 Y99.819 E22.07755
G1 X103.277 Y100.045 E22.09254
G1 X101.663 Y101.684 E22.20701
G1 X101.373 Y101.938 E22.2262
G1 X99.68 Y103.21 E22.33158
G1 X99.334 Y103.429 E22.35196
G1 X97.764 Y104.259 E22.44034
G1 X97.362 Y104.43 E22.46208
G1 X95.557 Y105.023 E22.55663
G1 X95.184 Y105.116 E22.57576
G1 X94.066 Y105.307 E22.6322
G1 X93.768 Y105.34 E22.64712
G1 X92.635 Y105.401 E22.70359
G1 X92.258 Y105.394 E22.72235
G1 X90.442 Y105.227 E22.81311
G1 X90.089 Y105.17 E22.8309
G1 X89.089 Y104.936 E22.88201
G1 X88.813 Y104.855 E22.89633
G1 X87.699 Y104.46 E22.95515
G1 X87.353 Y104.308 E22.97396
G1 X85.545 Y103.352 E23.07574
G1 X85.178 Y103.116 E23.09745
G1 X83.499 Y101.826 E23.20282
G1 X83.274 Y101.632 E23.2176
G1 X82.355 Y100.742 E23.28127
G1 X82.214 Y100.595 E23.29141
G1 X81.356 Y99.622 E23.35597
G1 X81.241 Y99.481 E23.36502
G1 X80.325 Y98.282 E23.44011
G1 X80.215 Y98.127 E23.44957
G1 X79.308 Y96.741 E23.532
G1 X79.204 Y96.567 E23.54209
G1 X78.055 Y94.468 E23.66117
G1 X77.872 Y94.051 E23.68384
G1 X77.774 Y93.645 E23.70462
G1 X77.644 Y93.497 E23.71442
G1 X77.323 Y92.918 E23.74737
G1 X76.303 Y90.348 E23.88497
G1 X76.251 Y90.204 E23.89259
G1 X75.636 Y88.34 E23.99027
G1 X75.597 Y88.211 E23.99698
G1 X74.994 Y86.005 E24.11079
G1 X74.96 Y85.868 E24.11781
G1 X74.341 Y82.998 E24.26392
G1 X74.312 Y82.837 E24.27207
G1 X73.821 Y79.572 E24.43638
G1 X73.801 Y79.398 E24.44509
G1 X73.506 Y75.806 E24.62445
G1 X73.508 Y75.351 E24.6471
G1 X73.591 Y74.904 E24.66972
G1 X73.75 Y74.477 E24.6924
G1 X73.981 Y74.085 E24.71504
G1 X74.19 Y73.829 E24.73149
M204 S5000
G0 F2400 X74.6 Y73.974
M204 S200
G1 F1200 X74.912 Y73.696 E24.75228
G1 X75.272 Y73.482 E24.77313
G1 X75.666 Y73.341 E24.79395
G1 X76.208 Y73.273 E24.82113
G1 X77.279 Y73.273 E24.87443
G1 X77.696 Y73.313 E24.89528
G1 X78.097 Y73.431 E24.91608
G1 X78.469 Y73.624 E24.93694
G1 X78.796 Y73.882 E24.95767
G1 X78.911 Y73.992 E24.96559
G1 X79.185 Y74.309 E24.98644
G1 X79.393 Y74.672 E25.00726
G1 X79.529 Y75.068 E25.0281
G1 X79.586 Y75.47 E25.0483
G1 X79.587 Y75.493 E25.04945
G1 X79.861 Y75.493 E25.06308
G1 X79.861 Y74.305 E25.12221
G1 X79.901 Y73.888 E25.14305
G1 X80.019 Y73.487 E25.16385
G1 X80.212 Y73.115 E25.18471
G1 X80.504 Y72.753 E25.20786
G1 X80.621 Y72.636 E25.21609
G1 X80.944 Y72.369 E25.23695
G1 X81.311 Y72.169 E25.25775
G1 X81.71 Y72.042 E25.27858
G1 X82.173 Y71.993 E25.30175
G1 X102.827 Y71.993 E26.32961
G1 X103.244 Y72.033 E26.35046
G1 X103.645 Y72.151 E26.37126
G1 X104.017 Y72.344 E26.39212
G1 X104.379 Y72.636 E26.41526
G1 X104.496 Y72.753 E26.42349
G1 X104.763 Y73.076 E26.44435
G1 X104.963 Y73.443 E26.46515
G1 X105.09 Y73.842 E26.48599
G1 X105.139 Y74.305 E26.50916
G1 X105.139 Y75.493 E26.56828
G1 X105.413 Y75.493 E26.58192
G1 X105.414 Y75.47 E26.58306
G1 X105.474 Y75.055 E26.60393
G1 X105.612 Y74.66 E26.62475
G1 X105.823 Y74.298 E26.6456
G1 X106.089 Y73.992 E26.66578
G1 X106.204 Y73.882 E26.6737
G1 X106.532 Y73.623 E26.6945
G1 X106.904 Y73.431 E26.71533
G1 X107.306 Y73.313 E26.73618
G1 X107.721 Y73.273 E26.75693
G1 X108.789 Y73.273 E26.81008
G1 X109.206 Y73.313 E26.83093
