;FLAVOR:Marlin
;TIME:3530
;Filament used: 2.33267m
;Layer height: 0.15
;Generated with Cura_SteamEngine 2.7.0
M190 S60
M104 S220
M109 S220
G21 ;metric values
G90 ;absolute positioning
M82 ;set extruder to absolute mode
M107 ;start with the fan off
G92 E0 ;zero the extruded length
G1 F200 E3 ;extrude 3mm of feed stock
G92 E0 ;zero the extruded length again
G1 F9000
M301 P31.36 I3.30 D74.51 ;set PID tuning for E0
M304 P72.25 I2.72 D479.41 ; set PID tuning for heated bed
M117 Printing...
;LAYER_COUNT:69
;LAYER:0
M107
M205 X20 Y20
G0 F2400 X66.025 Y60.293 Z0.3
;TYPE:SKIRT
G1 F1050 X66.487 Y59.88 E0.03084
G1 X66.997 Y59.53 E0.06162
G1 X67.549 Y59.249 E0.09245
G1 X68.132 Y59.041 E0.12325
G1 X68.737 Y58.911 E0.15405
G1 X69.446 Y58.858 E0.18943
G1 X115.583 Y58.859 E2.48546
G1 X116.201 Y58.899 E2.51628
G1 X116.808 Y59.018 E2.54706
G1 X117.396 Y59.215 E2.57792
G1 X117.952 Y59.485 E2.60868
G1 X118.47 Y59.825 E2.63952
G1 X118.939 Y60.229 E2.67032
G1 X119.352 Y60.69 E2.70112
G1 X119.703 Y61.2 E2.73193
G1 X119.985 Y61.751 E2.76274
G1 X120.194 Y62.334 E2.79356
G1 X120.325 Y62.939 E2.82436
G1 X120.379 Y63.656 E2.86015
G1 X120.378 Y70.394 E3.19547
G1 X120.371 Y70.65 E3.20821
G1 X120.257 Y72.777 E3.31422
G1 X120.179 Y78.246 E3.58641
G1 X120.384 Y83.591 E3.8526
G1 X120.388 Y83.782 E3.86211
G1 X120.378 Y90.197 E4.18136
G1 X120.337 Y90.815 E4.21218
G1 X120.217 Y91.423 E4.24302
G1 X120.02 Y92.009 E4.27379
G1 X119.748 Y92.566 E4.30463
G1 X119.407 Y93.083 E4.33545
G1 X119.003 Y93.551 E4.36622
G1 X118.541 Y93.964 E4.39706
G1 X117.871 Y94.404 E4.43695
G1 X115.727 Y95.569 E4.55838
G1 X111.065 Y98.357 E4.82871
G1 X106.583 Y101.393 E5.09812
G1 X103.399 Y103.771 E5.29588
G1 X102.88 Y104.108 E5.32668
G1 X102.591 Y104.258 E5.34288
G1 X102.253 Y104.419 E5.36151
G1 X101.679 Y104.648 E5.39227
G1 X101.079 Y104.802 E5.4231
G1 X100.258 Y104.885 E5.46416
G1 X97.09 Y104.929 E5.62183
G1 X96.887 Y104.927 E5.63194
G1 X93.74 Y104.838 E5.78861
G1 X84.973 Y104.911 E6.22492
G1 X84.355 Y104.876 E6.25573
G1 X83.747 Y104.762 E6.28651
G1 X83.433 Y104.67 E6.30279
G1 X83.187 Y104.589 E6.31568
G1 X82.613 Y104.358 E6.34647
G1 X81.872 Y103.917 E6.38939
G1 X76.642 Y100.125 E6.71087
G1 X72.136 Y97.224 E6.97757
G1 X67.08 Y94.359 E7.26677
G1 X66.563 Y94.019 E7.29757
G1 X66.093 Y93.616 E7.32838
G1 X65.679 Y93.156 E7.35918
G1 X65.328 Y92.646 E7.38999
G1 X65.045 Y92.095 E7.42081
G1 X64.836 Y91.512 E7.45164
G1 X64.704 Y90.907 E7.48245
G1 X64.649 Y90.185 E7.51849
G1 X64.65 Y83.445 E7.85391
G1 X64.657 Y83.189 E7.86665
G1 X64.771 Y81.062 E7.97265
G1 X64.849 Y75.594 E8.2448
G1 X64.644 Y70.249 E8.51099
G1 X64.64 Y70.058 E8.5205
G1 X64.65 Y63.647 E8.83955
G1 X64.691 Y63.029 E8.87037
G1 X64.811 Y62.421 E8.90121
G1 X65.008 Y61.835 E8.93198
G1 X65.28 Y61.278 E8.96282
G1 X65.621 Y60.761 E8.99364
G1 X66.025 Y60.293 E9.02441
G0 F2400 X66.418 Y60.466
G1 F1050 X66.874 Y60.088 E9.05389
G1 X67.377 Y59.774 E9.0834
G1 X67.918 Y59.531 E9.11291
G1 X68.486 Y59.363 E9.14239
G1 X69.072 Y59.273 E9.17189
G1 X69.446 Y59.257 E9.19052
G1 X115.583 Y59.258 E11.48655
G1 X116.175 Y59.298 E11.51608
G1 X116.755 Y59.417 E11.54555
G1 X117.315 Y59.613 E11.57507
G1 X117.842 Y59.883 E11.60454
G1 X118.329 Y60.221 E11.63404
G1 X118.766 Y60.622 E11.66356
G1 X119.145 Y61.077 E11.69303
G1 X119.46 Y61.58 E11.72256
G1 X119.703 Y62.12 E11.75203
G1 X119.872 Y62.688 E11.78152
G1 X119.963 Y63.274 E11.81104
G1 X119.98 Y63.656 E11.83006
G1 X119.979 Y70.394 E12.16538
G1 X119.973 Y70.629 E12.17708
G1 X119.858 Y72.776 E12.28408
G1 X119.78 Y78.237 E12.55588
G1 X119.986 Y83.606 E12.82327
G1 X119.989 Y83.782 E12.83203
G1 X119.979 Y90.197 E13.15127
G1 X119.938 Y90.788 E13.18076
G1 X119.818 Y91.369 E13.21028
G1 X119.621 Y91.928 E13.23978
G1 X119.351 Y92.455 E13.26924
G1 X119.012 Y92.942 E13.29877
G1 X118.61 Y93.378 E13.32829
G1 X118.154 Y93.756 E13.35776
G1 X117.681 Y94.054 E13.38558
G1 X115.519 Y95.228 E13.50802
G1 X110.837 Y98.029 E13.77953
G1 X106.356 Y101.064 E14.04886
G1 X103.16 Y103.451 E14.24738
G1 X102.42 Y103.898 E14.2904
G1 X102.082 Y104.059 E14.30903
G1 X101.531 Y104.277 E14.33852
G1 X100.955 Y104.419 E14.36805
G1 X100.252 Y104.486 E14.40319
G1 X97.084 Y104.53 E14.56086
G1 X96.898 Y104.528 E14.57012
G1 X93.748 Y104.439 E14.72694
G1 X84.97 Y104.512 E15.1638
G1 X84.378 Y104.477 E15.19331
G1 X83.558 Y104.291 E15.23516
G1 X83.312 Y104.21 E15.24805
G1 X82.763 Y103.988 E15.27752
G1 X82.106 Y103.594 E15.31564
G1 X76.871 Y99.799 E15.63742
G1 X72.323 Y96.871 E15.9066
G1 X67.277 Y94.011 E16.19525
G1 X66.782 Y93.685 E16.22474
G1 X66.336 Y93.295 E16.25423
G1 X65.946 Y92.849 E16.28371
G1 X65.62 Y92.354 E16.31321
G1 X65.363 Y91.82 E16.3427
G1 X65.18 Y91.256 E16.37221
G1 X65.075 Y90.672 E16.40174
G1 X65.048 Y90.185 E16.42601
G1 X65.049 Y83.445 E16.76143
G1 X65.055 Y83.21 E16.77313
G1 X65.17 Y81.064 E16.88008
G1 X65.248 Y75.603 E17.15188
G1 X65.042 Y70.234 E17.41926
G1 X65.039 Y70.058 E17.42802
G1 X65.049 Y63.647 E17.74707
G1 X65.09 Y63.056 E17.77655
G1 X65.21 Y62.475 E17.80608
G1 X65.407 Y61.916 E17.83557
G1 X65.677 Y61.389 E17.86504
G1 X66.016 Y60.902 E17.89457
G1 X66.418 Y60.466 E17.92408
G0 F2400 X66.809 Y60.649
G1 F1050 X67.259 Y60.307 E17.95221
G1 X67.753 Y60.032 E17.98035
G1 X68.28 Y59.83 E18.00843
G1 X68.831 Y59.704 E18.03656
G1 X69.446 Y59.656 E18.06726
G1 X115.583 Y59.657 E20.36329
G1 X116.147 Y59.697 E20.39143
G1 X116.699 Y59.816 E20.41953
G1 X117.23 Y60.012 E20.4477
G1 X117.727 Y60.28 E20.4758
G1 X118.181 Y60.616 E20.50391
G1 X118.584 Y61.013 E20.53206
G1 X118.926 Y61.463 E20.56019
G1 X119.202 Y61.956 E20.58831
G1 X119.405 Y62.483 E20.61641
G1 X119.533 Y63.034 E20.64456
G1 X119.581 Y63.656 E20.67561
G1 X119.58 Y70.394 E21.01093
G1 X119.574 Y70.607 E21.02153
G1 X119.459 Y72.749 E21.12828
G1 X119.38 Y78.246 E21.40187
G1 X119.587 Y83.621 E21.66956
G1 X119.59 Y83.781 E21.67752
G1 X119.58 Y90.196 E21.99677
G1 X119.539 Y90.76 E22.02491
G1 X119.419 Y91.312 E22.05302
G1 X119.223 Y91.842 E22.08114
G1 X118.953 Y92.339 E22.10929
G1 X118.617 Y92.793 E22.1374
G1 X118.219 Y93.195 E22.16555
G1 X117.769 Y93.537 E22.19368
G1 X117.49 Y93.703 E22.20984
G1 X115.321 Y94.881 E22.33267
G1 X110.633 Y97.685 E22.60452
G1 X106.114 Y100.746 E22.87614
G1 X102.921 Y103.131 E23.07448
G1 X102.248 Y103.537 E23.11359
G1 X101.91 Y103.698 E23.13223
G1 X101.384 Y103.905 E23.16036
G1 X100.834 Y104.035 E23.18848
G1 X100.247 Y104.087 E23.21781
G1 X97.079 Y104.131 E23.37548
G1 X96.91 Y104.129 E23.38389
G1 X93.757 Y104.039 E23.54087
G1 X84.966 Y104.113 E23.97837
G1 X84.402 Y104.078 E24.00649
G1 X83.683 Y103.912 E24.04321
G1 X83.437 Y103.831 E24.0561
G1 X82.914 Y103.617 E24.08423
G1 X82.341 Y103.271 E24.11754
G1 X77.096 Y99.469 E24.43992
G1 X72.536 Y96.533 E24.70982
G1 X67.474 Y93.664 E24.99938
G1 X67.003 Y93.352 E25.0275
G1 X66.581 Y92.976 E25.05562
G1 X66.216 Y92.544 E25.08377
G1 X65.916 Y92.065 E25.1119
G1 X65.686 Y91.549 E25.14001
G1 X65.532 Y91.005 E25.16815
G1 X65.447 Y90.185 E25.20917
G1 X65.448 Y83.445 E25.54459
G1 X65.454 Y83.232 E25.5552
G1 X65.569 Y81.091 E25.6619
G1 X65.648 Y75.594 E25.93549
G1 X65.441 Y70.219 E26.20318
G1 X65.438 Y70.059 E26.21114
G1 X65.448 Y63.648 E26.53019
G1 X65.489 Y63.084 E26.55833
G1 X65.609 Y62.532 E26.58644
G1 X65.805 Y62.002 E26.61456
G1 X66.075 Y61.505 E26.64271
G1 X66.411 Y61.051 E26.67082
G1 X66.809 Y60.649 E26.69897
G0 F2400 X67.198 Y60.843
G1 F1050 X67.641 Y60.54 E26.72568
G1 X68.124 Y60.307 E26.75237
G1 X68.636 Y60.147 E26.77906
G1 X69.166 Y60.066 E26.80574
G1 X69.446 Y60.055 E26.81969
G1 X115.583 Y60.056 E29.11572
G1 X116.118 Y60.096 E29.14242
G1 X116.641 Y60.215 E29.16911
G1 X117.14 Y60.41 E29.19577
G1 X117.605 Y60.678 E29.22248
G1 X118.025 Y61.011 E29.24915
G1 X118.39 Y61.403 E29.27581
G1 X118.694 Y61.845 E29.30251
G1 X118.928 Y62.328 E29.32922
G1 X119.088 Y62.839 E29.35586
G1 X119.171 Y63.369 E29.38256
G1 X119.182 Y63.656 E29.39685
G1 X119.181 Y70.394 E29.73217
G1 X119.176 Y70.586 E29.74173
G1 X119.06 Y72.747 E29.84943
G1 X118.981 Y78.256 E30.12362
G1 X119.188 Y83.637 E30.3916
G1 X119.191 Y83.781 E30.39877
G1 X119.181 Y90.196 E30.71802
G1 X119.14 Y90.73 E30.74467
G1 X119.02 Y91.253 E30.77137
G1 X118.824 Y91.752 E30.79805
G1 X118.556 Y92.216 E30.82472
G1 X118.222 Y92.636 E30.85142
G1 X117.83 Y93.001 E30.87808
G1 X117.3 Y93.353 E30.90974
G1 X115.113 Y94.541 E31.0336
G1 X110.417 Y97.349 E31.30589
G1 X105.898 Y100.411 E31.57755
G1 X102.683 Y102.812 E31.77723
G1 X102.077 Y103.177 E31.81244
G1 X101.739 Y103.338 E31.83107
G1 X101.239 Y103.532 E31.85776
G1 X100.716 Y103.65 E31.88444
G1 X100.241 Y103.688 E31.90816
G1 X97.073 Y103.732 E32.06583
G1 X96.921 Y103.731 E32.07339
G1 X93.737 Y103.641 E32.23191
G1 X84.963 Y103.714 E32.66857
G1 X84.428 Y103.678 E32.69525
G1 X83.807 Y103.533 E32.72699
G1 X83.561 Y103.452 E32.73988
G1 X83.066 Y103.247 E32.76654
G1 X82.575 Y102.948 E32.79515
G1 X77.325 Y99.142 E33.11785
G1 X72.736 Y96.187 E33.38948
G1 X67.671 Y93.317 E33.67919
G1 X67.225 Y93.019 E33.70589
G1 X66.829 Y92.657 E33.73259
G1 X66.491 Y92.241 E33.75926
G1 X66.218 Y91.78 E33.78592
G1 X66.017 Y91.282 E33.81265
G1 X65.892 Y90.761 E33.83931
G1 X65.846 Y90.185 E33.86807
G1 X65.847 Y83.445 E34.20349
G1 X65.852 Y83.253 E34.21305
G1 X65.968 Y81.093 E34.3207
G1 X66.047 Y75.584 E34.59488
G1 X65.84 Y70.203 E34.86287
G1 X65.837 Y70.059 E34.87004
G1 X65.847 Y63.648 E35.18908
G1 X65.888 Y63.114 E35.21574
G1 X66.008 Y62.591 E35.24244
G1 X66.204 Y62.092 E35.26912
G1 X66.472 Y61.628 E35.29578
G1 X66.806 Y61.208 E35.32249
G1 X67.198 Y60.843 E35.34915
G0 F2400 X67.586 Y61.05
G1 F1050 X68.019 Y60.79 E35.37428
G1 X68.488 Y60.601 E35.39944
G1 X68.981 Y60.488 E35.42461
G1 X69.446 Y60.454 E35.44782
G1 X115.583 Y60.455 E37.74385
G1 X116.087 Y60.495 E37.76901
G1 X116.578 Y60.614 E37.79415
G1 X117.045 Y60.809 E37.81933
G1 X117.475 Y61.074 E37.84447
G1 X117.858 Y61.405 E37.86966
G1 X118.184 Y61.791 E37.89481
G1 X118.445 Y62.224 E37.91997
G1 X118.635 Y62.692 E37.9451
G1 X118.748 Y63.185 E37.97027
G1 X118.783 Y63.655 E37.99373
G1 X118.782 Y70.393 E38.32905
G1 X118.777 Y70.564 E38.33756
G1 X118.661 Y72.719 E38.44496
G1 X118.582 Y78.247 E38.72009
G1 X118.79 Y83.652 E38.98928
G1 X118.792 Y83.78 E38.99565
G1 X118.782 Y90.195 E39.31489
G1 X118.741 Y90.699 E39.34006
G1 X118.622 Y91.19 E39.3652
G1 X118.426 Y91.656 E39.39036
G1 X118.16 Y92.086 E39.41552
G1 X117.829 Y92.468 E39.44067
G1 X117.442 Y92.794 E39.46586
G1 X117.109 Y93.002 E39.4854
G1 X114.916 Y94.193 E39.60959
G1 X110.21 Y97.008 E39.88248
G1 X105.662 Y100.089 E40.15586
G1 X102.444 Y102.492 E40.35573
G1 X101.905 Y102.817 E40.38705
G1 X101.567 Y102.978 E40.40569
G1 X101.095 Y103.159 E40.43084
G1 X100.6 Y103.263 E40.45602
G1 X100.235 Y103.289 E40.47423
G1 X97.067 Y103.333 E40.6319
G1 X96.932 Y103.332 E40.63862
G1 X93.745 Y103.242 E40.79728
G1 X84.96 Y103.315 E41.23449
G1 X84.455 Y103.279 E41.25968
G1 X83.932 Y103.154 E41.28644
G1 X83.686 Y103.073 E41.29933
G1 X83.22 Y102.878 E41.32447
G1 X82.809 Y102.625 E41.34849
G1 X77.554 Y98.816 E41.67148
G1 X72.943 Y95.847 E41.9444
G1 X67.867 Y92.97 E42.23477
G1 X67.448 Y92.687 E42.25993
G1 X67.08 Y92.341 E42.28507
G1 X66.77 Y91.942 E42.31021
G1 X66.527 Y91.498 E42.3354
G1 X66.356 Y91.022 E42.36057
G1 X66.263 Y90.525 E42.38573
G1 X66.245 Y90.186 E42.40263
G1 X66.246 Y83.446 E42.73805
G1 X66.251 Y83.275 E42.74656
G1 X66.367 Y81.121 E42.85391
G1 X66.446 Y75.593 E43.12904
G1 X66.238 Y70.188 E43.39822
G1 X66.236 Y70.06 E43.40459
G1 X66.246 Y63.649 E43.72364
G1 X66.287 Y63.145 E43.74881
G1 X66.406 Y62.654 E43.77395
G1 X66.602 Y62.188 E43.79911
G1 X66.868 Y61.758 E43.82427
G1 X67.199 Y61.376 E43.84942
G1 X67.586 Y61.05 E43.8746
G1 F1500 E42.8746
G0 F2400 X68.775 Y70.552
G0 X69.279 Y71.056
G0 X84.238 Y78.451
;TYPE:SUPPORT
G1 F1500 E43.8746
G1 F1050 X84.498 Y78.643 E43.89069
G1 X84.673 Y78.726 E43.90033
G1 X84.929 Y78.797 E43.91355
G1 X85.077 Y78.814 E43.92096
G1 X88.015 Y78.813 E44.06717
G1 X88.015 Y80.017 E44.12709
G1 X87.889 Y80.143 E44.13596
G1 X85.029 Y80.139 E44.27829
G1 X84.897 Y80.112 E44.28499
G1 X84.772 Y80.065 E44.29164
G1 X84.57 Y79.944 E44.30336
G1 X84.413 Y79.606 E44.3219
G1 X84.387 Y79.578 E44.32381
G1 X84.296 Y79.023 E44.35179
G1 X84.281 Y78.996 E44.35333
G1 X84.206 Y78.417 E44.38239
G1 X84.238 Y78.451 E44.38471
G0 F2400 X85.312 Y78.973
G1 F1050 X85.312 Y79.979 E44.43477
G0 F2400 X85.74 Y79.98
G1 F1050 X87.825 Y79.98 E44.53854
G0 F2400 X86.645 Y79.981
G1 F1050 X86.645 Y78.973 E44.5887
G0 F2400 X97.009 Y80.026
G1 F1050 X97.01 Y78.814 E44.64901
G1 X99.953 Y78.814 E44.79547
G1 X100.097 Y78.797 E44.80269
G1 X100.351 Y78.729 E44.81578
G1 X100.53 Y78.645 E44.82562
G1 X100.729 Y78.502 E44.83781
G1 X100.794 Y78.445 E44.84211
G1 X100.819 Y78.725 E44.8561
G1 X100.627 Y79.599 E44.90064
G1 X100.597 Y79.635 E44.90297
G1 X100.443 Y79.956 E44.92069
G1 X100.213 Y80.08 E44.93369
G1 X100.112 Y80.119 E44.93908
G1 X99.99 Y80.139 E44.94523
G1 X97.125 Y80.144 E45.08781
G1 X97.009 Y80.026 E45.09604
G0 F2400 X97.17 Y79.98
G1 F1050 X99.276 Y79.98 E45.20085
G0 F2400 X98.642 Y79.981
G1 F1050 X98.642 Y78.974 E45.25096
G0 F2400 X97.309 Y78.974
G1 F1050 X97.309 Y79.983 E45.30118
G0 F2400 X99.975 Y79.98
G1 F1050 X99.975 Y78.972 E45.35134
G1 F1500 E44.35134
G0 F2400 X115.749 Y82.784
G0 X116.253 Y83.288
G0 X116.253 Y90.352
G0 X115.749 Y90.856
G0 X100.729 Y98.302
G1 F1500 E45.35134
G1 F1050 X100.794 Y98.245 E45.35564
G1 X100.819 Y98.525 E45.36963
G1 X100.627 Y99.399 E45.41416
G1 X100.597 Y99.435 E45.4165
G1 X100.443 Y99.756 E45.43421
G1 X100.213 Y99.88 E45.44722
G1 X100.112 Y99.919 E45.45261
G1 X99.99 Y99.939 E45.45876
G1 X97.125 Y99.944 E45.60134
G1 X97.009 Y99.826 E45.60957
G1 X97.012 Y98.614 E45.66989
G1 X99.953 Y98.614 E45.81625
G1 X100.097 Y98.597 E45.82346
G1 X100.351 Y98.529 E45.83655
G1 X100.53 Y98.445 E45.84639
G1 X100.729 Y98.302 E45.85858
G0 F2400 X100.629 Y98.642
G1 F1050 X100.487 Y98.642 E45.86565
G0 F2400 X99.975 Y98.772
G1 F1050 X99.975 Y99.78 E45.91581
G0 F2400 X98.642 Y99.781
G1 F1050 X98.642 Y98.774 E45.96593
G0 F2400 X97.309 Y98.774
G1 F1050 X97.309 Y99.783 E46.01614
G0 F2400 X88.015 Y99.817
G1 F1050 X87.889 Y99.943 E46.02501
G1 X85.029 Y99.939 E46.16734
G1 X84.897 Y99.912 E46.17404
G1 X84.772 Y99.865 E46.18069
G1 X84.57 Y99.744 E46.19241
G1 X84.413 Y99.406 E46.21095
G1 X84.387 Y99.378 E46.21286
G1 X84.296 Y98.823 E46.24084
G1 X84.281 Y98.796 E46.24238
G1 X84.206 Y98.217 E46.27144
G1 X84.238 Y98.251 E46.27376
G1 X84.498 Y98.443 E46.28984
G1 X84.673 Y98.526 E46.29948
G1 X84.929 Y98.597 E46.3127
G1 X85.077 Y98.614 E46.32012
G1 X88.015 Y98.613 E46.46633
G1 X88.015 Y99.817 E46.52625
G0 F2400 X86.645 Y99.781
G1 F1050 X86.645 Y98.773 E46.57641
G0 F2400 X85.312 Y98.773
G1 F1050 X85.312 Y99.779 E46.62647
G0 F2400 X84.544 Y98.642
G1 F1050 X84.421 Y98.642 E46.6326
G1 F1500 E45.6326
G0 F2400 X69.279 Y90.856
G0 X68.775 Y90.352
G0 X68.775 Y83.288
G0 X69.279 Y82.784
G0 X85.24 Y78.579
G0 X85.239 Y77.302
G0 X85.483 Y76.839
;TYPE:WALL-INNER
G1 F1500 E46.6326
G1 F1050 X85.456 Y76.63 E46.64308
G1 X85.444 Y76.358 E46.65663
G1 X85.439 Y71.332 E46.90675
G1 X85.383 Y71.038 E46.92165
G1 X85.313 Y70.83 E46.93257
G1 X85.128 Y70.484 E46.9521
G1 X84.875 Y70.17 E46.97216
G1 X84.585 Y69.912 E46.99148
G1 X84.306 Y69.729 E47.00808
G1 X84.14 Y69.639 E47.01748
G1 X83.807 Y69.506 E47.03533
G1 X83.552 Y69.444 E47.04839
G1 X83.355 Y69.413 E47.05831
G1 X83.162 Y69.399 E47.06794
G1 X72.573 Y69.399 E47.59491
G1 X70.432 Y69.399 E47.70146
G1 X70.432 Y69.266 E47.70807
G1 X72.573 Y69.266 E47.74359
G1 X72.573 Y68.603 E47.77658
G1 X72.573 Y64.774 E47.96714
G1 X70.432 Y64.774 E48.07368
G1 X70.432 Y64.641 E48.0803
G1 X72.581 Y64.641 E48.11608
G1 X72.581 Y64.774 E48.11998
G1 X72.581 Y68.603 E48.1238
G1 X112.323 Y68.603 E50.10158
G1 X112.323 Y64.774 E50.29213
G1 X112.323 Y64.641 E50.29875
G1 X114.596 Y64.641 E50.41187
G1 X114.596 Y64.774 E50.41849
G1 X112.331 Y64.774 E50.4532
G1 X112.331 Y68.603 E50.45702
G1 X112.331 Y69.266 E50.49002
G1 X114.596 Y69.266 E50.60274
G1 X114.596 Y69.399 E50.60935
G1 X112.331 Y69.399 E50.64693
G1 X101.808 Y69.399 E51.17061
G1 X101.498 Y69.438 E51.18616
G1 X101.295 Y69.486 E51.19654
G1 X101.058 Y69.566 E51.20899
G1 X100.786 Y69.693 E51.22393
G1 X100.593 Y69.808 E51.23511
