; generated by Slic3r 1.36.1-prusa3d-win32 on 2017-07-27 at 14:18:40

; 

; external perimeters extrusion width = 0.45mm
; perimeters extrusion width = 0.45mm
; infill extrusion width = 0.45mm
; solid infill extrusion width = 0.45mm
; top infill extrusion width = 0.40mm
; support material extrusion width = 0.40mm
; first layer extrusion width = 0.40mm

M107
M190 S60 ; set bed temperature and wait for it to be reached
M104 S215 ; set temperature
;be sure to home all axis before printing!
;G28 X0 ; home X axis
;G28 Y0 ; home Y axis


; Filament gcode

M109 S215 ; set temperature and wait for it to be reached
G21 ; set units to millimeters
G90 ; use absolute coordinates
M82 ; use absolute distances for extrusion
G92 E0
G1 Z0.300 F2400.000
G1 X27.140 Y32.428 F2400.000
G1 F1800
G1 X28.511 Y31.469 E0.10695
G1 X30.007 Y30.775 E0.21242
G1 X87.122 Y10.371 E4.09026
G1 X88.543 Y10.003 E4.18414
G1 X90.006 Y9.880 E4.27802
G1 X146.245 Y13.488 E7.88117
G1 X148.017 Y13.884 E7.99729
G1 X149.662 Y14.637 E8.11295
G1 X151.120 Y15.720 E8.22907
G1 X152.321 Y17.082 E8.34519
G1 X153.357 Y18.854 E8.47642
G1 X154.484 Y21.124 E8.63846
G1 X155.489 Y23.452 E8.80060
G1 X156.394 Y25.880 E8.96628
G1 X167.966 Y62.097 E11.39724
G1 X168.221 Y63.105 E11.46374
G1 X173.651 Y102.050 E13.97787
G1 X173.677 Y124.662 E15.42361
G1 X173.572 Y125.893 E15.50265
G1 X173.292 Y127.098 E15.58169
G1 X172.599 Y128.729 E15.69503
G1 X171.589 Y130.186 E15.80837
G1 X142.070 Y163.513 E18.65491
G1 X141.217 Y164.336 E18.73070
G1 X140.254 Y165.039 E18.80696
G1 X139.209 Y165.600 E18.88275
G1 X138.092 Y166.016 E18.95900
G1 X137.007 Y166.263 E19.03015
G1 X112.519 Y170.105 E20.61501
G1 X67.990 Y170.120 E23.46208
G1 X66.635 Y170.014 E23.54901
G1 X42.981 Y166.260 E25.08028
G1 X41.806 Y165.985 E25.15746
G1 X40.707 Y165.561 E25.23278
G1 X39.675 Y164.992 E25.30811
G1 X38.735 Y164.294 E25.38297
G1 X37.893 Y163.470 E25.45830
G1 X8.375 Y130.144 E28.30475
G1 X7.748 Y129.305 E28.37171
G1 X7.224 Y128.390 E28.43914
G1 X6.814 Y127.418 E28.50657
G1 X6.526 Y126.411 E28.57354
G1 X6.322 Y124.585 E28.69105
G1 X6.322 Y102.707 E30.08986
G1 X6.401 Y101.568 E30.16286
G1 X15.935 Y54.596 E33.22736
G1 X16.636 Y51.954 E33.40216
G1 X17.582 Y49.255 E33.58504
G1 X18.925 Y46.034 E33.80817
G1 X21.086 Y41.383 E34.13606
G1 X22.578 Y38.568 E34.33974
G1 X24.362 Y35.715 E34.55492
G1 X25.937 Y33.649 E34.72097
G1 X27.098 Y32.471 E34.82675
G1 X27.478 Y32.844 F2400.000
G1 F1800
G1 X28.786 Y31.929 E34.92885
G1 X30.188 Y31.279 E35.02762
G1 X87.301 Y10.876 E38.90531
G1 X88.630 Y10.532 E38.99310
G1 X90.005 Y10.416 E39.08134
G1 X146.161 Y14.017 E42.67924
G1 X147.824 Y14.384 E42.78812
G1 X149.380 Y15.093 E42.89744
G1 X150.754 Y16.111 E43.00677
G1 X151.885 Y17.394 E43.11610
G1 X152.886 Y19.108 E43.24305
G1 X153.999 Y21.352 E43.40320
G1 X154.993 Y23.655 E43.56355
G1 X155.889 Y26.058 E43.72751
G1 X167.455 Y62.260 E46.15746
G1 X167.694 Y63.202 E46.21963
G1 X173.117 Y102.087 E48.72990
G1 X173.142 Y124.651 E50.17258
G1 X173.043 Y125.809 E50.24689
G1 X172.778 Y126.948 E50.32165
G1 X172.124 Y128.482 E50.42828
G1 X171.175 Y129.845 E50.53447
G1 X141.676 Y163.151 E53.37916
G1 X140.875 Y163.924 E53.45032
G1 X139.970 Y164.584 E53.52193
G1 X138.984 Y165.115 E53.59354
G1 X137.934 Y165.504 E53.66516
G1 X136.917 Y165.734 E53.73182
G1 X112.489 Y169.570 E55.31281
G1 X67.990 Y169.584 E58.15801
G1 X66.719 Y169.485 E58.23951
G1 X43.066 Y165.731 E59.77076
G1 X41.962 Y165.472 E59.84327
G1 X40.930 Y165.074 E59.91398
G1 X39.968 Y164.544 E59.98425
G1 X39.080 Y163.884 E60.05496
G1 X38.290 Y163.110 E60.12567
G1 X8.790 Y129.804 E62.97043
G1 X8.198 Y129.014 E63.03350
G1 X7.704 Y128.153 E63.09701
G1 X7.318 Y127.237 E63.16053
G1 X7.046 Y126.282 E63.22404
G1 X6.858 Y124.575 E63.33382
G1 X6.858 Y102.708 E64.73198
G1 X6.932 Y101.640 E64.80045
G1 X16.459 Y54.704 E67.86259
G1 X17.150 Y52.103 E68.03470
G1 X18.083 Y49.446 E68.21476
G1 X19.416 Y46.248 E68.43623
G1 X21.567 Y41.618 E68.76269
G1 X23.033 Y38.851 E68.96292
G1 X24.801 Y36.022 E69.17622
G1 X26.336 Y34.007 E69.33816
G1 X27.436 Y32.887 E69.43852
G1 X27.816 Y33.259 F2400.000
G1 F1800
G1 X29.056 Y32.391 E69.53525
G1 X30.370 Y31.783 E69.62783
G1 X87.473 Y11.383 E73.50487
G1 X88.718 Y11.060 E73.58711
G1 X90.007 Y10.951 E73.66979
G1 X146.073 Y14.546 E77.26194
G1 X147.641 Y14.888 E77.36456
G1 X149.103 Y15.551 E77.46719
G1 X150.388 Y16.502 E77.56938
G1 X151.450 Y17.706 E77.67200
G1 X152.418 Y19.369 E77.79506
G1 X153.515 Y21.580 E77.95287
G1 X154.497 Y23.858 E78.11145
G1 X155.383 Y26.235 E78.27369
G1 X166.945 Y62.422 E80.70264
G1 X167.168 Y63.300 E80.76054
G1 X172.582 Y102.125 E83.26693
G1 X172.606 Y124.633 E84.70608
G1 X172.514 Y125.726 E84.77616
G1 X172.265 Y126.793 E84.84624
G1 X171.653 Y128.226 E84.94584
G1 X170.767 Y129.498 E85.04500
G1 X141.276 Y162.794 E87.88882
G1 X140.527 Y163.517 E87.95542
G1 X139.679 Y164.135 E88.02246
G1 X138.755 Y164.630 E88.08950
G1 X137.772 Y164.994 E88.15654
G1 X136.829 Y165.206 E88.21836
G1 X112.452 Y169.036 E89.79604
G1 X67.990 Y169.049 E92.63888
G1 X66.802 Y168.956 E92.71505
G1 X43.158 Y165.204 E94.24576
G1 X42.111 Y164.958 E94.31454
G1 X41.152 Y164.587 E94.38027
G1 X40.252 Y164.090 E94.44601
G1 X39.422 Y163.471 E94.51218
G1 X38.688 Y162.751 E94.57791
G1 X9.203 Y129.464 E97.42112
G1 X8.644 Y128.717 E97.48076
G1 X8.180 Y127.907 E97.54041
G1 X7.819 Y127.047 E97.60006
G1 X7.566 Y126.149 E97.65971
G1 X7.393 Y124.574 E97.76103
G1 X7.393 Y102.716 E99.15862
G1 X7.463 Y101.710 E99.22305
G1 X16.984 Y54.813 E102.28276
G1 X17.665 Y52.252 E102.45216
G1 X18.581 Y49.643 E102.62898
G1 X19.906 Y46.463 E102.84923
G1 X22.048 Y41.853 E103.17427
G1 X23.489 Y39.132 E103.37114
G1 X25.241 Y36.328 E103.58250
G1 X26.732 Y34.369 E103.73994
G1 X27.775 Y33.302 E103.83532
G1 X28.156 Y33.673 F2400.000
G1 F1800
G1 X29.326 Y32.854 E103.92664
G1 X30.553 Y32.286 E104.01307
G1 X87.652 Y11.888 E107.88985
G1 X88.808 Y11.588 E107.96621
G1 X90.005 Y11.487 E108.04298
G1 X146.001 Y15.077 E111.63060
G1 X147.456 Y15.391 E111.72578
G1 X148.818 Y16.006 E111.82137
G1 X150.022 Y16.893 E111.91696
G1 X151.011 Y18.014 E112.01255
G1 X151.950 Y19.629 E112.13200
G1 X153.033 Y21.814 E112.28794
G1 X153.999 Y24.054 E112.44389
G1 X154.878 Y26.413 E112.60484
G1 X166.641 Y63.399 E115.08642
G1 X172.048 Y102.163 E117.58890
G1 X172.071 Y124.623 E119.02494
G1 X171.984 Y125.644 E119.09041
G1 X171.751 Y126.641 E119.15588
G1 X171.184 Y127.967 E119.24813
G1 X170.355 Y129.156 E119.34079
G1 X140.882 Y162.432 E122.18293
G1 X140.183 Y163.106 E122.24504
G1 X139.392 Y163.683 E122.30758
G1 X138.530 Y164.144 E122.37012
G1 X137.612 Y164.482 E122.43265
G1 X136.747 Y164.677 E122.48932
G1 X112.422 Y168.501 E124.06377
G1 X67.990 Y168.513 E126.90464
G1 X66.882 Y168.426 E126.97571
G1 X43.242 Y164.675 E128.50608
G1 X42.265 Y164.445 E128.57029
G1 X41.377 Y164.101 E128.63116
G1 X40.538 Y163.637 E128.69243
G1 X39.770 Y163.064 E128.75371
G1 X39.086 Y162.393 E128.81499
G1 X9.616 Y129.123 E131.65673
G1 X9.092 Y128.424 E131.71256
G1 X8.658 Y127.666 E131.76839
G1 X8.323 Y126.867 E131.82380
G1 X8.087 Y126.026 E131.87963
G1 X7.929 Y124.566 E131.97355
G1 X7.929 Y102.716 E133.37058
G1 X7.995 Y101.773 E133.43102
G1 X17.508 Y54.921 E136.48781
G1 X18.177 Y52.408 E136.65404
G1 X19.081 Y49.834 E136.82852
G1 X20.394 Y46.684 E137.04669
G1 X22.527 Y42.094 E137.37031
G1 X23.943 Y39.418 E137.56389
G1 X25.680 Y36.634 E137.77367
G1 X27.129 Y34.729 E137.92672
G1 X28.114 Y33.716 E138.01706
G1 X28.431 Y34.156 F2400.000
G1 F1800
G1 X29.596 Y33.317 E138.10888
G1 X30.736 Y32.789 E138.18920
G1 X87.825 Y12.395 E142.06526
G1 X88.900 Y12.116 E142.13624
G1 X90.006 Y12.022 E142.20723
G1 X145.923 Y15.608 E145.78980
G1 X147.274 Y15.895 E145.87807
G1 X148.539 Y16.463 E145.96674
G1 X149.656 Y17.284 E146.05542
G1 X150.574 Y18.324 E146.14409
G1 X151.478 Y19.883 E146.25934
G1 X152.548 Y22.042 E146.41339
G1 X153.503 Y24.257 E146.56759
G1 X154.373 Y26.590 E146.72681
G1 X166.115 Y63.500 E149.20331
G1 X171.514 Y102.203 E151.70186
G1 X171.535 Y124.614 E153.13475
G1 X171.455 Y125.563 E153.19568
G1 X171.237 Y126.491 E153.25660
G1 X170.712 Y127.713 E153.34166
G1 X169.947 Y128.809 E153.42712
G1 X140.487 Y162.070 E156.26800
G1 X139.837 Y162.697 E156.32570
G1 X139.103 Y163.232 E156.38380
G1 X138.307 Y163.657 E156.44150
G1 X137.454 Y163.971 E156.49961
G1 X136.666 Y164.147 E156.55126
G1 X112.390 Y167.967 E158.12250
G1 X67.990 Y167.978 E160.96133
G1 X66.971 Y167.898 E161.02668
G1 X43.327 Y164.146 E162.55734
G1 X42.418 Y163.931 E162.61706
G1 X41.600 Y163.614 E162.67315
G1 X40.827 Y163.186 E162.72964
G1 X40.119 Y162.658 E162.78613
G1 X39.488 Y162.039 E162.84262
G1 X10.033 Y128.786 E165.68292
G1 X9.547 Y128.141 E165.73458
G1 X9.141 Y127.435 E165.78664
G1 X8.827 Y126.684 E165.83870
G1 X8.608 Y125.899 E165.89076
G1 X8.464 Y124.564 E165.97662
G1 X8.464 Y102.717 E167.37348
G1 X8.525 Y101.848 E167.42916
G1 X18.033 Y55.029 E170.48381
G1 X18.691 Y52.559 E170.64726
G1 X19.582 Y50.024 E170.81900
G1 X20.885 Y46.899 E171.03551
G1 X23.008 Y42.329 E171.35772
G1 X24.401 Y39.697 E171.54811
G1 X25.739 Y37.504 E171.71234
G1 X27.205 Y35.482 E171.87202
G1 X28.382 Y34.191 E171.98374
G92 E0
G1 X76.355 Y68.722 F2400.000
G1 F1800
G1 X90.066 Y82.433 E1.24285
G1 X90.479 Y82.087 E1.27739
G1 X76.646 Y68.254 E2.53127
G1 X76.718 Y67.567 E2.57556
G1 X90.892 Y81.741 E3.86035
G1 X91.305 Y81.395 E3.89490
G1 X76.790 Y66.880 E5.21061
G1 X76.862 Y66.192 E5.25490
G1 X91.718 Y81.048 E6.60152
G1 X92.131 Y80.702 E6.63607
G1 X76.934 Y65.505 E8.01360
G1 X77.006 Y64.818 E8.05790
G1 X92.544 Y80.356 E9.46635
G1 X92.957 Y80.009 E9.50089
G1 X77.078 Y64.130 E10.94025
G1 X77.150 Y63.443 E10.98455
G1 X93.370 Y79.663 E12.45483
G1 X93.783 Y79.317 E12.48937
G1 X77.222 Y62.756 E13.99057
G1 X77.293 Y62.068 E14.03486
G1 X94.196 Y78.971 E15.56697
G1 X94.609 Y78.624 E15.60152
G1 X77.691 Y61.706 E17.13505
G1 X78.089 Y61.346 E17.16950
G1 X95.022 Y78.278 E18.70433
G1 X95.435 Y77.932 E18.73888
G1 X78.488 Y60.985 E20.27501
G1 X78.887 Y60.625 E20.30946
G1 X95.848 Y77.586 E21.84689
G1 X96.261 Y77.239 E21.88144
G1 X79.285 Y60.264 E23.42017
G1 X79.684 Y59.903 E23.45462
G1 X96.674 Y76.893 E24.99465
G1 X97.087 Y76.547 E25.02920
G1 X80.083 Y59.543 E26.57053
G1 X80.481 Y59.182 E26.60498
G1 X97.500 Y76.200 E28.14761
G1 X97.828 Y75.926 E28.17504
G1 X97.984 Y75.926 E28.18507
G1 X80.880 Y58.822 E29.73547
G1 X81.279 Y58.461 E29.76992
G1 X98.743 Y75.926 E31.35301
G1 X99.503 Y75.926 E31.40167
G1 X81.677 Y58.100 E33.01744
G1 X82.076 Y57.740 E33.05190
G1 X100.262 Y75.926 E34.70036
G1 X101.021 Y75.926 E34.74903
G1 X82.475 Y57.379 E36.43017
G1 X82.873 Y57.018 E36.46463
G1 X102.021 Y76.167 E38.20031
G92 E0
G1 X105.673 Y73.744 F2400.000
G1 F1800
G1 X157.593 Y125.664 E4.70632
G1 X157.058 Y125.888 E4.74350
G1 X91.754 Y60.584 E10.66297
G1 X92.514 Y60.584 E10.71164
G1 X103.727 Y71.798 E11.72808
G1 X103.638 Y70.950 E11.78274
G1 X92.626 Y59.938 E12.78089
G1 X92.626 Y59.179 E12.82955
G1 X103.549 Y70.101 E13.81963
G1 X103.460 Y69.253 E13.87430
G1 X92.626 Y58.420 E14.85631
G1 X92.626 Y57.660 E14.90498
G1 X103.371 Y68.405 E15.87893
G1 X103.282 Y67.557 E15.93360
G1 X92.626 Y56.901 E16.89949
G1 X92.626 Y56.142 E16.94816
G1 X103.193 Y66.709 E17.90598
G1 X103.104 Y65.860 E17.96065
G1 X92.626 Y55.382 E18.91042
G1 X92.626 Y54.623 E18.95908
G1 X103.015 Y65.012 E19.90078
G1 X102.926 Y64.164 E19.95545
G1 X92.626 Y53.864 E20.88909
G1 X92.626 Y53.105 E20.93776
G1 X102.837 Y63.316 E21.86333
G1 X102.749 Y62.467 E21.91800
G1 X98.924 Y58.643 E22.26470
G92 E0
G1 X95.189 Y54.908 F2400.000
G1 F1800
G1 X92.626 Y52.345 E0.23226
G1 X92.626 Y51.586 E0.28092
G1 X95.136 Y54.096 E0.50841
G1 X95.084 Y53.284 E0.56056
G1 X92.626 Y50.827 E0.78328
G1 X92.626 Y50.068 E0.83195
G1 X95.031 Y52.472 E1.04991
G1 X94.978 Y51.660 E1.10206
G1 X92.626 Y49.308 E1.31525
G1 X92.626 Y48.549 E1.36392
G1 X94.926 Y50.848 E1.57234
G1 X94.873 Y50.037 E1.62449
G1 X92.626 Y47.790 E1.82815
G1 X92.626 Y47.031 E1.87682
G1 X94.821 Y49.225 E2.07572
G1 X94.768 Y48.413 E2.12786
G1 X92.626 Y46.271 E2.32199
G1 X92.626 Y45.512 E2.37066
G1 X94.716 Y47.601 E2.56002
G1 X94.663 Y46.789 E2.61217
G1 X92.626 Y44.753 E2.79677
G1 X92.626 Y43.993 E2.84543
G1 X94.610 Y45.977 E3.02527
G1 X94.558 Y45.166 E3.07741
G1 X92.626 Y43.234 E3.25248
G1 X92.626 Y42.475 E3.30115
G1 X94.497 Y44.346 E3.47074
G1 X94.430 Y43.519 E3.52393
G1 X92.626 Y41.716 E3.68737
G1 X92.626 Y40.956 E3.73604
G1 X94.362 Y42.692 E3.89333
G1 X94.294 Y41.864 E3.94652
G1 X92.626 Y40.197 E4.09766
G1 X92.626 Y39.438 E4.14633
G1 X94.214 Y41.025 E4.29019
G1 X94.126 Y40.178 E4.34474
G1 X92.626 Y38.679 E4.48068
G1 X92.626 Y37.919 E4.52935
G1 X94.039 Y39.332 E4.65738
G1 X93.944 Y38.478 E4.71243
G1 X87.160 Y31.693 E5.32745
G1 X87.303 Y31.077 E5.36799
G1 X93.832 Y37.606 E5.95982
G1 X93.719 Y36.734 E6.01617
G1 X87.446 Y30.461 E6.58481
G1 X87.589 Y29.845 E6.62535
G1 X93.580 Y35.836 E7.16840
G1 X93.434 Y34.930 E7.22717
G1 X87.740 Y29.236 E7.74335
G1 X87.904 Y28.641 E7.78291
G1 X93.288 Y34.025 E8.27095
G1 X93.126 Y33.103 E8.33095
G1 X88.068 Y28.046 E8.78937
G1 X88.239 Y27.458 E8.82864
G1 X92.940 Y32.158 E9.25473
G1 X92.732 Y31.191 E9.31815
G1 X88.424 Y26.883 E9.70866
G1 X88.608 Y26.308 E9.74735
G1 X92.499 Y30.199 E10.10005
G1 X92.252 Y29.192 E10.16650
G1 X88.793 Y25.733 E10.48004
G1 X88.997 Y25.179 E10.51793
G1 X91.965 Y28.147 E10.78695
G1 X91.632 Y27.054 E10.86017
G1 X89.204 Y24.627 E11.08020
G1 X89.411 Y24.074 E11.11800
G1 X91.281 Y25.944 E11.28744
G1 X90.848 Y24.752 E11.36871
G1 X89.630 Y23.534 E11.47911
G1 X89.858 Y23.002 E11.51617
G1 X90.801 Y23.946 E11.60166
G92 E0
G1 X91.680 Y36.973 F2400.000
G1 F1800
G1 X87.031 Y32.324 E0.42138
G1 X86.906 Y32.958 E0.46283
G1 X90.679 Y36.731 E0.80484
G1 X89.920 Y36.731 E0.85351
G1 X86.782 Y33.593 E1.13801
G1 X86.672 Y34.242 E1.18023
G1 X89.161 Y36.731 E1.40586
G1 X88.402 Y36.731 E1.45453
G1 X86.565 Y34.895 E1.62098
G1 X86.459 Y35.548 E1.66338
G1 X87.642 Y36.731 E1.77065
G1 X87.374 Y36.731 E1.78788
G1 X87.374 Y37.222 E1.81931
G1 X86.356 Y36.205 E1.91151
G1 X86.268 Y36.876 E1.95489
G1 X87.374 Y37.981 E2.05508
G1 X87.374 Y38.740 E2.10374
G1 X86.180 Y37.547 E2.21193
G1 X86.092 Y38.218 E2.25531
G1 X87.374 Y39.500 E2.37149
G1 X87.374 Y40.259 E2.42015
G1 X86.010 Y38.895 E2.54378
G1 X85.938 Y39.583 E2.58809
G1 X87.374 Y41.018 E2.71822
G1 X87.374 Y41.778 E2.76688
G1 X85.866 Y40.270 E2.90351
G1 X85.795 Y40.958 E2.94782
G1 X87.374 Y42.537 E3.09094
G1 X87.374 Y43.296 E3.13961
G1 X85.725 Y41.648 E3.28902
G1 X85.668 Y42.350 E3.33416
G1 X87.374 Y44.055 E3.48878
G1 X87.374 Y44.815 E3.53744
G1 X85.610 Y43.051 E3.69727
G1 X85.553 Y43.753 E3.74240
G1 X87.374 Y45.574 E3.90743
G1 X87.374 Y46.333 E3.95610
G1 X85.495 Y44.455 E4.12634
G1 X85.444 Y45.163 E4.17180
G1 X87.374 Y47.092 E4.34674
G1 X87.374 Y47.852 E4.39541
G1 X85.397 Y45.876 E4.57453
G1 X85.351 Y46.589 E4.62033
G1 X87.374 Y48.611 E4.80363
G1 X87.374 Y49.370 E4.85230
G1 X85.305 Y47.302 E5.03978
G1 X85.259 Y48.015 E5.08559
G1 X87.374 Y50.130 E5.27725
G1 X87.374 Y50.889 E5.32591
G1 X85.213 Y48.728 E5.52176
G1 X85.167 Y49.441 E5.56756
G1 X87.374 Y51.648 E5.76759
G1 X87.374 Y52.407 E5.81625
G1 X85.121 Y50.155 E6.02046
G1 X85.075 Y50.868 E6.06627
G1 X87.374 Y53.167 E6.27465
G1 X87.374 Y53.926 E6.32332
G1 X85.028 Y51.581 E6.53589
G1 X84.982 Y52.294 E6.58169
G1 X87.374 Y54.685 E6.79844
G1 X87.374 Y55.444 E6.84711
G1 X84.936 Y53.007 E7.06804
G1 X84.890 Y53.720 E7.11384
G1 X87.374 Y56.204 E7.33895
G1 X87.374 Y56.963 E7.38762
G1 X84.844 Y54.433 E7.61691
G1 X84.798 Y55.147 E7.66272
G1 X87.374 Y57.722 E7.89619
G1 X87.374 Y58.482 E7.94486
G1 X84.468 Y55.576 E8.20823
G1 X84.069 Y55.937 E8.24268
G1 X87.374 Y59.241 E8.54219
G1 X87.374 Y60.000 E8.59086
G1 X83.671 Y56.297 E8.92650
G1 X83.272 Y56.658 E8.96096
G1 X153.530 Y126.916 E15.32948
G1 X152.881 Y127.026 E15.37167
G1 X102.389 Y76.534 E19.94856
G1 X102.389 Y77.293 E19.99723
G1 X152.232 Y127.136 E24.51531
G1 X151.583 Y127.247 E24.55750
G1 X102.389 Y78.052 E29.01677
G1 X102.389 Y78.811 E29.06544
G1 X150.934 Y127.357 E33.46589
G1 X150.286 Y127.468 E33.50808
G1 X102.389 Y79.571 E37.84972
G1 X102.389 Y80.330 E37.89839
G1 X149.637 Y127.578 E42.18122
G1 X148.988 Y127.689 E42.22340
