;FLAVOR:Marlin
;TIME:301
;Filament used: 0.131745m
;Layer height: 0.15
;Generated with Cura_SteamEngine 2.7.0
M190 S60
M104 S220
M109 S220
G21 ;metric values
G90 ;absolute positioning
M82 ;set extruder to absolute mode
M107 ;start with the fan off
G92 E0 ;zero the extruded length
G1 F200 E3 ;extrude 3mm of feed stock
G92 E0 ;zero the extruded length again
G1 F9000
M301 P26.92 I2.54 D71.46 ;set PID tuning for E0
M117 Printing...
;LAYER_COUNT:32
;LAYER:0
M107
G0 F2400 X84.392 Y85.731 Z0.3
;TYPE:SKIRT
G1 F1200 X85.407 Y84.765 E0.06973
G1 X85.418 Y84.755 E0.07047
G1 X86.137 Y84.075 E0.11972
G1 X86.613 Y83.679 E0.15053
G1 X87.088 Y83.375 E0.1786
G1 X87.643 Y83.064 E0.21026
G1 X88.201 Y82.797 E0.24105
G1 X88.863 Y82.586 E0.27562
G1 X91.231 Y82.015 E0.39685
G1 X91.841 Y81.909 E0.42766
G1 X92.515 Y81.884 E0.46122
G1 X93.114 Y81.904 E0.49105
G1 X93.73 Y81.964 E0.52185
G1 X94.31 Y82.097 E0.55146
G1 X96.613 Y82.776 E0.67095
G1 X97.195 Y82.989 E0.70179
G1 X97.721 Y83.261 E0.73126
G1 X98.257 Y83.582 E0.76235
G1 X98.767 Y83.934 E0.79319
G1 X99.265 Y84.389 E0.82676
G1 X100.233 Y85.405 E0.8966
G1 X100.245 Y85.418 E0.89748
G1 X100.925 Y86.137 E0.94673
G1 X101.321 Y86.613 E0.97754
G1 X101.547 Y86.953 E0.99786
G1 X101.739 Y87.271 E1.01635
G1 X102.024 Y87.821 E1.04717
G1 X102.268 Y88.519 E1.08397
G1 X102.958 Y91.118 E1.21779
G1 X103.078 Y91.726 E1.24863
G1 X103.116 Y92.507 E1.28755
G1 X103.096 Y93.112 E1.31767
G1 X103.036 Y93.729 E1.34852
G1 X102.903 Y94.31 E1.37818
G1 X102.224 Y96.613 E1.49767
G1 X102.011 Y97.195 E1.52851
G1 X101.739 Y97.721 E1.55798
G1 X101.418 Y98.257 E1.58907
G1 X101.066 Y98.767 E1.61991
G1 X100.611 Y99.265 E1.65348
G1 X99.595 Y100.233 E1.72332
G1 X99.582 Y100.245 E1.7242
G1 X98.863 Y100.925 E1.77345
G1 X98.387 Y101.321 E1.80426
G1 X97.912 Y101.625 E1.83233
G1 X97.357 Y101.936 E1.86399
G1 X96.799 Y102.203 E1.89477
G1 X96.137 Y102.414 E1.92935
G1 X93.769 Y102.985 E2.05057
G1 X93.159 Y103.091 E2.08138
G1 X92.485 Y103.116 E2.11495
G1 X91.885 Y103.096 E2.14482
G1 X91.269 Y103.036 E2.17562
G1 X90.688 Y102.903 E2.20529
G1 X88.386 Y102.224 E2.32473
G1 X87.805 Y102.011 E2.35552
G1 X87.279 Y101.739 E2.38499
G1 X86.743 Y101.418 E2.41608
G1 X86.233 Y101.066 E2.44692
G1 X85.735 Y100.611 E2.48049
G1 X84.767 Y99.595 E2.55033
G1 X84.755 Y99.582 E2.55121
G1 X84.075 Y98.863 E2.60046
G1 X83.679 Y98.387 E2.63127
G1 X83.375 Y97.912 E2.65934
G1 X83.064 Y97.357 E2.691
G1 X82.797 Y96.799 E2.72178
G1 X82.586 Y96.14 E2.75622
G1 X82.015 Y93.778 E2.87715
G1 X81.909 Y93.168 E2.90796
G1 X81.883 Y92.509 E2.94078
G1 X81.9 Y91.934 E2.96941
G1 X81.958 Y91.318 E3.0002
G1 X82.116 Y90.646 E3.03456
G1 X82.908 Y88.11 E3.16677
G1 X83.13 Y87.532 E3.19759
G1 X83.433 Y86.975 E3.22914
G1 X83.645 Y86.64 E3.24887
G1 X84.009 Y86.14 E3.27965
G1 X84.392 Y85.731 E3.30753
G0 F2400 X84.667 Y86.02
G1 F1200 X85.682 Y85.054 E3.37726
G1 X85.692 Y85.044 E3.37797
G1 X86.411 Y84.364 E3.42722
G1 X86.868 Y83.987 E3.4567
G1 X87.283 Y83.723 E3.48118
G1 X87.838 Y83.412 E3.51284
G1 X88.373 Y83.158 E3.54231
G1 X88.956 Y82.974 E3.57274
G1 X91.324 Y82.403 E3.69396
G1 X91.909 Y82.303 E3.72349
G1 X92.502 Y82.282 E3.75302
G1 X93.101 Y82.302 E3.78285
G1 X93.69 Y82.362 E3.81231
G1 X94.197 Y82.479 E3.83821
G1 X96.5 Y83.158 E3.95769
G1 X97.056 Y83.364 E3.9872
G1 X97.516 Y83.604 E4.01302
G1 X98.052 Y83.925 E4.04411
G1 X98.539 Y84.263 E4.07361
G1 X98.976 Y84.664 E4.10313
G1 X99.944 Y85.68 E4.17297
G1 X99.956 Y85.692 E4.17381
G1 X100.636 Y86.411 E4.22306
G1 X101.013 Y86.868 E4.25254
G1 X101.205 Y87.159 E4.26989
G1 X101.397 Y87.477 E4.28838
G1 X101.669 Y88.004 E4.31789
G1 X101.883 Y88.622 E4.35044
G1 X102.573 Y91.221 E4.48426
G1 X102.686 Y91.803 E4.51377
G1 X102.718 Y92.494 E4.54819
G1 X102.698 Y93.099 E4.57831
G1 X102.638 Y93.689 E4.60783
G1 X102.521 Y94.197 E4.63377
G1 X101.842 Y96.5 E4.75326
G1 X101.636 Y97.056 E4.78277
G1 X101.396 Y97.516 E4.80859
G1 X101.075 Y98.052 E4.83968
G1 X100.737 Y98.539 E4.86918
G1 X100.336 Y98.976 E4.8987
G1 X99.32 Y99.944 E4.96853
G1 X99.308 Y99.956 E4.96938
G1 X98.589 Y100.636 E5.01863
G1 X98.132 Y101.013 E5.04811
G1 X97.717 Y101.277 E5.07259
G1 X97.162 Y101.588 E5.10425
G1 X96.627 Y101.842 E5.13372
G1 X96.044 Y102.026 E5.16414
G1 X93.676 Y102.597 E5.28537
G1 X93.091 Y102.697 E5.3149
G1 X92.499 Y102.718 E5.34438
G1 X91.899 Y102.698 E5.37426
G1 X91.309 Y102.638 E5.40377
G1 X90.801 Y102.52 E5.42972
G1 X88.499 Y101.841 E5.54916
G1 X87.943 Y101.636 E5.57865
G1 X87.484 Y101.396 E5.60443
G1 X86.948 Y101.075 E5.63552
G1 X86.461 Y100.737 E5.66502
G1 X86.024 Y100.336 E5.69454
G1 X85.056 Y99.32 E5.76437
G1 X85.044 Y99.308 E5.76522
G1 X84.364 Y98.589 E5.81447
G1 X83.987 Y98.132 E5.84395
G1 X83.723 Y97.717 E5.86843
G1 X83.412 Y97.162 E5.90009
G1 X83.158 Y96.627 E5.92956
G1 X82.974 Y96.046 E5.95989
G1 X82.403 Y93.684 E6.08082
G1 X82.303 Y93.1 E6.11031
G1 X82.282 Y92.521 E6.13914
G1 X82.299 Y91.946 E6.16777
G1 X82.356 Y91.356 E6.19727
G1 X82.497 Y90.765 E6.22751
G1 X83.289 Y88.229 E6.35972
G1 X83.503 Y87.677 E6.38918
G1 X83.77 Y87.189 E6.41687
G1 X83.982 Y86.854 E6.4366
G1 X84.333 Y86.375 E6.46615
G1 X84.667 Y86.02 E6.49041
G0 F2400 X84.942 Y86.309
G1 F1200 X85.957 Y85.343 E6.56014
G1 X85.966 Y85.334 E6.56077
G1 X86.685 Y84.654 E6.61002
G1 X87.122 Y84.296 E6.63813
G1 X87.478 Y84.071 E6.65909
G1 X88.033 Y83.76 E6.69075
G1 X88.544 Y83.52 E6.71885
G1 X89.05 Y83.361 E6.74524
G1 X91.418 Y82.79 E6.86647
G1 X91.975 Y82.697 E6.89457
G1 X92.488 Y82.681 E6.92011
G1 X93.087 Y82.701 E6.94994
G1 X93.65 Y82.76 E6.97811
G1 X94.085 Y82.862 E7.00034
G1 X96.388 Y83.541 E7.11983
G1 X96.917 Y83.739 E7.14794
G1 X97.311 Y83.946 E7.17009
G1 X97.847 Y84.267 E7.20118
G1 X98.31 Y84.591 E7.2293
G1 X98.688 Y84.939 E7.25487
G1 X99.656 Y85.955 E7.32471
G1 X99.666 Y85.966 E7.32545
G1 X100.346 Y86.685 E7.3747
G1 X100.704 Y87.122 E7.40281
G1 X100.864 Y87.366 E7.41733
G1 X101.056 Y87.684 E7.43582
G1 X101.313 Y88.187 E7.46393
G1 X101.497 Y88.724 E7.49218
G1 X102.187 Y91.323 E7.626
G1 X102.293 Y91.878 E7.65412
G1 X102.319 Y92.481 E7.68416
G1 X102.299 Y93.086 E7.71428
G1 X102.24 Y93.648 E7.7424
G1 X102.138 Y94.085 E7.76473
G1 X101.459 Y96.388 E7.88422
G1 X101.261 Y96.917 E7.91233
G1 X101.054 Y97.311 E7.93448
G1 X100.733 Y97.847 E7.96557
G1 X100.409 Y98.31 E7.99369
G1 X100.061 Y98.688 E8.01926
G1 X99.045 Y99.656 E8.0891
G1 X99.034 Y99.666 E8.08984
G1 X98.315 Y100.346 E8.13909
G1 X97.878 Y100.704 E8.1672
G1 X97.522 Y100.929 E8.18816
G1 X96.967 Y101.24 E8.21982
G1 X96.456 Y101.48 E8.24792
G1 X95.95 Y101.639 E8.27431
G1 X93.582 Y102.21 E8.39554
G1 X93.025 Y102.303 E8.42364
G1 X92.512 Y102.319 E8.44918
G1 X91.912 Y102.299 E8.47906
G1 X91.35 Y102.24 E8.50718
G1 X90.914 Y102.138 E8.52946
G1 X88.612 Y101.459 E8.6489
G1 X88.082 Y101.261 E8.67706
G1 X87.689 Y101.054 E8.69916
G1 X87.153 Y100.733 E8.73025
G1 X86.69 Y100.409 E8.75838
G1 X86.312 Y100.061 E8.78395
G1 X85.344 Y99.045 E8.85378
G1 X85.334 Y99.034 E8.85452
G1 X84.654 Y98.315 E8.90377
G1 X84.296 Y97.878 E8.93189
G1 X84.071 Y97.522 E8.95284
G1 X83.76 Y96.967 E8.9845
G1 X83.52 Y96.456 E9.0126
G1 X83.362 Y95.952 E9.03889
G1 X82.791 Y93.59 E9.15982
G1 X82.697 Y93.033 E9.18793
G1 X82.681 Y92.533 E9.21282
G1 X82.698 Y91.958 E9.24145
G1 X82.754 Y91.396 E9.26956
G1 X82.878 Y90.884 E9.29577
G1 X83.67 Y88.348 E9.42799
G1 X83.876 Y87.822 E9.4561
G1 X84.108 Y87.402 E9.47998
G1 X84.32 Y87.067 E9.49971
G1 X84.655 Y86.612 E9.52783
G1 X84.942 Y86.309 E9.5486
G0 F2400 X85.217 Y86.598
G1 F1200 X86.232 Y85.632 E9.61833
G1 X86.24 Y85.624 E9.61889
G1 X86.959 Y84.944 E9.66814
G1 X87.375 Y84.606 E9.69482
G1 X87.673 Y84.419 E9.71233
G1 X88.228 Y84.108 E9.74399
G1 X88.714 Y83.882 E9.77066
G1 X89.143 Y83.749 E9.79301
G1 X91.511 Y83.178 E9.91423
G1 X92.041 Y83.092 E9.94095
G1 X92.475 Y83.08 E9.96256
G1 X93.074 Y83.1 E9.99239
G1 X93.607 Y83.158 E10.01907
G1 X93.972 Y83.245 E10.03774
G1 X96.275 Y83.924 E10.15723
G1 X96.776 Y84.113 E10.18388
G1 X97.106 Y84.288 E10.20247
G1 X97.642 Y84.609 E10.23356
G1 X98.08 Y84.918 E10.26023
G1 X98.399 Y85.214 E10.28189
G1 X99.367 Y86.23 E10.35173
G1 X99.376 Y86.24 E10.3524
G1 X100.056 Y86.959 E10.40165
G1 X100.522 Y87.572 E10.43997
G1 X100.714 Y87.89 E10.45845
G1 X100.956 Y88.368 E10.48512
G1 X101.111 Y88.827 E10.50922
G1 X101.801 Y91.426 E10.64305
G1 X101.9 Y91.953 E10.66973
G1 X101.92 Y92.468 E10.69538
G1 X101.9 Y93.073 E10.7255
G1 X101.842 Y93.606 E10.75219
G1 X101.755 Y93.972 E10.77091
G1 X101.076 Y96.275 E10.89039
G1 X100.887 Y96.776 E10.91704
G1 X100.712 Y97.106 E10.93563
G1 X100.391 Y97.642 E10.96672
G1 X100.082 Y98.08 E10.9934
G1 X99.786 Y98.399 E11.01506
G1 X98.77 Y99.367 E11.08489
G1 X98.76 Y99.376 E11.08556
G1 X98.041 Y100.056 E11.13481
G1 X97.625 Y100.394 E11.16149
G1 X97.327 Y100.581 E11.17899
G1 X96.772 Y100.892 E11.21065
G1 X96.286 Y101.118 E11.23733
G1 X95.857 Y101.251 E11.25968
G1 X93.489 Y101.822 E11.3809
G1 X92.959 Y101.908 E11.40762
G1 X92.525 Y101.92 E11.42923
G1 X91.925 Y101.9 E11.4591
G1 X91.392 Y101.842 E11.48579
G1 X91.027 Y101.755 E11.50446
G1 X88.725 Y101.076 E11.6239
G1 X88.223 Y100.886 E11.65061
G1 X87.894 Y100.712 E11.66913
G1 X87.358 Y100.391 E11.70022
G1 X86.92 Y100.082 E11.7269
G1 X86.601 Y99.786 E11.74856
G1 X85.633 Y98.77 E11.81839
G1 X85.624 Y98.76 E11.81906
G1 X84.944 Y98.041 E11.86831
G1 X84.606 Y97.625 E11.89499
G1 X84.419 Y97.327 E11.91249
G1 X84.108 Y96.772 E11.94415
G1 X83.882 Y96.286 E11.97083
G1 X83.75 Y95.859 E11.99307
G1 X83.179 Y93.497 E12.114
G1 X83.092 Y92.968 E12.14068
G1 X83.08 Y92.545 E12.16174
G1 X83.097 Y91.97 E12.19037
G1 X83.152 Y91.436 E12.21708
G1 X83.259 Y91.003 E12.23928
G1 X84.051 Y88.467 E12.3715
G1 X84.248 Y87.969 E12.39815
G1 X84.445 Y87.615 E12.41831
G1 X84.657 Y87.28 E12.43804
G1 X84.977 Y86.85 E12.46471
G1 X85.217 Y86.598 E12.48203
G0 F2400 X85.492 Y86.887
G1 F1200 X86.507 Y85.921 E12.55176
G1 X86.514 Y85.914 E12.55226
G1 X87.233 Y85.234 E12.60151
G1 X87.627 Y84.917 E12.62667
G1 X87.868 Y84.767 E12.6408
G1 X88.423 Y84.456 E12.67246
G1 X88.882 Y84.245 E12.6976
G1 X89.237 Y84.137 E12.71607
G1 X91.605 Y83.566 E12.83729
G1 X92.104 Y83.487 E12.86243
G1 X92.462 Y83.479 E12.88025
G1 X93.061 Y83.499 E12.91008
G1 X93.563 Y83.556 E12.93522
G1 X93.859 Y83.628 E12.95038
G1 X96.162 Y84.307 E13.06987
G1 X96.634 Y84.487 E13.09501
G1 X96.901 Y84.631 E13.1101
G1 X97.437 Y84.952 E13.1412
G1 X97.849 Y85.245 E13.16636
G1 X98.11 Y85.49 E13.18417
G1 X99.078 Y86.506 E13.25401
G1 X99.086 Y86.514 E13.25457
G1 X99.766 Y87.233 E13.30382
G1 X100.18 Y87.778 E13.33788
G1 X100.372 Y88.096 E13.35636
G1 X100.599 Y88.548 E13.38154
G1 X100.726 Y88.929 E13.40152
G1 X101.416 Y91.528 E13.53534
G1 X101.507 Y92.025 E13.56049
G1 X101.521 Y92.455 E13.5819
G1 X101.501 Y93.06 E13.61202
G1 X101.445 Y93.562 E13.63716
G1 X101.372 Y93.859 E13.65238
G1 X100.693 Y96.162 E13.77187
G1 X100.513 Y96.634 E13.79701
G1 X100.369 Y96.901 E13.8121
G1 X100.048 Y97.437 E13.8432
G1 X99.755 Y97.849 E13.86836
G1 X99.51 Y98.11 E13.88617
G1 X98.494 Y99.078 E13.95601
G1 X98.486 Y99.086 E13.95657
G1 X97.767 Y99.766 E14.00582
G1 X97.373 Y100.083 E14.03099
G1 X97.132 Y100.233 E14.04511
G1 X96.577 Y100.544 E14.07677
G1 X96.118 Y100.755 E14.10191
G1 X95.763 Y100.863 E14.12038
G1 X93.395 Y101.434 E14.2416
G1 X92.896 Y101.513 E14.26674
G1 X92.538 Y101.521 E14.28456
G1 X91.938 Y101.501 E14.31444
G1 X91.436 Y101.445 E14.33958
G1 X91.14 Y101.372 E14.35475
G1 X88.838 Y100.693 E14.47419
G1 X88.366 Y100.512 E14.49935
G1 X88.099 Y100.369 E14.51442
G1 X87.563 Y100.048 E14.54551
G1 X87.151 Y99.755 E14.57067
G1 X86.89 Y99.51 E14.58849
G1 X85.922 Y98.494 E14.65832
G1 X85.914 Y98.486 E14.65888
G1 X85.234 Y97.767 E14.70813
G1 X84.917 Y97.373 E14.7333
G1 X84.767 Y97.132 E14.74743
G1 X84.456 Y96.577 E14.77909
G1 X84.245 Y96.118 E14.80423
G1 X84.138 Y95.765 E14.82258
G1 X83.567 Y93.403 E14.94352
G1 X83.487 Y92.904 E14.96867
G1 X83.478 Y92.556 E14.98599
G1 X83.495 Y91.981 E15.01462
G1 X83.55 Y91.479 E15.03975
G1 X83.639 Y91.122 E15.05806
G1 X84.431 Y88.586 E15.19028
G1 X84.62 Y88.117 E15.21544
G1 X84.782 Y87.829 E15.23189
G1 X84.994 Y87.494 E15.25161
G1 X85.297 Y87.089 E15.27679
G1 X85.492 Y86.887 E15.29076
G1 F1500 E14.29076
G0 F2400 X88.943 Y88.759
G0 X90.166 Y89.811
G0 X91.841 Y89.305
G0 X92.839 Y89.256
G0 X93.805 Y89.511
G0 X94.648 Y90.045
G0 X95.131 Y90.558
G0 X95.495 Y91.657
;TYPE:WALL-INNER
G1 F1500 E15.29076
G1 F1200 X95.494 Y91.423 E15.3024
G1 X95.567 Y91.656
G1 X95.625 Y91.907 E15.31106
G1 X95.735 Y92.588 E15.34539
G1 X95.574 Y93.319 E15.38264
G1 X95.495 Y93.57 E15.39573
G1 X95.495 Y93.319
G1 X95.495 Y92.588 E15.41016
G1 X95.495 Y91.907 E15.42256
G1 X95.495 Y91.657
G0 F2400 X95.954 Y91.557
G1 F1200 X96.016 Y91.823 E15.43615
G1 X96.141 Y92.601 E15.47536
G1 X95.96 Y93.422 E15.5172
G1 X95.882 Y93.675 E15.53038
G1 X95.596 Y94.419 E15.57004
G1 X95.361 Y94.673 E15.58726
G1 X95.074 Y94.984 E15.60832
G1 X95.029 Y95.033 E15.61164
G1 X94.85 Y95.202 E15.62389
G1 X94.802 Y95.241 E15.62696
G1 X94.545 Y95.449 E15.64342
G1 X94.361 Y95.598 E15.6552
G1 X94.222 Y95.71 E15.66408
G1 X94.058 Y95.761 E15.67263
G1 X93.852 Y95.825 E15.68337
G1 X93.682 Y95.878 E15.69223
G1 X93.437 Y95.955 E15.70501
G1 X93.345 Y95.976 E15.70971
G1 X93.171 Y96.017 E15.7186
G1 X92.997 Y96.044 E15.72736
G1 X92.671 Y96.097 E15.7438
G1 X92.399 Y96.141 E15.75751
G1 X92.197 Y96.097 E15.7678
G1 X91.875 Y96.025 E15.78422
G1 X91.57 Y95.957 E15.79977
G1 X91.526 Y95.944 E15.80206
G1 X91.325 Y95.882 E15.81252
G1 X91.191 Y95.831 E15.81966
G1 X90.885 Y95.713 E15.83598
G1 X90.581 Y95.596 E15.85219
G1 X90.464 Y95.488 E15.86011
G1 X90.221 Y95.264 E15.87656
G1 X89.978 Y95.039 E15.89304
G1 X89.967 Y95.029 E15.89378
G1 X89.794 Y94.846 E15.90631
G1 X89.722 Y94.756 E15.91205
G1 X89.514 Y94.5 E15.92847
G1 X89.408 Y94.369 E15.93685
G1 X89.288 Y94.22 E15.94637
G1 X89.238 Y94.06 E15.95471
G1 X89.154 Y93.789 E15.96883
G1 X89.056 Y93.473 E15.9853
G1 X89.045 Y93.437 E15.98717
G1 X88.983 Y93.171 E16.00076
G1 X88.972 Y93.101 E16.00429
G1 X88.92 Y92.776 E16.02067
G1 X88.888 Y92.573 E16.0309
G1 X88.859 Y92.399 E16.03968
G1 X88.896 Y92.232 E16.04819
G1 X88.951 Y91.979 E16.06107
G1 X89.023 Y91.656 E16.07754
G1 X89.043 Y91.57 E16.08194
G1 X89.119 Y91.32 E16.09494
G1 X89.13 Y91.292 E16.09644
G1 X89.249 Y90.983 E16.11292
G1 X89.344 Y90.736 E16.12609
G1 X89.404 Y90.581 E16.13436
G1 X89.519 Y90.456 E16.14281
G1 X89.663 Y90.3 E16.15338
G1 X89.887 Y90.057 E16.16982
G1 X89.971 Y89.966 E16.17599
G1 X90.139 Y89.809 E16.18743
G1 X90.153 Y89.796 E16.18838
G1 X90.416 Y89.583 E16.20522
G1 X90.655 Y89.389 E16.22054
G1 X90.78 Y89.288 E16.22854
G1 X90.95 Y89.235 E16.2374
G1 X91.11 Y89.186 E16.24573
G1 X91.425 Y89.088 E16.26214
G1 X91.563 Y89.045 E16.26934
G1 X91.767 Y88.998 E16.27976
G1 X91.829 Y88.983 E16.28293
G1 X92.118 Y88.937 E16.29749
G1 X92.441 Y88.885 E16.31378
G1 X92.601 Y88.859 E16.32184
G1 X92.915 Y88.928 E16.33784
G1 X93.238 Y89 E16.35431
G1 X93.43 Y89.043 E16.3641
G1 X93.585 Y89.09 E16.37216
G1 X93.675 Y89.118 E16.37685
G1 X93.917 Y89.211 E16.38975
G1 X94.224 Y89.329 E16.40612
G1 X94.419 Y89.404 E16.41652
G1 X94.621 Y89.591 E16.43022
G1 X94.863 Y89.814 E16.4466
G1 X95.031 Y89.969 E16.45797
G1 X95.112 Y90.054 E16.46381
G1 X95.201 Y90.149 E16.47029
G1 X95.365 Y90.351 E16.48324
G1 X95.71 Y90.778 E16.51056
G1 X95.954 Y91.557 E16.55118
G1 F1500 E15.55118
G0 F2400 X95.858 Y91.583
G0 X95.693 Y90.787
G0 X95.954 Y90.623
G0 X96.651 Y90.266
G0 X96.692 Y90.357
G1 F1500 E16.55118
G1 F1200 X96.647 Y90.378 E16.55366
G1 X95.937 Y90.632 E16.59118
G1 X96.511 Y90.198 E16.60096
G1 X96.579 Y90.147 E16.60243
G1 X96.589 Y90.139
G1 X96.657 Y90.118 E16.60563
G1 X96.792 Y90.077 E16.61265
G1 X96.829 Y90.071 E16.61451
G1 X96.939 Y90.052 E16.62007
G1 X97.012 Y90.048 E16.62371
G1 X96.984 Y90.085
G1 X96.95 Y90.128
G1 X96.903 Y90.179
G1 X96.857 Y90.228
G1 X96.748 Y90.322
G1 X96.726 Y90.341
G1 X96.692 Y90.357
G1 F1500 E15.62371
G0 F2400 X96.651 Y90.266
G0 X95.954 Y90.623
G0 X95.693 Y90.787
G0 X95.187 Y90.537
G0 X95.094 Y90.572
G1 F1500 E16.62371
G1 F1200 X94.931 Y90.387 E16.63431
G1 X94.854 Y90.299 E16.63841
G1 X94.781 Y90.229 E16.64211
G1 X94.622 Y90.075 E16.65196
G1 X94.364 Y89.871 E16.66703
G1 X94.085 Y89.694 E16.68348
G1 X93.789 Y89.547 E16.69897
