;FLAVOR:Marlin
;TIME:1433
;Filament used: 0.984163m
;Layer height: 0.15
;Generated with Cura_SteamEngine 2.7.0
M190 S60
M104 S220
M109 S220
G21 ;metric values
G90 ;absolute positioning
M82 ;set extruder to absolute mode
M107 ;start with the fan off
G92 E0 ;zero the extruded length
G1 F200 E3 ;extrude 3mm of feed stock
G92 E0 ;zero the extruded length again
G1 F9000
M301 P26.92 I2.54 D71.46 ;set PID tuning for E0
M117 Printing...
;LAYER_COUNT:32
;LAYER:0
M107
G0 F2400 X76.769 Y76.73 Z0.3
;TYPE:SKIRT
G1 F1200 X78.435 Y75.245 E0.11106
G1 X78.774 Y74.969 E0.13282
G1 X80.191 Y73.921 E0.22053
G1 X80.777 Y73.55 E0.25504
G1 X83.353 Y72.169 E0.4005
G1 X84.013 Y71.877 E0.43642
G1 X86.132 Y71.124 E0.54833
G1 X86.577 Y70.99 E0.57146
G1 X87.519 Y70.755 E0.61977
G1 X87.999 Y70.661 E0.64411
G1 X90.85 Y70.252 E0.78745
G1 X91.678 Y70.205 E0.82872
G1 X94.739 Y70.299 E0.98112
G1 X95.48 Y70.38 E1.01822
G1 X97.895 Y70.835 E1.14052
G1 X98.336 Y70.94 E1.16308
G1 X98.884 Y71.098 E1.19146
G1 X99.298 Y71.238 E1.21321
G1 X101.946 Y72.271 E1.35466
G1 X102.609 Y72.59 E1.39128
G1 X104.463 Y73.665 E1.49793
G1 X104.776 Y73.863 E1.51636
G1 X105.809 Y74.574 E1.57877
G1 X106.283 Y74.947 E1.60879
G1 X108.448 Y76.879 E1.75319
G1 X108.957 Y77.408 E1.78972
G1 X110.417 Y79.181 E1.90402
G1 X110.689 Y79.546 E1.92668
G1 X111.178 Y80.27 E1.97015
G1 X111.425 Y80.677 E1.99385
G1 X112.803 Y83.231 E2.13827
G1 X113.083 Y83.851 E2.17212
G1 X113.407 Y84.731 E2.21879
G1 X113.478 Y84.94 E2.22978
G1 X114.125 Y86.983 E2.33642
G1 X114.295 Y87.714 E2.37377
G1 X114.722 Y90.537 E2.51586
G1 X114.776 Y91.269 E2.55239
G1 X114.768 Y93.786 E2.67765
G1 X114.713 Y94.494 E2.71299
G1 X114.394 Y96.587 E2.81835
G1 X114.36 Y96.784 E2.8283
G1 X114.151 Y97.853 E2.8825
G1 X114.052 Y98.262 E2.90345
G1 X113.894 Y98.81 E2.93183
G1 X113.742 Y99.255 E2.95523
G1 X112.614 Y102.089 E3.10703
G1 X112.237 Y102.838 E3.14876
G1 X110.631 Y105.435 E3.30071
G1 X110.149 Y106.085 E3.34098
G1 X108.233 Y108.257 E3.48512
G1 X107.704 Y108.77 E3.52179
G1 X105.892 Y110.278 E3.63911
G1 X105.532 Y110.55 E3.66156
G1 X104.737 Y111.094 E3.7095
G1 X104.393 Y111.309 E3.72969
G1 X102.518 Y112.371 E3.83693
G1 X102.136 Y112.565 E3.85825
G1 X101.389 Y112.904 E3.89908
G1 X100.914 Y113.09 E3.92446
G1 X98.067 Y114.032 E4.0737
G1 X97.251 Y114.225 E4.11543
G1 X94.227 Y114.665 E4.2675
G1 X93.495 Y114.715 E4.30402
G1 X91.182 Y114.695 E4.41913
G1 X90.499 Y114.64 E4.45323
G1 X88.404 Y114.32 E4.5587
G1 X88.217 Y114.288 E4.56814
G1 X87.22 Y114.095 E4.61867
G1 X86.52 Y113.904 E4.65478
G1 X83.614 Y112.868 E4.80832
G1 X82.894 Y112.541 E4.84767
G1 X81.186 Y111.591 E4.94493
G1 X80.936 Y111.442 E4.95942
G1 X79.509 Y110.531 E5.04367
G1 X78.901 Y110.071 E5.08161
G1 X76.61 Y108.031 E5.23427
G1 X76.05 Y107.44 E5.27479
G1 X74.274 Y105.214 E5.41651
G1 X73.863 Y104.61 E5.45286
G1 X72.644 Y102.486 E5.57474
G1 X72.436 Y102.079 E5.59748
G1 X72.068 Y101.267 E5.64185
G1 X71.892 Y100.822 E5.66566
G1 X71.031 Y98.273 E5.79956
G1 X70.857 Y97.597 E5.8343
G1 X70.525 Y95.774 E5.92651
G1 X70.471 Y95.398 E5.94541
G1 X70.299 Y93.7 E6.03035
G1 X70.276 Y93.136 E6.05844
G1 X70.315 Y90.83 E6.17321
G1 X70.385 Y90.086 E6.2104
G1 X70.893 Y87.176 E6.35741
G1 X71.087 Y86.43 E6.39577
G1 X71.735 Y84.561 E6.49421
G1 X71.841 Y84.282 E6.50907
G1 X72.475 Y82.766 E6.59084
G1 X72.762 Y82.191 E6.62283
G1 X73.49 Y80.949 E6.69447
G1 X73.583 Y80.797 E6.70334
G1 X74.39 Y79.53 E6.77809
G1 X74.778 Y79.004 E6.81062
G1 X76.303 Y77.207 E6.92791
G1 X76.769 Y76.73 E6.9611
G0 F2400 X77.034 Y77.028
G1 F1200 X78.7 Y75.543 E7.07216
G1 X79.011 Y75.29 E7.09211
G1 X80.428 Y74.242 E7.17982
G1 X80.965 Y73.902 E7.21145
G1 X83.541 Y72.521 E7.35691
G1 X84.147 Y72.253 E7.38989
G1 X86.266 Y71.5 E7.5018
G1 X86.674 Y71.377 E7.52301
G1 X87.616 Y71.142 E7.57132
G1 X88.056 Y71.056 E7.59363
G1 X90.907 Y70.647 E7.73697
G1 X91.666 Y70.604 E7.7748
G1 X94.727 Y70.698 E7.9272
G1 X95.406 Y70.772 E7.96119
G1 X97.821 Y71.227 E8.08349
G1 X98.225 Y71.323 E8.10416
G1 X98.773 Y71.481 E8.13254
G1 X99.153 Y71.61 E8.15251
G1 X101.801 Y72.643 E8.29396
G1 X102.409 Y72.935 E8.32753
G1 X104.263 Y74.01 E8.43418
G1 X104.55 Y74.192 E8.45109
G1 X105.583 Y74.903 E8.5135
G1 X106.018 Y75.244 E8.54101
G1 X108.183 Y77.176 E8.68541
G1 X108.649 Y77.662 E8.71892
G1 X110.109 Y79.435 E8.83322
G1 X110.359 Y79.769 E8.85398
G1 X110.848 Y80.493 E8.89746
G1 X111.074 Y80.866 E8.91916
G1 X112.452 Y83.42 E9.06358
G1 X112.708 Y83.989 E9.09464
G1 X113.032 Y84.869 E9.1413
G1 X113.098 Y85.06 E9.15136
G1 X113.745 Y87.103 E9.25801
G1 X113.901 Y87.773 E9.29224
G1 X114.328 Y90.596 E9.43433
G1 X114.377 Y91.268 E9.46786
G1 X114.369 Y93.785 E9.59312
G1 X114.319 Y94.434 E9.62551
G1 X114 Y96.527 E9.73087
G1 X113.968 Y96.708 E9.74002
G1 X113.759 Y97.777 E9.79423
G1 X113.669 Y98.151 E9.81337
G1 X113.511 Y98.699 E9.84175
G1 X113.371 Y99.107 E9.86322
G1 X112.243 Y101.941 E10.01502
G1 X111.898 Y102.628 E10.05328
G1 X110.292 Y105.225 E10.20523
G1 X109.849 Y105.821 E10.24219
G1 X107.933 Y107.993 E10.38633
G1 X107.449 Y108.464 E10.41993
G1 X105.637 Y109.972 E10.53725
G1 X105.307 Y110.221 E10.55783
G1 X104.512 Y110.765 E10.60576
G1 X104.196 Y110.962 E10.6243
G1 X102.321 Y112.024 E10.73153
G1 X101.971 Y112.202 E10.75108
G1 X101.224 Y112.541 E10.7919
G1 X100.788 Y112.711 E10.81519
G1 X97.941 Y113.653 E10.96442
G1 X97.193 Y113.83 E11.00268
G1 X94.169 Y114.27 E11.15475
G1 X93.498 Y114.316 E11.18822
G1 X91.185 Y114.296 E11.30334
G1 X90.559 Y114.246 E11.33459
G1 X88.464 Y113.926 E11.44006
G1 X88.292 Y113.896 E11.44874
G1 X87.295 Y113.703 E11.49928
G1 X86.654 Y113.528 E11.53235
G1 X83.748 Y112.492 E11.68588
G1 X83.088 Y112.193 E11.72194
G1 X81.38 Y111.243 E11.8192
G1 X81.151 Y111.106 E11.83248
G1 X79.724 Y110.195 E11.91674
G1 X79.166 Y109.773 E11.95155
G1 X76.875 Y107.733 E12.10421
G1 X76.362 Y107.191 E12.14135
G1 X74.586 Y104.965 E12.28307
G1 X74.209 Y104.412 E12.31638
G1 X72.99 Y102.288 E12.43825
G1 X72.799 Y101.914 E12.45915
G1 X72.431 Y101.102 E12.50351
G1 X72.27 Y100.694 E12.52534
G1 X71.409 Y98.145 E12.65924
G1 X71.249 Y97.526 E12.69105
G1 X70.917 Y95.703 E12.78327
G1 X70.868 Y95.358 E12.80061
G1 X70.696 Y93.66 E12.88554
G1 X70.675 Y93.143 E12.91129
G1 X70.714 Y90.837 E13.02607
G1 X70.779 Y90.155 E13.06016
G1 X71.287 Y87.245 E13.20717
G1 X71.464 Y86.561 E13.24233
G1 X72.112 Y84.692 E13.34077
G1 X72.209 Y84.436 E13.3544
G1 X72.843 Y82.92 E13.43617
G1 X73.107 Y82.393 E13.46551
G1 X73.835 Y81.151 E13.53715
G1 X73.919 Y81.012 E13.54523
G1 X74.726 Y79.745 E13.61999
G1 X75.082 Y79.262 E13.64985
G1 X76.607 Y77.465 E13.76714
G1 X77.034 Y77.028 E13.79755
G0 F2400 X77.3 Y77.326
G1 F1200 X78.966 Y75.841 E13.90861
G1 X79.249 Y75.611 E13.92676
G1 X80.666 Y74.563 E14.01447
G1 X81.154 Y74.253 E14.04324
G1 X83.73 Y72.872 E14.1887
G1 X84.28 Y72.629 E14.21862
G1 X86.399 Y71.876 E14.33053
G1 X86.77 Y71.764 E14.34982
G1 X87.712 Y71.529 E14.39814
G1 X88.112 Y71.451 E14.41842
G1 X90.963 Y71.042 E14.56175
G1 X91.654 Y71.003 E14.59619
G1 X94.715 Y71.097 E14.7486
G1 X95.332 Y71.164 E14.77948
G1 X97.747 Y71.619 E14.90178
G1 X98.115 Y71.706 E14.9206
G1 X98.663 Y71.864 E14.94898
G1 X99.008 Y71.981 E14.96711
G1 X101.656 Y73.014 E15.10856
G1 X102.208 Y73.28 E15.13906
G1 X104.062 Y74.355 E15.24571
G1 X104.324 Y74.521 E15.26114
G1 X105.357 Y75.232 E15.32355
G1 X105.752 Y75.542 E15.34854
G1 X107.917 Y77.474 E15.49295
G1 X108.341 Y77.916 E15.52343
G1 X109.801 Y79.689 E15.63773
G1 X110.028 Y79.992 E15.65657
G1 X110.517 Y80.716 E15.70005
G1 X110.723 Y81.056 E15.71983
G1 X112.101 Y83.61 E15.86425
G1 X112.334 Y84.127 E15.89247
G1 X112.658 Y85.007 E15.93914
G1 X112.717 Y85.181 E15.94828
G1 X113.364 Y87.224 E16.05493
G1 X113.506 Y87.833 E16.08605
G1 X113.933 Y90.656 E16.22814
G1 X113.978 Y91.267 E16.25862
G1 X113.97 Y93.784 E16.38389
G1 X113.924 Y94.373 E16.41329
G1 X113.605 Y96.466 E16.51865
G1 X113.577 Y96.631 E16.52698
G1 X113.368 Y97.7 E16.58118
G1 X113.286 Y98.041 E16.59864
G1 X113.128 Y98.589 E16.62702
G1 X113.001 Y98.959 E16.64649
G1 X111.873 Y101.793 E16.79828
G1 X111.558 Y102.418 E16.83311
G1 X109.952 Y105.015 E16.98507
G1 X109.55 Y105.557 E17.01865
G1 X107.634 Y107.729 E17.16279
G1 X107.193 Y108.157 E17.19337
G1 X105.381 Y109.665 E17.31069
G1 X105.082 Y109.891 E17.32934
G1 X104.287 Y110.435 E17.37728
G1 X103.999 Y110.615 E17.39418
G1 X102.124 Y111.677 E17.50142
G1 X101.806 Y111.839 E17.51918
G1 X101.059 Y112.178 E17.56001
G1 X100.663 Y112.333 E17.58117
G1 X97.816 Y113.275 E17.73041
G1 X97.136 Y113.435 E17.76517
G1 X94.112 Y113.875 E17.91725
G1 X93.501 Y113.917 E17.94772
G1 X91.188 Y113.897 E18.06284
G1 X90.619 Y113.851 E18.09125
G1 X88.524 Y113.531 E18.19671
G1 X88.368 Y113.504 E18.20459
G1 X87.371 Y113.311 E18.25513
G1 X86.788 Y113.152 E18.2852
G1 X83.882 Y112.116 E18.43874
G1 X83.282 Y111.844 E18.47152
G1 X81.574 Y110.894 E18.56878
G1 X81.366 Y110.77 E18.58083
G1 X79.939 Y109.859 E18.66509
G1 X79.431 Y109.475 E18.69678
G1 X77.14 Y107.435 E18.84944
G1 X76.674 Y106.942 E18.8832
G1 X74.898 Y104.716 E19.02492
G1 X74.555 Y104.213 E19.05521
G1 X73.336 Y102.089 E19.17709
G1 X73.163 Y101.749 E19.19607
G1 X72.795 Y100.937 E19.24044
G1 X72.648 Y100.566 E19.2603
G1 X71.787 Y98.017 E19.39419
G1 X71.642 Y97.454 E19.42312
G1 X71.31 Y95.631 E19.51534
G1 X71.265 Y95.318 E19.53107
G1 X71.093 Y93.62 E19.61601
G1 X71.074 Y93.149 E19.63947
G1 X71.113 Y90.843 E19.75424
G1 X71.172 Y90.223 E19.78524
G1 X71.68 Y87.313 E19.93224
G1 X71.841 Y86.691 E19.96422
G1 X72.489 Y84.822 E20.06266
G1 X72.578 Y84.589 E20.07507
G1 X73.212 Y83.073 E20.15685
G1 X73.451 Y82.594 E20.18349
G1 X74.179 Y81.352 E20.25513
G1 X74.256 Y81.226 E20.26248
G1 X75.063 Y79.959 E20.33724
G1 X75.387 Y79.52 E20.36439
G1 X76.912 Y77.723 E20.48168
G1 X77.3 Y77.326 E20.50931
G0 F2400 X77.565 Y77.623
G1 F1200 X79.231 Y76.138 E20.62037
G1 X79.486 Y75.931 E20.63672
G1 X80.903 Y74.883 E20.72443
G1 X81.343 Y74.605 E20.75033
G1 X83.919 Y73.224 E20.89578
G1 X84.414 Y73.005 E20.92272
G1 X86.533 Y72.252 E21.03464
G1 X86.867 Y72.151 E21.052
G1 X87.809 Y71.916 E21.10032
G1 X88.169 Y71.845 E21.11858
G1 X91.02 Y71.436 E21.26191
G1 X91.641 Y71.402 E21.29286
G1 X94.702 Y71.496 E21.44527
G1 X95.258 Y71.556 E21.4731
G1 X97.673 Y72.011 E21.59539
G1 X98.004 Y72.09 E21.61233
G1 X98.552 Y72.248 E21.64071
G1 X98.863 Y72.353 E21.65705
G1 X101.511 Y73.386 E21.7985
G1 X102.008 Y73.626 E21.82596
G1 X103.862 Y74.701 E21.93262
G1 X104.098 Y74.849 E21.94648
G1 X105.131 Y75.56 E22.00889
G1 X105.486 Y75.84 E22.03139
G1 X107.651 Y77.772 E22.17579
G1 X108.033 Y78.169 E22.20321
G1 X109.493 Y79.942 E22.31751
G1 X109.697 Y80.216 E22.33451
G1 X110.186 Y80.94 E22.37799
G1 X110.371 Y81.245 E22.39574
G1 X111.749 Y83.799 E22.54016
G1 X111.959 Y84.265 E22.5656
G1 X112.283 Y85.145 E22.61227
G1 X112.337 Y85.301 E22.62048
G1 X112.984 Y87.344 E22.72713
G1 X113.112 Y87.893 E22.75518
G1 X113.539 Y90.716 E22.89727
G1 X113.579 Y91.265 E22.92466
G1 X113.571 Y93.782 E23.04992
G1 X113.53 Y94.313 E23.07643
G1 X113.211 Y96.406 E23.18179
G1 X113.185 Y96.555 E23.18932
G1 X112.976 Y97.624 E23.24352
G1 X112.902 Y97.93 E23.25919
G1 X112.744 Y98.478 E23.28757
G1 X112.63 Y98.812 E23.30514
G1 X111.502 Y101.646 E23.45693
G1 X111.219 Y102.208 E23.48825
G1 X109.613 Y104.805 E23.6402
G1 X109.251 Y105.293 E23.67044
G1 X107.335 Y107.465 E23.81458
G1 X106.938 Y107.85 E23.8421
G1 X105.126 Y109.358 E23.95942
G1 X104.856 Y109.562 E23.97626
G1 X104.061 Y110.106 E24.0242
G1 X103.803 Y110.268 E24.03936
G1 X101.928 Y111.33 E24.1466
G1 X101.641 Y111.475 E24.1626
G1 X100.894 Y111.814 E24.20342
G1 X100.538 Y111.954 E24.22246
G1 X97.691 Y112.896 E24.3717
G1 X97.078 Y113.04 E24.40303
G1 X94.054 Y113.48 E24.55511
G1 X93.505 Y113.518 E24.58249
G1 X91.192 Y113.498 E24.69761
G1 X90.68 Y113.457 E24.72317
G1 X88.585 Y113.137 E24.82864
G1 X88.444 Y113.112 E24.83576
G1 X87.447 Y112.919 E24.8863
G1 X86.922 Y112.776 E24.91338
G1 X84.016 Y111.74 E25.06691
G1 X83.476 Y111.495 E25.09642
G1 X81.768 Y110.545 E25.19368
G1 X81.58 Y110.434 E25.20455
G1 X80.153 Y109.523 E25.2888
G1 X79.697 Y109.177 E25.31729
G1 X77.406 Y107.137 E25.46995
G1 X76.986 Y106.694 E25.50033
G1 X75.21 Y104.468 E25.64205
G1 X74.902 Y104.014 E25.66935
G1 X73.683 Y101.89 E25.79122
G1 X73.526 Y101.585 E25.80829
G1 X73.158 Y100.773 E25.85266
G1 X73.026 Y100.439 E25.87053
G1 X72.165 Y97.89 E26.00442
G1 X72.034 Y97.383 E26.03048
G1 X71.702 Y95.56 E26.1227
G1 X71.662 Y95.278 E26.13687
G1 X71.49 Y93.58 E26.22181
G1 X71.473 Y93.156 E26.24292
G1 X71.512 Y90.85 E26.3577
G1 X71.565 Y90.292 E26.38559
G1 X72.073 Y87.382 E26.5326
G1 X72.218 Y86.822 E26.56139
G1 X72.866 Y84.953 E26.65983
G1 X72.946 Y84.743 E26.67102
G1 X73.58 Y83.227 E26.75279
G1 X73.795 Y82.796 E26.77676
G1 X74.523 Y81.554 E26.84841
G1 X74.592 Y81.441 E26.855
G1 X75.399 Y80.174 E26.92975
G1 X75.691 Y79.778 E26.95424
G1 X77.216 Y77.981 E27.07153
G1 X77.565 Y77.623 E27.09641
G0 F2400 X77.831 Y77.921
G1 F1200 X79.497 Y76.436 E27.20747
G1 X79.723 Y76.252 E27.22198
G1 X81.14 Y75.204 E27.30969
G1 X81.531 Y74.957 E27.3327
G1 X84.107 Y73.576 E27.47816
G1 X84.548 Y73.381 E27.50215
G1 X86.667 Y72.628 E27.61407
G1 X86.963 Y72.538 E27.62946
G1 X87.905 Y72.303 E27.67778
G1 X88.226 Y72.24 E27.69406
G1 X91.077 Y71.831 E27.83739
G1 X91.629 Y71.801 E27.8649
G1 X94.69 Y71.895 E28.01731
G1 X95.184 Y71.948 E28.04203
G1 X97.599 Y72.403 E28.16433
G1 X97.894 Y72.473 E28.17942
G1 X98.442 Y72.631 E28.2078
G1 X98.718 Y72.725 E28.22231
G1 X101.366 Y73.758 E28.36376
G1 X101.808 Y73.971 E28.38818
G1 X103.662 Y75.046 E28.49483
G1 X103.871 Y75.178 E28.50714
G1 X104.904 Y75.889 E28.56954
G1 X105.221 Y76.137 E28.58957
G1 X107.386 Y78.069 E28.73398
G1 X107.725 Y78.423 E28.75837
G1 X109.185 Y80.196 E28.87267
G1 X109.367 Y80.439 E28.88778
G1 X109.856 Y81.163 E28.93126
G1 X110.02 Y81.435 E28.94706
G1 X111.398 Y83.989 E29.09148
G1 X111.585 Y84.402 E29.11405
G1 X111.909 Y85.282 E29.16071
G1 X111.957 Y85.422 E29.16808
G1 X112.604 Y87.465 E29.27473
G1 X112.717 Y87.952 E29.29961
G1 X113.144 Y90.775 E29.44169
G1 X113.18 Y91.264 E29.46609
G1 X113.172 Y93.781 E29.59135
G1 X113.135 Y94.253 E29.61491
G1 X112.816 Y96.346 E29.72028
G1 X112.794 Y96.478 E29.72694
G1 X112.585 Y97.547 E29.78114
G1 X112.519 Y97.82 E29.79512
G1 X112.361 Y98.368 E29.8235
G1 X112.259 Y98.664 E29.83908
G1 X111.131 Y101.498 E29.99088
G1 X110.88 Y101.998 E30.01872
G1 X109.274 Y104.595 E30.17068
G1 X108.952 Y105.029 E30.19757
G1 X107.036 Y107.201 E30.34171
G1 X106.683 Y107.544 E30.3662
G1 X104.871 Y109.052 E30.48352
G1 X104.631 Y109.233 E30.49848
G1 X103.836 Y109.777 E30.54642
G1 X103.606 Y109.92 E30.5599
G1 X101.731 Y110.982 E30.66714
G1 X101.476 Y111.112 E30.68138
G1 X100.729 Y111.451 E30.7222
G1 X100.412 Y111.575 E30.73914
G1 X97.565 Y112.517 E30.88838
G1 X97.021 Y112.646 E30.9162
G1 X93.997 Y113.086 E31.06828
G1 X93.508 Y113.119 E31.09267
G1 X91.195 Y113.099 E31.20778
G1 X90.74 Y113.062 E31.2305
G1 X88.645 Y112.742 E31.33597
G1 X88.52 Y112.721 E31.34228
G1 X87.523 Y112.528 E31.39281
G1 X87.056 Y112.4 E31.41691
G1 X84.15 Y111.364 E31.57044
G1 X83.67 Y111.147 E31.59666
G1 X81.962 Y110.197 E31.69392
G1 X81.795 Y110.097 E31.70361
G1 X80.368 Y109.186 E31.78786
G1 X79.962 Y108.879 E31.81319
G1 X77.671 Y106.839 E31.96585
G1 X77.298 Y106.445 E31.99285
G1 X75.522 Y104.219 E32.13457
G1 X75.248 Y103.816 E32.15882
G1 X74.029 Y101.692 E32.2807
G1 X73.889 Y101.42 E32.29592
G1 X73.521 Y100.608 E32.34029
G1 X73.404 Y100.311 E32.35617
G1 X72.543 Y97.762 E32.49006
G1 X72.427 Y97.311 E32.51324
G1 X72.095 Y95.488 E32.60545
G1 X72.059 Y95.237 E32.61807
G1 X71.887 Y93.539 E32.70301
G1 X71.871 Y93.163 E32.72174
G1 X71.91 Y90.857 E32.83651
G1 X71.958 Y90.361 E32.86131
G1 X72.466 Y87.451 E33.00832
G1 X72.595 Y86.953 E33.03392
G1 X73.243 Y85.084 E33.13236
G1 X73.314 Y84.897 E33.14232
G1 X73.948 Y83.381 E33.22409
G1 X74.139 Y82.998 E33.24539
G1 X74.867 Y81.756 E33.31704
G1 X74.929 Y81.655 E33.32293
G1 X75.736 Y80.388 E33.39769
G1 X75.995 Y80.036 E33.41944
G1 X77.52 Y78.239 E33.53673
G1 X77.831 Y77.921 E33.55887
G1 F1500 E32.55887
G0 F2400 X79.804 Y79.507
G0 X80.72 Y80.438
G0 X82.119 Y82.045
;TYPE:WALL-INNER
G1 F1500 E33.55887
G1 F1200 X82.099 Y82.017 E33.56058
G1 X81.61 Y81.343 E33.60202
