;FLAVOR:Marlin
;TIME:3602
;Filament used: 3.11921m
;Layer height: 0.15
;Generated with Cura_SteamEngine 2.7.0
M190 S60
M104 S220
M109 S220
G21 ;metric values
G90 ;absolute positioning
M82 ;set extruder to absolute mode
M107 ;start with the fan off
G92 E0 ;zero the extruded length
G1 F200 E3 ;extrude 3mm of feed stock
G92 E0 ;zero the extruded length again
G1 F9000
M301 P26.92 I2.54 D71.46 ;set PID tuning for E0
M117 Printing...
;LAYER_COUNT:86
;LAYER:0
M107
G0 F2400 X67.475 Y93.282 Z0.3
;TYPE:SKIRT
G1 F1200 X92.507 Y73.265 E1.59504
G1 X93.014 Y72.911 E1.62582
G1 X93.563 Y72.624 E1.65665
G1 X94.144 Y72.411 E1.68744
G1 X94.748 Y72.275 E1.71825
G1 X95.246 Y72.222 E1.74318
G1 X97.988 Y72.075 E1.87983
G1 X103.382 Y71.56 E2.14949
G1 X109.038 Y70.691 E2.43426
G1 X109.781 Y70.635 E2.47134
G1 X112.272 Y70.643 E2.59531
G1 X112.89 Y70.685 E2.62613
G1 X113.497 Y70.806 E2.65694
G1 X113.923 Y70.941 E2.67918
G1 X118.149 Y72.506 E2.90344
G1 X118.714 Y72.759 E2.93425
G1 X119.242 Y73.081 E2.96503
G1 X119.725 Y73.469 E2.99586
G1 X120.153 Y73.916 E3.02666
G1 X120.52 Y74.415 E3.05748
G1 X120.82 Y74.957 E3.08831
G1 X121.048 Y75.532 E3.11909
G1 X121.199 Y76.133 E3.14993
G1 X121.279 Y77.001 E3.19331
G1 X121.286 Y86.988 E3.69032
G1 X121.246 Y87.605 E3.72109
G1 X121.128 Y88.213 E3.75191
G1 X120.932 Y88.8 E3.78271
G1 X120.662 Y89.357 E3.81351
G1 X120.322 Y89.875 E3.84435
G1 X119.919 Y90.345 E3.87516
G1 X119.479 Y90.742 E3.90465
G1 X113.962 Y95.138 E4.25571
G1 X109.971 Y98.751 E4.52362
G1 X108.089 Y100.605 E4.65509
G1 X104.392 Y104.571 E4.92492
G1 X100.392 Y109.336 E5.23453
G1 X99.964 Y109.783 E5.26532
G1 X99.652 Y110.046 E5.28563
G1 X98.493 Y110.942 E5.35853
G1 X97.746 Y111.417 E5.40259
G1 X97.076 Y111.76 E5.44005
G1 X96.401 Y112.043 E5.47647
G1 X95.386 Y112.38 E5.5297
G1 X94.678 Y112.556 E5.566
G1 X93.942 Y112.681 E5.60315
G1 X93.251 Y112.748 E5.6377
G1 X92.226 Y112.772 E5.68873
G1 X91.612 Y112.747 E5.71931
G1 X72.738 Y110.761 E6.66377
G1 X72.297 Y110.693 E6.68597
G1 X70.97 Y110.427 E6.75332
G1 X70.154 Y110.187 E6.79565
G1 X69.596 Y109.967 E6.8255
G1 X69.036 Y109.703 E6.85631
G1 X68.712 Y109.507 E6.87516
G1 X67.593 Y108.768 E6.94189
G1 X67.1 Y108.394 E6.97269
G1 X66.608 Y107.903 E7.00728
G1 X65.68 Y106.83 E7.07788
G1 X65.307 Y106.337 E7.10864
G1 X64.974 Y105.746 E7.1424
G1 X64.425 Y104.587 E7.20623
G1 X64.196 Y104.012 E7.23703
G1 X64.108 Y103.704 E7.25297
G1 X63.946 Y103.06 E7.28601
G1 X63.818 Y102.295 E7.32461
G1 X63.737 Y101.339 E7.37236
G1 X63.725 Y100.72 E7.40317
G1 X63.754 Y100.363 E7.421
G1 X63.877 Y99.338 E7.47237
G1 X64.047 Y98.524 E7.51375
G1 X64.262 Y97.811 E7.55082
G1 X64.575 Y97.03 E7.59269
G1 X65.016 Y96.159 E7.64127
G1 X65.496 Y95.397 E7.68609
G1 X66.074 Y94.647 E7.73321
G1 X66.633 Y94.039 E7.77431
G1 X67.23 Y93.492 E7.81461
G1 X67.475 Y93.282 E7.83067
G0 F2400 X67.724 Y93.594
G1 F1200 X92.756 Y73.577 E9.42571
G1 X93.243 Y73.239 E9.45521
G1 X93.771 Y72.969 E9.48473
G1 X94.33 Y72.773 E9.51421
G1 X94.911 Y72.654 E9.54372
G1 X95.267 Y72.62 E9.56152
G1 X98.024 Y72.472 E9.69892
G1 X103.426 Y71.956 E9.96897
G1 X109.098 Y71.085 E10.25455
G1 X109.78 Y71.034 E10.28859
G1 X112.271 Y71.042 E10.41255
G1 X112.862 Y71.084 E10.44204
G1 X113.443 Y71.205 E10.47157
G1 X113.784 Y71.316 E10.48942
G1 X118.01 Y72.881 E10.71369
G1 X118.551 Y73.124 E10.7432
G1 X119.054 Y73.437 E10.77268
G1 X119.51 Y73.815 E10.80216
G1 X119.912 Y74.251 E10.83167
G1 X120.251 Y74.737 E10.86116
G1 X120.521 Y75.265 E10.89067
G1 X120.719 Y75.824 E10.92019
G1 X120.839 Y76.404 E10.94966
G1 X120.88 Y77.001 E10.97944
G1 X120.887 Y86.988 E11.47645
G1 X120.847 Y87.579 E11.50593
G1 X120.729 Y88.16 E11.53543
G1 X120.533 Y88.72 E11.56496
G1 X120.264 Y89.248 E11.59445
G1 X119.926 Y89.735 E11.62395
G1 X119.526 Y90.172 E11.65343
G1 X119.23 Y90.43 E11.67297
G1 X113.711 Y94.828 E12.02417
G1 X109.68 Y98.476 E12.29473
G1 X107.823 Y100.307 E12.42451
G1 X104.087 Y104.315 E12.69718
G1 X100.087 Y109.079 E13.00675
G1 X99.676 Y109.506 E13.03625
G1 X99.408 Y109.731 E13.05366
G1 X98.249 Y110.627 E13.12657
G1 X97.564 Y111.062 E13.16695
G1 X96.894 Y111.405 E13.20441
G1 X96.276 Y111.664 E13.23775
G1 X95.261 Y112.001 E13.29098
G1 X94.611 Y112.163 E13.32431
G1 X93.875 Y112.288 E13.36147
G1 X93.242 Y112.349 E13.39311
G1 X92.217 Y112.373 E13.44414
G1 X91.654 Y112.35 E13.47218
G1 X72.78 Y110.364 E14.41664
G1 X72.376 Y110.302 E14.43698
G1 X71.049 Y110.036 E14.50433
G1 X70.3 Y109.816 E14.54318
G1 X69.742 Y109.596 E14.57303
G1 X69.207 Y109.341 E14.60252
G1 X68.932 Y109.174 E14.61854
G1 X67.813 Y108.435 E14.68527
G1 X67.341 Y108.076 E14.71478
G1 X66.91 Y107.642 E14.74522
G1 X65.982 Y106.569 E14.81582
G1 X65.626 Y106.096 E14.84528
G1 X65.334 Y105.575 E14.875
G1 X64.785 Y104.416 E14.93883
G1 X64.495 Y103.607 E14.98159
G1 X64.333 Y102.963 E15.01464
G1 X64.216 Y102.261 E15.05006
G1 X64.135 Y101.305 E15.09781
G1 X64.125 Y100.713 E15.12727
G1 X64.15 Y100.41 E15.1424
G1 X64.273 Y99.385 E15.19378
G1 X64.429 Y98.64 E15.23166
G1 X64.644 Y97.927 E15.26872
G1 X64.931 Y97.21 E15.30715
G1 X65.372 Y96.339 E15.35574
G1 X65.812 Y95.641 E15.3968
G1 X66.39 Y94.891 E15.44392
G1 X66.903 Y94.333 E15.48164
G1 X67.5 Y93.786 E15.52194
G1 X67.724 Y93.594 E15.53662
G0 F2400 X67.973 Y93.906
G1 F1200 X93.005 Y73.889 E17.13166
G1 X93.47 Y73.568 E17.15978
G1 X93.976 Y73.316 E17.18791
G1 X94.513 Y73.137 E17.21608
G1 X95.288 Y73.019 E17.2551
G1 X98.036 Y72.872 E17.39205
G1 X103.474 Y72.352 E17.66391
G1 X109.159 Y71.479 E17.95014
G1 X109.779 Y71.433 E17.98108
G1 X112.27 Y71.441 E18.10505
G1 X112.833 Y71.483 E18.13314
G1 X113.645 Y71.69 E18.17484
G1 X117.871 Y73.255 E18.39911
G1 X118.386 Y73.488 E18.42724
G1 X118.863 Y73.792 E18.45539
G1 X119.292 Y74.159 E18.48349
G1 X119.665 Y74.584 E18.51163
G1 X119.975 Y75.057 E18.53977
G1 X120.214 Y75.569 E18.56789
G1 X120.38 Y76.109 E18.596
G1 X120.467 Y76.668 E18.62416
G1 X120.481 Y77.001 E18.64074
G1 X120.488 Y86.988 E19.13775
G1 X120.448 Y87.552 E19.16589
G1 X120.33 Y88.105 E19.19403
G1 X120.134 Y88.635 E19.22215
G1 X119.866 Y89.132 E19.25025
G1 X119.53 Y89.587 E19.2784
G1 X118.981 Y90.118 E19.31641
G1 X113.451 Y94.525 E19.66831
G1 X109.415 Y98.178 E19.93922
G1 X107.533 Y100.032 E20.07069
G1 X103.789 Y104.049 E20.34397
G1 X99.781 Y108.823 E20.65418
G1 X99.388 Y109.229 E20.6823
G1 X99.164 Y109.415 E20.69679
G1 X98.005 Y110.311 E20.76969
G1 X97.382 Y110.707 E20.80643
G1 X96.712 Y111.05 E20.84388
G1 X96.15 Y111.285 E20.8742
G1 X95.135 Y111.622 E20.92742
G1 X94.544 Y111.77 E20.95774
G1 X93.808 Y111.895 E20.99489
G1 X93.233 Y111.95 E21.02364
G1 X92.208 Y111.974 E21.07466
G1 X91.696 Y111.953 E21.10016
G1 X72.822 Y109.967 E22.04462
G1 X72.454 Y109.911 E22.06315
G1 X71.127 Y109.645 E22.1305
G1 X70.447 Y109.444 E22.16579
G1 X69.889 Y109.224 E22.19564
G1 X69.152 Y108.841 E22.23697
G1 X68.033 Y108.102 E22.30371
G1 X67.584 Y107.758 E22.33186
G1 X67.212 Y107.381 E22.35821
G1 X66.284 Y106.308 E22.42881
G1 X65.945 Y105.856 E22.45693
G1 X65.695 Y105.404 E22.48264
G1 X65.146 Y104.245 E22.54646
G1 X64.882 Y103.509 E22.58537
G1 X64.72 Y102.865 E22.61842
G1 X64.613 Y102.228 E22.65056
G1 X64.532 Y101.272 E22.69831
G1 X64.546 Y100.458 E22.73882
G1 X64.669 Y99.433 E22.7902
G1 X64.811 Y98.755 E22.82467
G1 X65.026 Y98.042 E22.86173
G1 X65.287 Y97.39 E22.89668
G1 X65.728 Y96.519 E22.94527
G1 X66.128 Y95.885 E22.98257
G1 X66.706 Y95.135 E23.0297
G1 X67.172 Y94.627 E23.064
G1 X67.769 Y94.08 E23.1043
G1 X67.973 Y93.906 E23.11764
G0 F2400 X68.222 Y94.217
G1 F1200 X93.254 Y74.2 E24.71269
G1 X93.697 Y73.897 E24.7394
G1 X94.18 Y73.664 E24.76608
G1 X94.691 Y73.504 E24.79273
G1 X95.31 Y73.417 E24.82384
G1 X98.071 Y73.269 E24.96144
G1 X103.538 Y72.747 E25.23474
G1 X109.22 Y71.874 E25.52083
G1 X109.778 Y71.832 E25.54868
G1 X112.269 Y71.84 E25.67264
G1 X112.803 Y71.882 E25.6993
G1 X113.507 Y72.064 E25.73549
G1 X117.733 Y73.629 E25.95975
G1 X118.22 Y73.852 E25.98641
G1 X118.669 Y74.145 E26.01309
G1 X119.07 Y74.502 E26.03981
G1 X119.413 Y74.914 E26.06649
G1 X119.691 Y75.372 E26.09315
G1 X119.898 Y75.867 E26.11985
G1 X120.029 Y76.387 E26.14654
G1 X120.082 Y77.001 E26.17721
G1 X120.089 Y86.988 E26.67422
G1 X120.049 Y87.523 E26.70092
G1 X119.931 Y88.046 E26.7276
G1 X119.736 Y88.546 E26.75431
G1 X119.469 Y89.011 E26.78099
G1 X119.136 Y89.431 E26.80766
G1 X118.733 Y89.806 E26.83506
G1 X113.183 Y94.228 E27.18821
G1 X109.149 Y97.88 E27.45901
G1 X107.243 Y99.758 E27.59217
G1 X103.483 Y103.792 E27.8666
G1 X99.475 Y108.566 E28.17681
G1 X98.92 Y109.099 E28.21511
G1 X97.761 Y109.995 E28.28801
G1 X97.2 Y110.352 E28.3211
G1 X96.53 Y110.695 E28.35856
G1 X96.024 Y110.907 E28.38586
G1 X95.009 Y111.244 E28.43909
G1 X94.478 Y111.376 E28.46632
G1 X93.742 Y111.501 E28.50347
G1 X93.223 Y111.551 E28.52941
G1 X92.198 Y111.575 E28.58044
G1 X91.737 Y111.556 E28.6034
G1 X72.863 Y109.57 E29.54786
G1 X72.533 Y109.52 E29.56447
G1 X71.206 Y109.254 E29.63182
G1 X70.593 Y109.073 E29.66363
G1 X70.035 Y108.853 E29.69348
G1 X69.372 Y108.508 E29.73067
G1 X68.253 Y107.769 E29.79741
G1 X67.828 Y107.441 E29.82413
G1 X67.514 Y107.12 E29.84647
G1 X66.586 Y106.047 E29.91707
G1 X66.266 Y105.617 E29.94375
G1 X66.055 Y105.234 E29.96551
G1 X65.506 Y104.075 E30.02933
G1 X65.269 Y103.412 E30.06437
G1 X65.107 Y102.768 E30.09742
G1 X65.011 Y102.194 E30.12638
G1 X64.93 Y101.238 E30.17412
G1 X64.943 Y100.505 E30.21061
G1 X65.066 Y99.48 E30.26198
G1 X65.193 Y98.87 E30.29299
G1 X65.408 Y98.157 E30.33005
G1 X65.643 Y97.57 E30.36152
G1 X66.084 Y96.699 E30.4101
G1 X66.444 Y96.128 E30.4437
G1 X67.022 Y95.378 E30.49082
G1 X67.442 Y94.921 E30.52171
G1 X68.039 Y94.374 E30.562
G1 X68.222 Y94.217 E30.574
G0 F2400 X68.471 Y94.529
G1 F1200 X93.503 Y74.512 E32.16905
G1 X93.922 Y74.228 E32.19424
G1 X94.38 Y74.014 E32.21939
G1 X94.866 Y73.875 E32.24455
G1 X95.331 Y73.816 E32.26788
G1 X98.107 Y73.667 E32.40622
G1 X103.565 Y73.146 E32.67908
G1 X109.28 Y72.268 E32.96682
G1 X109.776 Y72.231 E32.99158
G1 X112.267 Y72.239 E33.11554
G1 X112.771 Y72.281 E33.14071
G1 X113.368 Y72.438 E33.17143
G1 X117.594 Y74.003 E33.3957
G1 X118.053 Y74.216 E33.42088
G1 X118.473 Y74.498 E33.44606
G1 X118.843 Y74.842 E33.4712
G1 X119.154 Y75.241 E33.49637
G1 X119.398 Y75.684 E33.52154
G1 X119.569 Y76.159 E33.54667
G1 X119.664 Y76.656 E33.57185
G1 X119.683 Y77.002 E33.58909
G1 X119.69 Y86.989 E34.0861
G1 X119.65 Y87.493 E34.11126
G1 X119.532 Y87.984 E34.13639
G1 X119.338 Y88.451 E34.16156
G1 X119.072 Y88.881 E34.18672
G1 X118.742 Y89.264 E34.21188
G1 X118.484 Y89.494 E34.22908
G1 X112.932 Y93.918 E34.58237
G1 X108.872 Y97.594 E34.85493
G1 X106.953 Y99.484 E34.98897
G1 X103.195 Y103.515 E35.26323
G1 X99.17 Y108.31 E35.57478
G1 X98.676 Y108.784 E35.60885
G1 X97.517 Y109.68 E35.68176
G1 X97.018 Y109.996 E35.71115
G1 X96.348 Y110.339 E35.74861
G1 X95.898 Y110.528 E35.7729
G1 X94.883 Y110.865 E35.82612
G1 X94.411 Y110.983 E35.85033
G1 X93.675 Y111.108 E35.88749
G1 X93.214 Y111.152 E35.91053
G1 X92.189 Y111.176 E35.96156
G1 X91.779 Y111.159 E35.98198
G1 X72.905 Y109.173 E36.92644
G1 X72.611 Y109.129 E36.94123
G1 X71.284 Y108.863 E37.00858
G1 X70.739 Y108.702 E37.03686
G1 X70.181 Y108.482 E37.06671
G1 X69.592 Y108.175 E37.09977
G1 X68.473 Y107.436 E37.1665
G1 X68.074 Y107.125 E37.19168
G1 X67.816 Y106.859 E37.21012
G1 X66.888 Y105.786 E37.28072
G1 X66.588 Y105.379 E37.30588
G1 X66.416 Y105.063 E37.32379
G1 X65.867 Y103.904 E37.38761
G1 X65.656 Y103.315 E37.41874
G1 X65.494 Y102.671 E37.45179
G1 X65.408 Y102.16 E37.47758
G1 X65.327 Y101.204 E37.52533
G1 X65.339 Y100.553 E37.55773
G1 X65.462 Y99.528 E37.6091
G1 X65.575 Y98.985 E37.63671
G1 X65.79 Y98.272 E37.67377
G1 X65.999 Y97.751 E37.7017
G1 X66.44 Y96.88 E37.75029
G1 X66.76 Y96.372 E37.78017
G1 X67.338 Y95.622 E37.82729
G1 X67.711 Y95.216 E37.85473
G1 X68.308 Y94.669 E37.89502
G1 X68.471 Y94.529 E37.90571
G1 F1500 E36.90571
G0 F2400 X95.146 Y76.431
G0 X95.425 Y76.336
G0 X109.7 Y76.101
;TYPE:SUPPORT
G1 F1500 E37.90571
G1 F1200 X109.898 Y75.619 E37.93165
G1 X112.101 Y75.62 E38.04128
G1 X112.299 Y76.101 E38.06716
G1 X109.7 Y76.101 E38.19651
G1 F1500 E37.19651
G0 F2400 X109.7 Y76.335
G0 X109.7 Y77.617
G0 X115.504 Y77.996
;TYPE:WALL-INNER
G1 F1500 E38.19651
G1 F1200 X115.504 Y86.004 E38.59503
G1 X97.504 Y86.004 E39.49081
G1 X97.504 Y99.17 E40.14602
G1 X97.504 Y99.193 E40.14716
G1 X97.504 Y99.535 E40.16418
G1 X97.504 Y99.891 E40.1819
G1 X97.504 Y99.967 E40.18568
G1 X97.475 Y99.891
G1 X97.31 Y99.535 E40.18671
G1 X97.119 Y99.193 E40.2011
G1 X97.107 Y99.174 E40.2022
G1 X96.903 Y98.865 E40.22063
G1 X96.664 Y98.554 E40.24015
G1 X96.404 Y98.261 E40.25964
G1 X96.121 Y97.987 E40.27925
G1 X95.821 Y97.736 E40.29871
G1 X95.501 Y97.506 E40.31832
G1 X95.168 Y97.301 E40.33778
G1 X94.82 Y97.121 E40.35728
G1 X94.459 Y96.965 E40.37685
G1 X94.088 Y96.839 E40.39635
G1 X93.711 Y96.739 E40.41576
G1 X93.326 Y96.665 E40.43527
G1 X92.933 Y96.621 E40.45495
G1 X92.541 Y96.606 E40.47448
G1 X92.147 Y96.62 E40.4941
G1 X91.76 Y96.662 E40.51347
G1 X91.374 Y96.731 E40.53298
G1 X90.993 Y96.829 E40.55256
G1 X90.621 Y96.956 E40.57212
G1 X90.261 Y97.107 E40.59155
G1 X89.911 Y97.285 E40.61109
G1 X89.576 Y97.488 E40.63058
G1 X89.256 Y97.715 E40.65011
G1 X88.953 Y97.967 E40.66972
G1 X88.67 Y98.238 E40.68922
G1 X88.408 Y98.529 E40.70871
G1 X88.167 Y98.837 E40.72817
G1 X87.948 Y99.166 E40.74784
G1 X87.755 Y99.509 E40.76742
G1 X87.589 Y99.862 E40.78684
G1 X87.447 Y100.229 E40.80642
G1 X87.334 Y100.602 E40.82582
G1 X87.247 Y100.984 E40.84531
G1 X87.188 Y101.374 E40.86494
G1 X87.158 Y101.764 E40.88441
G1 X87.157 Y102.159 E40.90407
G1 X87.185 Y102.548 E40.92347
G1 X87.24 Y102.937 E40.94303
G1 X87.324 Y103.321 E40.96259
G1 X87.437 Y103.698 E40.98217
G1 X87.576 Y104.063 E41.00161
G1 X87.742 Y104.42 E41.0212
G1 X87.934 Y104.762 E41.04072
G1 X88.147 Y105.089 E41.06014
G1 X88.387 Y105.401 E41.07973
G1 X88.647 Y105.694 E41.09923
G1 X88.931 Y105.968 E41.11887
G1 X89.231 Y106.219 E41.13833
G1 X89.306 Y106.273 E41.14293
G1 X89.55 Y106.448 E41.15787
G1 X89.883 Y106.653 E41.17733
G1 X90.055 Y106.742 E41.18697
G1 X89.876 Y106.724
G1 X89.525 Y106.687 E41.1881
G1 X89.227 Y106.656 E41.20013
G1 X73.569 Y105.006 E41.98367
G1 X73.234 Y104.994 E42.00036
G1 X72.99 Y104.97 E42.01256
G1 X72.693 Y104.92 E42.02755
G1 X72.432 Y104.858 E42.0409
G1 X72.2 Y104.787 E42.05297
G1 X71.935 Y104.685 E42.0671
G1 X71.683 Y104.566 E42.08097
G1 X71.451 Y104.439 E42.09413
G1 X71.232 Y104.299 E42.10707
G1 X71.002 Y104.128 E42.12133
G1 X70.801 Y103.957 E42.13446
G1 X70.61 Y103.77 E42.14777
G1 X70.436 Y103.575 E42.16077
G1 X70.26 Y103.351 E42.17495
G1 X70.111 Y103.129 E42.18825
G1 X69.97 Y102.887 E42.20219
G1 X69.859 Y102.665 E42.21454
G1 X69.752 Y102.405 E42.22854
G1 X69.665 Y102.149 E42.24199
G1 X69.59 Y101.864 E42.25666
G1 X69.545 Y101.628 E42.26861
G1 X69.512 Y101.35 E42.28255
G1 X69.498 Y101.079 E42.29605
G1 X69.502 Y100.812 E42.30934
G1 X69.523 Y100.552 E42.32232
G1 X69.568 Y100.253 E42.33737
G1 X69.619 Y100.014 E42.34953
G1 X69.689 Y99.774 E42.36197
G1 X69.799 Y99.475 E42.37783
G1 X69.895 Y99.257 E42.38968
G1 X70.028 Y99.006 E42.40382
G1 X70.163 Y98.789 E42.41654
G1 X70.326 Y98.563 E42.4304
G1 X70.509 Y98.339 E42.4448
G1 X70.685 Y98.154 E42.4575
G1 X70.867 Y97.985 E42.46986
G1 X95.849 Y77.996 E44.0621
G1 X115.504 Y77.996 E45.04024
G0 F2400 X115.903 Y77.597
G1 F1200 X115.903 Y86.403 E45.47847
G1 X97.903 Y86.403 E46.37425
G1 X97.903 Y101.873 E47.14412
G1 X97.892 Y102.339 E47.16732
G1 X97.864 Y102.652 E47.18296
G1 X97.814 Y102.978 E47.19937
G1 X97.741 Y103.311 E47.21634
G1 X97.649 Y103.636 E47.23315
G1 X97.544 Y103.94 E47.24915
G1 X97.416 Y104.242 E47.26547
G1 X97.268 Y104.542 E47.28212
G1 X97.101 Y104.831 E47.29873
G1 X96.922 Y105.106 E47.31506
G1 X96.72 Y105.376 E47.33184
G1 X96.508 Y105.624 E47.34808
G1 X96.281 Y105.86 E47.36438
G1 X96.039 Y106.083 E47.38075
G1 X95.774 Y106.298 E47.39773
G1 X95.499 Y106.495 E47.41457
G1 X95.217 Y106.67 E47.43109
G1 X94.946 Y106.818 E47.44645
G1 X94.617 Y106.971 E47.46451
G1 X94.322 Y107.087 E47.48028
G1 X94.012 Y107.187 E47.49649
G1 X93.681 Y107.271 E47.51349
G1 X93.349 Y107.336 E47.53032
G1 X93.03 Y107.377 E47.54633
G1 X92.693 Y107.399 E47.56314
G1 X92.363 Y107.401 E47.57956
G1 X92.034 Y107.383 E47.59596
