;FLAVOR:Marlin
;TIME:618
;Filament used: 0.385483m
;Layer height: 0.15
;Generated with Cura_SteamEngine 2.7.0
M190 S60
M104 S220
M109 S220
G21 ;metric values
G90 ;absolute positioning
M82 ;set extruder to absolute mode
M107 ;start with the fan off
G92 E0 ;zero the extruded length
G1 F200 E3 ;extrude 3mm of feed stock
G92 E0 ;zero the extruded length again
G1 F9000
M301 P26.92 I2.54 D71.46 ;set PID tuning for E0
M117 Printing...
;LAYER_COUNT:119
;LAYER:0
M107
G0 F2400 X86.262 Y85.992 Z0.3
;TYPE:SKIRT
G1 F1200 X86.711 Y85.565 E0.03084
G1 X87.01 Y85.334 E0.04964
G1 X87.563 Y84.942 E0.08337
G1 X88.328 Y84.5 E0.12734
G1 X89.13 Y84.13 E0.1713
G1 X90.004 Y83.825 E0.21736
G1 X90.739 Y83.646 E0.25501
G1 X91.349 Y83.539 E0.28583
G1 X91.878 Y83.51 E0.3122
G1 X93.133 Y83.511 E0.37465
G1 X93.751 Y83.551 E0.40547
G1 X94.289 Y83.653 E0.43272
G1 X95.011 Y83.833 E0.46975
G1 X95.882 Y84.142 E0.51574
G1 X96.727 Y84.537 E0.56216
G1 X97.27 Y84.835 E0.59299
G1 X97.624 Y85.083 E0.6145
G1 X98.405 Y85.685 E0.66357
G1 X98.87 Y86.094 E0.69439
G1 X99.154 Y86.405 E0.71535
G1 X99.674 Y87.026 E0.75566
G1 X100.04 Y87.525 E0.78645
G1 X100.266 Y87.919 E0.80906
G1 X100.755 Y88.874 E0.86245
G1 X101.001 Y89.442 E0.89326
G1 X101.185 Y90.101 E0.92731
G1 X101.43 Y91.302 E0.98831
G1 X101.515 Y91.916 E1.01915
G1 X101.526 Y92.365 E1.0415
G1 X101.512 Y93.01 E1.07361
G1 X101.459 Y93.627 E1.10443
G1 X101.392 Y93.978 E1.12221
G1 X101.141 Y95.072 E1.17807
G1 X100.963 Y95.666 E1.20893
G1 X100.698 Y96.256 E1.24112
G1 X100.198 Y97.194 E1.29401
G1 X99.754 Y97.88 E1.33468
G1 X99.5 Y98.207 E1.35529
G1 X98.884 Y98.862 E1.40003
G1 X98.012 Y99.631 E1.45789
G1 X97.522 Y100.01 E1.48872
G1 X97.105 Y100.262 E1.51297
G1 X96.418 Y100.63 E1.55175
G1 X95.661 Y100.955 E1.59275
G1 X95.012 Y101.17 E1.62677
G1 X94.413 Y101.326 E1.65758
G1 X93.933 Y101.394 E1.6817
G1 X92.664 Y101.508 E1.74511
G1 X92.045 Y101.523 E1.77593
G1 X91.404 Y101.455 E1.808
G1 X90.494 Y101.295 E1.85398
G1 X89.893 Y101.148 E1.88478
G1 X89.498 Y101.005 E1.90568
G1 X88.622 Y100.644 E1.95283
G1 X88.066 Y100.372 E1.98364
G1 X87.495 Y99.988 E2.01788
G1 X86.468 Y99.185 E2.08276
G1 X86.006 Y98.773 E2.11356
G1 X85.685 Y98.414 E2.13753
G1 X85.232 Y97.851 E2.17349
G1 X84.876 Y97.344 E2.20432
G1 X84.628 Y96.884 E2.23033
G1 X84.098 Y95.756 E2.29235
G1 X83.872 Y95.179 E2.32319
G1 X83.7 Y94.456 E2.36017
G1 X83.525 Y93.336 E2.41659
G1 X83.47 Y92.72 E2.44737
G1 X83.497 Y92.067 E2.47989
G1 X83.622 Y90.941 E2.53627
G1 X83.73 Y90.331 E2.5671
G1 X84.03 Y89.47 E2.61247
G1 X84.68 Y88.053 E2.69006
G1 X84.974 Y87.508 E2.72087
G1 X85.517 Y86.798 E2.76536
G1 X86.262 Y85.992 E2.81998
G0 F2400 X86.555 Y86.262
G1 F1200 X86.986 Y85.855 E2.84948
G1 X87.241 Y85.66 E2.86545
G1 X87.794 Y85.268 E2.89919
G1 X88.495 Y84.862 E2.9395
G1 X89.297 Y84.492 E2.98346
G1 X90.099 Y84.213 E3.02571
G1 X90.834 Y84.034 E3.06336
G1 X91.418 Y83.933 E3.09286
G1 X91.878 Y83.909 E3.11578
G1 X93.133 Y83.91 E3.17823
G1 X93.724 Y83.95 E3.20771
G1 X94.193 Y84.041 E3.23149
G1 X94.915 Y84.221 E3.26852
G1 X95.713 Y84.504 E3.31065
G1 X96.558 Y84.899 E3.35707
G1 X97.077 Y85.185 E3.38656
G1 X97.38 Y85.399 E3.40502
G1 X98.161 Y86.001 E3.4541
G1 X98.605 Y86.394 E3.48361
G1 X98.848 Y86.661 E3.50157
G1 X99.368 Y87.282 E3.54188
G1 X99.717 Y87.761 E3.57137
G1 X99.911 Y88.101 E3.59086
G1 X100.4 Y89.056 E3.64425
G1 X100.634 Y89.601 E3.67377
G1 X100.794 Y90.181 E3.70371
G1 X101.039 Y91.382 E3.76471
G1 X101.118 Y91.97 E3.79423
G1 X101.127 Y92.356 E3.81345
G1 X101.113 Y93.001 E3.84555
G1 X101.06 Y93.592 E3.87508
G1 X101.003 Y93.889 E3.89013
G1 X100.752 Y94.983 E3.94599
G1 X100.58 Y95.551 E3.97553
G1 X100.346 Y96.068 E4.00377
G1 X99.846 Y97.006 E4.05666
G1 X99.438 Y97.635 E4.09398
G1 X99.184 Y97.962 E4.11458
G1 X98.62 Y98.563 E4.1556
G1 X97.748 Y99.332 E4.21346
G1 X97.278 Y99.693 E4.24295
G1 X96.916 Y99.91 E4.26395
G1 X96.229 Y100.278 E4.30274
G1 X95.536 Y100.576 E4.34028
G1 X94.887 Y100.791 E4.3743
G1 X94.313 Y100.939 E4.4038
G1 X93.897 Y100.996 E4.4247
G1 X92.628 Y101.11 E4.48811
G1 X92.036 Y101.123 E4.51757
G1 X91.474 Y101.062 E4.54571
G1 X90.564 Y100.902 E4.59169
G1 X89.988 Y100.76 E4.62121
G1 X89.65 Y100.636 E4.63913
G1 X88.774 Y100.275 E4.68628
G1 X88.242 Y100.013 E4.71579
G1 X87.741 Y99.674 E4.7459
G1 X86.714 Y98.871 E4.81077
G1 X86.272 Y98.475 E4.84031
G1 X85.996 Y98.163 E4.86104
G1 X85.543 Y97.6 E4.897
G1 X85.204 Y97.115 E4.92645
G1 X84.989 Y96.714 E4.94909
G1 X84.459 Y95.586 E5.01111
G1 X84.244 Y95.034 E5.04059
G1 X84.095 Y94.395 E5.07325
G1 X83.92 Y93.275 E5.12966
G1 X83.868 Y92.684 E5.15918
G1 X83.894 Y92.111 E5.18773
G1 X84.019 Y90.985 E5.24411
G1 X84.124 Y90.401 E5.27364
G1 X84.392 Y89.637 E5.31393
G1 X85.042 Y88.22 E5.39151
G1 X85.325 Y87.699 E5.42102
G1 X85.81 Y87.068 E5.46063
G1 X86.555 Y86.262 E5.51525
G0 F2400 X86.848 Y86.533
G1 F1200 X87.472 Y85.985 E5.55658
G1 X88.025 Y85.593 E5.59031
G1 X88.662 Y85.225 E5.62692
G1 X89.464 Y84.855 E5.67087
G1 X90.193 Y84.601 E5.70929
G1 X90.928 Y84.422 E5.74694
G1 X91.485 Y84.327 E5.77506
G1 X91.877 Y84.308 E5.79459
G1 X93.132 Y84.309 E5.85705
G1 X93.696 Y84.349 E5.88518
G1 X94.096 Y84.428 E5.90547
G1 X94.818 Y84.608 E5.9425
G1 X95.544 Y84.865 E5.98083
G1 X96.389 Y85.26 E6.02725
G1 X96.883 Y85.535 E6.05539
G1 X97.137 Y85.716 E6.07091
G1 X97.918 Y86.318 E6.11998
G1 X98.34 Y86.693 E6.14808
G1 X98.542 Y86.917 E6.16309
G1 X99.062 Y87.538 E6.2034
G1 X99.394 Y87.996 E6.23155
G1 X99.556 Y88.283 E6.24795
G1 X100.045 Y89.238 E6.30134
G1 X100.266 Y89.758 E6.32946
G1 X100.403 Y90.261 E6.3554
G1 X100.648 Y91.462 E6.4164
G1 X100.722 Y92.022 E6.44451
G1 X100.728 Y92.348 E6.46074
G1 X100.714 Y92.993 E6.49285
G1 X100.614 Y93.8 E6.53331
G1 X100.363 Y94.894 E6.58917
G1 X100.198 Y95.435 E6.61732
G1 X99.994 Y95.881 E6.64173
G1 X99.494 Y96.819 E6.69462
G1 X99.123 Y97.391 E6.72855
G1 X98.869 Y97.718 E6.74916
G1 X98.356 Y98.264 E6.78644
G1 X97.484 Y99.033 E6.8443
G1 X97.035 Y99.375 E6.87239
G1 X96.728 Y99.558 E6.89018
G1 X96.041 Y99.926 E6.92896
G1 X95.41 Y100.197 E6.96314
G1 X94.761 Y100.412 E6.99716
G1 X94.214 Y100.552 E7.02526
G1 X93.862 Y100.599 E7.04293
G1 X92.593 Y100.713 E7.10634
G1 X92.028 Y100.724 E7.13446
G1 X91.543 Y100.669 E7.15875
G1 X90.633 Y100.509 E7.20474
G1 X90.084 Y100.372 E7.2329
G1 X89.802 Y100.267 E7.24787
G1 X88.926 Y99.906 E7.29502
G1 X88.42 Y99.655 E7.32313
G1 X87.986 Y99.36 E7.34925
G1 X86.959 Y98.557 E7.41412
G1 X86.54 Y98.178 E7.44224
G1 X86.307 Y97.913 E7.4598
G1 X85.854 Y97.35 E7.49576
G1 X85.532 Y96.886 E7.52387
G1 X85.351 Y96.544 E7.54313
G1 X84.821 Y95.416 E7.60515
G1 X84.617 Y94.889 E7.63327
G1 X84.489 Y94.333 E7.66166
G1 X84.314 Y93.213 E7.71808
G1 X84.266 Y92.65 E7.7462
G1 X84.29 Y92.155 E7.77086
G1 X84.415 Y91.029 E7.82724
G1 X84.517 Y90.473 E7.85537
G1 X84.755 Y89.803 E7.89076
G1 X85.405 Y88.386 E7.96834
G1 X85.676 Y87.89 E7.99647
G1 X86.103 Y87.339 E8.03116
G1 X86.848 Y86.533 E8.08578
G0 F2400 X87.141 Y86.804
G1 F1200 X87.703 Y86.311 E8.12298
G1 X88.256 Y85.919 E8.15672
G1 X88.829 Y85.587 E8.18967
G1 X89.631 Y85.217 E8.23363
G1 X90.287 Y84.988 E8.26821
G1 X91.022 Y84.809 E8.30585
G1 X91.551 Y84.721 E8.33254
G1 X91.877 Y84.707 E8.34878
G1 X93.132 Y84.708 E8.41123
G1 X93.667 Y84.748 E8.43793
G1 X94 Y84.815 E8.45484
G1 X94.722 Y84.995 E8.49187
G1 X95.375 Y85.227 E8.52635
G1 X96.22 Y85.622 E8.57277
G1 X96.893 Y86.032 E8.61199
G1 X97.674 Y86.634 E8.66106
G1 X98.236 Y87.173 E8.69982
G1 X98.756 Y87.794 E8.74012
G1 X99.069 Y88.23 E8.76683
G1 X99.2 Y88.465 E8.78022
G1 X99.689 Y89.42 E8.83362
G1 X99.898 Y89.914 E8.86031
G1 X100.012 Y90.341 E8.88231
G1 X100.257 Y91.542 E8.94331
G1 X100.329 Y92.339 E8.98313
G1 X100.315 Y92.984 E9.01524
G1 X100.225 Y93.711 E9.05169
G1 X99.974 Y94.805 E9.10755
G1 X99.815 Y95.317 E9.13423
G1 X99.642 Y95.693 E9.15483
G1 X99.142 Y96.631 E9.20773
G1 X98.808 Y97.146 E9.23827
G1 X98.554 Y97.473 E9.25888
G1 X98.092 Y97.964 E9.29243
G1 X97.22 Y98.733 E9.35029
G1 X96.793 Y99.057 E9.37696
G1 X96.539 Y99.207 E9.39164
G1 X95.852 Y99.575 E9.43043
G1 X95.285 Y99.818 E9.46113
G1 X94.636 Y100.033 E9.49515
G1 X94.116 Y100.164 E9.52184
G1 X93.826 Y100.202 E9.53639
G1 X92.557 Y100.316 E9.5998
G1 X92.021 Y100.324 E9.62648
G1 X91.612 Y100.276 E9.64697
G1 X90.702 Y100.116 E9.69295
G1 X89.954 Y99.899 E9.73171
G1 X89.078 Y99.538 E9.77886
G1 X88.599 Y99.297 E9.80555
G1 X88.232 Y99.045 E9.8277
G1 X87.205 Y98.242 E9.89258
G1 X86.809 Y97.881 E9.91925
G1 X86.618 Y97.663 E9.93367
G1 X86.165 Y97.1 E9.96963
G1 X85.861 Y96.659 E9.99629
G1 X85.712 Y96.374 E10.01229
G1 X85.182 Y95.246 E10.07432
G1 X84.99 Y94.746 E10.10097
G1 X84.883 Y94.272 E10.12515
G1 X84.708 Y93.152 E10.18157
G1 X84.665 Y92.617 E10.20828
G1 X84.687 Y92.199 E10.22911
G1 X84.812 Y91.073 E10.28549
G1 X84.911 Y90.546 E10.31217
G1 X85.118 Y89.969 E10.34268
G1 X85.768 Y88.552 E10.42026
G1 X86.027 Y88.083 E10.44693
G1 X86.396 Y87.61 E10.47678
G1 X87.141 Y86.804 E10.5314
G0 F2400 X87.434 Y87.075
G1 F1200 X87.933 Y86.636 E10.56448
G1 X88.486 Y86.244 E10.59821
G1 X88.996 Y85.949 E10.62753
G1 X89.798 Y85.579 E10.67148
G1 X90.382 Y85.376 E10.70225
G1 X91.117 Y85.197 E10.7399
G1 X91.616 Y85.116 E10.76506
G1 X91.877 Y85.106 E10.77806
G1 X93.132 Y85.107 E10.84051
G1 X93.636 Y85.147 E10.86567
G1 X93.903 Y85.202 E10.87924
G1 X94.625 Y85.382 E10.91627
G1 X95.206 Y85.588 E10.94695
G1 X96.051 Y85.983 E10.99337
G1 X96.65 Y86.348 E11.02827
G1 X97.431 Y86.95 E11.07735
G1 X97.93 Y87.43 E11.1118
G1 X98.45 Y88.051 E11.15211
G1 X98.845 Y88.647 E11.1877
G1 X99.334 Y89.602 E11.24109
G1 X99.528 Y90.068 E11.26621
G1 X99.621 Y90.42 E11.28433
G1 X99.866 Y91.621 E11.34533
G1 X99.93 Y92.33 E11.38075
G1 X99.916 Y92.975 E11.41286
G1 X99.836 Y93.622 E11.4453
G1 X99.585 Y94.716 E11.50116
G1 X99.433 Y95.198 E11.52631
G1 X99.29 Y95.505 E11.54317
G1 X98.79 Y96.443 E11.59607
G1 X98.493 Y96.901 E11.62323
G1 X98.239 Y97.228 E11.64384
G1 X97.829 Y97.665 E11.67366
G1 X96.957 Y98.434 E11.73152
G1 X96.351 Y98.855 E11.76824
G1 X95.664 Y99.223 E11.80702
G1 X95.159 Y99.44 E11.83438
G1 X94.51 Y99.655 E11.8684
G1 X93.79 Y99.804 E11.90499
G1 X92.521 Y99.918 E11.9684
G1 X92.016 Y99.923 E11.99353
G1 X91.681 Y99.883 E12.01032
G1 X90.771 Y99.723 E12.0563
G1 X90.106 Y99.53 E12.09076
G1 X89.23 Y99.169 E12.13791
G1 X88.779 Y98.94 E12.16308
G1 X88.478 Y98.731 E12.18132
G1 X87.451 Y97.928 E12.2462
G1 X86.929 Y97.413 E12.28269
G1 X86.476 Y96.85 E12.31865
G1 X86.191 Y96.432 E12.34383
G1 X86.073 Y96.205 E12.35656
G1 X85.543 Y95.077 E12.41858
G1 X85.365 Y94.604 E12.44374
G1 X85.277 Y94.21 E12.46383
G1 X85.102 Y93.09 E12.52024
G1 X85.064 Y92.586 E12.54539
G1 X85.084 Y92.243 E12.56249
G1 X85.209 Y91.117 E12.61887
G1 X85.304 Y90.62 E12.64405
G1 X85.48 Y90.136 E12.66968
G1 X86.13 Y88.719 E12.74726
G1 X86.377 Y88.277 E12.77246
G1 X86.689 Y87.881 E12.79755
G1 X87.434 Y87.075 E12.85217
G1 F1500 E11.85217
G0 F2400 X89.151 Y88.905
G0 X89.994 Y89.87
G0 X90.257 Y90.145
;TYPE:WALL-INNER
G1 F1500 E12.85217
G1 F1200 X90.473 Y89.955 E12.86649
G1 X90.719 Y89.778 E12.88157
G1 X90.958 Y89.635 E12.89543
G1 X91.222 Y89.508 E12.91001
G1 X91.502 Y89.403 E12.92489
G1 X91.775 Y89.328 E12.93898
G1 X92.084 Y89.273 E12.9546
G1 X92.345 Y89.249 E12.96764
G1 X92.658 Y89.251 E12.98322
G1 X92.939 Y89.276 E12.99726
G1 X93.067 Y89.297 E13.00372
G1 X93.375 Y89.367 E13.01943
G1 X93.644 Y89.455 E13.03352
G1 X93.791 Y89.514 E13.0414
G1 X94.039 Y89.634 E13.05511
G1 X94.163 Y89.704 E13.0622
G1 X94.417 Y89.873 E13.07738
G1 X94.64 Y90.052 E13.09161
G1 X94.851 Y90.252 E13.10608
G1 X95.054 Y90.485 E13.12146
G1 X95.215 Y90.707 E13.13511
G1 X95.366 Y90.961 E13.14981
G1 X95.495 Y91.229 E13.16461
G1 X95.596 Y91.498 E13.17891
G1 X95.674 Y91.785 E13.19371
G1 X95.727 Y92.071 E13.20819
G1 X95.751 Y92.348 E13.22203
G1 X95.749 Y92.658 E13.23745
G1 X95.705 Y93.061 E13.25763
G1 X95.633 Y93.372 E13.27352
G1 X95.542 Y93.653 E13.28821
G1 X95.494 Y93.772 E13.2946
G1 X95.365 Y94.043 E13.30954
G1 X95.297 Y94.16 E13.31627
G1 X95.123 Y94.424 E13.33201
G1 X94.955 Y94.634 E13.34539
G1 X94.736 Y94.863 E13.36116
G1 X94.521 Y95.05 E13.37534
G1 X94.294 Y95.213 E13.38925
G1 X94.034 Y95.37 E13.40436
G1 X93.769 Y95.496 E13.41896
G1 X93.511 Y95.592 E13.43266
G1 X93.212 Y95.674 E13.44809
G1 X92.91 Y95.728 E13.46336
G1 X92.654 Y95.751 E13.47615
G1 X92.336 Y95.748 E13.49198
G1 X92.066 Y95.724 E13.50547
G1 X91.78 Y95.67 E13.51995
G1 X91.466 Y95.583 E13.53617
G1 X91.229 Y95.494 E13.54877
G1 X90.933 Y95.351 E13.56512
G1 X90.568 Y95.117 E13.5867
G1 X90.356 Y94.947 E13.60023
G1 X90.253 Y94.852 E13.6072
G1 X89.971 Y94.548 E13.62783
G1 X89.774 Y94.275 E13.64459
G1 X89.623 Y94.022 E13.65925
G1 X89.566 Y93.907 E13.66564
G1 X89.452 Y93.638 E13.68018
G1 X89.359 Y93.348 E13.69533
G1 X89.297 Y93.075 E13.70927
G1 X89.26 Y92.795 E13.72332
G1 X89.248 Y92.504 E13.73781
G1 X89.263 Y92.187 E13.75361
G1 X89.298 Y91.923 E13.76686
G1 X89.363 Y91.639 E13.78136
G1 X89.457 Y91.35 E13.79648
G1 X89.503 Y91.234 E13.80269
G1 X89.642 Y90.945 E13.81865
G1 X89.783 Y90.709 E13.83233
G1 X89.963 Y90.463 E13.8475
G1 X90.036 Y90.375 E13.85319
G1 X90.257 Y90.145 E13.86907
G0 F2400 X91.017 Y90.489
G1 F1200 X90.74 Y90.727 E13.88724
G1 X90.588 Y90.895 E13.89852
G1 X90.378 Y91.181 E13.91617
G1 X90.204 Y91.515 E13.93492
G1 X90.08 Y91.874 E13.95382
G1 X90.016 Y92.245 E13.97255
G1 X90.004 Y92.619 E13.99118
G1 X90.051 Y92.998 E14.01018
G1 X90.156 Y93.362 E14.02903
G1 X90.311 Y93.704 E14.04772
G1 X90.518 Y94.022 E14.0666
G1 X90.772 Y94.303 E14.08545
G1 X91.061 Y94.542 E14.10412
G1 X91.372 Y94.729 E14.12218
G1 X91.58 Y94.821 E14.1335
G1 X91.916 Y94.929 E14.15106
G1 X92.273 Y94.988 E14.16907
G1 X92.503 Y94.998 E14.18052
G1 X92.859 Y94.972 E14.19829
G1 X93.224 Y94.891 E14.21689
G1 X93.569 Y94.759 E14.23528
G1 X93.766 Y94.65 E14.24648
G1 X94.041 Y94.465 E14.26297
G1 X94.215 Y94.315 E14.27441
G1 X94.459 Y94.051 E14.2923
G1 X94.668 Y93.74 E14.31094
G1 X94.826 Y93.412 E14.32906
G1 X94.897 Y93.196 E14.34038
G1 X94.974 Y92.851 E14.35797
G1 X94.999 Y92.472 E14.37687
G1 X94.966 Y92.093 E14.3958
G1 X94.875 Y91.727 E14.41457
G1 X94.733 Y91.379 E14.43328
G1 X94.539 Y91.056 E14.45203
G1 X94.308 Y90.776 E14.47009
G1 X94.14 Y90.618 E14.48157
G1 X93.86 Y90.405 E14.49908
G1 X93.529 Y90.223 E14.51788
G1 X93.171 Y90.092 E14.53685
G1 X92.801 Y90.021 E14.5556
G1 X92.445 Y90.003 E14.57334
G1 X92.219 Y90.018 E14.58461
G1 X91.877 Y90.08 E14.6019
G1 X91.663 Y90.149 E14.61309
G1 X91.337 Y90.287 E14.63071
G1 X91.017 Y90.489 E14.64954
G0 F2400 X91.254 Y90.811
G1 F1200 X91.019 Y91.013 E14.66497
G1 X90.898 Y91.147 E14.67395
G1 X90.718 Y91.392 E14.68908
G1 X90.572 Y91.673 E14.70484
G1 X90.468 Y91.974 E14.72069
G1 X90.414 Y92.286 E14.73644
G1 X90.404 Y92.601 E14.75213
G1 X90.443 Y92.918 E14.76802
G1 X90.531 Y93.224 E14.78387
G1 X90.662 Y93.512 E14.79961
G1 X90.835 Y93.778 E14.81541
G1 X91.048 Y94.014 E14.83123
G1 X91.292 Y94.215 E14.84696
G1 X91.557 Y94.374 E14.86234
G1 X91.723 Y94.448 E14.87138
G1 X92.01 Y94.54 E14.88638
G1 X92.314 Y94.59 E14.90171
G1 X92.497 Y94.598 E14.91083
G1 X92.801 Y94.576 E14.926
G1 X93.109 Y94.508 E14.94169
G1 X93.4 Y94.396 E14.95721
G1 X93.558 Y94.309 E14.96619
G1 X93.799 Y94.147 E14.98064
G1 X93.937 Y94.028 E14.98971
G1 X94.145 Y93.803 E15.00496
G1 X94.321 Y93.541 E15.02066
G1 X94.455 Y93.262 E15.03607
G1 X94.512 Y93.09 E15.04508
G1 X94.578 Y92.794 E15.06018
G1 X94.599 Y92.476 E15.07604
G1 X94.571 Y92.159 E15.09187
G1 X94.495 Y91.851 E15.10766
G1 X94.375 Y91.558 E15.12342
G1 X94.212 Y91.287 E15.13916
G1 X94.016 Y91.049 E15.1545
G1 X93.882 Y90.923 E15.16365
G1 X93.642 Y90.74 E15.17867
G1 X93.364 Y90.587 E15.19446
G1 X93.064 Y90.478 E15.21035
G1 X92.753 Y90.418 E15.22611
G1 X92.448 Y90.403 E15.24131
G1 X92.268 Y90.415 E15.25029
G1 X91.974 Y90.468 E15.26515
G1 X91.802 Y90.523 E15.27414
G1 X91.523 Y90.642 E15.28923
G1 X91.254 Y90.811 E15.30504
G0 F2400 X91.195 Y90.731
G0 X90.55 Y89.53
G0 X90.496 Y89.447
G1 F1200 X90.775 Y89.28 E15.32122
G1 X91.064 Y89.141 E15.33718
G1 X91.371 Y89.026 E15.3535
G1 X91.692 Y88.937 E15.37008
G1 X92.024 Y88.878 E15.38686
G1 X92.332 Y88.85 E15.40225
G1 X92.673 Y88.852 E15.41922
G1 X92.994 Y88.881 E15.43526
G1 X93.144 Y88.905 E15.44282
G1 X93.482 Y88.982 E15.46007
G1 X93.786 Y89.082 E15.476
