;FLAVOR:Marlin
;TIME:465
;Filament used: 0.337399m
;Layer height: 0.15
;Generated with Cura_SteamEngine 2.7.0
M190 S60
M104 S220
M109 S220
G21 ;metric values
G90 ;absolute positioning
M82 ;set extruder to absolute mode
M107 ;start with the fan off
G92 E0 ;zero the extruded length
G1 F200 E3 ;extrude 3mm of feed stock
G92 E0 ;zero the extruded length again
G1 F9000
M301 P26.92 I2.54 D71.46 ;set PID tuning for E0
M117 Printing...
;LAYER_COUNT:32
;LAYER:0
M107
G0 F2400 X79.083 Y71.153 Z0.3
;TYPE:SKIRT
G1 F1200 X79.544 Y70.74 E0.0308
G1 X80.054 Y70.389 E0.06161
G1 X80.605 Y70.107 E0.09242
G1 X81.188 Y69.899 E0.12322
G1 X81.793 Y69.767 E0.15404
G1 X82.509 Y69.713 E0.18977
G1 X102.491 Y69.714 E1.18418
G1 X103.109 Y69.754 E1.215
G1 X103.717 Y69.873 E1.24583
G1 X104.304 Y70.07 E1.27665
G1 X104.861 Y70.34 E1.30745
G1 X105.378 Y70.68 E1.33825
G1 X105.847 Y71.084 E1.36905
G1 X106.261 Y71.545 E1.39989
G1 X106.611 Y72.055 E1.43067
G1 X106.893 Y72.606 E1.46147
G1 X107.102 Y73.189 E1.49229
G1 X107.233 Y73.794 E1.5231
G1 X107.287 Y74.51 E1.55883
G1 X107.287 Y110.491 E3.34944
G1 X107.247 Y111.109 E3.38026
G1 X107.128 Y111.716 E3.41105
G1 X106.931 Y112.303 E3.44186
G1 X106.661 Y112.86 E3.47266
G1 X106.321 Y113.378 E3.5035
G1 X105.917 Y113.847 E3.53431
G1 X105.456 Y114.26 E3.56511
G1 X104.946 Y114.611 E3.59592
G1 X104.395 Y114.893 E3.62672
G1 X103.812 Y115.101 E3.65753
G1 X103.207 Y115.233 E3.68834
G1 X102.491 Y115.287 E3.72408
G1 X82.509 Y115.287 E4.71849
G1 X81.891 Y115.247 E4.74931
G1 X81.284 Y115.128 E4.78009
G1 X80.697 Y114.931 E4.81091
G1 X80.14 Y114.661 E4.84171
G1 X79.622 Y114.321 E4.87255
G1 X79.153 Y113.917 E4.90335
G1 X78.74 Y113.456 E4.93415
G1 X78.389 Y112.946 E4.96496
G1 X78.107 Y112.395 E4.99577
G1 X77.899 Y111.812 E5.02657
G1 X77.767 Y111.207 E5.05739
G1 X77.713 Y110.491 E5.09312
G1 X77.713 Y74.509 E6.88378
G1 X77.753 Y73.891 E6.9146
G1 X77.872 Y73.284 E6.94538
G1 X78.069 Y72.697 E6.9762
G1 X78.339 Y72.14 E7.007
G1 X78.679 Y71.622 E7.03784
G1 X79.083 Y71.153 E7.06864
G0 F2400 X79.476 Y71.326
G1 F1200 X79.931 Y70.947 E7.09811
G1 X80.434 Y70.632 E7.12765
G1 X80.974 Y70.389 E7.15712
G1 X81.542 Y70.22 E7.18661
G1 X82.128 Y70.129 E7.21612
G1 X82.509 Y70.112 E7.2351
G1 X102.491 Y70.113 E8.22951
G1 X103.083 Y70.153 E8.25904
G1 X103.663 Y70.272 E8.28851
G1 X104.223 Y70.468 E8.31803
G1 X104.751 Y70.738 E8.34755
G1 X105.237 Y71.076 E8.37701
G1 X105.674 Y71.477 E8.40652
G1 X106.053 Y71.932 E8.43599
G1 X106.368 Y72.435 E8.46553
G1 X106.611 Y72.975 E8.495
G1 X106.78 Y73.543 E8.52449
G1 X106.871 Y74.129 E8.554
G1 X106.888 Y74.51 E8.57298
G1 X106.888 Y110.491 E10.36359
G1 X106.848 Y111.082 E10.39307
G1 X106.729 Y111.663 E10.42258
G1 X106.533 Y112.222 E10.45206
G1 X106.263 Y112.75 E10.48158
G1 X105.925 Y113.237 E10.51108
G1 X105.524 Y113.674 E10.54059
G1 X105.069 Y114.053 E10.57006
G1 X104.566 Y114.368 E10.5996
G1 X104.026 Y114.611 E10.62907
G1 X103.458 Y114.78 E10.65856
G1 X102.872 Y114.871 E10.68807
G1 X102.491 Y114.888 E10.70705
G1 X82.509 Y114.888 E11.70146
G1 X81.918 Y114.848 E11.73094
G1 X81.337 Y114.729 E11.76046
G1 X80.778 Y114.533 E11.78994
G1 X80.25 Y114.263 E11.81945
G1 X79.763 Y113.925 E11.84895
G1 X79.326 Y113.524 E11.87846
G1 X78.947 Y113.069 E11.90793
G1 X78.632 Y112.566 E11.93747
G1 X78.389 Y112.026 E11.96694
G1 X78.22 Y111.458 E11.99643
G1 X78.129 Y110.872 E12.02594
G1 X78.112 Y110.491 E12.04492
G1 X78.112 Y74.509 E13.83558
G1 X78.152 Y73.918 E13.86506
G1 X78.271 Y73.337 E13.89458
G1 X78.467 Y72.778 E13.92406
G1 X78.737 Y72.25 E13.95357
G1 X79.075 Y71.763 E13.98307
G1 X79.476 Y71.326 E14.01258
G0 F2400 X79.867 Y71.508
G1 F1200 X80.317 Y71.166 E14.04071
G1 X80.81 Y70.89 E14.06883
G1 X81.337 Y70.687 E14.09694
G1 X81.888 Y70.56 E14.12507
G1 X82.509 Y70.511 E14.15608
G1 X102.491 Y70.512 E15.15049
G1 X103.055 Y70.552 E15.17863
G1 X103.607 Y70.671 E15.20673
G1 X104.138 Y70.867 E15.2349
G1 X104.635 Y71.135 E15.263
G1 X105.089 Y71.472 E15.29114
G1 X105.492 Y71.868 E15.31925
G1 X105.834 Y72.318 E15.34738
G1 X106.11 Y72.811 E15.3755
G1 X106.314 Y73.339 E15.40367
G1 X106.441 Y73.889 E15.43176
G1 X106.489 Y74.51 E15.46275
G1 X106.489 Y110.491 E17.25337
G1 X106.449 Y111.055 E17.2815
G1 X106.33 Y111.607 E17.30961
G1 X106.134 Y112.137 E17.33773
G1 X105.866 Y112.635 E17.36587
G1 X105.53 Y113.089 E17.39398
G1 X105.133 Y113.492 E17.42213
G1 X104.683 Y113.834 E17.45026
G1 X104.19 Y114.11 E17.47838
G1 X103.663 Y114.313 E17.50648
G1 X103.112 Y114.44 E17.53462
G1 X102.491 Y114.489 E17.56562
G1 X82.509 Y114.489 E18.56004
G1 X81.945 Y114.449 E18.58818
G1 X81.393 Y114.33 E18.61628
G1 X80.863 Y114.134 E18.6444
G1 X80.365 Y113.866 E18.67254
G1 X79.911 Y113.53 E18.70065
G1 X79.508 Y113.133 E18.7288
G1 X79.166 Y112.683 E18.75693
G1 X78.89 Y112.19 E18.78505
G1 X78.687 Y111.663 E18.81315
G1 X78.56 Y111.112 E18.84129
G1 X78.511 Y110.491 E18.87229
G1 X78.511 Y74.509 E20.66295
G1 X78.551 Y73.945 E20.69109
G1 X78.67 Y73.393 E20.71919
G1 X78.866 Y72.863 E20.74732
G1 X79.134 Y72.365 E20.77546
G1 X79.47 Y71.911 E20.80357
G1 X79.867 Y71.508 E20.83172
G0 F2400 X80.257 Y71.702
G1 F1200 X80.699 Y71.398 E20.85842
G1 X81.181 Y71.164 E20.88508
G1 X81.693 Y71.004 E20.91178
G1 X82.223 Y70.921 E20.93847
G1 X82.509 Y70.91 E20.95272
G1 X102.491 Y70.911 E21.94713
G1 X103.026 Y70.951 E21.97383
G1 X103.549 Y71.07 E22.00052
G1 X104.048 Y71.265 E22.02718
G1 X104.513 Y71.533 E22.05389
G1 X104.933 Y71.866 E22.08057
G1 X105.299 Y72.258 E22.10726
G1 X105.602 Y72.7 E22.13393
G1 X105.836 Y73.183 E22.16063
G1 X105.996 Y73.694 E22.18728
G1 X106.079 Y74.224 E22.21398
G1 X106.09 Y74.51 E22.22822
G1 X106.09 Y110.491 E24.01883
G1 X106.05 Y111.026 E24.04553
G1 X105.931 Y111.549 E24.07223
G1 X105.736 Y112.048 E24.09889
G1 X105.468 Y112.513 E24.1256
G1 X105.135 Y112.933 E24.15227
G1 X104.743 Y113.298 E24.17893
G1 X104.301 Y113.602 E24.20562
G1 X103.819 Y113.836 E24.23229
G1 X103.307 Y113.996 E24.25898
G1 X102.777 Y114.079 E24.28568
G1 X102.491 Y114.09 E24.29992
G1 X82.509 Y114.09 E25.29434
G1 X81.974 Y114.05 E25.32104
G1 X81.451 Y113.931 E25.34773
G1 X80.952 Y113.736 E25.37439
G1 X80.487 Y113.468 E25.4011
G1 X80.067 Y113.135 E25.42777
G1 X79.702 Y112.743 E25.45443
G1 X79.398 Y112.301 E25.48113
G1 X79.164 Y111.819 E25.50779
G1 X79.004 Y111.307 E25.53448
G1 X78.921 Y110.777 E25.56118
G1 X78.91 Y110.491 E25.57542
G1 X78.91 Y74.509 E27.36609
G1 X78.95 Y73.974 E27.39279
G1 X79.069 Y73.451 E27.41948
G1 X79.264 Y72.952 E27.44614
G1 X79.532 Y72.487 E27.47285
G1 X79.865 Y72.067 E27.49952
G1 X80.257 Y71.702 E27.52618
G0 F2400 X80.645 Y71.908
G1 F1200 X81.078 Y71.647 E27.55134
G1 X81.546 Y71.457 E27.57647
G1 X82.039 Y71.344 E27.60165
G1 X82.509 Y71.309 E27.6251
G1 X102.491 Y71.31 E28.61951
G1 X102.995 Y71.35 E28.64467
G1 X103.487 Y71.469 E28.66987
G1 X103.953 Y71.664 E28.695
G1 X104.383 Y71.929 E28.72014
G1 X104.766 Y72.26 E28.74533
G1 X105.092 Y72.646 E28.77048
G1 X105.353 Y73.079 E28.79564
G1 X105.543 Y73.548 E28.82082
G1 X105.656 Y74.04 E28.84594
G1 X105.691 Y74.51 E28.8694
G1 X105.691 Y110.491 E30.66001
G1 X105.651 Y110.995 E30.68517
G1 X105.532 Y111.486 E30.71031
G1 X105.338 Y111.953 E30.73548
G1 X105.072 Y112.383 E30.76064
G1 X104.742 Y112.766 E30.7858
G1 X104.355 Y113.092 E30.81098
G1 X103.922 Y113.353 E30.83614
G1 X103.454 Y113.543 E30.86128
G1 X102.961 Y113.656 E30.88645
G1 X102.491 Y113.691 E30.9099
G1 X82.509 Y113.691 E31.90432
G1 X82.005 Y113.651 E31.92948
G1 X81.514 Y113.532 E31.95462
G1 X81.047 Y113.338 E31.97979
G1 X80.617 Y113.072 E32.00495
G1 X80.234 Y112.742 E32.03011
G1 X79.908 Y112.355 E32.05529
G1 X79.647 Y111.922 E32.08045
G1 X79.457 Y111.454 E32.10559
G1 X79.344 Y110.961 E32.13076
G1 X79.309 Y110.491 E32.15421
G1 X79.309 Y74.509 E33.94487
G1 X79.349 Y74.005 E33.97003
G1 X79.468 Y73.514 E33.99518
G1 X79.662 Y73.047 E34.02034
G1 X79.928 Y72.617 E34.0455
G1 X80.258 Y72.234 E34.07066
G1 X80.645 Y71.908 E34.09584
G1 F1500 E33.09584
G0 F2400 X83.111 Y73.835
G0 X83.111 Y75.111
G0 X83.496 Y75.496
;TYPE:WALL-INNER
G1 F1500 E34.09584
G1 F1200 X101.504 Y75.496 E34.99202
G1 X101.504 Y109.504 E36.68445
G1 X83.496 Y109.504 E37.58062
G1 X83.496 Y75.496 E39.27305
G0 F2400 X85.254 Y79.754
G1 F1200 X85.254 Y105.246 E40.54167
G1 X91.099 Y105.246 E40.83255
G1 X91.826 Y105.246 E40.86873
G1 X91.099 Y105.482 E40.88094
G1 X91.099 Y107.519 E40.98231
G1 X93.036 Y108.146 E41.08363
G1 X94.231 Y106.5 E41.18486
G1 X93.55 Y105.562 E41.24254
G1 X93.321 Y105.246 E41.26196
G1 X93.711 Y105.246 E41.27274
G1 X93.712 Y105.246 E41.27279
G1 X99.746 Y105.246 E41.57307
G1 X99.746 Y79.754 E42.8417
G1 X93.712 Y79.754 E43.14198
G1 X93.711 Y79.754 E43.14203
G1 X93.321 Y79.754 E43.16144
G1 X93.55 Y79.438 E43.17222
G1 X94.231 Y78.5 E43.2299
G1 X93.036 Y76.854 E43.33113
G1 X91.099 Y77.481 E43.43245
G1 X91.099 Y79.518 E43.53382
G1 X91.826 Y79.754 E43.57186
G1 X91.099 Y79.754 E43.58223
G1 X85.254 Y79.754 E43.87311
G0 F2400 X85.653 Y80.153
G1 F1200 X85.653 Y104.847 E45.10202
G1 X99.347 Y104.847 E45.7835
G1 X99.347 Y80.153 E47.01241
G1 X85.653 Y80.153 E47.6939
G0 F2400 X85.583 Y80.083
G0 X83.167 Y75.167
G0 X83.097 Y75.097
G1 F1200 X101.903 Y75.097 E48.62979
G1 X101.903 Y109.903 E50.36193
G1 X83.097 Y109.903 E51.29782
G1 X83.097 Y75.097 E53.02995
G0 F2400 X83.167 Y75.167
G0 X91.418 Y77.713
G0 X91.498 Y77.771
G1 F1200 X91.498 Y79.228 E53.10246
G1 X92.883 Y79.678 E53.17493
G1 X93.738 Y78.5 E53.24737
G1 X92.883 Y77.323 E53.31977
G1 X91.498 Y77.771 E53.39221
G0 F2400 X91.418 Y77.713
G0 X91.466 Y79.251
G0 X91.547 Y80.113
G0 X99.375 Y80.125
G0 X99.375 Y104.875
G0 X92.913 Y105.227
G0 X92.883 Y105.322
G1 F1200 X91.498 Y105.772 E53.46468
G1 X91.498 Y107.229 E53.53719
G1 X92.883 Y107.677 E53.60963
G1 X93.738 Y106.5 E53.68203
G1 X92.883 Y105.322 E53.75447
G0 F2400 X92.731 Y105.79
;TYPE:WALL-OUTER
G1 F1200 X91.896 Y106.061 E53.79816
G1 X91.896 Y106.939 E53.84185
G1 X92.731 Y107.209 E53.88552
G1 X93.246 Y106.5 E53.92913
G1 X92.731 Y105.79 E53.97278
G0 F2400 X92.541 Y105.851
G0 X92.389 Y105.377
G0 X96.375 Y104.852
G0 X99.375 Y104.875
G0 X99.447 Y104.449
G0 X98.949 Y104.449
G1 F1200 X98.949 Y80.551 E55.16208
G1 X86.051 Y80.551 E55.80395
G1 X86.051 Y104.449 E56.99325
G1 X98.949 Y104.449 E57.63512
G0 F2400 X98.949 Y104.249
G0 X99.447 Y104.249
G0 X101.833 Y109.833
G0 X102.301 Y110.301
G1 F1200 X82.699 Y110.301 E58.61063
G1 X82.699 Y74.699 E60.38238
G1 X102.301 Y74.699 E61.35788
G1 X102.301 Y110.301 E63.12963
G0 F2400 X102.101 Y110.301
G0 X101.833 Y109.833
G0 X99.375 Y80.125
G0 X92.578 Y79.683
G0 X92.731 Y79.21
G1 F1200 X93.246 Y78.5 E63.17328
G1 X92.731 Y77.791 E63.21689
G1 X91.896 Y78.061 E63.26056
G1 X91.896 Y78.939 E63.30426
G1 X92.731 Y79.21 E63.34794
G0 F2400 X92.848 Y79.049
G0 X93.249 Y79.341
G0 X101.323 Y75.931
;TYPE:SKIN
G1 F1200 X101.068 Y75.675 E63.36593
G0 F2400 X100.503 Y75.675
G1 F1200 X101.323 Y76.495 E63.42364
G1 X101.393 Y76.565
G0 F2400 X101.323 Y77.059
G1 F1200 X99.939 Y75.675 E63.52104
G1 X99.869 Y75.605
G0 F2400 X99.375 Y75.675
G1 F1200 X101.323 Y77.624 E63.65817
G1 X101.393 Y77.694
G0 F2400 X101.323 Y78.188
G1 F1200 X98.811 Y75.675 E63.835
G1 X98.742 Y75.605
G0 F2400 X98.246 Y75.675
G1 F1200 X101.323 Y78.752 E64.05156
G1 X101.393 Y78.822
G0 F2400 X101.323 Y79.316
G1 F1200 X97.682 Y75.675 E64.30781
G1 X97.612 Y75.605
G0 F2400 X97.118 Y75.675
G1 F1200 X101.323 Y79.881 E64.60379
G1 X101.393 Y79.951
G0 F2400 X101.323 Y80.445
G1 F1200 X96.554 Y75.675 E64.93946
G1 X96.485 Y75.605
G0 F2400 X95.989 Y75.675
G1 F1200 X99.887 Y79.573 E65.2138
G1 X99.957 Y79.643
G0 F2400 X99.925 Y79.611
G1 F1200 X101.323 Y81.009 E65.31219
G1 X101.393 Y81.079
G0 F2400 X101.323 Y81.573
G1 F1200 X99.925 Y80.176 E65.41054
G1 X99.855 Y80.107
G0 F2400 X99.925 Y80.74
G1 F1200 X101.323 Y82.138 E65.50893
G1 X101.393 Y82.208
G0 F2400 X101.323 Y82.702
G1 F1200 X99.925 Y81.304 E65.60732
G1 X99.855 Y81.234
G0 F2400 X99.925 Y81.868
G1 F1200 X101.323 Y83.266 E65.70571
G1 X101.393 Y83.336
G0 F2400 X101.323 Y83.831
G1 F1200 X99.925 Y82.433 E65.8041
G1 X99.855 Y82.363
G0 F2400 X99.925 Y82.997
G1 F1200 X101.323 Y84.395 E65.90249
G1 X101.393 Y84.465
G0 F2400 X101.323 Y84.959
G1 F1200 X99.925 Y83.561 E66.00088
G1 X99.855 Y83.491
G0 F2400 X99.925 Y84.125
G1 F1200 X101.323 Y85.523 E66.09927
G1 X101.393 Y85.593
G0 F2400 X101.323 Y86.088
G1 F1200 X99.925 Y84.69 E66.19766
G1 X99.855 Y84.62
G0 F2400 X99.925 Y85.254
G1 F1200 X101.323 Y86.652 E66.29605
G1 X101.393 Y86.722
G0 F2400 X101.323 Y87.216
G1 F1200 X99.925 Y85.818 E66.39444
G1 X99.855 Y85.748
G0 F2400 X99.925 Y86.382
G1 F1200 X101.323 Y87.78 E66.49283
G1 X101.393 Y87.85
G0 F2400 X101.323 Y88.345
G1 F1200 X99.925 Y86.947 E66.59122
G1 X99.855 Y86.877
G0 F2400 X99.925 Y87.511
G1 F1200 X101.323 Y88.909 E66.68961
G1 X101.393 Y88.979
G0 F2400 X101.323 Y89.473
G1 F1200 X99.925 Y88.075 E66.788
G1 X99.855 Y88.005
G0 F2400 X99.925 Y88.64
G1 F1200 X101.323 Y90.038 E66.88639
G1 X101.393 Y90.108
G0 F2400 X101.323 Y90.602
G1 F1200 X99.925 Y89.204 E66.98478
G1 X99.855 Y89.134
G0 F2400 X99.925 Y89.768
G1 F1200 X101.323 Y91.166 E67.08317
G1 X101.393 Y91.236
G0 F2400 X101.323 Y91.73
G1 F1200 X99.925 Y90.332 E67.18156
G1 X99.855 Y90.262
G0 F2400 X99.925 Y90.897
G1 F1200 X101.323 Y92.295 E67.27995
G1 X101.393 Y92.365
G0 F2400 X101.324 Y92.86
G1 F1200 X99.925 Y91.461 E67.37841
G1 X99.855 Y91.391
G0 F2400 X99.925 Y92.025
G1 F1200 X101.324 Y93.424 E67.47687
G1 X101.394 Y93.494
G0 F2400 X101.324 Y93.988
G1 F1200 X99.925 Y92.589 E67.57533
G1 X99.855 Y92.519
G0 F2400 X99.925 Y93.154
G1 F1200 X101.324 Y94.552 E67.67375
G1 X101.394 Y94.622
G0 F2400 X101.324 Y95.117
G1 F1200 X99.925 Y93.718 E67.77221
G1 X99.855 Y93.648
G0 F2400 X99.925 Y94.282
G1 F1200 X101.324 Y95.681 E67.87067
G1 X101.394 Y95.751
G0 F2400 X101.324 Y96.245
G1 F1200 X99.925 Y94.847 E67.9691
G1 X99.855 Y94.777
G0 F2400 X99.925 Y95.411
G1 F1200 X101.324 Y96.809 E68.06752
G1 X101.394 Y96.879
G0 F2400 X101.324 Y97.374
G1 F1200 X99.925 Y95.975 E68.16598
G1 X99.855 Y95.905
G0 F2400 X99.925 Y96.539
G1 F1200 X101.324 Y97.938 E68.26445
G1 X101.394 Y98.008
G0 F2400 X101.324 Y98.502
G1 F1200 X99.925 Y97.104 E68.36287
G1 X99.855 Y97.034
G0 F2400 X99.925 Y97.668
G1 F1200 X101.324 Y99.067 E68.46133
G1 X101.394 Y99.137
G0 F2400 X101.324 Y99.631
G1 F1200 X99.925 Y98.232 E68.55979
G1 X99.855 Y98.162
G0 F2400 X99.925 Y98.796
G1 F1200 X101.324 Y100.195 E68.65825
G1 X101.394 Y100.265
G0 F2400 X101.324 Y100.759
G1 F1200 X99.925 Y99.361 E68.75668
G1 X99.855 Y99.291
G0 F2400 X99.925 Y99.925
G1 F1200 X101.324 Y101.324 E68.85514
G1 X101.394 Y101.394
G0 F2400 X101.324 Y101.888
G1 F1200 X99.925 Y100.489 E68.9536
G1 X99.855 Y100.419
G0 F2400 X99.925 Y101.054
G1 F1200 X101.324 Y102.452 E69.05202
G1 X101.394 Y102.522
G0 F2400 X101.324 Y103.016
G1 F1200 X99.925 Y101.618 E69.15045
G1 X99.855 Y101.548
G0 F2400 X99.925 Y102.182
G1 F1200 X101.324 Y103.581 E69.24891
G1 X101.394 Y103.651
G0 F2400 X101.324 Y104.145
G1 F1200 X99.925 Y102.746 E69.34737
G1 X99.855 Y102.676
G0 F2400 X99.925 Y103.311
G1 F1200 X101.324 Y104.709 E69.44579
G1 X101.394 Y104.779
G0 F2400 X101.324 Y105.274
G1 F1200 X99.925 Y103.875 E69.54425
G1 X99.855 Y103.805
G0 F2400 X99.925 Y104.439
G1 F1200 X101.324 Y105.838 E69.64271
G1 X101.394 Y105.908
G0 F2400 X101.324 Y106.402
G1 F1200 X99.925 Y105.003 E69.74117
G1 X99.855 Y104.933
G0 F2400 X99.782 Y105.425
G1 F1200 X101.324 Y106.966 E69.84966
G1 X101.394 Y107.035
G0 F2400 X101.324 Y107.531
G1 F1200 X99.218 Y105.425 E69.99788
G1 X99.148 Y105.355
G0 F2400 X98.654 Y105.425
G1 F1200 X101.324 Y108.095 E70.18579
G1 X101.394 Y108.165
G0 F2400 X101.324 Y108.659
G1 F1200 X98.089 Y105.425 E70.41343
G1 X98.019 Y105.356
G0 F2400 X97.525 Y105.425
G1 F1200 X101.324 Y109.223 E70.68077
G1 X101.394 Y109.293
G0 F2400 X100.858 Y109.322
G1 F1200 X96.961 Y105.425 E70.95503
G1 X96.891 Y105.355
G0 F2400 X96.397 Y105.425
G1 F1200 X100.294 Y109.322 E71.2293
G1 X100.364 Y109.392
G0 F2400 X99.73 Y109.322
G1 F1200 X95.832 Y105.425 E71.5036
G1 X95.762 Y105.355
G0 F2400 X95.268 Y105.425
G1 F1200 X99.166 Y109.322 E71.77791
G1 X99.236 Y109.392
G0 F2400 X98.601 Y109.322
G1 F1200 X94.704 Y105.425 E72.05217
G1 X94.634 Y105.355
G0 F2400 X94.139 Y105.425
G1 F1200 X98.037 Y109.322 E72.32648
G1 X98.107 Y109.392
