;FLAVOR:Marlin
;TIME:4857
;Filament used: 3.83992m
;Layer height: 0.15
;Generated with Cura_SteamEngine 2.7.0
M190 S60
M104 S220
M109 S220
G21 ;metric values
G90 ;absolute positioning
M82 ;set extruder to absolute mode
M107 ;start with the fan off
G92 E0 ;zero the extruded length
G1 F200 E3 ;extrude 3mm of feed stock
G92 E0 ;zero the extruded length again
G1 F9000
M301 P31.36 I3.30 D74.51 ;set PID tuning for E0
M304 P72.25 I2.72 D479.41 ; set PID tuning for heated bed
M117 Printing...
;LAYER_COUNT:39
;LAYER:0
M107
M205 X20 Y20
G0 F2400 X69.415 Y60.377 Z0.3
;TYPE:SKIRT
G1 F1050 X69.854 Y59.941 E0.03079
G1 X70.346 Y59.565 E0.06161
G1 X70.882 Y59.255 E0.09242
G1 X71.453 Y59.017 E0.12321
G1 X72.051 Y58.855 E0.15404
G1 X72.544 Y58.78 E0.17886
G1 X76.145 Y58.43 E0.35891
G1 X80.723 Y57.832 E0.58867
G1 X81.555 Y57.797 E0.63011
G1 X90.774 Y58.204 E1.08934
G1 X96.148 Y58.123 E1.35681
G1 X101.029 Y57.802 E1.60024
G1 X101.372 Y57.792 E1.61732
G1 X102.922 Y57.801 E1.69446
G1 X103.591 Y57.852 E1.72785
G1 X108.106 Y58.516 E1.95496
G1 X110.536 Y58.792 E2.07666
G1 X111.145 Y58.901 E2.10745
G1 X111.736 Y59.088 E2.1383
G1 X112.297 Y59.35 E2.16911
G1 X112.819 Y59.682 E2.1999
G1 X113.295 Y60.078 E2.23072
G1 X113.716 Y60.532 E2.26153
G1 X114.074 Y61.037 E2.29233
G1 X114.378 Y61.611 E2.32466
G1 X117.236 Y68.049 E2.6752
G1 X119.709 Y72.791 E2.94135
G1 X122.472 Y77.423 E3.20976
G1 X125.486 Y81.883 E3.47764
G1 X128.748 Y86.17 E3.74573
G1 X132.256 Y90.272 E4.01433
G1 X135.54 Y93.726 E4.25152
G1 X151.382 Y109.582 E5.36695
G1 X151.79 Y110.048 E5.39778
G1 X152.135 Y110.562 E5.42858
G1 X152.411 Y111.116 E5.45938
G1 X152.613 Y111.701 E5.49018
G1 X152.739 Y112.307 E5.52099
G1 X152.785 Y112.971 E5.55411
G1 X152.786 Y117.934 E5.8011
G1 X152.746 Y118.552 E5.83192
G1 X152.627 Y119.159 E5.8627
G1 X152.431 Y119.747 E5.89354
G1 X152.16 Y120.303 E5.92433
G1 X151.821 Y120.821 E5.95513
G1 X151.382 Y121.325 E5.9884
G1 X147.882 Y124.827 E6.23479
G1 X147.417 Y125.236 E6.26561
G1 X146.903 Y125.581 E6.29642
G1 X146.35 Y125.858 E6.3272
G1 X145.765 Y126.061 E6.35801
G1 X145.158 Y126.186 E6.38886
G1 X144.489 Y126.233 E6.42223
G1 X139.5 Y126.232 E6.67051
G1 X138.882 Y126.192 E6.70133
G1 X138.275 Y126.073 E6.73211
G1 X137.688 Y125.876 E6.76293
G1 X137.309 Y125.702 E6.78368
G1 X130.804 Y122.36 E7.14763
G1 X125.867 Y120.216 E7.41549
G1 X123.333 Y119.24 E7.55063
G1 X120.891 Y118.381 E7.67945
G1 X115.67 Y116.785 E7.95115
G1 X110.426 Y115.502 E8.21981
G1 X107.803 Y114.976 E8.35295
G1 X105.191 Y114.531 E8.48481
G1 X99.826 Y113.847 E8.75396
G1 X94.46 Y113.469 E9.02166
G1 X89.064 Y113.396 E9.29022
G1 X83.672 Y113.627 E9.5588
G1 X78.336 Y114.159 E9.82567
G1 X72.975 Y115.002 E10.09574
G1 X70.374 Y115.525 E10.22777
G1 X67.79 Y116.121 E10.35974
G1 X62.552 Y117.565 E10.63014
G1 X57.425 Y119.297 E10.89945
G1 X54.984 Y120.237 E11.02962
G1 X50.028 Y122.396 E11.29865
G1 X43.595 Y125.709 E11.65875
G1 X43.028 Y125.956 E11.68953
G1 X42.433 Y126.128 E11.72035
G1 X41.821 Y126.222 E11.75117
G1 X41.4 Y126.241 E11.77214
G1 X37.01 Y126.242 E11.99061
G1 X36.392 Y126.202 E12.02143
G1 X35.785 Y126.083 E12.05221
G1 X35.198 Y125.887 E12.08301
G1 X34.641 Y125.616 E12.11383
G1 X34.123 Y125.277 E12.14464
G1 X33.654 Y124.873 E12.17545
G1 X33.24 Y124.412 E12.20628
G1 X32.89 Y123.902 E12.23707
G1 X32.608 Y123.351 E12.26787
G1 X32.399 Y122.768 E12.29869
G1 X32.267 Y122.163 E12.32951
G1 X32.218 Y121.66 E12.35466
G1 X32.108 Y119.199 E12.47725
G1 X31.641 Y113.755 E12.74917
G1 X31.28 Y110.739 E12.90033
G1 X31.246 Y110.138 E12.93029
G1 X31.256 Y108.653 E13.00419
G1 X31.3 Y108.035 E13.03503
G1 X31.427 Y107.415 E13.06652
G1 X32.384 Y103.931 E13.24633
G1 X32.586 Y103.346 E13.27713
G1 X32.862 Y102.791 E13.30797
G1 X33.207 Y102.277 E13.33878
G1 X33.616 Y101.812 E13.3696
G1 X34.24 Y101.285 E13.41025
G1 X39.897 Y97.285 E13.75504
G1 X44.083 Y93.912 E14.02257
G1 X48.072 Y90.308 E14.29011
G1 X51.868 Y86.467 E14.55885
G1 X55.44 Y82.419 E14.82752
G1 X57.108 Y80.357 E14.95951
G1 X60.323 Y76.022 E15.2281
G1 X63.282 Y71.519 E15.49624
G1 X65.974 Y66.87 E15.76359
G1 X68.722 Y61.401 E16.06818
G1 X69.036 Y60.867 E16.09901
G1 X69.415 Y60.377 E16.12984
G0 F2400 X69.747 Y60.604
G1 F1050 X70.174 Y60.192 E16.15937
G1 X70.652 Y59.842 E16.18885
G1 X71.172 Y59.558 E16.21834
G1 X71.726 Y59.348 E16.24782
G1 X72.583 Y59.178 E16.2913
G1 X76.171 Y58.83 E16.4707
G1 X80.774 Y58.228 E16.70172
G1 X81.538 Y58.195 E16.73978
G1 X90.763 Y58.602 E17.19931
G1 X96.18 Y58.521 E17.46892
G1 X101.055 Y58.2 E17.71205
G1 X101.37 Y58.191 E17.72773
G1 X102.92 Y58.2 E17.80487
G1 X103.533 Y58.247 E17.83547
G1 X108.033 Y58.908 E18.06181
G1 X110.491 Y59.188 E18.18493
G1 X111.074 Y59.295 E18.21443
G1 X111.638 Y59.479 E18.24395
G1 X112.171 Y59.737 E18.27342
G1 X112.665 Y60.064 E18.3029
G1 X113.111 Y60.455 E18.33242
G1 X113.5 Y60.903 E18.36195
G1 X113.825 Y61.398 E18.39142
G1 X114.013 Y61.773 E18.41229
G1 X116.873 Y68.217 E18.76315
G1 X119.366 Y72.996 E19.03139
G1 X122.13 Y77.63 E19.29991
G1 X125.16 Y82.114 E19.56923
G1 X128.433 Y86.416 E19.83824
G1 X131.964 Y90.544 E20.10857
G1 X135.251 Y94.001 E20.34596
G1 X151.1 Y109.864 E21.46189
G1 X151.489 Y110.311 E21.49138
G1 X151.815 Y110.806 E21.52088
G1 X152.072 Y111.34 E21.55037
G1 X152.254 Y111.904 E21.57986
G1 X152.359 Y112.488 E21.60939
G1 X152.386 Y112.971 E21.63347
G1 X152.387 Y117.934 E21.88045
G1 X152.347 Y118.526 E21.90998
G1 X152.228 Y119.106 E21.93945
G1 X152.032 Y119.666 E21.96897
G1 X151.763 Y120.194 E21.99846
G1 X151.425 Y120.68 E22.02792
G1 X151.1 Y121.043 E22.05217
G1 X147.6 Y124.545 E22.29857
G1 X147.154 Y124.935 E22.32805
G1 X146.659 Y125.262 E22.35758
G1 X146.125 Y125.519 E22.38707
G1 X145.561 Y125.702 E22.41658
G1 X144.978 Y125.807 E22.44606
G1 X144.489 Y125.834 E22.47043
G1 X139.5 Y125.833 E22.71871
G1 X138.909 Y125.793 E22.74819
G1 X138.328 Y125.674 E22.7777
G1 X137.769 Y125.477 E22.8072
G1 X137.492 Y125.347 E22.82243
G1 X130.98 Y122.001 E23.18678
G1 X126.009 Y119.843 E23.45646
G1 X123.502 Y118.877 E23.59017
G1 X120.992 Y117.994 E23.72258
G1 X115.797 Y116.407 E23.99291
G1 X110.502 Y115.11 E24.26421
G1 X107.877 Y114.584 E24.39744
G1 X105.262 Y114.139 E24.52945
G1 X99.85 Y113.449 E24.80096
G1 X94.476 Y113.07 E25.06906
G1 X89.052 Y112.997 E25.33901
G1 X83.65 Y113.228 E25.60809
G1 X78.288 Y113.762 E25.87625
G1 X72.903 Y114.61 E26.14754
G1 X70.311 Y115.131 E26.27912
G1 X67.668 Y115.74 E26.41409
G1 X62.439 Y117.182 E26.68403
G1 X57.273 Y118.927 E26.95539
G1 X54.849 Y119.86 E27.08465
G1 X49.851 Y122.037 E27.35595
G1 X43.412 Y125.354 E27.71641
G1 X42.868 Y125.589 E27.7459
G1 X42.298 Y125.749 E27.77536
G1 X41.71 Y125.831 E27.8049
G1 X41.4 Y125.842 E27.82034
G1 X37.01 Y125.843 E28.03881
G1 X36.419 Y125.803 E28.06829
G1 X35.838 Y125.684 E28.0978
G1 X35.278 Y125.488 E28.12733
G1 X34.751 Y125.219 E28.15678
G1 X34.264 Y124.881 E28.18628
G1 X33.827 Y124.48 E28.21579
G1 X33.447 Y124.025 E28.24529
G1 X33.133 Y123.522 E28.2748
G1 X32.889 Y122.982 E28.30429
G1 X32.72 Y122.414 E28.33378
G1 X32.616 Y121.642 E28.37255
G1 X32.506 Y119.172 E28.49559
G1 X32.036 Y113.705 E28.76866
G1 X31.676 Y110.692 E28.91967
G1 X31.645 Y110.14 E28.94719
G1 X31.655 Y108.655 E29.02109
G1 X31.699 Y108.064 E29.05058
G1 X31.812 Y107.52 E29.07823
G1 X32.769 Y104.036 E29.25804
G1 X32.964 Y103.477 E29.2875
G1 X33.233 Y102.948 E29.31704
G1 X33.57 Y102.461 E29.34651
G1 X33.97 Y102.023 E29.37603
G1 X34.47 Y101.611 E29.40827
G1 X40.138 Y97.603 E29.75374
G1 X44.346 Y94.213 E30.02265
G1 X48.351 Y90.595 E30.29125
G1 X52.152 Y86.748 E30.56038
G1 X55.757 Y82.662 E30.83155
G1 X57.411 Y80.618 E30.96241
G1 X60.647 Y76.254 E31.23278
G1 X63.623 Y71.725 E31.50247
G1 X66.33 Y67.051 E31.77127
G1 X69.079 Y61.58 E32.07597
G1 X69.38 Y61.069 E32.10549
G1 X69.747 Y60.604 E32.13497
G0 F2400 X70.079 Y60.833
G1 F1050 X70.492 Y60.447 E32.1631
G1 X70.955 Y60.123 E32.19122
G1 X71.459 Y59.868 E32.21933
G1 X71.994 Y59.687 E32.24744
G1 X72.622 Y59.575 E32.27918
G1 X76.231 Y59.225 E32.45963
G1 X80.826 Y58.624 E32.69025
G1 X81.52 Y58.594 E32.72482
G1 X90.751 Y59.001 E33.18465
G1 X96.214 Y58.919 E33.45655
G1 X101.082 Y58.599 E33.69933
G1 X101.367 Y58.59 E33.71352
G1 X102.917 Y58.599 E33.79066
G1 X103.475 Y58.641 E33.81851
G1 X108.021 Y59.309 E34.04717
G1 X110.446 Y59.585 E34.16863
G1 X111.002 Y59.688 E34.19677
G1 X111.537 Y59.869 E34.22488
G1 X112.042 Y60.123 E34.25301
G1 X112.505 Y60.446 E34.2811
G1 X112.919 Y60.832 E34.30927
G1 X113.274 Y61.271 E34.33737
G1 X113.648 Y61.935 E34.37529
G1 X116.508 Y68.379 E34.72615
G1 X119.015 Y73.185 E34.99591
G1 X121.799 Y77.853 E35.26639
G1 X124.836 Y82.346 E35.53627
G1 X128.128 Y86.672 E35.80681
G1 X131.662 Y90.806 E36.07746
G1 X134.982 Y94.297 E36.31722
G1 X150.817 Y110.146 E37.43216
G1 X151.187 Y110.573 E37.46028
G1 X151.494 Y111.048 E37.48842
G1 X151.73 Y111.562 E37.51657
G1 X151.891 Y112.103 E37.54466
G1 X151.975 Y112.662 E37.57279
G1 X151.987 Y112.971 E37.58818
G1 X151.988 Y117.934 E37.83517
G1 X151.948 Y118.498 E37.86331
G1 X151.829 Y119.051 E37.89146
G1 X151.634 Y119.581 E37.91956
G1 X151.365 Y120.078 E37.94768
G1 X151.029 Y120.533 E37.97583
G1 X150.818 Y120.761 E37.99129
G1 X147.318 Y124.263 E38.23769
G1 X146.891 Y124.634 E38.26584
G1 X146.416 Y124.94 E38.29396
G1 X145.903 Y125.177 E38.32208
G1 X145.361 Y125.339 E38.35023
G1 X144.803 Y125.423 E38.37831
G1 X144.489 Y125.435 E38.39395
G1 X139.5 Y125.434 E38.64223
G1 X138.936 Y125.394 E38.67037
G1 X138.384 Y125.275 E38.69847
G1 X137.674 Y124.992 E38.73651
G1 X131.155 Y121.643 E39.10124
G1 X126.163 Y119.475 E39.37208
G1 X123.611 Y118.492 E39.50818
G1 X121.115 Y117.614 E39.63986
G1 X115.904 Y116.022 E39.91102
G1 X110.602 Y114.724 E40.18266
G1 X107.925 Y114.186 E40.31855
G1 X105.33 Y113.745 E40.44954
G1 X99.895 Y113.052 E40.72221
G1 X94.492 Y112.672 E40.99176
G1 X89.041 Y112.597 E41.26305
G1 X83.63 Y112.829 E41.53258
G1 X78.221 Y113.368 E41.8031
G1 X72.855 Y114.213 E42.07343
G1 X70.221 Y114.742 E42.20713
G1 X67.564 Y115.355 E42.34283
G1 X62.332 Y116.797 E42.61291
G1 X57.142 Y118.55 E42.88553
G1 X54.678 Y119.499 E43.01693
G1 X49.687 Y121.673 E43.28785
G1 X43.23 Y124.999 E43.64931
G1 X42.71 Y125.222 E43.67747
G1 X42.165 Y125.369 E43.70556
G1 X41.4 Y125.443 E43.74381
G1 X37.01 Y125.444 E43.96228
G1 X36.446 Y125.404 E43.99042
G1 X35.894 Y125.285 E44.01852
G1 X35.363 Y125.09 E44.04667
G1 X34.866 Y124.821 E44.07479
G1 X34.411 Y124.485 E44.10294
G1 X34.009 Y124.089 E44.13102
G1 X33.666 Y123.639 E44.15918
G1 X33.39 Y123.146 E44.1873
G1 X33.187 Y122.619 E44.2154
G1 X33.06 Y122.068 E44.24354
G1 X33.015 Y121.624 E44.26575
G1 X32.904 Y119.145 E44.38924
G1 X32.435 Y113.684 E44.66201
G1 X32.072 Y110.645 E44.81433
G1 X32.044 Y110.143 E44.83935
G1 X32.054 Y108.658 E44.91325
G1 X32.098 Y108.095 E44.94135
G1 X32.197 Y107.626 E44.96521
G1 X33.154 Y104.142 E45.14501
G1 X33.342 Y103.609 E45.17314
G1 X33.603 Y103.108 E45.20125
G1 X33.932 Y102.648 E45.2294
G1 X34.323 Y102.24 E45.25752
G1 X34.701 Y101.937 E45.28163
G1 X40.38 Y97.921 E45.62777
G1 X44.591 Y94.528 E45.8969
G1 X48.629 Y90.881 E46.16768
G1 X52.444 Y87.02 E46.4378
G1 X56.062 Y82.92 E46.70992
G1 X57.737 Y80.849 E46.84248
G1 X60.979 Y76.478 E47.1133
G1 X63.952 Y71.953 E47.38275
G1 X66.686 Y67.232 E47.65424
G1 X69.436 Y61.759 E47.95906
G1 X69.724 Y61.273 E47.98717
G1 X70.079 Y60.833 E48.01531
G0 F2400 X70.409 Y61.065
G1 F1050 X70.808 Y60.706 E48.04202
G1 X71.255 Y60.411 E48.06867
G1 X71.742 Y60.185 E48.09539
G1 X72.256 Y60.034 E48.12205
G1 X72.66 Y59.972 E48.14239
G1 X76.264 Y59.622 E48.32259
G1 X80.878 Y59.019 E48.55416
G1 X81.503 Y58.992 E48.58529
G1 X90.757 Y59.4 E49.04627
G1 X96.226 Y59.318 E49.31847
G1 X101.108 Y58.997 E49.56195
G1 X101.365 Y58.989 E49.57474
G1 X102.915 Y58.998 E49.65188
G1 X103.417 Y59.036 E49.67693
G1 X107.949 Y59.702 E49.90489
G1 X110.401 Y59.981 E50.02771
G1 X110.928 Y60.081 E50.0544
G1 X111.434 Y60.258 E50.08108
G1 X111.908 Y60.509 E50.10777
G1 X112.339 Y60.827 E50.13443
G1 X112.719 Y61.206 E50.16113
G1 X113.038 Y61.637 E50.18782
G1 X113.284 Y62.097 E50.21378
G1 X116.153 Y68.56 E50.56568
G1 X118.668 Y73.382 E50.83633
G1 X121.463 Y78.067 E51.10782
G1 X124.516 Y82.586 E51.37922
G1 X127.814 Y86.92 E51.65025
G1 X131.361 Y91.068 E51.92186
G1 X134.693 Y94.572 E52.16249
G1 X150.535 Y110.428 E53.27793
G1 X150.885 Y110.835 E53.30464
G1 X151.17 Y111.289 E53.33132
G1 X151.385 Y111.78 E53.35799
G1 X151.524 Y112.298 E53.38468
G1 X151.588 Y112.971 E53.41832
G1 X151.589 Y117.934 E53.66531
G1 X151.549 Y118.469 E53.69201
G1 X151.43 Y118.992 E53.7187
G1 X151.235 Y119.491 E53.74536
G1 X150.968 Y119.956 E53.77205
G1 X150.536 Y120.479 E53.80581
G1 X147.036 Y123.981 E54.0522
G1 X146.629 Y124.331 E54.07892
G1 X146.176 Y124.617 E54.10558
G1 X145.684 Y124.832 E54.1323
G1 X145.167 Y124.972 E54.15895
G1 X144.489 Y125.036 E54.19284
G1 X139.5 Y125.035 E54.44112
G1 X138.966 Y124.995 E54.46777
G1 X138.443 Y124.876 E54.49447
G1 X137.856 Y124.637 E54.52601
G1 X131.324 Y121.281 E54.89147
G1 X126.317 Y119.107 E55.16312
G1 X123.751 Y118.119 E55.29996
G1 X121.252 Y117.239 E55.43181
G1 X116.006 Y115.636 E55.70479
G1 X110.684 Y114.333 E55.97747
G1 X107.999 Y113.795 E56.11374
G1 X105.378 Y113.349 E56.24605
G1 X99.937 Y112.655 E56.51902
G1 X94.508 Y112.273 E56.78987
G1 X89.047 Y112.198 E57.06166
G1 X83.59 Y112.432 E57.33348
G1 X78.173 Y112.972 E57.6044
G1 X72.765 Y113.823 E57.87684
G1 X70.151 Y114.349 E58.00953
G1 X67.487 Y114.963 E58.14558
G1 X62.203 Y116.419 E58.41835
G1 X57.019 Y118.171 E58.69066
G1 X54.536 Y119.127 E58.82307
G1 X49.511 Y121.315 E59.09582
G1 X43.047 Y124.645 E59.45769
G1 X42.553 Y124.854 E59.48438
G1 X42.034 Y124.988 E59.51105
G1 X41.4 Y125.044 E59.54273
G1 X37.01 Y125.045 E59.7612
G1 X36.475 Y125.005 E59.7879
G1 X35.952 Y124.886 E59.81459
G1 X35.453 Y124.691 E59.84125
G1 X34.988 Y124.424 E59.86794
G1 X34.568 Y124.091 E59.89461
G1 X34.202 Y123.699 E59.9213
G1 X33.899 Y123.257 E59.94797
G1 X33.664 Y122.774 E59.9747
G1 X33.504 Y122.263 E60.00135
G1 X33.414 Y121.606 E60.03435
G1 X33.304 Y119.142 E60.15709
G1 X32.831 Y113.63 E60.43241
G1 X32.468 Y110.597 E60.58442
G1 X32.443 Y110.146 E60.6069
G1 X32.453 Y108.661 E60.68081
G1 X32.497 Y108.126 E60.70752
G1 X32.582 Y107.732 E60.72758
G1 X33.539 Y104.248 E60.90738
G1 X33.719 Y103.743 E60.93406
G1 X33.972 Y103.27 E60.96076
G1 X34.292 Y102.84 E60.98743
G1 X34.673 Y102.463 E61.01411
G1 X34.931 Y102.263 E61.03035
G1 X40.611 Y98.246 E61.37657
G1 X44.864 Y94.82 E61.64835
G1 X48.899 Y91.175 E61.91895
G1 X52.737 Y87.291 E62.19069
G1 X56.367 Y83.177 E62.46373
G1 X58.043 Y81.105 E62.59636
G1 X61.309 Y76.701 E62.86921
G1 X64.302 Y72.146 E63.14045
G1 X67.028 Y67.439 E63.41115
G1 X69.792 Y61.938 E63.71752
G1 X70.068 Y61.478 E63.74422
G1 X70.409 Y61.065 E63.77087
G0 F2400 X70.737 Y61.299
G1 F1050 X71.121 Y60.97 E63.79603
G1 X71.551 Y60.705 E63.82117
G1 X72.018 Y60.511 E63.84634
G1 X72.699 Y60.369 E63.88096
G1 X76.32 Y60.017 E64.06201
G1 X80.929 Y59.415 E64.29332
G1 X81.485 Y59.391 E64.32102
G1 X90.745 Y59.8 E64.7823
G1 X96.238 Y59.717 E65.05569
G1 X101.134 Y59.395 E65.29987
G1 X101.363 Y59.388 E65.31127
G1 X102.913 Y59.397 E65.38841
G1 X103.359 Y59.431 E65.41067
G1 X107.906 Y60.099 E65.63938
G1 X110.356 Y60.378 E65.76209
G1 X110.852 Y60.474 E65.78723
G1 X111.327 Y60.648 E65.81241
G1 X111.768 Y60.894 E65.83754
G1 X112.166 Y61.207 E65.86274
G1 X112.509 Y61.578 E65.88788
G1 X112.789 Y61.999 E65.91304
G1 X112.919 Y62.259 E65.92751
G1 X115.793 Y68.735 E66.2801
G1 X118.32 Y73.579 E66.552
G1 X121.121 Y78.274 E66.82407
G1 X124.183 Y82.806 E67.09626
G1 X127.508 Y87.176 E67.36953
G1 X131.069 Y91.34 E67.64219
G1 X134.403 Y94.846 E67.88296
G1 X150.253 Y110.71 E68.99896
G1 X150.581 Y111.095 E69.02413
G1 X150.844 Y111.527 E69.0493
G1 X151.036 Y111.994 E69.07443
G1 X151.152 Y112.486 E69.09959
G1 X151.189 Y112.971 E69.12379
G1 X151.19 Y117.934 E69.37078
G1 X151.15 Y118.438 E69.39594
G1 X151.031 Y118.93 E69.42113
G1 X150.837 Y119.396 E69.44625
G1 X150.571 Y119.827 E69.47146
G1 X150.253 Y120.197 E69.49574
G1 X146.753 Y123.699 E69.74213
G1 X146.369 Y124.027 E69.76727
G1 X145.937 Y124.291 E69.79246
G1 X145.47 Y124.483 E69.81759
G1 X144.978 Y124.6 E69.84276
G1 X144.489 Y124.637 E69.86716
G1 X139.5 Y124.636 E70.11544
