;FLAVOR:Marlin
;TIME:6204
;Filament used: 4.86806m
;Layer height: 0.15
;Generated with Cura_SteamEngine 2.7.0
M190 S60
M104 S220
M109 S220
G21 ;metric values
G90 ;absolute positioning
M82 ;set extruder to absolute mode
M107 ;start with the fan off
G92 E0 ;zero the extruded length
G1 F200 E3 ;extrude 3mm of feed stock
G92 E0 ;zero the extruded length again
G1 F9000
M301 P31.36 I3.30 D74.51 ;set PID tuning for E0
M304 P72.25 I2.72 D479.41 ; set PID tuning for heated bed
M117 Printing...
;LAYER_COUNT:39
;LAYER:0
M107
M205 X20 Y20
G0 F2400 X34.128 Y55.933 Z0.3
;TYPE:SKIRT
G1 F1050 X34.682 Y55.658 E0.03078
G1 X35.267 Y55.456 E0.06158
G1 X35.874 Y55.332 E0.09241
G1 X36.536 Y55.286 E0.12544
G1 X41.484 Y55.288 E0.37167
G1 X42.102 Y55.328 E0.40249
G1 X42.709 Y55.448 E0.43329
G1 X43.296 Y55.644 E0.46408
G1 X43.852 Y55.914 E0.49484
G1 X47.862 Y58.193 E0.72438
G1 X52.679 Y60.617 E0.99274
G1 X57.644 Y62.772 E1.2621
G1 X60.147 Y63.737 E1.3956
G1 X62.635 Y64.611 E1.52683
G1 X67.814 Y66.194 E1.79634
G1 X73.102 Y67.488 E2.06726
G1 X75.703 Y68.009 E2.19927
G1 X78.294 Y68.45 E2.33007
G1 X83.695 Y69.138 E2.60103
G1 X89.046 Y69.515 E2.86798
G1 X94.442 Y69.588 E3.13654
G1 X99.831 Y69.357 E3.40497
G1 X105.171 Y68.824 E3.67204
G1 X110.531 Y67.981 E3.94206
G1 X113.132 Y67.458 E4.07409
G1 X115.732 Y66.858 E4.20688
G1 X120.941 Y65.421 E4.4758
G1 X126.081 Y63.685 E4.74579
G1 X128.522 Y62.745 E4.87596
G1 X133.501 Y60.576 E5.14623
G1 X138.332 Y58.14 E5.41548
G1 X142.23 Y55.917 E5.6388
G1 X142.786 Y55.645 E5.6696
G1 X143.373 Y55.448 E5.70041
G1 X143.98 Y55.328 E5.73121
G1 X144.605 Y55.287 E5.76238
G1 X148.991 Y55.287 E5.98065
G1 X149.609 Y55.327 E6.01147
G1 X150.216 Y55.446 E6.04225
G1 X150.803 Y55.643 E6.07306
G1 X151.36 Y55.913 E6.10387
G1 X151.878 Y56.253 E6.1347
G1 X152.347 Y56.657 E6.16551
G1 X152.76 Y57.118 E6.19631
G1 X153.111 Y57.628 E6.22712
G1 X153.393 Y58.179 E6.25793
G1 X153.636 Y58.888 E6.29522
G1 X155.218 Y65.038 E6.61125
G1 X156.322 Y68.53 E6.7935
G1 X156.34 Y68.59 E6.79662
G1 X156.786 Y70.067 E6.8734
G1 X156.927 Y70.67 E6.90422
G1 X156.991 Y71.471 E6.94421
G1 X156.986 Y72.836 E7.01214
G1 X156.944 Y73.453 E7.04292
G1 X156.822 Y74.06 E7.07373
G1 X156.624 Y74.647 E7.10456
G1 X156.351 Y75.203 E7.13538
G1 X156.009 Y75.719 E7.16619
G1 X155.734 Y76.049 E7.18757
G1 X152.536 Y79.557 E7.4238
G1 X152.091 Y79.987 E7.4546
G1 X151.784 Y80.225 E7.47393
G1 X147.01 Y83.643 E7.76612
G1 X142.806 Y87.04 E8.0351
G1 X138.833 Y90.64 E8.30191
G1 X135.043 Y94.487 E8.57066
G1 X131.454 Y98.565 E8.84101
G1 X129.824 Y100.587 E8.97026
G1 X126.6 Y104.948 E9.24016
G1 X123.639 Y109.466 E9.50898
G1 X120.957 Y114.112 E9.77595
G1 X118.524 Y118.939 E10.04496
G1 X116.389 Y123.836 E10.31081
G1 X116.106 Y124.386 E10.3416
G1 X115.754 Y124.896 E10.37243
G1 X115.339 Y125.355 E10.40323
G1 X114.868 Y125.758 E10.43408
G1 X114.35 Y126.096 E10.46486
G1 X113.792 Y126.365 E10.49569
G1 X113.058 Y126.595 E10.53396
G1 X107.039 Y127.966 E10.84118
G1 X101.105 Y129.717 E11.14907
G1 X100.501 Y129.853 E11.17988
G1 X99.747 Y129.913 E11.21752
G1 X98.252 Y129.913 E11.29192
G1 X97.987 Y129.906 E11.30512
G1 X95.609 Y129.774 E11.42364
G1 X90.203 Y129.695 E11.6927
G1 X83.405 Y129.911 E12.03118
G1 X82.787 Y129.89 E12.06195
G1 X82.218 Y129.8 E12.09062
G1 X75.513 Y128.318 E12.43235
G1 X72.973 Y127.883 E12.5606
G1 X67.593 Y127.194 E12.83052
G1 X62.203 Y126.81 E13.09944
G1 X58.104 Y126.723 E13.30347
G1 X50.503 Y126.713 E13.68174
G1 X49.885 Y126.672 E13.71256
G1 X49.278 Y126.552 E13.74335
G1 X48.691 Y126.355 E13.77417
G1 X48.134 Y126.084 E13.80499
G1 X47.617 Y125.743 E13.83581
G1 X47.149 Y125.339 E13.86658
G1 X46.736 Y124.877 E13.89742
G1 X46.386 Y124.367 E13.9282
G1 X46.105 Y123.815 E13.95903
G1 X45.897 Y123.232 E13.98983
G1 X45.766 Y122.627 E14.02064
G1 X45.718 Y122.133 E14.04534
G1 X45.608 Y119.697 E14.16669
G1 X45.145 Y114.313 E14.43562
G1 X44.377 Y108.956 E14.70494
G1 X43.315 Y103.689 E14.97233
G1 X42.68 Y101.108 E15.1046
G1 X41.167 Y95.918 E15.37364
G1 X39.362 Y90.823 E15.64263
G1 X37.283 Y85.864 E15.91023
G1 X34.925 Y81.026 E16.17807
G1 X32.298 Y76.331 E16.44581
G1 X28.972 Y71.139 E16.75266
G1 X28.672 Y70.597 E16.78349
G1 X28.445 Y70.021 E16.8143
G1 X28.293 Y69.421 E16.8451
G1 X28.214 Y68.552 E16.88853
G1 X28.214 Y63.596 E17.13516
G1 X28.254 Y62.978 E17.16598
G1 X28.373 Y62.371 E17.19677
G1 X28.57 Y61.784 E17.22758
G1 X28.84 Y61.227 E17.25838
G1 X29.18 Y60.709 E17.28922
G1 X29.624 Y60.2 E17.32283
G1 X33.148 Y56.686 E17.5705
G1 X33.613 Y56.278 E17.60128
G1 X34.128 Y55.933 E17.63213
G0 F2400 X34.372 Y56.253
G1 F1050 X34.906 Y55.997 E17.6616
G1 X35.47 Y55.816 E17.69108
G1 X36.054 Y55.711 E17.72061
G1 X36.536 Y55.685 E17.74463
G1 X41.484 Y55.687 E17.99087
G1 X42.075 Y55.727 E18.02035
G1 X42.656 Y55.847 E18.04987
G1 X43.215 Y56.043 E18.07935
G1 X43.654 Y56.261 E18.10374
G1 X47.655 Y58.535 E18.33277
G1 X52.519 Y60.983 E18.60376
G1 X57.489 Y63.14 E18.87338
G1 X60.026 Y64.118 E19.00869
G1 X62.505 Y64.989 E19.13945
G1 X67.712 Y66.58 E19.41041
G1 X72.998 Y67.873 E19.68122
G1 X75.629 Y68.401 E19.81477
G1 X78.247 Y68.846 E19.94692
G1 X83.653 Y69.535 E20.21813
G1 X89.03 Y69.914 E20.48638
G1 X94.454 Y69.987 E20.75634
G1 X99.854 Y69.756 E21.02532
G1 X105.219 Y69.22 E21.29364
G1 X110.603 Y68.373 E21.56487
G1 X113.195 Y67.852 E21.69644
G1 X115.831 Y67.244 E21.83107
G1 X121.07 Y65.799 E22.10152
G1 X126.233 Y64.055 E22.37273
G1 X128.657 Y63.122 E22.50198
G1 X133.669 Y60.939 E22.77404
G1 X138.507 Y58.498 E23.04372
G1 X142.427 Y56.263 E23.26828
G1 X142.961 Y56.005 E23.29779
G1 X143.524 Y55.821 E23.32727
G1 X144.107 Y55.714 E23.35677
G1 X144.605 Y55.686 E23.38159
G1 X148.991 Y55.686 E23.59986
G1 X149.582 Y55.726 E23.62934
G1 X150.163 Y55.845 E23.65885
G1 X150.722 Y56.041 E23.68833
G1 X151.25 Y56.311 E23.71784
G1 X151.737 Y56.649 E23.74734
G1 X152.174 Y57.05 E23.77686
G1 X152.553 Y57.505 E23.80633
G1 X152.868 Y58.008 E23.83587
G1 X153.111 Y58.548 E23.86533
G1 X153.249 Y58.988 E23.88828
G1 X154.832 Y65.144 E24.20461
G1 X155.941 Y68.65 E24.3876
G1 X155.958 Y68.705 E24.39047
G1 X156.404 Y70.182 E24.46725
G1 X156.537 Y70.76 E24.49677
G1 X156.592 Y71.469 E24.53216
G1 X156.587 Y72.834 E24.60009
G1 X156.545 Y73.425 E24.62957
G1 X156.424 Y74.006 E24.65911
G1 X156.225 Y74.564 E24.68859
G1 X155.954 Y75.091 E24.71808
G1 X155.439 Y75.78 E24.76089
G1 X152.241 Y79.288 E24.99712
G1 X151.813 Y79.698 E25.02662
G1 X151.552 Y79.901 E25.04307
G1 X146.752 Y83.338 E25.33687
G1 X142.561 Y86.724 E25.605
G1 X138.544 Y90.363 E25.87474
G1 X134.757 Y94.207 E26.14328
G1 X131.151 Y98.306 E26.41497
G1 X129.506 Y100.346 E26.54538
G1 X126.268 Y104.725 E26.81641
G1 X123.301 Y109.253 E27.08582
G1 X120.6 Y113.933 E27.35473
G1 X118.169 Y118.757 E27.62355
G1 X116.023 Y123.677 E27.89068
G1 X115.75 Y124.203 E27.92017
G1 X115.409 Y124.687 E27.94964
G1 X115.006 Y125.122 E27.97915
G1 X114.548 Y125.498 E28.00864
G1 X114.043 Y125.809 E28.03815
G1 X113.501 Y126.049 E28.06765
G1 X112.969 Y126.206 E28.09525
G1 X106.934 Y127.58 E28.40327
G1 X100.992 Y129.334 E28.71159
G1 X100.413 Y129.463 E28.74111
G1 X99.747 Y129.514 E28.77436
G1 X98.252 Y129.514 E28.84875
G1 X98.009 Y129.507 E28.86085
G1 X95.662 Y129.377 E28.97783
G1 X90.175 Y129.296 E29.25092
G1 X83.393 Y129.512 E29.58861
G1 X82.8 Y129.491 E29.61813
G1 X82.304 Y129.41 E29.64315
G1 X75.604 Y127.929 E29.98462
G1 X73.018 Y127.486 E30.11519
G1 X67.637 Y126.797 E30.38517
G1 X62.22 Y126.412 E30.65542
G1 X58.112 Y126.324 E30.85991
G1 X50.503 Y126.314 E31.23857
G1 X49.912 Y126.273 E31.26806
G1 X49.331 Y126.153 E31.29758
G1 X48.772 Y125.956 E31.32708
G1 X48.245 Y125.686 E31.35654
G1 X47.758 Y125.347 E31.38607
G1 X47.322 Y124.946 E31.41555
G1 X46.943 Y124.49 E31.44506
G1 X46.63 Y123.987 E31.47454
G1 X46.387 Y123.447 E31.50401
G1 X46.218 Y122.878 E31.53355
G1 X46.116 Y122.115 E31.57186
G1 X46.006 Y119.67 E31.69366
G1 X45.54 Y114.259 E31.96394
G1 X44.771 Y108.889 E32.2339
G1 X43.707 Y103.612 E32.5018
G1 X43.062 Y100.992 E32.63608
G1 X41.546 Y95.793 E32.90559
G1 X39.736 Y90.683 E33.17537
G1 X37.649 Y85.707 E33.4439
G1 X35.275 Y80.834 E33.71366
G1 X32.647 Y76.138 E33.98146
G1 X29.307 Y70.924 E34.28961
G1 X29.022 Y70.404 E34.31912
G1 X28.809 Y69.851 E34.34861
G1 X28.673 Y69.274 E34.37811
G1 X28.613 Y68.552 E34.41417
G1 X28.613 Y63.596 E34.66081
G1 X28.653 Y63.005 E34.69028
G1 X28.772 Y62.424 E34.7198
G1 X28.968 Y61.865 E34.74928
G1 X29.238 Y61.337 E34.77879
G1 X29.576 Y60.85 E34.80829
G1 X29.905 Y60.482 E34.83286
G1 X33.429 Y56.968 E35.08052
G1 X33.876 Y56.579 E35.11001
G1 X34.372 Y56.253 E35.13955
G0 F2400 X34.614 Y56.575
G1 F1050 X35.127 Y56.34 E35.16763
G1 X35.669 Y56.179 E35.19577
G1 X36.228 Y56.096 E35.22389
G1 X36.536 Y56.084 E35.23923
G1 X41.484 Y56.086 E35.48547
G1 X42.047 Y56.126 E35.51356
G1 X42.6 Y56.245 E35.54171
G1 X43.13 Y56.441 E35.56983
G1 X43.457 Y56.608 E35.5881
G1 X47.481 Y58.895 E35.81844
G1 X52.338 Y61.339 E36.08903
G1 X57.347 Y63.514 E36.36079
G1 X59.857 Y64.481 E36.49465
G1 X62.382 Y65.369 E36.62785
G1 X67.622 Y66.97 E36.90052
G1 X72.898 Y68.26 E37.17082
G1 X75.581 Y68.799 E37.30701
G1 X78.179 Y69.24 E37.43815
G1 X83.609 Y69.932 E37.71056
G1 X89.014 Y70.312 E37.98021
G1 X94.465 Y70.387 E38.2515
G1 X99.876 Y70.155 E38.52103
G1 X105.284 Y69.615 E38.7915
G1 X110.651 Y68.77 E39.06188
G1 X113.285 Y68.241 E39.19558
G1 X115.935 Y67.63 E39.33092
G1 X121.183 Y66.182 E39.60185
G1 X126.357 Y64.434 E39.87363
G1 X128.828 Y63.483 E40.0054
G1 X133.823 Y61.307 E40.27654
G1 X138.714 Y58.84 E40.54915
G1 X142.625 Y56.61 E40.7732
G1 X143.134 Y56.365 E40.80131
G1 X143.673 Y56.195 E40.82944
G1 X144.231 Y56.103 E40.85758
G1 X144.605 Y56.085 E40.87622
G1 X148.991 Y56.085 E41.09449
G1 X149.555 Y56.125 E41.12263
G1 X150.107 Y56.244 E41.15073
G1 X150.637 Y56.44 E41.17885
G1 X151.135 Y56.708 E41.20699
G1 X151.589 Y57.044 E41.2351
G1 X151.992 Y57.441 E41.26326
G1 X152.334 Y57.891 E41.29138
G1 X152.61 Y58.384 E41.3195
G1 X152.863 Y59.087 E41.35668
G1 X154.45 Y65.259 E41.67383
G1 X155.561 Y68.771 E41.85714
G1 X155.576 Y68.82 E41.85969
G1 X156.022 Y70.297 E41.93647
G1 X156.147 Y70.849 E41.96464
G1 X156.193 Y71.468 E41.99553
G1 X156.188 Y72.833 E42.06346
G1 X156.146 Y73.396 E42.09155
G1 X156.025 Y73.948 E42.11968
G1 X155.827 Y74.478 E42.14783
G1 X155.557 Y74.974 E42.17594
G1 X155.145 Y75.511 E42.20962
G1 X151.947 Y79.019 E42.44585
G1 X151.319 Y79.577 E42.48766
G1 X146.522 Y83.012 E42.78128
G1 X142.288 Y86.433 E43.05217
G1 X138.274 Y90.069 E43.3217
G1 X134.455 Y93.946 E43.59252
G1 X130.854 Y98.038 E43.86379
G1 X129.19 Y100.101 E43.99569
G1 X125.937 Y104.502 E44.26804
G1 X122.972 Y109.027 E44.53727
G1 X120.248 Y113.746 E44.80843
G1 X117.807 Y118.588 E45.07828
G1 X115.658 Y123.517 E45.34587
G1 X115.396 Y124.018 E45.37401
G1 X115.066 Y124.477 E45.40214
G1 X114.674 Y124.884 E45.43026
G1 X114.229 Y125.233 E45.45841
G1 X113.74 Y125.515 E45.4865
G1 X113.215 Y125.726 E45.51466
G1 X112.881 Y125.817 E45.53189
G1 X106.826 Y127.196 E45.84093
G1 X100.879 Y128.951 E46.1495
G1 X100.327 Y129.073 E46.17764
G1 X99.747 Y129.115 E46.20658
G1 X98.252 Y129.115 E46.28098
G1 X98.031 Y129.109 E46.29198
G1 X95.665 Y128.978 E46.4099
G1 X90.168 Y128.897 E46.6835
G1 X83.38 Y129.113 E47.02147
G1 X82.815 Y129.091 E47.04961
G1 X82.39 Y129.021 E47.07105
G1 X75.671 Y127.536 E47.41349
G1 X73.09 Y127.094 E47.54381
G1 X67.663 Y126.398 E47.8161
G1 X62.237 Y126.013 E48.0868
G1 X58.122 Y125.925 E48.29163
G1 X50.504 Y125.915 E48.67075
G1 X49.94 Y125.874 E48.69889
G1 X49.388 Y125.755 E48.72699
G1 X48.858 Y125.558 E48.75513
G1 X48.361 Y125.289 E48.78325
G1 X47.907 Y124.952 E48.81139
G1 X47.505 Y124.555 E48.83951
G1 X47.163 Y124.105 E48.86764
G1 X46.888 Y123.611 E48.89577
G1 X46.685 Y123.084 E48.92388
G1 X46.559 Y122.533 E48.95201
G1 X46.515 Y122.097 E48.97381
G1 X46.404 Y119.643 E49.09606
G1 X45.938 Y114.22 E49.36694
G1 X45.165 Y108.824 E49.63821
G1 X44.092 Y103.506 E49.9082
G1 X43.452 Y100.903 E50.0416
G1 X41.922 Y95.658 E50.31349
G1 X40.114 Y90.553 E50.58301
G1 X38.01 Y85.534 E50.85384
G1 X35.632 Y80.656 E51.12391
G1 X32.989 Y75.933 E51.39325
G1 X29.643 Y70.709 E51.70198
G1 X29.373 Y70.212 E51.73013
G1 X29.175 Y69.683 E51.75824
G1 X29.054 Y69.131 E51.78636
G1 X29.012 Y68.552 E51.81525
G1 X29.012 Y63.596 E52.06189
G1 X29.052 Y63.032 E52.09003
G1 X29.171 Y62.48 E52.11813
G1 X29.367 Y61.95 E52.14625
G1 X29.635 Y61.452 E52.17439
G1 X29.971 Y60.998 E52.2025
G1 X30.187 Y60.765 E52.21831
G1 X33.711 Y57.251 E52.46598
G1 X34.138 Y56.881 E52.49409
G1 X34.614 Y56.575 E52.52225
G0 F2400 X34.854 Y56.899
G1 F1050 X35.345 Y56.685 E52.54891
G1 X35.863 Y56.546 E52.5756
G1 X36.535 Y56.483 E52.60919
G1 X41.483 Y56.485 E52.85543
G1 X42.018 Y56.525 E52.88213
G1 X42.541 Y56.644 E52.90882
G1 X43.26 Y56.955 E52.94781
G1 X47.283 Y59.241 E53.17808
G1 X52.178 Y61.705 E53.4508
G1 X57.193 Y63.881 E53.72286
G1 X59.737 Y64.862 E53.85855
G1 X62.252 Y65.746 E53.99121
G1 X67.504 Y67.351 E54.26451
G1 X72.816 Y68.651 E54.53667
G1 X75.507 Y69.19 E54.67325
G1 X78.131 Y69.636 E54.8057
G1 X83.567 Y70.329 E55.07842
G1 X88.998 Y70.711 E55.34936
G1 X94.459 Y70.786 E55.62116
G1 X99.914 Y70.552 E55.89288
G1 X105.334 Y70.011 E56.16395
G1 X110.741 Y69.16 E56.43634
G1 X113.355 Y68.634 E56.56904
G1 X116.034 Y68.016 E56.70586
G1 X121.29 Y66.567 E56.97718
G1 X126.487 Y64.811 E57.25018
G1 X128.97 Y63.855 E57.38259
G1 X134.02 Y61.656 E57.6567
G1 X138.874 Y59.207 E57.92726
G1 X142.822 Y56.956 E58.15343
G1 X143.307 Y56.726 E58.18014
G1 X143.82 Y56.571 E58.20681
G1 X144.605 Y56.484 E58.24612
G1 X148.991 Y56.484 E58.46439
G1 X149.526 Y56.524 E58.49109
G1 X150.049 Y56.643 E58.51778
G1 X150.548 Y56.838 E58.54444
G1 X151.013 Y57.106 E58.57115
G1 X151.433 Y57.439 E58.59783
G1 X151.798 Y57.831 E58.62448
G1 X152.102 Y58.273 E58.65118
G1 X152.336 Y58.755 E58.67784
G1 X152.477 Y59.186 E58.70041
G1 X154.067 Y65.369 E59.01812
G1 X155.181 Y68.891 E59.20195
G1 X155.194 Y68.936 E59.20428
G1 X155.64 Y70.413 E59.28107
G1 X155.757 Y70.936 E59.30774
G1 X155.794 Y71.466 E59.33418
G1 X155.789 Y72.831 E59.40211
G1 X155.747 Y73.366 E59.42881
G1 X155.626 Y73.888 E59.45548
G1 X155.429 Y74.387 E59.48218
G1 X155.16 Y74.851 E59.50887
G1 X154.85 Y75.243 E59.53374
G1 X151.652 Y78.751 E59.76997
G1 X151.087 Y79.252 E59.80755
G1 X146.275 Y82.697 E60.10207
G1 X142.033 Y86.125 E60.37349
G1 X138.004 Y89.775 E60.64403
G1 X134.163 Y93.674 E60.91641
G1 X130.537 Y97.795 E61.18958
G1 X128.874 Y99.856 E61.32137
G1 X125.617 Y104.263 E61.59408
G1 X122.624 Y108.83 E61.86582
G1 X119.902 Y113.545 E62.13676
G1 X117.445 Y118.421 E62.40848
G1 X115.292 Y123.358 E62.67652
G1 X115.042 Y123.832 E62.70319
G1 X114.724 Y124.263 E62.72984
G1 X114.345 Y124.643 E62.75655
G1 X113.914 Y124.962 E62.78324
G1 X113.441 Y125.214 E62.80991
G1 X112.792 Y125.428 E62.84392
G1 X106.736 Y126.807 E63.15301
G1 X100.766 Y128.569 E63.46278
G1 X100.242 Y128.682 E63.48946
G1 X99.747 Y128.716 E63.51415
G1 X98.252 Y128.716 E63.58855
G1 X98.053 Y128.71 E63.59846
G1 X95.693 Y128.579 E63.71608
G1 X90.161 Y128.498 E63.99142
G1 X83.367 Y128.714 E64.32969
G1 X82.832 Y128.691 E64.35634
G1 X82.476 Y128.631 E64.37431
G1 X75.742 Y127.142 E64.71752
G1 X73.158 Y126.7 E64.84799
G1 X67.708 Y126.002 E65.12142
G1 X62.253 Y125.614 E65.39358
G1 X58.13 Y125.526 E65.59881
G1 X50.504 Y125.516 E65.97832
G1 X49.97 Y125.475 E66.00497
G1 X49.447 Y125.356 E66.03167
G1 X48.948 Y125.16 E66.05835
G1 X48.483 Y124.892 E66.08506
G1 X48.064 Y124.558 E66.11172
G1 X47.699 Y124.165 E66.13841
G1 X47.396 Y123.723 E66.16508
G1 X47.162 Y123.24 E66.19179
G1 X47.003 Y122.728 E66.21847
G1 X46.914 Y122.079 E66.25107
G1 X46.804 Y119.64 E66.37257
G1 X46.333 Y114.163 E66.64614
G1 X45.559 Y108.76 E66.91777
G1 X44.484 Y103.429 E67.18841
G1 X43.833 Y100.787 E67.32383
G1 X42.303 Y95.539 E67.59587
G1 X40.485 Y90.408 E67.86677
G1 X38.373 Y85.369 E68.13867
G1 X35.986 Y80.472 E68.40978
G1 X33.327 Y75.72 E68.68077
G1 X29.979 Y70.493 E68.98968
G1 X29.725 Y70.021 E69.01636
G1 X29.543 Y69.517 E69.04303
G1 X29.438 Y68.991 E69.06972
G1 X29.411 Y68.552 E69.09161
G1 X29.411 Y63.596 E69.33824
G1 X29.451 Y63.061 E69.36494
G1 X29.57 Y62.538 E69.39164
G1 X29.765 Y62.039 E69.4183
G1 X30.033 Y61.574 E69.44501
G1 X30.469 Y61.048 E69.47901
