;FLAVOR:Marlin
;TIME:13840
;Filament used: 10.7591m
;Layer height: 0.15
;Generated with Cura_SteamEngine 2.7.0
M190 S60
M104 S220
M109 S220
G21 ;metric values
G90 ;absolute positioning
M82 ;set extruder to absolute mode
M107 ;start with the fan off
G92 E0 ;zero the extruded length
G1 F200 E3 ;extrude 3mm of feed stock
G92 E0 ;zero the extruded length again
G1 F9000
M301 P31.36 I3.30 D74.51 ;set PID tuning for E0
M304 P72.25 I2.72 D479.41 ; set PID tuning for heated bed
M117 Printing...
;LAYER_COUNT:39
;LAYER:0
M107
M205 X20 Y20
G0 F2400 X50.749 Y36.913 Z0.3
;TYPE:SKIRT
G1 F1050 X51.164 Y36.454 E0.03079
G1 X51.635 Y36.051 E0.06164
G1 X52.154 Y35.713 E0.09247
G1 X52.711 Y35.445 E0.12323
G1 X53.299 Y35.25 E0.15406
G1 X53.907 Y35.133 E0.18487
G1 X54.498 Y35.095 E0.21434
G1 X76.027 Y35.046 E1.28574
G1 X81.4 Y34.742 E1.55356
G1 X86.59 Y34.167 E1.81343
G1 X87.116 Y34.138 E1.83964
G1 X89.171 Y34.137 E1.94191
G1 X89.427 Y34.144 E1.95465
G1 X91.493 Y34.253 E2.05761
G1 X96.943 Y34.335 E2.32887
G1 X104.063 Y34.14 E2.68333
G1 X104.757 Y34.171 E2.7179
G1 X108.77 Y34.645 E2.919
G1 X114.271 Y35.036 E3.19345
G1 X116.296 Y35.144 E3.29437
G1 X116.91 Y35.217 E3.32514
G1 X117.511 Y35.368 E3.35598
G1 X118.086 Y35.596 E3.38676
G1 X118.628 Y35.895 E3.41756
G1 X119.305 Y36.42 E3.4602
G1 X123.233 Y40.071 E3.72708
G1 X127.366 Y43.505 E3.99449
G1 X131.695 Y46.703 E4.26234
G1 X136.206 Y49.658 E4.53071
G1 X140.87 Y52.348 E4.79865
G1 X145.686 Y54.775 E5.06703
G1 X149.927 Y56.646 E5.29772
G1 X150.476 Y56.932 E5.32852
G1 X150.984 Y57.286 E5.35934
G1 X151.441 Y57.703 E5.39012
G1 X151.842 Y58.175 E5.42094
G1 X152.178 Y58.695 E5.45176
G1 X152.444 Y59.254 E5.48256
G1 X152.637 Y59.842 E5.51336
G1 X152.751 Y60.451 E5.54419
G1 X152.787 Y61.021 E5.57262
G1 X152.796 Y64.317 E5.73665
G1 X152.95 Y69.766 E6.00793
G1 X153.411 Y75.188 E6.27873
G1 X153.707 Y77.537 E6.39655
G1 X153.744 Y78.241 E6.43163
G1 X153.689 Y80.788 E6.55842
G1 X153.68 Y80.998 E6.56888
G1 X153.419 Y84.971 E6.76702
G1 X153.34 Y90.339 E7.03419
G1 X153.571 Y95.817 E7.30705
G1 X153.743 Y98.27 E7.42942
G1 X153.755 Y98.643 E7.448
G1 X153.745 Y99.943 E7.51269
G1 X153.719 Y100.401 E7.53552
G1 X153.036 Y106.975 E7.86444
G1 X152.806 Y112.407 E8.13501
G1 X152.786 Y117.041 E8.36562
G1 X152.743 Y117.659 E8.39645
G1 X152.622 Y118.266 E8.42726
G1 X152.423 Y118.852 E8.45805
G1 X152.15 Y119.408 E8.48888
G1 X151.808 Y119.924 E8.51969
G1 X151.402 Y120.391 E8.55048
G1 X150.939 Y120.803 E8.58132
G1 X150.17 Y121.293 E8.6267
G1 X148.333 Y122.23 E8.72933
G1 X143.609 Y124.874 E8.99874
G1 X139.05 Y127.774 E9.26763
G1 X134.695 Y130.904 E9.53453
G1 X130.502 Y134.293 E9.80283
G1 X126.509 Y137.912 E10.07102
G1 X122.71 Y141.768 E10.3404
G1 X119.58 Y145.293 E10.575
G1 X119.14 Y145.729 E10.60582
G1 X118.648 Y146.104 E10.63661
G1 X118.111 Y146.412 E10.66742
G1 X117.539 Y146.649 E10.69823
G1 X117.059 Y146.785 E10.72306
G1 X111.04 Y148.157 E11.03028
G1 X105.105 Y149.908 E11.33822
G1 X104.501 Y150.044 E11.36903
G1 X103.747 Y150.104 E11.40668
G1 X102.26 Y150.104 E11.48068
G1 X101.626 Y150.062 E11.5123
G1 X94.909 Y149.166 E11.84953
G1 X89.558 Y148.786 E12.1165
G1 X84.164 Y148.709 E12.38496
G1 X78.79 Y148.935 E12.65264
G1 X73.408 Y149.469 E12.92179
G1 X69.446 Y150.053 E13.12109
G1 X68.746 Y150.104 E13.15602
G1 X67.26 Y150.104 E13.22997
G1 X66.642 Y150.064 E13.26079
G1 X65.812 Y149.88 E13.3031
G1 X63.733 Y149.221 E13.41164
G1 X58.504 Y147.779 E13.68157
G1 X54.056 Y146.79 E13.90833
G1 X53.462 Y146.617 E13.93912
G1 X52.895 Y146.368 E13.96994
G1 X52.364 Y146.049 E14.00077
G1 X51.712 Y145.505 E14.04303
G1 X51.129 Y144.924 E14.08399
G1 X50.719 Y144.46 E14.1148
G1 X50.373 Y143.946 E14.14564
G1 X50.096 Y143.393 E14.17642
G1 X49.892 Y142.808 E14.20725
G1 X49.751 Y142.088 E14.24376
G1 X48.987 Y135.608 E14.56847
G1 X48.037 Y130.304 E14.83663
G1 X46.797 Y125.105 E15.10262
G1 X45.243 Y119.906 E15.37266
G1 X43.413 Y114.849 E15.6403
G1 X41.298 Y109.901 E15.90809
G1 X38.904 Y105.071 E16.17636
G1 X36.248 Y100.401 E16.44372
G1 X32.986 Y95.37 E16.74212
G1 X32.683 Y94.83 E16.77293
G1 X32.453 Y94.256 E16.8037
G1 X32.298 Y93.656 E16.83454
G1 X32.214 Y92.761 E16.87928
G1 X32.214 Y85.297 E17.25073
G1 X32.254 Y84.679 E17.28155
G1 X32.373 Y84.072 E17.31233
G1 X32.57 Y83.485 E17.34314
G1 X32.84 Y82.928 E17.37395
G1 X33.039 Y82.608 E17.3927
G1 X34.879 Y79.89 E17.55604
G1 X37.72 Y75.272 E17.82587
G1 X40.28 Y70.528 E18.09414
G1 X42.575 Y65.634 E18.36314
G1 X43.577 Y63.239 E18.49234
G1 X45.466 Y58.117 E18.76402
G1 X47.04 Y52.975 E19.03163
G1 X48.335 Y47.692 E19.30233
G1 X48.845 Y45.142 E19.43174
G1 X49.769 Y39.159 E19.73302
G1 X49.903 Y38.555 E19.76381
G1 X50.113 Y37.972 E19.79465
G1 X50.397 Y37.422 E19.82545
G1 X50.749 Y36.913 E19.85625
G0 F2400 X51.126 Y37.083
G1 F1050 X51.534 Y36.653 E19.88575
G1 X51.997 Y36.282 E19.91527
G1 X52.505 Y35.977 E19.94476
G1 X53.05 Y35.743 E19.97428
G1 X53.621 Y35.585 E20.00376
G1 X54.499 Y35.494 E20.04769
G1 X76.032 Y35.445 E21.11929
G1 X81.449 Y35.138 E21.38931
G1 X86.634 Y34.564 E21.64892
G1 X87.116 Y34.537 E21.67294
G1 X89.171 Y34.536 E21.77521
G1 X89.406 Y34.542 E21.78691
G1 X91.466 Y34.651 E21.88957
G1 X96.971 Y34.734 E22.16356
G1 X104.074 Y34.539 E22.51717
G1 X104.711 Y34.567 E22.54891
G1 X108.739 Y35.043 E22.75076
G1 X114.225 Y35.433 E23.02446
G1 X116.274 Y35.542 E23.12657
G1 X116.863 Y35.614 E23.1561
G1 X117.436 Y35.764 E23.18558
G1 X117.984 Y35.989 E23.21506
G1 X118.497 Y36.287 E23.24458
G1 X119.034 Y36.713 E23.2787
G1 X122.969 Y40.371 E23.54607
G1 X127.119 Y43.818 E23.81454
G1 X131.472 Y47.034 E24.08388
G1 X135.988 Y49.992 E24.35254
G1 X140.675 Y52.697 E24.62185
G1 X145.524 Y55.14 E24.89206
G1 X149.766 Y57.011 E25.12279
G1 X150.291 Y57.286 E25.15228
G1 X150.774 Y57.63 E25.18179
G1 X151.206 Y58.035 E25.21126
G1 X151.581 Y58.495 E25.2408
G1 X151.89 Y59.001 E25.2703
G1 X152.128 Y59.543 E25.29976
G1 X152.291 Y60.113 E25.32926
G1 X152.375 Y60.7 E25.35877
G1 X152.388 Y61.022 E25.37481
G1 X152.397 Y64.33 E25.53943
G1 X152.551 Y69.793 E25.81141
G1 X153.013 Y75.222 E26.08256
G1 X153.311 Y77.587 E26.20119
G1 X153.345 Y78.232 E26.23333
G1 X153.29 Y80.779 E26.36012
G1 X153.282 Y80.972 E26.36973
G1 X153.021 Y84.939 E26.56758
G1 X152.942 Y90.368 E26.83778
G1 X153.172 Y95.826 E27.10964
G1 X153.345 Y98.298 E27.23296
G1 X153.356 Y98.64 E27.24999
G1 X153.346 Y99.94 E27.31469
G1 X153.322 Y100.36 E27.33562
G1 X152.638 Y106.95 E27.66534
G1 X152.407 Y112.388 E27.93621
G1 X152.387 Y117.04 E28.16772
G1 X152.345 Y117.631 E28.19721
G1 X152.223 Y118.211 E28.2267
G1 X152.024 Y118.769 E28.25618
G1 X151.753 Y119.296 E28.28568
G1 X151.412 Y119.782 E28.31522
G1 X151.01 Y120.217 E28.3447
G1 X150.553 Y120.594 E28.37418
G1 X149.988 Y120.938 E28.4071
G1 X148.146 Y121.878 E28.51001
G1 X143.4 Y124.534 E28.78067
G1 X138.836 Y127.436 E29.04983
G1 X134.448 Y130.591 E29.31878
G1 X130.237 Y133.995 E29.58825
G1 X126.229 Y137.626 E29.85739
G1 X122.428 Y141.485 E30.12695
G1 X119.282 Y145.028 E30.36275
G1 X118.859 Y145.444 E30.39227
G1 X118.385 Y145.799 E30.42174
G1 X117.867 Y146.087 E30.45124
G1 X117.315 Y146.303 E30.48074
G1 X116.971 Y146.396 E30.49847
G1 X110.931 Y147.772 E30.80676
G1 X104.992 Y149.525 E31.11492
G1 X104.413 Y149.654 E31.14444
G1 X103.747 Y149.705 E31.17768
G1 X102.26 Y149.705 E31.25168
G1 X101.679 Y149.666 E31.28066
G1 X94.959 Y148.77 E31.61804
G1 X89.574 Y148.387 E31.88671
G1 X84.153 Y148.31 E32.15651
G1 X78.77 Y148.536 E32.42464
G1 X73.35 Y149.074 E32.69569
G1 X69.387 Y149.658 E32.89504
G1 X68.746 Y149.705 E32.92703
G1 X67.26 Y149.705 E33.00098
G1 X66.669 Y149.665 E33.03046
G1 X65.932 Y149.5 E33.06804
G1 X63.85 Y148.84 E33.17674
G1 X58.577 Y147.386 E33.44894
G1 X54.143 Y146.4 E33.67499
G1 X53.574 Y146.233 E33.70451
G1 X53.033 Y145.991 E33.734
G1 X52.53 Y145.678 E33.76348
G1 X51.993 Y145.222 E33.79854
G1 X51.41 Y144.641 E33.8395
G1 X51.019 Y144.196 E33.86898
G1 X50.692 Y143.701 E33.89851
G1 X50.435 Y143.168 E33.92795
G1 X50.251 Y142.604 E33.95748
G1 X50.147 Y142.042 E33.98592
G1 X49.381 Y135.541 E34.31168
G1 X48.429 Y130.229 E34.58025
G1 X47.181 Y124.998 E34.84788
G1 X45.622 Y119.781 E35.11885
G1 X43.783 Y114.698 E35.38785
G1 X41.659 Y109.73 E35.65674
G1 X39.259 Y104.889 E35.92563
G1 X36.589 Y100.193 E36.19446
G1 X33.321 Y95.153 E36.49339
G1 X33.033 Y94.635 E36.52289
G1 X32.817 Y94.083 E36.55239
G1 X32.677 Y93.507 E36.58189
G1 X32.613 Y92.761 E36.61915
G1 X32.613 Y85.297 E36.9906
G1 X32.653 Y84.706 E37.02008
G1 X32.772 Y84.125 E37.04959
G1 X32.968 Y83.566 E37.07907
G1 X33.369 Y82.831 E37.12074
G1 X35.225 Y80.091 E37.28543
G1 X38.062 Y75.478 E37.55494
G1 X40.636 Y70.708 E37.82468
G1 X42.942 Y65.789 E38.09504
G1 X43.955 Y63.371 E38.22551
G1 X45.837 Y58.267 E38.49623
G1 X47.43 Y53.06 E38.76721
G1 X48.721 Y47.796 E39.03694
G1 X49.238 Y45.211 E39.16813
G1 X50.163 Y39.22 E39.46981
G1 X50.293 Y38.642 E39.49929
G1 X50.5 Y38.086 E39.52882
G1 X50.779 Y37.563 E39.55832
G1 X51.126 Y37.083 E39.58779
G0 F2400 X51.501 Y37.257
G1 F1050 X51.902 Y36.86 E39.61587
G1 X52.356 Y36.522 E39.64404
G1 X52.853 Y36.252 E39.67219
G1 X53.382 Y36.055 E39.70028
G1 X53.934 Y35.935 E39.72839
G1 X54.5 Y35.893 E39.75664
G1 X76.037 Y35.844 E40.82844
G1 X81.478 Y35.536 E41.09965
G1 X86.678 Y34.96 E41.36001
G1 X87.116 Y34.936 E41.38184
G1 X89.171 Y34.935 E41.48411
G1 X89.384 Y34.941 E41.49471
G1 X91.438 Y35.05 E41.59707
G1 X96.976 Y35.133 E41.87271
G1 X104.085 Y34.938 E42.22662
G1 X104.664 Y34.964 E42.25547
G1 X108.686 Y35.439 E42.45701
G1 X114.228 Y35.833 E42.73351
G1 X116.253 Y35.941 E42.83443
G1 X116.814 Y36.011 E42.86256
G1 X117.359 Y36.159 E42.89067
G1 X117.878 Y36.383 E42.9188
G1 X118.361 Y36.677 E42.94694
G1 X118.762 Y37.005 E42.97272
G1 X122.697 Y40.663 E43.24009
G1 X126.87 Y44.129 E43.51005
G1 X131.254 Y47.368 E43.78131
G1 X135.783 Y50.335 E44.05076
G1 X140.496 Y53.054 E44.32154
G1 X145.338 Y55.494 E44.59137
G1 X149.605 Y57.376 E44.82345
G1 X150.104 Y57.64 E44.85155
G1 X150.562 Y57.972 E44.8797
G1 X150.968 Y58.365 E44.90782
G1 X151.314 Y58.812 E44.93595
G1 X151.595 Y59.303 E44.9641
G1 X151.803 Y59.828 E44.99221
G1 X151.935 Y60.378 E45.02035
G1 X151.989 Y61.023 E45.05256
G1 X151.998 Y64.342 E45.21774
G1 X152.152 Y69.802 E45.48956
G1 X152.616 Y75.259 E45.76211
G1 X152.916 Y77.637 E45.8814
G1 X152.946 Y78.223 E45.9106
G1 X152.891 Y80.77 E46.03738
G1 X152.883 Y80.946 E46.04615
G1 X152.623 Y84.907 E46.24369
G1 X152.542 Y90.379 E46.51604
G1 X152.772 Y95.835 E46.7878
G1 X152.947 Y98.326 E46.91207
G1 X152.957 Y98.637 E46.92756
G1 X152.947 Y99.937 E46.99225
G1 X152.926 Y100.319 E47.01129
G1 X152.238 Y106.941 E47.34261
G1 X152.008 Y112.369 E47.61298
G1 X151.988 Y117.038 E47.84534
G1 X151.946 Y117.601 E47.87343
G1 X151.824 Y118.153 E47.90157
G1 X151.626 Y118.683 E47.92972
G1 X151.356 Y119.179 E47.95783
G1 X151.018 Y119.632 E47.98596
G1 X150.619 Y120.033 E48.01411
G1 X150.168 Y120.374 E48.04225
G1 X149.807 Y120.582 E48.06298
G1 X147.979 Y121.515 E48.16511
G1 X143.196 Y124.191 E48.43786
G1 X138.602 Y127.113 E48.70881
G1 X134.198 Y130.279 E48.97874
G1 X129.981 Y133.687 E49.24856
G1 X125.959 Y137.332 E49.51869
G1 X122.137 Y141.212 E49.78972
G1 X118.984 Y144.763 E50.02605
G1 X118.579 Y145.159 E50.05424
G1 X118.124 Y145.493 E50.08233
G1 X117.625 Y145.759 E50.11047
G1 X116.882 Y146.007 E50.14945
G1 X110.826 Y147.387 E50.45856
G1 X104.879 Y149.142 E50.76713
G1 X104.327 Y149.264 E50.79526
G1 X103.747 Y149.306 E50.8242
G1 X102.26 Y149.306 E50.8982
G1 X101.732 Y149.271 E50.92454
G1 X94.991 Y148.372 E51.26298
G1 X89.591 Y147.988 E51.53239
G1 X84.142 Y147.91 E51.80359
G1 X78.73 Y148.138 E52.07316
G1 X73.317 Y148.675 E52.34386
G1 X69.329 Y149.263 E52.54447
G1 X68.746 Y149.306 E52.57356
G1 X67.26 Y149.306 E52.64751
G1 X66.696 Y149.266 E52.67565
G1 X66.053 Y149.119 E52.70848
G1 X63.974 Y148.46 E52.81701
G1 X58.691 Y147.003 E53.08974
G1 X54.229 Y146.011 E53.31722
G1 X53.688 Y145.849 E53.34532
G1 X53.174 Y145.613 E53.37347
G1 X52.699 Y145.307 E53.40159
G1 X52.275 Y144.94 E53.42949
G1 X51.692 Y144.359 E53.47045
G1 X51.321 Y143.933 E53.49857
G1 X51.013 Y143.458 E53.52674
G1 X50.776 Y142.945 E53.55486
G1 X50.613 Y142.404 E53.58298
G1 X50.543 Y141.995 E53.60363
G1 X49.774 Y135.473 E53.93045
G1 X48.821 Y130.154 E54.19937
G1 X47.568 Y124.901 E54.46812
G1 X45.993 Y119.632 E54.7418
G1 X44.159 Y114.563 E55.01006
G1 X42.027 Y109.575 E55.28002
G1 X39.613 Y104.707 E55.55043
G1 X36.921 Y99.971 E55.82153
G1 X33.656 Y94.936 E56.12017
G1 X33.382 Y94.441 E56.14833
G1 X33.182 Y93.913 E56.17642
G1 X33.057 Y93.362 E56.20454
G1 X33.012 Y92.761 E56.23453
G1 X33.012 Y85.297 E56.60598
G1 X33.052 Y84.733 E56.63412
G1 X33.171 Y84.181 E56.66222
G1 X33.367 Y83.651 E56.69034
G1 X33.7 Y83.055 E56.72432
G1 X35.553 Y80.319 E56.88877
G1 X38.416 Y75.664 E57.16073
G1 X40.985 Y70.904 E57.42992
G1 X43.306 Y65.953 E57.70203
G1 X44.323 Y63.523 E57.83313
G1 X46.22 Y58.38 E58.10593
G1 X47.81 Y53.184 E58.37635
G1 X49.118 Y47.851 E58.64961
G1 X49.631 Y45.286 E58.77979
G1 X50.558 Y39.281 E59.08217
G1 X50.683 Y38.73 E59.11029
G1 X50.885 Y38.202 E59.13842
G1 X51.16 Y37.708 E59.16656
G1 X51.501 Y37.257 E59.19469
G0 F2400 X51.875 Y37.439
G1 F1050 X52.269 Y37.074 E59.22142
G1 X52.712 Y36.773 E59.24808
G1 X53.195 Y36.54 E59.27476
G1 X53.707 Y36.382 E59.30143
G1 X54.501 Y36.292 E59.3412
G1 X76.06 Y36.243 E60.41409
G1 X81.508 Y35.935 E60.68565
G1 X86.722 Y35.357 E60.94671
G1 X87.116 Y35.335 E60.96635
G1 X89.171 Y35.334 E61.06862
G1 X89.363 Y35.339 E61.07818
G1 X91.437 Y35.449 E61.18154
G1 X96.958 Y35.532 E61.45632
G1 X104.096 Y35.336 E61.81168
G1 X104.617 Y35.36 E61.83764
G1 X108.653 Y35.837 E62.03989
G1 X114.179 Y36.229 E62.31559
G1 X116.232 Y36.339 E62.4179
G1 X116.764 Y36.407 E62.44459
G1 X117.279 Y36.554 E62.47124
G1 X117.768 Y36.776 E62.49797
G1 X118.218 Y37.068 E62.52467
G1 X118.49 Y37.297 E62.54236
G1 X122.424 Y40.954 E62.80966
G1 X126.633 Y44.45 E63.08196
G1 X131.019 Y47.691 E63.35335
G1 X135.583 Y50.68 E63.62486
G1 X140.303 Y53.403 E63.89604
G1 X145.168 Y55.855 E64.16716
G1 X149.444 Y57.741 E64.39973
G1 X149.917 Y57.994 E64.42643
G1 X150.347 Y58.313 E64.45307
G1 X150.725 Y58.694 E64.47978
G1 X151.043 Y59.126 E64.50648
G1 X151.292 Y59.6 E64.53312
G1 X151.469 Y60.107 E64.55985
G1 X151.568 Y60.634 E64.58653
G1 X151.59 Y61.024 E64.60597
G1 X151.599 Y64.315 E64.76975
G1 X151.755 Y69.847 E65.04516
G1 X152.218 Y75.293 E65.31716
G1 X152.52 Y77.687 E65.43725
G1 X152.547 Y78.215 E65.46356
G1 X152.492 Y80.762 E65.59034
G1 X152.485 Y80.92 E65.59821
G1 X152.224 Y84.895 E65.79645
G1 X152.143 Y90.373 E66.0691
G1 X152.375 Y95.879 E66.34335
G1 X152.549 Y98.354 E66.46682
G1 X152.558 Y98.634 E66.48077
G1 X152.548 Y99.934 E66.54546
G1 X152.529 Y100.278 E66.56261
G1 X151.841 Y106.9 E66.89393
G1 X151.609 Y112.377 E67.16674
G1 X151.589 Y117.036 E67.3986
G1 X151.547 Y117.571 E67.4253
G1 X151.426 Y118.093 E67.45197
G1 X151.228 Y118.592 E67.47869
G1 X150.959 Y119.055 E67.50534
G1 X150.624 Y119.474 E67.53203
G1 X150.23 Y119.838 E67.55873
G1 X149.626 Y120.227 E67.59448
G1 X147.781 Y121.168 E67.69755
G1 X142.98 Y123.855 E67.97135
G1 X138.388 Y126.776 E68.24219
G1 X133.959 Y129.96 E68.51364
G1 X129.726 Y133.38 E68.78446
G1 X125.68 Y137.048 E69.05624
G1 X121.845 Y140.94 E69.32816
G1 X118.685 Y144.499 E69.56501
G1 X118.3 Y144.872 E69.59169
G1 X117.864 Y145.184 E69.61837
G1 X117.387 Y145.428 E69.64504
G1 X116.794 Y145.618 E69.67602
G1 X110.732 Y146.999 E69.98543
G1 X104.766 Y148.76 E70.295
G1 X104.242 Y148.873 E70.32167
G1 X103.747 Y148.907 E70.34636
G1 X102.26 Y148.907 E70.42037
G1 X101.784 Y148.875 E70.44411
G1 X95.038 Y147.976 E70.78279
G1 X89.607 Y147.59 E71.05375
G1 X84.148 Y147.511 E71.32545
G1 X78.693 Y147.741 E71.59716
G1 X73.282 Y148.278 E71.86777
G1 X69.271 Y148.869 E72.06953
G1 X68.746 Y148.907 E72.09573
G1 X67.26 Y148.907 E72.16968
G1 X66.725 Y148.867 E72.19638
G1 X66.173 Y148.739 E72.22458
G1 X64.066 Y148.072 E72.33456
G1 X58.783 Y146.614 E72.6073
G1 X54.316 Y145.621 E72.83503
G1 X53.803 Y145.466 E72.8617
G1 X53.318 Y145.237 E72.88839
G1 X52.873 Y144.938 E72.91507
G1 X52.556 Y144.657 E72.93615
G1 X51.973 Y144.076 E72.97711
G1 X51.623 Y143.67 E73.00379
G1 X51.337 Y143.217 E73.03045
G1 X51.121 Y142.726 E73.05714
G1 X50.94 Y141.948 E73.09689
