;FLAVOR:Marlin
;TIME:4991
;Filament used: 2.69026m
;Layer height: 0.1
;Generated with Cura_SteamEngine 2.7.0
M190 S50
M104 S210
M109 S210
G21 ;metric values
G90 ;absolute positioning
M82 ;set extruder to absolute mode
M107 ;start with the fan off
G92 E0 ;zero the extruded length
G1 F200 E3 ;extrude 3mm of feed stock
G92 E0 ;zero the extruded length again
G1 F9000
M301 P31.36 I3.30 D74.51 ;set PID tuning for E0
M304 P72.25 I2.72 D479.41 ; set PID tuning for heated bed
M117 Printing...
;LAYER_COUNT:151
;LAYER:0
M107
M205 X20 Y20
G0 F2400 X82.995 Y71.696 Z0.3
;TYPE:SKIRT
G1 F1050 X83.221 Y71.464 E0.01612
G1 X83.68 Y71.05 E0.04688
G1 X84.19 Y70.698 E0.07772
G1 X84.74 Y70.414 E0.10852
G1 X85.322 Y70.204 E0.13931
G1 X85.927 Y70.071 E0.17014
G1 X86.656 Y70.015 E0.20653
G1 X98.339 Y70.014 E0.78794
G1 X98.956 Y70.054 E0.81871
G1 X99.564 Y70.173 E0.84954
G1 X100.151 Y70.369 E0.88034
G1 X100.708 Y70.64 E0.91116
G1 X101.225 Y70.98 E0.94196
G1 X101.592 Y71.286 E0.96574
G1 X101.67 Y71.358 E0.97102
G1 X101.852 Y71.535 E0.98365
G1 X102.005 Y71.692 E0.99456
G1 X102.407 Y72.162 E1.02534
G1 X102.746 Y72.68 E1.05615
G1 X103.015 Y73.238 E1.08698
G1 X103.21 Y73.826 E1.11781
G1 X103.328 Y74.433 E1.14858
G1 X103.366 Y75.042 E1.17894
G1 X103.363 Y79.516 E1.4016
G1 X103.332 Y80.058 E1.42861
G1 X102.99 Y83.045 E1.57823
G1 X102.609 Y88.436 E1.84719
G1 X102.534 Y93.832 E2.11575
G1 X102.764 Y99.222 E2.38423
G1 X103.342 Y105.035 E2.67494
G1 X103.366 Y105.51 E2.69861
G1 X103.366 Y109.957 E2.91992
G1 X103.326 Y110.575 E2.95074
G1 X103.207 Y111.182 E2.98152
G1 X103.01 Y111.769 E3.01233
G1 X102.74 Y112.326 E3.04314
G1 X102.4 Y112.844 E3.07397
G1 X102.014 Y113.294 E3.10348
G1 X101.796 Y113.519 E3.11907
G1 X101.338 Y113.935 E3.14986
G1 X100.829 Y114.289 E3.18071
G1 X100.28 Y114.573 E3.21147
G1 X99.698 Y114.785 E3.2423
G1 X99.094 Y114.92 E3.2731
G1 X98.355 Y114.978 E3.30999
G1 X86.663 Y114.986 E3.89185
G1 X86.045 Y114.946 E3.92267
G1 X85.438 Y114.828 E3.95344
G1 X84.851 Y114.632 E3.98424
G1 X84.294 Y114.362 E4.01504
G1 X83.776 Y114.022 E4.04588
G1 X83.276 Y113.589 E4.07879
G1 X83.047 Y113.361 E4.09488
G1 X82.638 Y112.896 E4.12569
G1 X82.291 Y112.383 E4.15652
G1 X82.014 Y111.83 E4.1873
G1 X81.81 Y111.245 E4.21813
G1 X81.683 Y110.639 E4.24894
G1 X81.635 Y109.96 E4.28282
G1 X81.637 Y105.506 E4.50447
G1 X81.668 Y104.96 E4.53169
G1 X82.005 Y102.032 E4.67836
G1 X82.391 Y96.621 E4.94833
G1 X82.47 Y91.262 E5.21505
G1 X82.244 Y85.875 E5.48337
G1 X81.656 Y79.951 E5.77963
G1 X81.633 Y79.476 E5.8033
G1 X81.634 Y75.042 E6.02396
G1 X81.674 Y74.424 E6.05478
G1 X81.793 Y73.817 E6.08556
G1 X81.99 Y73.23 E6.11637
G1 X82.261 Y72.673 E6.1472
G1 X82.601 Y72.155 E6.17804
G1 X82.995 Y71.696 E6.20814
G0 F2400 X83.28 Y71.975
G1 F1050 X83.506 Y71.743 E6.22426
G1 X83.948 Y71.347 E6.25379
G1 X84.438 Y71.014 E6.28327
G1 X84.969 Y70.75 E6.31279
G1 X85.53 Y70.56 E6.34226
G1 X86.112 Y70.448 E6.37176
G1 X86.656 Y70.414 E6.39888
G1 X98.339 Y70.413 E6.98029
G1 X98.93 Y70.453 E7.00977
G1 X99.511 Y70.572 E7.03928
G1 X100.07 Y70.768 E7.06876
G1 X100.598 Y71.038 E7.09828
G1 X101.085 Y71.376 E7.12778
G1 X101.321 Y71.579 E7.14327
G1 X101.399 Y71.651 E7.14855
G1 X101.566 Y71.813 E7.16013
G1 X101.719 Y71.97 E7.17104
G1 X102.103 Y72.422 E7.20056
G1 X102.423 Y72.921 E7.23006
G1 X102.673 Y73.458 E7.25953
G1 X102.848 Y74.024 E7.28902
G1 X102.946 Y74.609 E7.31854
G1 X102.967 Y75.042 E7.34011
G1 X102.964 Y79.516 E7.56276
G1 X102.936 Y80.013 E7.58753
G1 X102.592 Y83.018 E7.73805
G1 X102.21 Y88.42 E8.00756
G1 X102.135 Y93.844 E8.27751
G1 X102.365 Y99.244 E8.54649
G1 X102.945 Y105.075 E8.8381
G1 X102.967 Y105.51 E8.85978
G1 X102.967 Y109.957 E9.08109
G1 X102.927 Y110.548 E9.11057
G1 X102.808 Y111.129 E9.14008
G1 X102.612 Y111.688 E9.16956
G1 X102.342 Y112.216 E9.19907
G1 X102.004 Y112.703 E9.22857
G1 X101.728 Y113.017 E9.24938
G1 X101.51 Y113.242 E9.26497
G1 X101.07 Y113.639 E9.29446
G1 X100.58 Y113.973 E9.32397
G1 X100.05 Y114.238 E9.35346
G1 X99.489 Y114.429 E9.38295
G1 X98.907 Y114.544 E9.41248
G1 X98.355 Y114.579 E9.44
G1 X86.663 Y114.587 E10.02186
G1 X86.072 Y114.547 E10.05134
G1 X85.491 Y114.429 E10.08084
G1 X84.931 Y114.233 E10.11037
G1 X84.403 Y113.964 E10.13986
G1 X83.916 Y113.626 E10.16936
G1 X83.558 Y113.306 E10.19326
G1 X83.329 Y113.078 E10.20934
G1 X82.938 Y112.632 E10.23885
G1 X82.61 Y112.138 E10.26836
G1 X82.352 Y111.605 E10.29783
G1 X82.168 Y111.041 E10.32736
G1 X82.062 Y110.458 E10.35685
G1 X82.034 Y109.96 E10.38167
G1 X82.036 Y105.506 E10.60332
G1 X82.065 Y105.006 E10.62825
G1 X82.401 Y102.083 E10.77467
G1 X82.789 Y96.657 E11.04539
G1 X82.868 Y91.233 E11.31534
G1 X82.643 Y85.853 E11.58332
G1 X82.053 Y79.911 E11.88048
G1 X82.032 Y79.476 E11.90215
G1 X82.033 Y75.042 E12.12281
G1 X82.073 Y74.451 E12.15229
G1 X82.192 Y73.87 E12.1818
G1 X82.389 Y73.311 E12.2113
G1 X82.658 Y72.783 E12.24079
G1 X82.997 Y72.296 E12.27032
G1 X83.28 Y71.975 E12.29162
G0 F2400 X83.792 Y72.021
G1 F1050 X84.214 Y71.645 E12.31974
G1 X84.685 Y71.333 E12.34786
G1 X85.195 Y71.089 E12.37599
G1 X85.735 Y70.921 E12.40414
G1 X86.292 Y70.83 E12.43222
G1 X86.656 Y70.813 E12.45036
G1 X98.339 Y70.812 E13.03177
G1 X98.902 Y70.852 E13.05986
G1 X99.455 Y70.971 E13.08801
G1 X99.985 Y71.167 E13.11613
G1 X100.482 Y71.435 E13.14423
G1 X101.051 Y71.872 E13.17993
G1 X101.129 Y71.944 E13.18522
G1 X101.28 Y72.092 E13.19574
G1 X101.433 Y72.249 E13.20665
G1 X101.798 Y72.68 E13.23476
G1 X102.098 Y73.159 E13.26288
G1 X102.328 Y73.675 E13.291
G1 X102.483 Y74.219 E13.31915
G1 X102.568 Y75.042 E13.36032
G1 X102.565 Y79.516 E13.58297
G1 X102.539 Y79.967 E13.60545
G1 X102.196 Y82.966 E13.75567
G1 X101.812 Y88.404 E14.02697
G1 X101.735 Y93.855 E14.29827
G1 X101.966 Y99.264 E14.5677
G1 X102.548 Y105.114 E14.86026
G1 X102.568 Y105.51 E14.88
G1 X102.568 Y109.957 E15.1013
G1 X102.528 Y110.521 E15.12944
G1 X102.409 Y111.073 E15.15754
G1 X102.213 Y111.603 E15.18566
G1 X101.945 Y112.101 E15.21381
G1 X101.441 Y112.739 E15.25427
G1 X101.223 Y112.964 E15.26986
G1 X100.802 Y113.341 E15.29798
G1 X100.332 Y113.655 E15.32611
G1 X99.823 Y113.9 E15.35423
G1 X99.284 Y114.07 E15.38235
G1 X98.726 Y114.162 E15.4105
G1 X98.355 Y114.18 E15.42898
G1 X86.663 Y114.188 E16.01084
G1 X86.099 Y114.148 E16.03898
G1 X85.546 Y114.03 E16.06712
G1 X85.016 Y113.834 E16.09524
G1 X84.519 Y113.566 E16.12334
G1 X84.064 Y113.23 E16.15149
G1 X83.839 Y113.023 E16.1667
G1 X83.61 Y112.795 E16.18278
G1 X83.239 Y112.369 E16.2109
G1 X82.931 Y111.895 E16.23903
G1 X82.694 Y111.382 E16.26715
G1 X82.531 Y110.841 E16.29527
G1 X82.446 Y110.282 E16.32341
G1 X82.433 Y109.96 E16.33945
G1 X82.435 Y105.506 E16.5611
G1 X82.461 Y105.051 E16.58378
G1 X82.799 Y102.11 E16.7311
G1 X83.188 Y96.673 E17.00237
G1 X83.268 Y91.223 E17.27362
G1 X83.041 Y85.815 E17.54299
G1 X82.451 Y79.872 E17.8402
G1 X82.431 Y79.476 E17.85993
G1 X82.432 Y75.042 E18.08059
G1 X82.472 Y74.478 E18.10873
G1 X82.591 Y73.926 E18.13683
G1 X82.787 Y73.396 E18.16495
G1 X83.056 Y72.898 E18.19312
G1 X83.566 Y72.253 E18.23404
G1 X83.792 Y72.021 E18.25016
G0 F2400 X84.078 Y72.3
G1 F1050 X84.48 Y71.945 E18.27685
G1 X84.93 Y71.653 E18.30355
G1 X85.418 Y71.432 E18.33021
G1 X85.934 Y71.285 E18.35691
G1 X86.656 Y71.212 E18.39302
G1 X98.339 Y71.211 E18.97443
G1 X98.873 Y71.251 E19.00108
G1 X99.396 Y71.37 E19.02777
G1 X99.896 Y71.565 E19.05448
G1 X100.361 Y71.832 E19.08117
G1 X100.78 Y72.165 E19.1078
G1 X100.858 Y72.237 E19.11308
G1 X100.994 Y72.37 E19.12255
G1 X101.147 Y72.527 E19.13346
G1 X101.492 Y72.938 E19.16016
G1 X101.772 Y73.395 E19.18684
G1 X101.98 Y73.889 E19.21351
G1 X102.113 Y74.409 E19.24022
G1 X102.169 Y75.041 E19.2718
G1 X102.166 Y79.515 E19.49445
G1 X102.143 Y79.922 E19.51473
G1 X101.798 Y82.939 E19.66586
G1 X101.413 Y88.389 E19.93775
G1 X101.336 Y93.849 E20.2095
G1 X101.569 Y99.304 E20.48122
G1 X102.151 Y105.154 E20.77378
G1 X102.169 Y105.51 E20.79152
G1 X102.169 Y109.957 E21.01283
G1 X102.129 Y110.492 E21.03953
G1 X102.01 Y111.015 E21.06622
G1 X101.815 Y111.514 E21.09288
G1 X101.547 Y111.979 E21.11959
G1 X101.155 Y112.461 E21.15051
G1 X100.937 Y112.686 E21.1661
G1 X100.536 Y113.043 E21.19282
G1 X100.087 Y113.335 E21.21947
G1 X99.599 Y113.558 E21.24617
G1 X99.084 Y113.706 E21.27284
G1 X98.354 Y113.781 E21.30936
G1 X86.662 Y113.789 E21.89122
G1 X86.128 Y113.749 E21.91787
G1 X85.605 Y113.631 E21.94455
G1 X85.105 Y113.436 E21.97126
G1 X84.64 Y113.169 E21.99794
G1 X84.121 Y112.74 E22.03145
G1 X83.892 Y112.512 E22.04753
G1 X83.541 Y112.107 E22.07421
G1 X83.254 Y111.654 E22.10089
G1 X83.038 Y111.163 E22.12759
G1 X82.898 Y110.646 E22.15424
G1 X82.832 Y109.96 E22.18854
G1 X82.834 Y105.506 E22.41019
G1 X82.858 Y105.097 E22.43058
G1 X83.196 Y102.161 E22.57766
G1 X83.586 Y96.69 E22.85062
G1 X83.667 Y91.229 E23.12242
G1 X83.438 Y85.776 E23.39403
G1 X82.848 Y79.832 E23.69129
G1 X82.83 Y79.476 E23.70903
G1 X82.831 Y75.042 E23.92969
G1 X82.871 Y74.507 E23.95639
G1 X82.99 Y73.985 E23.98303
G1 X83.186 Y73.485 E24.00976
G1 X83.453 Y73.021 E24.0364
G1 X83.852 Y72.532 E24.06781
G1 X84.078 Y72.3 E24.08392
G0 F2400 X84.364 Y72.578
G1 F1050 X84.744 Y72.245 E24.10907
G1 X85.172 Y71.976 E24.13423
G1 X85.637 Y71.778 E24.15938
G1 X86.128 Y71.655 E24.18457
G1 X86.656 Y71.611 E24.21093
G1 X98.339 Y71.61 E24.79234
G1 X98.843 Y71.65 E24.8175
G1 X99.334 Y71.769 E24.84265
G1 X99.801 Y71.963 E24.86781
G1 X100.231 Y72.229 E24.89298
G1 X100.509 Y72.459 E24.91093
G1 X100.587 Y72.531 E24.91621
G1 X100.709 Y72.649 E24.92466
G1 X100.862 Y72.806 E24.93557
G1 X101.185 Y73.194 E24.96069
G1 X101.443 Y73.629 E24.98586
G1 X101.629 Y74.099 E25.01102
G1 X101.739 Y74.593 E25.0362
G1 X101.77 Y75.041 E25.05855
G1 X101.767 Y79.515 E25.2812
G1 X101.746 Y79.877 E25.29925
G1 X101.401 Y82.89 E25.45017
G1 X101.014 Y88.373 E25.72372
G1 X100.937 Y93.861 E25.99686
G1 X101.17 Y99.324 E26.26897
G1 X101.754 Y105.193 E26.56249
G1 X101.77 Y105.51 E26.57828
G1 X101.77 Y109.957 E26.79959
G1 X101.73 Y110.461 E26.82475
G1 X101.611 Y110.952 E26.84989
G1 X101.417 Y111.419 E26.87506
G1 X101.151 Y111.849 E26.90022
G1 X100.868 Y112.184 E26.92205
G1 X100.65 Y112.409 E26.93764
G1 X100.271 Y112.743 E26.96278
G1 X99.844 Y113.013 E26.98792
G1 X99.379 Y113.213 E27.01311
G1 X98.889 Y113.337 E27.03826
G1 X98.354 Y113.382 E27.06498
G1 X86.662 Y113.39 E27.64684
G1 X86.158 Y113.35 E27.672
G1 X85.667 Y113.232 E27.69713
G1 X85.2 Y113.038 E27.7223
G1 X84.77 Y112.772 E27.74746
G1 X84.402 Y112.458 E27.77153
G1 X84.173 Y112.23 E27.78761
G1 X83.844 Y111.846 E27.81278
G1 X83.58 Y111.415 E27.83793
G1 X83.387 Y110.948 E27.86308
G1 X83.269 Y110.456 E27.88826
G1 X83.231 Y109.961 E27.91296
G1 X83.233 Y105.507 E28.13462
G1 X83.254 Y105.142 E28.15281
G1 X83.594 Y102.188 E28.30079
G1 X83.985 Y96.706 E28.5743
G1 X84.066 Y91.218 E28.84744
G1 X83.837 Y85.755 E29.11955
G1 X83.245 Y79.793 E29.41771
G1 X83.229 Y79.476 E29.43351
G1 X83.23 Y75.042 E29.65417
G1 X83.27 Y74.538 E29.67933
G1 X83.389 Y74.047 E29.70447
G1 X83.584 Y73.58 E29.72965
G1 X83.85 Y73.15 E29.75482
G1 X84.138 Y72.81 E29.77699
G1 X84.364 Y72.578 E29.79311
G0 F2400 X86.737 Y74.999
;TYPE:SUPPORT
G1 F1050 X98.262 Y74.999 E30.36666
G1 X98.38 Y75.117 E30.37496
G1 X98.38 Y79.365 E30.58637
G1 X96.847 Y80 E30.66894
G1 X96.56 Y80.431 E30.69471
G1 X96.56 Y104.573 E31.89615
G1 X96.847 Y105.004 E31.92192
G1 X98.381 Y105.64 E32.00456
G1 X98.381 Y109.883 E32.21572
G1 X98.263 Y110.001 E32.22402
G1 X86.738 Y110.001 E32.79757
G1 X86.62 Y109.883 E32.80587
G1 X86.621 Y105.643 E33.01688
G1 X88.153 Y105.009 E33.09939
G1 X88.44 Y104.578 E33.12516
G1 X88.44 Y80.427 E34.32704
G1 X88.153 Y79.996 E34.35281
G1 X86.619 Y79.36 E34.43545
G1 X86.619 Y75.117 E34.64661
G1 X86.737 Y74.999 E34.65491
G0 F2400 X90.304 Y79.101
G1 F1050 X89.66 Y79.745 E34.70024
G1 X89.66 Y105.255 E35.96976
G1 X90.304 Y105.899 E36.01508
G1 X94.696 Y105.899 E36.23365
G1 X95.34 Y105.255 E36.27897
G1 X95.34 Y79.745 E37.54849
G1 X94.696 Y79.101 E37.59382
G1 X90.304 Y79.101 E37.81239
G0 F2400 X90.644 Y78.902
G1 F1050 X90.644 Y75.199 E37.99667
G0 F2400 X89.311 Y75.199
G1 F1050 X89.311 Y109.8 E39.7186
G0 F2400 X87.978 Y109.8
G1 F1050 X87.978 Y105.296 E39.94275
G0 F2400 X87.954 Y105.307
G1 F1050 X89.461 Y105.307 E40.01774
G0 F2400 X89.461 Y103.974
G1 F1050 X88.639 Y103.974 E40.05865
G0 F2400 X88.639 Y102.641
G1 F1050 X89.461 Y102.641 E40.09956
G0 F2400 X89.461 Y101.308
G1 F1050 X88.639 Y101.308 E40.14046
G0 F2400 X88.639 Y99.975
G1 F1050 X89.461 Y99.975 E40.18137
G0 F2400 X89.461 Y98.642
G1 F1050 X88.639 Y98.642 E40.22228
G0 F2400 X88.639 Y97.309
G1 F1050 X89.461 Y97.309 E40.26319
G0 F2400 X89.461 Y95.976
G1 F1050 X88.639 Y95.976 E40.30409
G0 F2400 X88.639 Y94.643
G1 F1050 X89.461 Y94.643 E40.345
G0 F2400 X89.461 Y93.31
G1 F1050 X88.639 Y93.31 E40.38591
G0 F2400 X88.639 Y91.977
G1 F1050 X89.461 Y91.977 E40.42681
G0 F2400 X89.461 Y90.644
G1 F1050 X88.639 Y90.644 E40.46772
G0 F2400 X88.639 Y89.311
G1 F1050 X89.461 Y89.311 E40.50863
G0 F2400 X89.461 Y87.978
G1 F1050 X88.639 Y87.978 E40.54954
G0 F2400 X88.639 Y86.645
G1 F1050 X89.461 Y86.645 E40.59044
G0 F2400 X89.461 Y85.312
G1 F1050 X88.639 Y85.312 E40.63135
G0 F2400 X88.639 Y83.979
G1 F1050 X89.461 Y83.979 E40.67226
G0 F2400 X89.461 Y82.646
G1 F1050 X88.639 Y82.646 E40.71317
G0 F2400 X88.639 Y81.313
G1 F1050 X89.461 Y81.313 E40.75407
G0 F2400 X89.461 Y79.98
G1 F1050 X88.381 Y79.98 E40.80782
G0 F2400 X87.978 Y79.707
G1 F1050 X87.978 Y75.199 E41.03216
G0 F2400 X86.82 Y75.981
G1 F1050 X98.181 Y75.981 E41.59755
G0 F2400 X97.309 Y75.2
G1 F1050 X97.309 Y79.594 E41.81622
G0 F2400 X96.621 Y79.98
G1 F1050 X95.539 Y79.98 E41.87006
G0 F2400 X95.539 Y81.313
G1 F1050 X96.361 Y81.313 E41.91097
G0 F2400 X96.361 Y82.646
G1 F1050 X95.539 Y82.646 E41.95188
G0 F2400 X95.539 Y83.979
G1 F1050 X96.361 Y83.979 E41.99278
G0 F2400 X96.361 Y85.312
G1 F1050 X95.539 Y85.312 E42.03369
G0 F2400 X95.539 Y86.645
G1 F1050 X96.361 Y86.645 E42.0746
G0 F2400 X96.361 Y87.978
G1 F1050 X95.539 Y87.978 E42.11551
G0 F2400 X95.539 Y89.311
G1 F1050 X96.361 Y89.311 E42.15641
G0 F2400 X96.361 Y90.644
G1 F1050 X95.539 Y90.644 E42.19732
G0 F2400 X95.539 Y91.977
G1 F1050 X96.361 Y91.977 E42.23823
G0 F2400 X96.361 Y93.31
G1 F1050 X95.539 Y93.31 E42.27914
G0 F2400 X95.539 Y94.643
G1 F1050 X96.361 Y94.643 E42.32004
G0 F2400 X96.361 Y95.976
G1 F1050 X95.539 Y95.976 E42.36095
G0 F2400 X95.539 Y97.309
G1 F1050 X96.361 Y97.309 E42.40186
G0 F2400 X96.361 Y98.642
G1 F1050 X95.539 Y98.642 E42.44276
G0 F2400 X95.539 Y99.975
G1 F1050 X96.361 Y99.975 E42.48367
G0 F2400 X96.361 Y101.308
G1 F1050 X95.539 Y101.308 E42.52458
G0 F2400 X95.539 Y102.641
G1 F1050 X96.361 Y102.641 E42.56549
G0 F2400 X96.361 Y103.974
G1 F1050 X95.539 Y103.974 E42.60639
G0 F2400 X95.539 Y105.307
G1 F1050 X97.058 Y105.307 E42.68199
G0 F2400 X97.309 Y105.412
G1 F1050 X97.309 Y109.801 E42.90041
G0 F2400 X98.18 Y109.306
G1 F1050 X86.82 Y109.306 E43.46574
G0 F2400 X86.82 Y107.973
G1 F1050 X98.18 Y107.973 E44.03108
G0 F2400 X98.181 Y106.64
G1 F1050 X86.82 Y106.64 E44.59646
G0 F2400 X90.644 Y106.098
G1 F1050 X90.644 Y109.8 E44.7807
G0 F2400 X91.977 Y109.8
G1 F1050 X91.977 Y106.098 E44.96493
G0 F2400 X93.31 Y106.098
G1 F1050 X93.31 Y109.801 E45.14921
G0 F2400 X94.643 Y109.801
G1 F1050 X94.643 Y106.098 E45.33349
G0 F2400 X95.976 Y109.801
G1 F1050 X95.976 Y75.2 E47.05543
G0 F2400 X94.643 Y75.2
G1 F1050 X94.643 Y78.902 E47.23966
G0 F2400 X93.31 Y78.902
G1 F1050 X93.31 Y75.2 E47.42389
G0 F2400 X91.977 Y75.199
G1 F1050 X91.977 Y78.902 E47.60817
G0 F2400 X86.819 Y78.647
G1 F1050 X98.181 Y78.647 E48.17361
G0 F2400 X98.181 Y77.314
G1 F1050 X86.819 Y77.314 E48.73904
G1 F1500 E47.73904
G0 F2400 X89.894 Y80.611
G0 X91.17 Y80.611
G0 X91.555 Y80.996
;TYPE:WALL-INNER
G1 F1500 E48.73904
G1 F1050 X93.445 Y80.996 E48.8331
G1 X93.445 Y104.004 E49.9781
G1 X91.555 Y104.004 E50.07216
G1 X91.555 Y80.996 E51.21716
G0 F2400 X91.156 Y80.597
G1 F1050 X93.844 Y80.597 E51.35093
G1 X93.844 Y104.403 E52.53565
G1 X91.156 Y104.403 E52.66942
G1 X91.156 Y80.597 E53.85414
G0 F2400 X90.758 Y80.199
;TYPE:WALL-OUTER
G1 F1050 X94.242 Y80.199 E54.02752
G1 X94.242 Y104.801 E55.25185
G1 X90.758 Y104.801 E55.42523
G1 X90.758 Y80.199 E56.64956
G0 F2400 X90.958 Y80.199
G0 X91.226 Y80.667
G0 X93.264 Y81.414
