;FLAVOR:Marlin
;TIME:11703
;Filament used: 9.0954m
;Layer height: 0.15
;Generated with Cura_SteamEngine 2.7.0
M190 S60
M104 S220
M109 S220
G21 ;metric values
G90 ;absolute positioning
M82 ;set extruder to absolute mode
M107 ;start with the fan off
G92 E0 ;zero the extruded length
G1 F200 E3 ;extrude 3mm of feed stock
G92 E0 ;zero the extruded length again
G1 F9000
M301 P31.36 I3.30 D74.51 ;set PID tuning for E0
M304 P72.25 I2.72 D479.41 ; set PID tuning for heated bed
M117 Printing...
;LAYER_COUNT:39
;LAYER:0
M107
M205 X20 Y20
G0 F2400 X33.485 Y56.958 Z0.3
;TYPE:SKIRT
G1 F1050 X34.031 Y56.667 E0.03079
G1 X34.69 Y56.425 E0.06573
G1 X41.162 Y54.571 E0.40076
G1 X46.252 Y52.767 E0.66951
G1 X51.207 Y50.688 E0.93692
G1 X56.037 Y48.334 E1.20432
G1 X60.75 Y45.695 E1.47313
G1 X65.296 Y42.802 E1.74129
G1 X67.479 Y41.28 E1.87372
G1 X71.813 Y37.974 E2.14499
G1 X73.949 Y36.201 E2.28314
G1 X74.45 Y35.837 E2.31396
G1 X74.993 Y35.541 E2.34474
G1 X75.571 Y35.317 E2.37559
G1 X76.172 Y35.169 E2.40639
G1 X76.549 Y35.117 E2.42533
G1 X80.265 Y34.757 E2.61112
G1 X84.467 Y34.182 E2.82219
G1 X85.115 Y34.138 E2.85451
G1 X87.171 Y34.137 E2.95683
G1 X87.487 Y34.147 E2.97256
G1 X92.014 Y34.444 E3.19833
G1 X97.39 Y34.527 E3.4659
G1 X102.839 Y34.301 E3.73731
G1 X104.746 Y34.152 E3.8325
G1 X105.12 Y34.137 E3.85113
G1 X107.174 Y34.137 E3.95335
G1 X107.841 Y34.184 E3.98662
G1 X114.646 Y35.14 E4.3286
G1 X115.252 Y35.265 E4.35939
G1 X115.837 Y35.468 E4.39021
G1 X116.392 Y35.744 E4.42106
G1 X116.905 Y36.089 E4.45182
G1 X117.37 Y36.498 E4.48264
G1 X117.779 Y36.963 E4.51346
G1 X118.217 Y37.645 E4.5538
G1 X120.539 Y42.03 E4.80073
G1 X123.305 Y46.662 E5.06921
G1 X126.328 Y51.132 E5.33776
G1 X129.595 Y55.416 E5.60587
G1 X133.101 Y59.514 E5.87426
G1 X136.345 Y62.922 E6.10841
G1 X155.384 Y81.975 E7.44885
G1 X155.792 Y82.44 E7.47964
G1 X156.137 Y82.954 E7.51045
G1 X156.413 Y83.508 E7.54125
G1 X156.615 Y84.093 E7.57205
G1 X156.741 Y84.7 E7.6029
G1 X156.787 Y85.366 E7.63612
G1 X156.786 Y92.69 E8.0006
G1 X156.746 Y93.307 E8.03137
G1 X156.627 Y93.915 E8.06221
G1 X156.43 Y94.502 E8.09302
G1 X156.16 Y95.059 E8.12382
G1 X155.82 Y95.576 E8.15462
G1 X155.388 Y96.073 E8.18739
G1 X137.631 Y113.902 E9.43965
G1 X134.052 Y117.912 E9.70713
G1 X130.684 Y122.141 E9.97617
G1 X127.581 Y126.53 E10.24367
G1 X124.724 Y131.095 E10.51167
G1 X122.123 Y135.826 E10.78035
G1 X119.8 Y140.686 E11.04842
G1 X118.402 Y143.985 E11.22673
G1 X118.124 Y144.538 E11.25753
G1 X117.777 Y145.051 E11.28835
G1 X117.367 Y145.515 E11.31917
G1 X116.9 Y145.922 E11.34999
G1 X116.385 Y146.266 E11.38081
G1 X115.8 Y146.553 E11.41324
G1 X113.875 Y147.339 E11.51672
G1 X108.731 Y149.675 E11.79787
G1 X108.152 Y149.894 E11.82868
G1 X107.549 Y150.037 E11.85952
G1 X106.809 Y150.104 E11.8965
G1 X106.018 Y150.114 E11.93586
G1 X105.666 Y150.105 E11.95339
G1 X100.083 Y149.766 E12.23174
G1 X94.658 Y149.688 E12.50175
G1 X89.145 Y149.921 E12.77635
G1 X89.145 Y149.92 E12.7764
G1 X85.485 Y150.098 E12.95875
G1 X84.866 Y150.088 E12.98956
G1 X84.254 Y149.999 E13.02034
G1 X83.455 Y149.754 E13.06193
G1 X77.912 Y147.513 E13.35947
G1 X75.411 Y146.631 E13.49145
G1 X74.841 Y146.388 E13.52228
G1 X74.308 Y146.074 E13.55307
G1 X73.66 Y145.545 E13.5947
G1 X71.268 Y143.217 E13.76081
G1 X67.223 Y139.602 E14.03078
G1 X63.025 Y136.257 E14.29791
G1 X58.626 Y133.143 E14.56613
G1 X54.052 Y130.278 E14.83472
G1 X49.343 Y127.686 E15.10222
G1 X44.48 Y125.359 E15.37051
G1 X39.506 Y123.314 E15.63815
G1 X34.433 Y121.549 E15.90546
G1 X33.862 Y121.308 E15.9363
G1 X33.328 Y120.995 E15.9671
G1 X32.838 Y120.617 E15.9979
G1 X32.401 Y120.178 E16.02873
G1 X32.024 Y119.687 E16.05953
G1 X31.713 Y119.152 E16.09033
G1 X31.474 Y118.581 E16.12113
G1 X31.311 Y117.983 E16.15198
G1 X31.248 Y117.594 E16.17159
G1 X30.699 Y113.05 E16.39937
G1 X29.775 Y107.695 E16.6698
G1 X29.221 Y105.129 E16.80044
G1 X28.161 Y100.95 E17.015
G1 X28.048 Y100.341 E17.04582
G1 X28.014 Y99.771 E17.07424
G1 X28.014 Y98.287 E17.14809
G1 X28.03 Y97.9 E17.16737
G1 X28.198 Y95.823 E17.27107
G1 X28.43 Y90.383 E17.54204
G1 X28.355 Y84.974 E17.81124
G1 X28.013 Y79.516 E18.0834
G1 X28.004 Y79.16 E18.10112
G1 X28.015 Y78.217 E18.14805
G1 X28.062 Y77.6 E18.17885
G1 X28.154 Y77.125 E18.20292
G1 X29.556 Y71.44 E18.49432
G1 X30.061 Y68.909 E18.62276
G1 X30.906 Y63.521 E18.89417
G1 X31.245 Y60.5 E19.04545
G1 X31.354 Y59.89 E19.07629
G1 X31.54 Y59.3 E19.10708
G1 X31.801 Y58.738 E19.13792
G1 X32.132 Y58.215 E19.16872
G1 X32.527 Y57.739 E19.1995
G1 X32.981 Y57.318 E19.23031
G1 X33.485 Y56.958 E19.26114
G0 F2400 X33.847 Y57.207
G1 F1050 X34.381 Y56.951 E19.29061
G1 X34.8 Y56.808 E19.31264
G1 X41.289 Y54.949 E19.64856
G1 X46.388 Y53.142 E19.91778
G1 X51.373 Y51.05 E20.18682
G1 X56.229 Y48.684 E20.45564
G1 X60.959 Y46.035 E20.72543
G1 X65.517 Y43.134 E20.9943
G1 X67.706 Y41.608 E21.1271
G1 X72.067 Y38.282 E21.40004
G1 X74.204 Y36.508 E21.53826
G1 X74.684 Y36.161 E21.56774
G1 X75.207 Y35.881 E21.59726
G1 X75.763 Y35.675 E21.62677
G1 X76.588 Y35.515 E21.66859
G1 X80.305 Y35.155 E21.85443
G1 X84.521 Y34.578 E22.0662
G1 X85.115 Y34.537 E22.09583
G1 X87.171 Y34.536 E22.19815
G1 X87.461 Y34.545 E22.21259
G1 X92.002 Y34.843 E22.43906
G1 X97.4 Y34.926 E22.70772
G1 X102.832 Y34.701 E22.97828
G1 X104.777 Y34.549 E23.07537
G1 X105.12 Y34.536 E23.09245
G1 X107.174 Y34.536 E23.19467
G1 X107.786 Y34.579 E23.2252
G1 X114.591 Y35.535 E23.56718
G1 X115.171 Y35.657 E23.59668
G1 X115.729 Y35.855 E23.62614
G1 X116.256 Y36.127 E23.65566
G1 X116.741 Y36.468 E23.68516
G1 X117.176 Y36.87 E23.71464
G1 X117.553 Y37.328 E23.74416
G1 X117.865 Y37.831 E23.77361
G1 X120.201 Y42.242 E24.02201
G1 X122.968 Y46.877 E24.29065
G1 X126.009 Y51.373 E24.56077
G1 X129.273 Y55.653 E24.82864
G1 X132.809 Y59.786 E25.09932
G1 X136.076 Y63.218 E25.33513
G1 X155.101 Y82.257 E26.67458
G1 X155.491 Y82.704 E26.7041
G1 X155.817 Y83.199 E26.7336
G1 X156.074 Y83.733 E26.76309
G1 X156.256 Y84.297 E26.79259
G1 X156.361 Y84.88 E26.82207
G1 X156.388 Y85.366 E26.84629
G1 X156.387 Y92.69 E27.21077
G1 X156.347 Y93.281 E27.24025
G1 X156.228 Y93.862 E27.26976
G1 X156.032 Y94.421 E27.29924
G1 X155.762 Y94.949 E27.32876
G1 X155.424 Y95.436 E27.35826
G1 X155.105 Y95.792 E27.38205
G1 X137.35 Y113.618 E28.63413
G1 X133.734 Y117.671 E28.90443
G1 X130.36 Y121.907 E29.17394
G1 X127.251 Y126.305 E29.44197
G1 X124.381 Y130.891 E29.7112
G1 X121.77 Y135.64 E29.9809
G1 X119.43 Y140.537 E30.251
G1 X118.034 Y143.829 E30.42895
G1 X117.767 Y144.358 E30.45844
G1 X117.43 Y144.846 E30.48795
G1 X117.031 Y145.285 E30.51747
G1 X116.577 Y145.665 E30.54694
G1 X116.076 Y145.982 E30.57644
G1 X115.649 Y146.183 E30.59993
G1 X113.738 Y146.964 E30.70266
G1 X108.566 Y149.312 E30.98533
G1 X108.011 Y149.52 E31.01483
G1 X107.433 Y149.651 E31.04432
G1 X106.804 Y149.705 E31.07574
G1 X106.013 Y149.715 E31.11511
G1 X105.69 Y149.707 E31.13119
G1 X100.091 Y149.367 E31.41034
G1 X94.646 Y149.289 E31.68134
G1 X89.155 Y149.521 E31.95485
G1 X85.466 Y149.7 E32.13865
G1 X84.873 Y149.689 E32.16816
G1 X84.288 Y149.598 E32.19762
G1 X83.605 Y149.384 E32.23324
G1 X78.069 Y147.145 E32.53043
G1 X75.543 Y146.255 E32.66371
G1 X74.999 Y146.021 E32.69318
G1 X74.491 Y145.715 E32.72269
G1 X73.938 Y145.259 E32.75836
G1 X71.53 Y142.916 E32.92556
G1 X67.492 Y139.307 E33.19508
G1 X63.25 Y135.928 E33.46497
G1 X58.844 Y132.807 E33.73368
G1 X54.264 Y129.939 E34.0026
G1 X49.522 Y127.329 E34.27197
G1 X44.654 Y124.999 E34.54055
G1 X39.64 Y122.939 E34.81032
G1 X34.564 Y121.172 E35.07779
G1 X34.018 Y120.94 E35.10732
G1 X33.509 Y120.636 E35.13682
G1 X33.045 Y120.267 E35.16632
G1 X32.635 Y119.839 E35.19582
G1 X32.287 Y119.36 E35.22528
G1 X32.006 Y118.838 E35.25479
G1 X31.797 Y118.283 E35.2843
G1 X31.644 Y117.546 E35.32176
G1 X31.094 Y112.993 E35.54999
G1 X30.166 Y107.616 E35.82153
G1 X29.608 Y105.031 E35.95314
G1 X28.548 Y100.852 E36.1677
G1 X28.441 Y100.269 E36.19719
G1 X28.413 Y99.771 E36.22202
G1 X28.413 Y98.287 E36.29587
G1 X28.427 Y97.932 E36.31355
G1 X28.598 Y95.819 E36.41905
G1 X28.829 Y90.394 E36.68927
G1 X28.753 Y84.943 E36.96057
G1 X28.412 Y79.491 E37.23242
G1 X28.403 Y79.165 E37.24865
G1 X28.414 Y78.222 E37.29558
G1 X28.461 Y77.631 E37.32508
G1 X28.542 Y77.22 E37.34593
G1 X29.941 Y71.543 E37.6369
G1 X30.454 Y68.975 E37.76722
G1 X31.3 Y63.584 E38.03879
G1 X31.641 Y60.544 E38.19103
G1 X31.747 Y59.961 E38.22052
G1 X31.93 Y59.397 E38.25003
G1 X32.188 Y58.863 E38.27954
G1 X32.515 Y58.369 E38.30902
G1 X32.905 Y57.923 E38.33851
G1 X33.352 Y57.533 E38.36803
G1 X33.847 Y57.207 E38.39753
G0 F2400 X33.721 Y57.758
G1 F1050 X34.206 Y57.468 E38.42565
G1 X34.91 Y57.192 E38.46328
G1 X41.421 Y55.326 E38.80035
G1 X46.513 Y53.522 E39.06918
G1 X51.538 Y51.414 E39.34037
G1 X56.427 Y49.031 E39.61104
G1 X61.142 Y46.391 E39.87996
G1 X65.76 Y43.452 E40.15237
G1 X67.93 Y41.939 E40.28402
G1 X72.321 Y38.59 E40.55884
G1 X74.459 Y36.815 E40.69713
G1 X74.918 Y36.485 E40.72526
G1 X75.419 Y36.224 E40.75338
G1 X75.952 Y36.036 E40.7815
G1 X76.626 Y35.912 E40.81561
G1 X80.348 Y35.551 E41.0017
G1 X84.575 Y34.973 E41.21402
G1 X85.115 Y34.936 E41.24096
G1 X87.171 Y34.935 E41.34327
G1 X87.435 Y34.944 E41.35642
G1 X91.95 Y35.24 E41.58159
G1 X97.41 Y35.324 E41.85334
G1 X102.879 Y35.098 E42.12574
G1 X104.808 Y34.947 E42.22204
G1 X105.12 Y34.935 E42.23757
G1 X107.174 Y34.935 E42.33979
G1 X107.73 Y34.974 E42.36753
G1 X114.535 Y35.93 E42.70951
G1 X115.088 Y36.048 E42.73765
G1 X115.619 Y36.243 E42.7658
G1 X116.116 Y36.51 E42.79388
G1 X116.571 Y36.845 E42.822
G1 X116.975 Y37.241 E42.85015
G1 X117.318 Y37.69 E42.87827
G1 X117.512 Y38.018 E42.89723
G1 X119.846 Y42.425 E43.14541
G1 X122.632 Y47.093 E43.41594
G1 X125.685 Y51.605 E43.68706
G1 X128.967 Y55.91 E43.95645
G1 X132.509 Y60.049 E44.22756
G1 X135.787 Y63.493 E44.46418
G1 X154.819 Y82.539 E45.80412
G1 X155.189 Y82.966 E45.83224
G1 X155.496 Y83.441 E45.86039
G1 X155.732 Y83.954 E45.88849
G1 X155.893 Y84.496 E45.91663
G1 X155.977 Y85.055 E45.94476
G1 X155.989 Y85.366 E45.96025
G1 X155.988 Y92.69 E46.32473
G1 X155.948 Y93.253 E46.35282
G1 X155.829 Y93.806 E46.38097
G1 X155.633 Y94.336 E46.40909
G1 X155.364 Y94.833 E46.43721
G1 X155.028 Y95.288 E46.46536
G1 X154.823 Y95.51 E46.4804
G1 X137.052 Y113.353 E47.73364
G1 X133.43 Y117.412 E48.00437
G1 X130.045 Y121.662 E48.27476
G1 X126.918 Y126.084 E48.54428
G1 X124.03 Y130.7 E48.81526
G1 X121.42 Y135.446 E49.0848
G1 X119.068 Y140.369 E49.35632
G1 X117.667 Y143.673 E49.53492
G1 X117.41 Y144.177 E49.56307
G1 X117.085 Y144.639 E49.59118
G1 X116.698 Y145.051 E49.61931
G1 X116.256 Y145.404 E49.64746
G1 X115.77 Y145.691 E49.67555
G1 X115.498 Y145.814 E49.69041
G1 X113.557 Y146.607 E49.79475
G1 X108.401 Y148.948 E50.07655
G1 X107.871 Y149.145 E50.10469
G1 X107.319 Y149.265 E50.13281
G1 X106.799 Y149.306 E50.15876
G1 X106.008 Y149.316 E50.19813
G1 X105.714 Y149.309 E50.21277
G1 X100.099 Y148.968 E50.49271
G1 X94.635 Y148.889 E50.76466
G1 X89.136 Y149.122 E51.03857
G1 X85.447 Y149.301 E51.22237
G1 X84.882 Y149.289 E51.25049
G1 X84.324 Y149.197 E51.27864
G1 X83.754 Y149.014 E51.30843
G1 X78.211 Y146.773 E51.60597
G1 X75.676 Y145.879 E51.73974
G1 X75.157 Y145.653 E51.76791
G1 X74.676 Y145.358 E51.79599
G1 X74.217 Y144.973 E51.82581
G1 X71.817 Y142.637 E51.99248
G1 X67.743 Y138.996 E52.26439
G1 X63.504 Y135.62 E52.53408
G1 X59.053 Y132.467 E52.80553
G1 X54.469 Y129.596 E53.0747
G1 X49.702 Y126.973 E53.34548
G1 X44.814 Y124.634 E53.61515
G1 X39.781 Y122.565 E53.88595
G1 X34.695 Y120.795 E54.15395
G1 X34.176 Y120.572 E54.18206
G1 X33.693 Y120.278 E54.2102
G1 X33.256 Y119.919 E54.23835
G1 X32.875 Y119.501 E54.26649
G1 X32.556 Y119.035 E54.2946
G1 X32.307 Y118.528 E54.32271
G1 X32.131 Y117.991 E54.35083
G1 X32.04 Y117.498 E54.37578
G1 X31.489 Y112.937 E54.60441
G1 X30.557 Y107.533 E54.87731
G1 X29.996 Y104.938 E55.00944
G1 X28.935 Y100.754 E55.22425
G1 X28.835 Y100.197 E55.25241
G1 X28.812 Y99.771 E55.27364
G1 X28.812 Y98.287 E55.34749
G1 X28.825 Y97.964 E55.36358
G1 X28.997 Y95.842 E55.46953
G1 X29.229 Y90.405 E55.74035
G1 X29.152 Y84.933 E56.01269
G1 X28.81 Y79.466 E56.28529
G1 X28.802 Y79.169 E56.30008
G1 X28.813 Y78.226 E56.34701
G1 X28.86 Y77.663 E56.37512
G1 X28.929 Y77.316 E56.39273
G1 X30.331 Y71.631 E56.68412
G1 X30.848 Y69.042 E56.81551
G1 X31.697 Y63.621 E57.08858
G1 X32.038 Y60.589 E57.24042
G1 X32.141 Y60.033 E57.26856
G1 X32.321 Y59.497 E57.2967
G1 X32.574 Y58.992 E57.32481
G1 X32.897 Y58.528 E57.35294
G1 X33.281 Y58.114 E57.38104
G1 X33.721 Y57.758 E57.40921
G0 F2400 X34.087 Y57.994
G1 F1050 X34.56 Y57.742 E57.43588
G1 X35.02 Y57.575 E57.46023
G1 X41.548 Y55.705 E57.79817
G1 X46.665 Y53.892 E58.06833
G1 X51.704 Y51.777 E58.34029
G1 X56.605 Y49.389 E58.6116
G1 X61.36 Y46.726 E58.88282
G1 X65.96 Y43.799 E59.15416
G1 X68.168 Y42.259 E59.28813
G1 X72.562 Y38.907 E59.56316
G1 X74.713 Y37.122 E59.70226
G1 X75.15 Y36.811 E59.72896
G1 X75.629 Y36.568 E59.75568
G1 X76.138 Y36.4 E59.78236
G1 X76.665 Y36.309 E59.80897
G1 X80.389 Y35.948 E59.99517
G1 X84.629 Y35.368 E60.20814
G1 X85.115 Y35.335 E60.23238
G1 X87.171 Y35.334 E60.3347
G1 X87.409 Y35.342 E60.34655
G1 X91.938 Y35.639 E60.57242
G1 X97.42 Y35.724 E60.84527
G1 X102.9 Y35.497 E61.11822
G1 X104.839 Y35.345 E61.21501
G1 X105.12 Y35.334 E61.229
G1 X107.174 Y35.334 E61.33122
G1 X107.675 Y35.369 E61.35622
G1 X114.48 Y36.325 E61.6982
G1 X115.004 Y36.439 E61.72488
G1 X115.505 Y36.629 E61.75155
G1 X115.972 Y36.892 E61.77822
G1 X116.395 Y37.222 E61.80492
G1 X116.765 Y37.61 E61.8316
G1 X117.16 Y38.205 E61.86714
G1 X119.503 Y42.629 E62.11627
G1 X122.301 Y47.316 E62.38793
G1 X125.349 Y51.823 E62.6587
G1 X128.663 Y56.169 E62.93068
G1 X132.207 Y60.31 E63.20193
G1 X135.488 Y63.758 E63.43879
G1 X154.537 Y82.821 E64.77993
G1 X154.887 Y83.228 E64.80665
G1 X155.172 Y83.681 E64.83328
G1 X155.387 Y84.173 E64.86
G1 X155.526 Y84.691 E64.88669
G1 X155.59 Y85.365 E64.92039
G1 X155.589 Y92.689 E65.28487
G1 X155.549 Y93.224 E65.31157
G1 X155.43 Y93.747 E65.33826
G1 X155.235 Y94.246 E65.36492
G1 X154.967 Y94.711 E65.39163
G1 X154.54 Y95.229 E65.42504
G1 X136.753 Y113.087 E66.67937
G1 X133.127 Y117.15 E66.95038
G1 X129.737 Y121.408 E67.22124
G1 X126.578 Y125.875 E67.49351
G1 X123.692 Y130.488 E67.7643
G1 X121.06 Y135.274 E68.03612
G1 X118.709 Y140.193 E68.30744
G1 X117.3 Y143.518 E68.48716
G1 X117.054 Y143.994 E68.51382
G1 X116.74 Y144.429 E68.54052
G1 X116.366 Y144.813 E68.56719
G1 X115.938 Y145.137 E68.59391
G1 X115.347 Y145.445 E68.62708
G1 X113.399 Y146.241 E68.7318
G1 X108.236 Y148.585 E69.01398
G1 X107.732 Y148.77 E69.0407
G1 X107.207 Y148.878 E69.06737
G1 X106.793 Y148.907 E69.08802
G1 X106.002 Y148.917 E69.12739
G1 X105.739 Y148.91 E69.14048
G1 X100.13 Y148.569 E69.42013
G1 X94.641 Y148.49 E69.69333
G1 X89.105 Y148.725 E69.96908
G1 X85.427 Y148.903 E70.15233
G1 X84.891 Y148.889 E70.17901
G1 X84.363 Y148.795 E70.2057
G1 X83.904 Y148.645 E70.22973
G1 X78.329 Y146.391 E70.52899
G1 X75.808 Y145.502 E70.66202
G1 X75.317 Y145.287 E70.6887
G1 X74.864 Y145.001 E70.71536
G1 X74.495 Y144.687 E70.73947
G1 X72.079 Y142.336 E70.90723
G1 X68.005 Y138.694 E71.17918
G1 X63.739 Y135.297 E71.45057
G1 X59.283 Y132.14 E71.72234
G1 X54.668 Y129.25 E71.99332
G1 X49.888 Y126.62 E72.26483
G1 X44.975 Y124.268 E72.5359
G1 X39.922 Y122.192 E72.80776
G1 X34.826 Y120.418 E73.07629
G1 X34.334 Y120.205 E73.10297
G1 X33.879 Y119.92 E73.12969
G1 X33.472 Y119.572 E73.15634
G1 X33.121 Y119.166 E73.18305
G1 X32.834 Y118.714 E73.20969
G1 X32.617 Y118.223 E73.23641
G1 X32.436 Y117.45 E73.27592
G1 X31.884 Y112.88 E73.505
G1 X30.948 Y107.454 E73.77902
G1 X30.389 Y104.866 E73.91078
G1 X29.321 Y100.656 E74.12693
G1 X29.229 Y100.127 E74.15365
G1 X29.211 Y99.771 E74.17139
G1 X29.211 Y98.287 E74.24524
G1 X29.223 Y97.997 E74.25968
G1 X29.393 Y95.892 E74.36478
G1 X29.628 Y90.399 E74.63839
G1 X29.551 Y84.923 E74.91094
G1 X29.208 Y79.441 E75.18428
G1 X29.201 Y79.174 E75.19758
G1 X29.212 Y78.231 E75.24451
G1 X29.258 Y77.697 E75.27118
G1 X29.317 Y77.412 E75.28567
G1 X30.721 Y71.718 E75.57752
G1 X31.237 Y69.131 E75.7088
G1 X32.091 Y63.684 E75.98318
G1 X32.434 Y60.633 E76.13597
G1 X32.534 Y60.106 E76.16267
G1 X32.71 Y59.6 E76.18933
G1 X32.96 Y59.126 E76.216
G1 X33.278 Y58.694 E76.24269
