;FLAVOR:Marlin
;TIME:11470
;Filament used: 9.31173m
;Layer height: 0.15
;Generated with Cura_SteamEngine 2.7.0
M190 S60
M104 S220
M109 S220
G21 ;metric values
G90 ;absolute positioning
M82 ;set extruder to absolute mode
M107 ;start with the fan off
G92 E0 ;zero the extruded length
G1 F200 E3 ;extrude 3mm of feed stock
G92 E0 ;zero the extruded length again
G1 F9000
M301 P31.36 I3.30 D74.51 ;set PID tuning for E0
M304 P72.25 I2.72 D479.41 ; set PID tuning for heated bed
M117 Printing...
;LAYER_COUNT:39
;LAYER:0
M107
M205 X20 Y20
G0 F2400 X35.495 Y75.064 Z0.3
;TYPE:SKIRT
G1 F1050 X36.083 Y74.87 E0.03081
G1 X36.691 Y74.753 E0.06163
G1 X37.052 Y74.721 E0.07966
G1 X39.697 Y74.589 E0.21146
G1 X45.113 Y74.087 E0.48214
G1 X50.43 Y73.292 E0.74969
G1 X55.731 Y72.188 E1.01915
G1 X58.25 Y71.552 E1.14845
G1 X63.513 Y69.982 E1.42177
G1 X65.979 Y69.13 E1.55161
G1 X71.03 Y67.141 E1.82176
G1 X75.945 Y64.878 E2.09104
G1 X79.089 Y63.251 E2.26721
G1 X79.656 Y63.002 E2.29803
G1 X80.25 Y62.829 E2.32882
G1 X80.862 Y62.733 E2.35964
G1 X81.294 Y62.714 E2.38116
G1 X149.701 Y62.714 E5.78547
G1 X150.319 Y62.754 E5.81629
G1 X150.926 Y62.873 E5.84707
G1 X151.513 Y63.07 E5.87789
G1 X152.07 Y63.34 E5.90869
G1 X152.588 Y63.68 E5.93953
G1 X153.057 Y64.084 E5.97033
G1 X153.47 Y64.545 E6.00113
G1 X153.821 Y65.055 E6.03194
G1 X154.103 Y65.606 E6.06275
G1 X154.311 Y66.189 E6.09355
G1 X154.443 Y66.794 E6.12437
G1 X154.492 Y67.298 E6.14957
G1 X154.609 Y69.947 E6.28153
G1 X155.079 Y75.375 E6.55266
G1 X155.416 Y77.997 E6.68422
G1 X155.455 Y78.617 E6.71514
G1 X155.452 Y80.429 E6.80531
G1 X155.437 Y80.796 E6.82359
G1 X154.867 Y88.069 E7.18665
G1 X154.795 Y93.46 E7.45496
G1 X155.027 Y98.83 E7.72245
G1 X155.434 Y103.162 E7.93898
G1 X155.455 Y103.613 E7.96145
G1 X155.454 Y105.401 E8.05043
G1 X155.426 Y105.917 E8.07615
G1 X154.643 Y113.115 E8.43647
G1 X154.488 Y115.77 E8.56882
G1 X154.412 Y116.385 E8.59966
G1 X154.258 Y116.984 E8.63044
G1 X154.027 Y117.559 E8.66128
G1 X153.725 Y118.099 E8.69207
G1 X153.355 Y118.596 E8.7229
G1 X152.925 Y119.041 E8.7537
G1 X152.441 Y119.427 E8.78451
G1 X151.911 Y119.747 E8.81532
G1 X151.344 Y119.996 E8.84614
G1 X150.75 Y120.171 E8.87695
G1 X150.139 Y120.267 E8.90773
G1 X149.701 Y120.287 E8.92955
G1 X103.212 Y120.296 E11.2431
G1 X97.768 Y120.45 E11.51413
G1 X92.395 Y120.907 E11.78249
G1 X87.035 Y121.671 E12.05193
G1 X84.166 Y122.205 E12.19716
G1 X83.288 Y122.286 E12.24103
G1 X38.319 Y122.286 E14.47894
G1 X37.701 Y122.246 E14.50976
G1 X37.094 Y122.127 E14.54054
G1 X36.507 Y121.93 E14.57135
G1 X35.95 Y121.66 E14.60216
G1 X35.432 Y121.32 E14.63299
G1 X34.963 Y120.916 E14.6638
G1 X34.55 Y120.455 E14.6946
G1 X34.199 Y119.945 E14.72541
G1 X34.036 Y119.648 E14.74227
G1 X31.027 Y113.677 E15.07502
G1 X30.785 Y113.108 E15.10579
G1 X30.618 Y112.511 E15.13664
G1 X30.529 Y111.899 E15.16742
G1 X30.514 Y111.521 E15.18624
G1 X30.504 Y81.507 E16.67991
G1 X30.544 Y80.889 E16.71073
G1 X30.663 Y80.281 E16.74156
G1 X30.859 Y79.694 E16.77235
G1 X31.129 Y79.137 E16.80316
G1 X31.469 Y78.62 E16.83395
G1 X31.892 Y78.13 E16.86617
G1 X33.408 Y76.599 E16.97339
G1 X33.472 Y76.536 E16.97786
G1 X33.948 Y76.073 E17.01091
G1 X34.419 Y75.671 E17.04172
G1 X34.937 Y75.333 E17.0725
G1 X35.495 Y75.064 E17.10333
G0 F2400 X35.715 Y75.407
G1 F1050 X36.281 Y75.232 E17.13281
G1 X37.072 Y75.12 E17.17257
G1 X39.73 Y74.987 E17.30501
G1 X45.137 Y74.487 E17.57524
G1 X50.502 Y73.684 E17.84521
G1 X55.836 Y72.573 E18.11635
G1 X58.365 Y71.935 E18.24615
G1 X63.618 Y70.368 E18.51896
G1 X66.136 Y69.497 E18.65155
G1 X71.179 Y67.512 E18.92126
G1 X76.108 Y65.243 E19.1913
G1 X79.272 Y63.605 E19.3686
G1 X79.816 Y63.369 E19.39811
G1 X80.386 Y63.208 E19.42759
G1 X80.973 Y63.125 E19.45709
G1 X81.294 Y63.113 E19.47308
G1 X149.701 Y63.113 E22.87739
G1 X150.292 Y63.153 E22.90686
G1 X150.873 Y63.272 E22.93638
G1 X151.432 Y63.468 E22.96586
G1 X151.96 Y63.738 E22.99537
G1 X152.447 Y64.076 E23.02487
G1 X152.884 Y64.477 E23.05439
G1 X153.263 Y64.932 E23.08386
G1 X153.578 Y65.435 E23.11339
G1 X153.821 Y65.975 E23.14286
G1 X153.99 Y66.543 E23.17235
G1 X154.094 Y67.315 E23.21112
G1 X154.212 Y69.975 E23.34362
G1 X154.684 Y75.437 E23.61646
G1 X155.02 Y78.048 E23.74747
G1 X155.056 Y78.616 E23.77579
G1 X155.053 Y80.428 E23.86596
G1 X155.04 Y80.764 E23.8827
G1 X154.468 Y88.063 E24.24705
G1 X154.396 Y93.455 E24.51541
G1 X154.63 Y98.863 E24.78479
G1 X155.037 Y103.199 E25.00152
G1 X155.056 Y103.612 E25.0221
G1 X155.055 Y105.4 E25.11108
G1 X155.029 Y105.874 E25.1347
G1 X154.246 Y113.069 E25.49488
G1 X154.09 Y115.747 E25.62838
G1 X154.015 Y116.335 E25.65788
G1 X153.862 Y116.908 E25.68739
G1 X153.634 Y117.455 E25.71688
G1 X153.334 Y117.966 E25.74637
G1 X152.968 Y118.433 E25.7759
G1 X152.543 Y118.845 E25.80536
G1 X152.066 Y119.197 E25.83486
G1 X151.546 Y119.482 E25.86437
G1 X150.992 Y119.694 E25.89389
G1 X150.415 Y119.829 E25.92338
G1 X149.701 Y119.888 E25.95903
G1 X103.2 Y119.897 E28.27318
G1 X97.741 Y120.051 E28.54496
G1 X92.356 Y120.509 E28.81391
G1 X86.979 Y121.275 E29.0842
G1 X84.093 Y121.813 E29.2303
G1 X83.288 Y121.887 E29.27053
G1 X38.319 Y121.887 E31.50843
G1 X37.728 Y121.847 E31.53791
G1 X37.147 Y121.728 E31.56743
G1 X36.588 Y121.532 E31.5969
G1 X36.06 Y121.262 E31.62642
G1 X35.573 Y120.924 E31.65592
G1 X35.136 Y120.523 E31.68543
G1 X34.757 Y120.068 E31.7149
G1 X34.392 Y119.469 E31.74981
G1 X31.383 Y113.498 E32.08256
G1 X31.153 Y112.952 E32.11204
G1 X30.998 Y112.379 E32.14158
G1 X30.913 Y111.52 E32.18454
G1 X30.903 Y81.506 E33.6782
G1 X30.943 Y80.915 E33.70768
G1 X31.062 Y80.334 E33.7372
G1 X31.258 Y79.775 E33.76667
G1 X31.527 Y79.247 E33.79616
G1 X31.865 Y78.76 E33.82567
G1 X32.176 Y78.411 E33.84893
G1 X33.692 Y76.88 E33.95615
G1 X33.75 Y76.822 E33.96023
G1 X34.226 Y76.359 E33.99328
G1 X34.678 Y75.975 E34.0228
G1 X35.177 Y75.656 E34.05227
G1 X35.715 Y75.407 E34.08177
G0 F2400 X35.932 Y75.751
G1 F1050 X36.476 Y75.597 E34.10991
G1 X37.092 Y75.518 E34.14082
G1 X39.764 Y75.384 E34.27396
G1 X45.197 Y74.882 E34.54548
G1 X50.571 Y74.077 E34.81591
G1 X55.924 Y72.963 E35.08801
G1 X58.458 Y72.323 E35.21807
G1 X63.75 Y70.744 E35.49291
G1 X66.265 Y69.875 E35.62533
G1 X71.335 Y67.879 E35.89649
G1 X76.306 Y65.591 E36.16882
G1 X79.456 Y63.96 E36.34535
G1 X79.975 Y63.736 E36.37348
G1 X80.52 Y63.588 E36.40158
G1 X81.294 Y63.512 E36.44029
G1 X149.701 Y63.512 E39.84459
G1 X150.265 Y63.552 E39.87273
G1 X150.817 Y63.671 E39.90083
G1 X151.347 Y63.867 E39.92895
G1 X151.845 Y64.135 E39.9571
G1 X152.299 Y64.471 E39.98521
G1 X152.702 Y64.868 E40.01336
G1 X153.044 Y65.318 E40.04149
G1 X153.32 Y65.811 E40.0696
G1 X153.523 Y66.338 E40.09771
G1 X153.65 Y66.889 E40.12585
G1 X153.695 Y67.333 E40.14806
G1 X153.813 Y70.004 E40.28111
G1 X154.286 Y75.473 E40.55429
G1 X154.624 Y78.099 E40.68606
G1 X154.657 Y78.616 E40.71184
G1 X154.654 Y80.428 E40.80201
G1 X154.642 Y80.733 E40.8172
G1 X154.069 Y88.042 E41.18206
G1 X153.996 Y93.467 E41.45206
G1 X154.231 Y98.878 E41.72159
G1 X154.64 Y103.236 E41.93942
G1 X154.657 Y103.612 E41.95815
G1 X154.656 Y105.4 E42.04713
G1 X154.633 Y105.83 E42.06856
G1 X153.846 Y113.06 E42.43049
G1 X153.691 Y115.724 E42.56329
G1 X153.618 Y116.284 E42.5914
G1 X153.467 Y116.829 E42.61954
G1 X153.241 Y117.347 E42.64767
G1 X152.944 Y117.828 E42.6758
G1 X152.582 Y118.262 E42.70393
G1 X152.163 Y118.641 E42.73204
G1 X151.694 Y118.956 E42.76016
G1 X151.185 Y119.203 E42.78831
G1 X150.647 Y119.375 E42.81642
G1 X150.09 Y119.47 E42.84454
G1 X149.701 Y119.489 E42.86392
G1 X103.189 Y119.498 E45.17862
G1 X97.732 Y119.652 E45.45029
G1 X92.3 Y120.114 E45.7216
G1 X86.896 Y120.884 E45.99324
G1 X84.02 Y121.42 E46.13883
G1 X83.288 Y121.488 E46.17542
G1 X38.319 Y121.488 E48.41332
G1 X37.755 Y121.448 E48.44146
G1 X37.203 Y121.329 E48.46956
G1 X36.673 Y121.133 E48.49768
G1 X36.175 Y120.865 E48.52583
G1 X35.721 Y120.529 E48.55394
G1 X35.318 Y120.132 E48.58209
G1 X34.976 Y119.682 E48.61022
G1 X34.749 Y119.289 E48.6328
G1 X31.74 Y113.318 E48.96555
G1 X31.522 Y112.797 E48.99366
G1 X31.379 Y112.25 E49.02179
G1 X31.312 Y111.52 E49.05828
G1 X31.302 Y81.506 E50.55194
G1 X31.342 Y80.943 E50.58003
G1 X31.461 Y80.39 E50.60818
G1 X31.656 Y79.86 E50.63628
G1 X31.925 Y79.362 E50.66445
G1 X32.261 Y78.908 E50.69256
G1 X32.459 Y78.692 E50.70714
G1 X33.975 Y77.161 E50.81436
G1 X34.028 Y77.108 E50.81809
G1 X34.504 Y76.645 E50.85114
G1 X34.936 Y76.281 E50.87925
G1 X35.415 Y75.981 E50.90738
G1 X35.932 Y75.751 E50.93554
G0 F2400 X36.146 Y76.099
G1 F1050 X36.665 Y75.967 E50.96219
G1 X37.112 Y75.917 E50.98457
G1 X39.771 Y75.784 E51.11706
G1 X45.258 Y75.276 E51.39129
G1 X50.64 Y74.471 E51.66211
G1 X55.983 Y73.358 E51.93372
G1 X58.578 Y72.703 E52.06691
G1 X63.896 Y71.117 E52.34308
G1 X66.389 Y70.255 E52.47435
G1 X71.5 Y68.243 E52.7477
G1 X76.461 Y65.959 E53.0195
G1 X79.639 Y64.314 E53.19758
G1 X80.133 Y64.104 E53.2243
G1 X80.652 Y63.969 E53.25098
G1 X81.294 Y63.911 E53.28306
G1 X149.701 Y63.911 E56.68737
G1 X150.236 Y63.951 E56.71407
G1 X150.759 Y64.07 E56.74076
G1 X151.258 Y64.265 E56.76742
G1 X151.723 Y64.533 E56.79413
G1 X152.143 Y64.866 E56.82081
G1 X152.508 Y65.258 E56.84746
G1 X152.812 Y65.7 E56.87416
G1 X153.046 Y66.182 E56.90082
G1 X153.206 Y66.694 E56.92752
G1 X153.296 Y67.351 E56.96052
G1 X153.414 Y70.008 E57.09288
G1 X153.89 Y75.512 E57.36781
G1 X154.229 Y78.15 E57.50017
G1 X154.258 Y78.615 E57.52336
G1 X154.255 Y80.427 E57.61353
G1 X154.244 Y80.702 E57.62723
G1 X153.67 Y88.021 E57.99258
G1 X153.597 Y93.461 E58.26333
G1 X153.835 Y98.934 E58.53595
G1 X154.242 Y103.274 E58.75288
G1 X154.258 Y103.612 E58.76972
G1 X154.257 Y105.4 E58.8587
G1 X154.236 Y105.787 E58.87799
G1 X153.45 Y113.014 E59.23977
G1 X153.293 Y115.701 E59.37371
G1 X153.222 Y116.232 E59.40037
G1 X153.073 Y116.747 E59.42705
G1 X152.849 Y117.234 E59.45373
G1 X152.555 Y117.683 E59.48044
G1 X152.197 Y118.083 E59.50715
G1 X151.785 Y118.425 E59.5338
G1 X151.326 Y118.702 E59.56048
G1 X150.83 Y118.908 E59.58721
G1 X150.31 Y119.038 E59.61388
G1 X149.701 Y119.09 E59.6443
G1 X103.213 Y119.099 E61.9578
G1 X97.687 Y119.255 E62.23291
G1 X92.264 Y119.716 E62.50376
G1 X86.836 Y120.49 E62.77662
G1 X83.947 Y121.028 E62.92287
G1 X83.288 Y121.089 E62.9558
G1 X38.319 Y121.089 E65.19371
G1 X37.784 Y121.049 E65.2204
G1 X37.261 Y120.93 E65.2471
G1 X36.762 Y120.735 E65.27376
G1 X36.297 Y120.467 E65.30047
G1 X35.877 Y120.134 E65.32714
G1 X35.512 Y119.742 E65.3538
G1 X35.105 Y119.11 E65.39121
G1 X32.096 Y113.139 E65.72396
G1 X31.891 Y112.643 E65.75066
G1 X31.762 Y112.123 E65.77733
G1 X31.711 Y111.52 E65.80744
G1 X31.701 Y81.506 E67.3011
G1 X31.741 Y80.971 E67.3278
G1 X31.86 Y80.449 E67.35445
G1 X32.055 Y79.949 E67.38115
G1 X32.322 Y79.484 E67.40784
G1 X32.743 Y78.973 E67.44079
G1 X34.259 Y77.442 E67.54801
G1 X34.307 Y77.394 E67.55139
G1 X34.783 Y76.931 E67.58444
G1 X35.194 Y76.587 E67.61111
G1 X35.651 Y76.308 E67.63775
G1 X36.146 Y76.099 E67.66449
G0 F2400 X37.132 Y76.315
G1 F1050 X39.828 Y76.18 E67.79883
G1 X45.283 Y75.675 E68.07146
G1 X50.713 Y74.863 E68.34469
G1 X56.089 Y73.743 E68.61798
G1 X58.693 Y73.086 E68.75163
G1 X64.001 Y71.503 E69.02728
G1 X66.525 Y70.63 E69.16019
G1 X71.656 Y68.61 E69.43461
G1 X76.642 Y66.315 E69.70776
G1 X79.823 Y64.668 E69.88603
G1 X80.289 Y64.472 E69.91119
G1 X80.78 Y64.352 E69.93634
G1 X81.294 Y64.31 E69.96201
G1 X149.701 Y64.31 E73.36631
G1 X150.205 Y64.35 E73.39147
G1 X150.696 Y64.469 E73.41662
G1 X151.163 Y64.663 E73.44178
G1 X151.593 Y64.929 E73.46694
G1 X151.976 Y65.259 E73.4921
G1 X152.302 Y65.646 E73.51729
G1 X152.563 Y66.079 E73.54245
G1 X152.753 Y66.547 E73.56758
G1 X152.866 Y67.04 E73.59275
G1 X152.898 Y67.368 E73.60915
G1 X153.017 Y70.06 E73.74325
G1 X153.492 Y75.55 E74.01749
G1 X153.833 Y78.201 E74.1505
G1 X153.859 Y78.614 E74.1711
G1 X153.856 Y80.426 E74.26127
G1 X153.846 Y80.671 E74.27347
G1 X153.272 Y88 E74.63932
G1 X153.198 Y93.473 E74.91171
G1 X153.436 Y98.948 E75.18444
G1 X153.845 Y103.311 E75.40251
G1 X153.859 Y103.612 E75.41751
G1 X153.858 Y105.4 E75.50649
G1 X153.839 Y105.744 E75.52364
G1 X153.054 Y112.959 E75.88481
G1 X152.895 Y115.677 E76.02031
G1 X152.825 Y116.178 E76.04548
G1 X152.678 Y116.662 E76.07065
G1 X152.457 Y117.116 E76.09578
G1 X152.166 Y117.53 E76.12097
G1 X151.814 Y117.893 E76.14613
G1 X151.409 Y118.196 E76.1713
G1 X150.962 Y118.432 E76.19646
G1 X150.483 Y118.594 E76.22162
G1 X149.985 Y118.678 E76.24675
G1 X149.701 Y118.691 E76.2609
G1 X103.202 Y118.7 E78.57495
G1 X97.676 Y118.856 E78.85006
G1 X92.21 Y119.321 E79.12306
G1 X86.777 Y120.095 E79.39617
G1 X83.874 Y120.636 E79.54312
G1 X83.288 Y120.69 E79.57241
G1 X38.319 Y120.69 E81.81031
G1 X37.815 Y120.65 E81.83547
G1 X37.324 Y120.531 E81.86062
G1 X36.857 Y120.337 E81.88578
G1 X36.427 Y120.071 E81.91094
G1 X36.044 Y119.741 E81.9361
G1 X35.718 Y119.354 E81.96129
G1 X35.461 Y118.93 E81.98596
G1 X32.452 Y112.959 E82.31871
G1 X32.261 Y112.491 E82.34386
G1 X32.146 Y111.999 E82.36901
G1 X32.11 Y111.52 E82.39291
G1 X32.1 Y81.506 E83.88657
G1 X32.14 Y81.002 E83.91173
G1 X32.258 Y80.511 E83.93686
G1 X32.453 Y80.044 E83.96205
G1 X32.719 Y79.614 E83.98721
G1 X33.026 Y79.253 E84.0108
G1 X34.542 Y77.722 E84.11802
G1 X34.585 Y77.68 E84.12101
G1 X35.061 Y77.217 E84.15406
G1 X35.45 Y76.894 E84.17922
G1 X35.885 Y76.637 E84.20436
G1 X36.355 Y76.451 E84.22952
G1 X36.849 Y76.342 E84.25469
G1 X37.132 Y76.315 E84.26884
G1 F1500 E83.26884
G0 F2400 X37.544 Y78.835
G0 X37.544 Y80.115
G0 X37.702 Y80.496
;TYPE:WALL-INNER
G1 F1500 E84.26884
G1 F1050 X74.862 Y80.496 E86.11813
G1 X81.862 Y68.496 E86.80949
G1 X148.714 Y68.496 E90.13641
G1 X148.714 Y114.504 E92.42602
G1 X84.878 Y114.504 E95.60285
G1 X82.878 Y116.504 E95.74361
G1 X38.905 Y116.504 E97.93195
G1 X36.286 Y111.265 E98.22343
G1 X36.286 Y81.912 E99.6842
G1 X37.702 Y80.496 E99.78385
G0 F2400 X38.347 Y81.797
G1 F1050 X37.856 Y82.342 E99.82036
G1 X37.49 Y82.976 E99.85679
G1 X37.266 Y83.672 E99.89318
G1 X37.189 Y84.4 E99.92961
G1 X37.266 Y85.128 E99.96604
G1 X37.49 Y85.823 E100.00238
G1 X37.856 Y86.459 E100.0389
G1 X38.348 Y87.003 E100.0754
G1 X38.939 Y87.432 E100.11174
G1 X39.607 Y87.731 E100.14816
G1 X40.324 Y87.882 E100.18463
G1 X41.056 Y87.882 E100.22106
G1 X41.773 Y87.731 E100.25752
G1 X42.441 Y87.432 E100.29394
G1 X43.013 Y87.017 E100.32911
G1 X43.505 Y86.481 E100.36532
G1 X43.888 Y85.827 E100.40304
G1 X44.114 Y85.128 E100.43959
G1 X44.191 Y84.4 E100.47603
G1 X44.114 Y83.672 E100.51246
G1 X43.89 Y82.976 E100.54884
G1 X43.524 Y82.342 E100.58528
G1 X43.033 Y81.797 E100.62178
G1 X42.44 Y81.368 E100.6582
G1 X41.773 Y81.069 E100.69458
G1 X41.056 Y80.918 E100.73105
G1 X40.324 Y80.918 E100.76747
G1 X39.607 Y81.069 E100.80394
G1 X38.94 Y81.368 E100.84031
G1 X38.347 Y81.797 E100.87674
G0 F2400 X40.362 Y81.278
G0 X41.018 Y81.278
G0 X60.389 Y84.4
G1 F1050 X60.466 Y85.128 E100.91317
G1 X60.69 Y85.823 E100.94951
G1 X61.056 Y86.459 E100.98603
G1 X61.548 Y87.003 E101.02253
G1 X62.139 Y87.432 E101.05887
G1 X62.807 Y87.731 E101.09529
G1 X63.524 Y87.882 E101.13176
G1 X64.256 Y87.882 E101.16819
G1 X64.973 Y87.731 E101.20465
G1 X65.641 Y87.432 E101.24107
G1 X66.232 Y87.003 E101.27742
G1 X66.724 Y86.459 E101.31392
G1 X67.09 Y85.823 E101.35044
G1 X67.314 Y85.128 E101.38677
G1 X67.391 Y84.4 E101.42321
G1 X67.314 Y83.672 E101.45964
G1 X67.09 Y82.976 E101.49602
G1 X66.724 Y82.342 E101.53245
G1 X66.233 Y81.797 E101.56896
G1 X65.64 Y81.368 E101.60538
G1 X64.973 Y81.069 E101.64176
G1 X64.256 Y80.918 E101.67823
G1 X63.524 Y80.918 E101.71465
G1 X62.807 Y81.069 E101.75112
G1 X62.162 Y81.358 E101.78629
G1 X61.57 Y81.778 E101.82241
G1 X61.075 Y82.32 E101.85894
G1 X60.692 Y82.973 E101.89662
G1 X60.466 Y83.672 E101.93318
G1 X60.389 Y84.4 E101.96961
G0 F2400 X63.524 Y104.118
G1 F1050 X62.807 Y104.269 E102.00607
G1 X62.14 Y104.568 E102.04245
G1 X61.547 Y104.997 E102.07887
G1 X61.056 Y105.542 E102.11538
G1 X60.69 Y106.176 E102.15181
G1 X60.466 Y106.872 E102.1882
G1 X60.389 Y107.6 E102.22463
G1 X60.466 Y108.328 E102.26106
G1 X60.69 Y109.024 E102.29744
G1 X61.056 Y109.658 E102.33388
G1 X61.547 Y110.203 E102.37038
G1 X62.14 Y110.632 E102.40681
G1 X62.807 Y110.931 E102.44318
G1 X63.524 Y111.082 E102.47965
G1 X64.256 Y111.082 E102.51607
G1 X64.973 Y110.931 E102.55254
