;FLAVOR:Marlin
;TIME:102
;Filament used: 0.0750254m
;Layer height: 0.2
;Generated with Cura_SteamEngine 2.7.0
M190 S50
M104 S210
M109 S210
G21 ;metric values
G90 ;absolute positioning
M82 ;set extruder to absolute mode
M107 ;start with the fan off
G92 E0 ;zero the extruded length
G1 F200 E3 ;extrude 3mm of feed stock
G92 E0 ;zero the extruded length again
G1 F9000
M301 P31.36 I3.30 D74.51 ;set PID tuning for E0
M304 P72.25 I2.72 D479.41 ; set PID tuning for heated bed
M117 Printing...
;LAYER_COUNT:95
;LAYER:0
M107
G0 F2400 X86.218 Y85.894 Z0.3
G0 X85.782 Y86.368
;TYPE:SKIRT
G1 F1050 X86.218 Y85.894 E0.03205
G1 X86.947 Y85.309 E0.07857
G1 X88.02 Y84.597 E0.14265
G1 X88.578 Y84.275 E0.17471
G1 X89.445 Y83.937 E0.22102
G1 X90.524 Y83.624 E0.27693
G1 X91.152 Y83.483 E0.30896
G1 X91.814 Y83.42 E0.34206
G1 X92.576 Y83.397 E0.38
G1 X93.22 Y83.418 E0.41206
G1 X93.755 Y83.497 E0.43897
G1 X94.861 Y83.719 E0.49511
G1 X95.484 Y83.884 E0.52719
G1 X96.198 Y84.184 E0.56573
G1 X97.02 Y84.603 E0.61164
G1 X97.575 Y84.93 E0.6437
G1 X97.916 Y85.182 E0.6648
G1 X98.467 Y85.625 E0.69999
G1 X98.943 Y86.059 E0.73204
G1 X99.19 Y86.333 E0.7504
G1 X99.756 Y87.007 E0.7942
G1 X100.139 Y87.525 E0.82626
G1 X100.413 Y88.002 E0.85364
G1 X100.819 Y88.804 E0.89837
G1 X101.074 Y89.395 E0.9304
G1 X101.279 Y90.135 E0.96862
G1 X101.509 Y91.29 E1.02722
G1 X101.595 Y91.929 E1.05931
G1 X101.588 Y92.772 E1.10126
G1 X101.491 Y93.846 E1.15493
G1 X101.393 Y94.483 E1.187
G1 X101.199 Y95.155 E1.22181
G1 X100.868 Y96.065 E1.27
G1 X100.611 Y96.656 E1.30207
G1 X100.202 Y97.324 E1.34105
G1 X99.498 Y98.302 E1.40102
G1 X99.09 Y98.801 E1.4331
G1 X98.439 Y99.393 E1.47689
G1 X97.638 Y100.006 E1.52708
G1 X97.103 Y100.365 E1.55915
G1 X96.652 Y100.599 E1.58443
G1 X95.9 Y100.945 E1.62563
G1 X95.299 Y101.178 E1.65771
G1 X94.765 Y101.317 E1.68517
G1 X93.871 Y101.499 E1.73057
G1 X93.233 Y101.588 E1.76263
G1 X92.698 Y101.601 E1.78926
G1 X91.862 Y101.579 E1.83088
G1 X91.22 Y101.522 E1.86295
G1 X90.821 Y101.446 E1.88317
G1 X90.065 Y101.27 E1.9218
G1 X89.448 Y101.085 E1.95385
G1 X88.918 Y100.856 E1.98258
G1 X87.929 Y100.361 E2.03762
G1 X87.372 Y100.037 E2.06969
G1 X86.729 Y99.531 E2.11041
G1 X85.956 Y98.817 E2.16278
G1 X85.511 Y98.351 E2.19484
G1 X85.162 Y97.887 E2.22374
G1 X84.737 Y97.251 E2.2618
G1 X84.413 Y96.694 E2.29387
G1 X84.165 Y96.115 E2.32522
G1 X83.749 Y94.952 E2.38669
G1 X83.57 Y94.333 E2.41875
G1 X83.469 Y93.696 E2.45085
G1 X83.446 Y93.31 E2.47009
G1 X83.421 Y92.108 E2.52992
G1 X83.448 Y91.464 E2.562
G1 X83.597 Y90.655 E2.60294
G1 X83.861 Y89.67 E2.65369
G1 X84.066 Y89.059 E2.68576
G1 X84.217 Y88.722 E2.70414
G1 X84.488 Y88.171 E2.7347
G1 X84.808 Y87.612 E2.76675
G1 X85.113 Y87.194 E2.7925
G1 X85.782 Y86.368 E2.8454
G0 F2400 X86.092 Y86.619
G1 F1050 X86.512 Y86.165 E2.87618
G1 X87.167 Y85.642 E2.91789
G1 X88.24 Y84.93 E2.98198
G1 X88.777 Y84.621 E3.01281
G1 X89.556 Y84.32 E3.05437
G1 X90.635 Y84.007 E3.11028
G1 X91.239 Y83.873 E3.14107
G1 X91.826 Y83.819 E3.1704
G1 X92.588 Y83.796 E3.20834
G1 X93.207 Y83.817 E3.23917
G1 X93.677 Y83.888 E3.26282
G1 X94.783 Y84.11 E3.31896
G1 X95.381 Y84.271 E3.34978
G1 X96.017 Y84.539 E3.38412
G1 X96.839 Y84.958 E3.43004
G1 X97.371 Y85.274 E3.46083
G1 X97.666 Y85.493 E3.47912
G1 X98.217 Y85.936 E3.5143
G1 X98.674 Y86.354 E3.54512
G1 X98.885 Y86.59 E3.56088
G1 X99.451 Y87.264 E3.60468
G1 X99.817 Y87.763 E3.63547
G1 X100.057 Y88.182 E3.6595
G1 X100.463 Y88.984 E3.70424
G1 X100.706 Y89.553 E3.73503
G1 X100.888 Y90.213 E3.7691
G1 X101.118 Y91.368 E3.82771
G1 X101.199 Y91.982 E3.85853
G1 X101.191 Y92.736 E3.89605
G1 X101.094 Y93.81 E3.94972
G1 X100.998 Y94.422 E3.98055
G1 X100.824 Y95.018 E4.01145
G1 X100.493 Y95.928 E4.05964
G1 X100.244 Y96.495 E4.09045
G1 X99.878 Y97.091 E4.12526
G1 X99.174 Y98.069 E4.18523
G1 X98.781 Y98.547 E4.21603
G1 X98.197 Y99.076 E4.25524
G1 X97.396 Y99.689 E4.30544
G1 X96.881 Y100.032 E4.33623
G1 X96.486 Y100.237 E4.35838
G1 X95.734 Y100.583 E4.39957
G1 X95.156 Y100.805 E4.43038
G1 X94.686 Y100.926 E4.45454
G1 X93.792 Y101.108 E4.49994
G1 X93.178 Y101.192 E4.53078
G1 X92.709 Y101.202 E4.55413
G1 X91.873 Y101.18 E4.59574
G1 X91.256 Y101.124 E4.62658
G1 X90.912 Y101.057 E4.64402
G1 X90.156 Y100.881 E4.68264
G1 X89.563 Y100.702 E4.71347
G1 X89.096 Y100.499 E4.73881
G1 X88.107 Y100.004 E4.79385
G1 X87.573 Y99.692 E4.82463
G1 X87 Y99.238 E4.86101
G1 X86.227 Y98.524 E4.91338
G1 X85.8 Y98.076 E4.94418
G1 X85.493 Y97.666 E4.96967
G1 X85.068 Y97.03 E5.00774
G1 X84.758 Y96.494 E5.03855
G1 X84.54 Y95.98 E5.06633
G1 X84.124 Y94.817 E5.1278
G1 X83.954 Y94.222 E5.1586
G1 X83.845 Y93.302 E5.2047
G1 X83.82 Y92.1 E5.26453
G1 X83.847 Y91.481 E5.29537
G1 X83.983 Y90.758 E5.33198
G1 X84.247 Y89.773 E5.38273
G1 X84.445 Y89.187 E5.41351
G1 X84.575 Y88.898 E5.42928
G1 X84.846 Y88.347 E5.45984
G1 X85.155 Y87.811 E5.49063
G1 X85.423 Y87.445 E5.5132
G1 X86.092 Y86.619 E5.5661
G0 F2400 X86.402 Y86.871
G1 F1050 X86.805 Y86.436 E5.59561
G1 X87.388 Y85.974 E5.63263
G1 X88.461 Y85.262 E5.69671
G1 X88.976 Y84.969 E5.7262
G1 X89.667 Y84.703 E5.76305
G1 X90.746 Y84.39 E5.81896
G1 X91.325 Y84.264 E5.84845
G1 X91.838 Y84.218 E5.87408
G1 X92.6 Y84.195 E5.91202
G1 X93.193 Y84.217 E5.94155
G1 X93.598 Y84.279 E5.96194
G1 X94.704 Y84.501 E6.01808
G1 X95.276 Y84.657 E6.04758
G1 X95.836 Y84.895 E6.07787
G1 X96.658 Y85.314 E6.12378
G1 X97.167 Y85.618 E6.15329
G1 X97.416 Y85.804 E6.16875
G1 X97.967 Y86.247 E6.20394
G1 X98.579 Y86.846 E6.24655
G1 X99.145 Y87.52 E6.29035
G1 X99.495 Y87.999 E6.31988
G1 X99.701 Y88.362 E6.34065
G1 X100.107 Y89.164 E6.38538
G1 X100.338 Y89.71 E6.41489
G1 X100.496 Y90.291 E6.44485
G1 X100.726 Y91.446 E6.50346
G1 X100.803 Y92.034 E6.53297
G1 X100.793 Y92.701 E6.56617
G1 X100.696 Y93.775 E6.61983
G1 X100.603 Y94.36 E6.64931
G1 X100.449 Y94.882 E6.6764
G1 X100.118 Y95.792 E6.72459
G1 X99.878 Y96.334 E6.75408
G1 X99.555 Y96.858 E6.78472
G1 X98.851 Y97.836 E6.84469
G1 X98.473 Y98.292 E6.87416
G1 X97.954 Y98.759 E6.90891
G1 X97.153 Y99.372 E6.9591
G1 X96.659 Y99.699 E6.98859
G1 X96.319 Y99.874 E7.00762
G1 X95.567 Y100.22 E7.04881
G1 X95.013 Y100.431 E7.07831
G1 X94.606 Y100.535 E7.09922
G1 X93.712 Y100.717 E7.14462
G1 X93.125 Y100.795 E7.17409
G1 X92.719 Y100.803 E7.1943
G1 X91.883 Y100.781 E7.23592
G1 X91.293 Y100.726 E7.26541
G1 X91.002 Y100.668 E7.28017
G1 X90.246 Y100.492 E7.3188
G1 X89.679 Y100.319 E7.3483
G1 X89.275 Y100.142 E7.37025
G1 X88.286 Y99.647 E7.42529
G1 X87.775 Y99.347 E7.45478
G1 X87.271 Y98.945 E7.48686
G1 X86.498 Y98.231 E7.53923
G1 X86.09 Y97.8 E7.56877
G1 X85.825 Y97.444 E7.59085
G1 X85.4 Y96.808 E7.62892
G1 X85.105 Y96.294 E7.65841
G1 X84.916 Y95.846 E7.68261
G1 X84.5 Y94.683 E7.74408
G1 X84.338 Y94.113 E7.77357
G1 X84.244 Y93.293 E7.81464
G1 X84.219 Y92.091 E7.87447
G1 X84.247 Y91.499 E7.90397
G1 X84.368 Y90.862 E7.93624
G1 X84.632 Y89.877 E7.98698
G1 X84.933 Y89.074 E8.02966
G1 X85.204 Y88.523 E8.06022
G1 X85.501 Y88.01 E8.08972
G1 X85.733 Y87.697 E8.10911
G1 X86.402 Y86.871 E8.16201
G0 F2400 X86.712 Y87.122
G1 F1050 X87.098 Y86.709 E8.19014
G1 X87.608 Y86.307 E8.22246
G1 X88.681 Y85.595 E8.28654
G1 X89.173 Y85.316 E8.31469
G1 X89.778 Y85.086 E8.3469
G1 X90.857 Y84.773 E8.40281
G1 X91.41 Y84.655 E8.43095
G1 X91.85 Y84.617 E8.45293
G1 X92.612 Y84.594 E8.49087
G1 X93.177 Y84.617 E8.51901
G1 X93.52 Y84.67 E8.53628
G1 X94.626 Y84.892 E8.59242
G1 X95.171 Y85.042 E8.62055
G1 X95.655 Y85.25 E8.64676
G1 X96.477 Y85.669 E8.69268
G1 X97.166 Y86.115 E8.73352
G1 X97.717 Y86.558 E8.76871
G1 X98.274 Y87.103 E8.80749
G1 X98.84 Y87.777 E8.85129
G1 X99.172 Y88.234 E8.8794
G1 X99.345 Y88.542 E8.89698
G1 X99.751 Y89.344 E8.94172
G1 X99.97 Y89.865 E8.96984
G1 X100.105 Y90.369 E8.99581
G1 X100.335 Y91.524 E9.05441
G1 X100.406 Y92.085 E9.08256
G1 X100.396 Y92.665 E9.11142
G1 X100.299 Y93.739 E9.16509
G1 X100.208 Y94.297 E9.19323
G1 X100.074 Y94.746 E9.21654
G1 X99.743 Y95.656 E9.26473
G1 X99.513 Y96.172 E9.29285
G1 X99.231 Y96.625 E9.3194
G1 X98.527 Y97.603 E9.37937
G1 X98.165 Y98.037 E9.4075
G1 X97.712 Y98.442 E9.43774
G1 X96.911 Y99.055 E9.48793
G1 X96.439 Y99.366 E9.51606
G1 X96.152 Y99.512 E9.53209
G1 X95.4 Y99.858 E9.57328
G1 X94.871 Y100.057 E9.60141
G1 X94.527 Y100.144 E9.61907
G1 X93.633 Y100.326 E9.66447
G1 X93.072 Y100.399 E9.69262
G1 X92.73 Y100.405 E9.70965
G1 X91.894 Y100.383 E9.75126
G1 X91.092 Y100.28 E9.7915
G1 X90.336 Y100.104 E9.83013
G1 X89.796 Y99.937 E9.85826
G1 X89.454 Y99.785 E9.87689
G1 X88.465 Y99.29 E9.93193
G1 X87.978 Y99.002 E9.96008
G1 X87.541 Y98.652 E9.98795
G1 X86.768 Y97.938 E10.04031
G1 X86.381 Y97.526 E10.06844
G1 X86.157 Y97.222 E10.08724
G1 X85.732 Y96.586 E10.1253
G1 X85.452 Y96.095 E10.15343
G1 X85.292 Y95.712 E10.17409
G1 X84.876 Y94.549 E10.23556
G1 X84.723 Y94.004 E10.26373
G1 X84.643 Y93.285 E10.29973
G1 X84.618 Y92.083 E10.35956
G1 X84.646 Y91.519 E10.38766
G1 X84.753 Y90.965 E10.41574
G1 X85.017 Y89.98 E10.46649
G1 X85.291 Y89.251 E10.50525
G1 X85.562 Y88.7 E10.53581
G1 X85.847 Y88.211 E10.56397
G1 X86.043 Y87.948 E10.5803
G1 X86.712 Y87.122 E10.63319
G0 F2400 X87.022 Y87.373
G1 F1050 X87.39 Y86.982 E10.65992
G1 X87.829 Y86.639 E10.68764
G1 X88.902 Y85.927 E10.75172
G1 X89.37 Y85.665 E10.77842
G1 X89.889 Y85.469 E10.80603
G1 X90.968 Y85.156 E10.86194
G1 X91.493 Y85.046 E10.88863
G1 X91.862 Y85.016 E10.90705
G1 X92.624 Y84.993 E10.94499
G1 X93.16 Y85.016 E10.97169
G1 X93.441 Y85.061 E10.98585
G1 X94.547 Y85.283 E11.04199
G1 X95.064 Y85.428 E11.06871
G1 X95.473 Y85.606 E11.09091
G1 X96.295 Y86.025 E11.13683
G1 X96.916 Y86.426 E11.17361
G1 X97.467 Y86.869 E11.2088
G1 X97.968 Y87.36 E11.24371
G1 X98.534 Y88.034 E11.28751
G1 X98.847 Y88.469 E11.31418
G1 X98.989 Y88.722 E11.32862
G1 X99.395 Y89.524 E11.37335
G1 X99.601 Y90.02 E11.40008
G1 X99.714 Y90.447 E11.42206
G1 X99.944 Y91.602 E11.48067
G1 X100.009 Y92.134 E11.50734
G1 X99.998 Y92.629 E11.53198
G1 X99.901 Y93.703 E11.58565
G1 X99.814 Y94.232 E11.61233
G1 X99.699 Y94.609 E11.63194
G1 X99.368 Y95.519 E11.68013
G1 X99.148 Y96.008 E11.70681
G1 X98.907 Y96.392 E11.72938
G1 X98.203 Y97.37 E11.78935
G1 X97.858 Y97.78 E11.81601
G1 X97.469 Y98.125 E11.84189
G1 X96.668 Y98.738 E11.89208
G1 X95.985 Y99.15 E11.93178
G1 X95.233 Y99.496 E11.97297
G1 X94.731 Y99.683 E11.99963
G1 X94.447 Y99.753 E12.01419
G1 X93.553 Y99.935 E12.05959
G1 X93.021 Y100.002 E12.08628
G1 X92.74 Y100.006 E12.10026
G1 X91.904 Y99.984 E12.14188
G1 X91.183 Y99.891 E12.17806
G1 X90.427 Y99.715 E12.21669
G1 X89.915 Y99.555 E12.24338
G1 X89.632 Y99.428 E12.25882
G1 X88.643 Y98.933 E12.31386
G1 X88.183 Y98.658 E12.34053
G1 X87.812 Y98.359 E12.36424
G1 X87.039 Y97.645 E12.41661
G1 X86.673 Y97.253 E12.4433
G1 X86.489 Y97.001 E12.45883
G1 X86.064 Y96.365 E12.49689
G1 X85.8 Y95.898 E12.52359
G1 X85.667 Y95.577 E12.54088
G1 X85.251 Y94.414 E12.60235
G1 X85.109 Y93.897 E12.62903
G1 X85.042 Y93.277 E12.66007
G1 X85.017 Y92.075 E12.7199
G1 X85.046 Y91.539 E12.74661
G1 X85.139 Y91.068 E12.7705
G1 X85.403 Y90.083 E12.82125
G1 X85.649 Y89.427 E12.85612
G1 X85.92 Y88.876 E12.88668
G1 X86.353 Y88.199 E12.92667
G1 X87.022 Y87.373 E12.97957
G0 F2400 X87.332 Y87.624
G1 F1050 X87.681 Y87.257 E13.00477
G1 X88.05 Y86.972 E13.02797
G1 X89.123 Y86.26 E13.09206
G1 X89.565 Y86.014 E13.11723
G1 X90 Y85.853 E13.14031
G1 X91.079 Y85.54 E13.19623
G1 X91.575 Y85.438 E13.22143
G1 X91.874 Y85.414 E13.23635
G1 X92.636 Y85.391 E13.27429
G1 X93.363 Y85.453 E13.3106
G1 X94.469 Y85.675 E13.36674
G1 X94.955 Y85.813 E13.39188
G1 X95.292 Y85.961 E13.4102
G1 X96.114 Y86.38 E13.45612
G1 X96.666 Y86.737 E13.48883
G1 X97.217 Y87.18 E13.52401
G1 X97.663 Y87.616 E13.55505
G1 X98.229 Y88.29 E13.59885
G1 X98.633 Y88.903 E13.63539
G1 X99.039 Y89.705 E13.68012
G1 X99.231 Y90.172 E13.70525
G1 X99.322 Y90.525 E13.72339
G1 X99.552 Y91.68 E13.782
G1 X99.612 Y92.182 E13.80716
G1 X99.601 Y92.593 E13.82762
G1 X99.504 Y93.667 E13.88129
G1 X99.419 Y94.165 E13.90643
G1 X99.324 Y94.473 E13.92247
G1 X98.993 Y95.383 E13.97066
G1 X98.783 Y95.843 E13.99582
G1 X98.583 Y96.158 E14.01439
G1 X97.879 Y97.136 E14.07436
G1 X97.552 Y97.522 E14.09954
G1 X97.227 Y97.808 E14.12108
G1 X96.426 Y98.421 E14.17128
G1 X95.819 Y98.787 E14.20655
G1 X95.067 Y99.133 E14.24775
G1 X94.367 Y99.362 E14.2844
G1 X93.473 Y99.544 E14.3298
G1 X92.751 Y99.607 E14.36587
G1 X91.915 Y99.585 E14.40749
G1 X91.273 Y99.503 E14.4397
G1 X90.517 Y99.327 E14.47833
G1 X89.811 Y99.072 E14.51568
G1 X88.822 Y98.577 E14.57072
G1 X88.389 Y98.315 E14.59591
G1 X88.083 Y98.066 E14.61554
G1 X87.31 Y97.352 E14.66791
G1 X86.82 Y96.779 E14.70543
G1 X86.395 Y96.143 E14.7435
G1 X86.149 Y95.702 E14.76863
G1 X86.043 Y95.443 E14.78255
G1 X85.627 Y94.28 E14.84402
G1 X85.495 Y93.792 E14.86918
G1 X85.441 Y93.269 E14.89534
G1 X85.416 Y92.067 E14.95518
G1 X85.445 Y91.562 E14.98035
G1 X85.524 Y91.172 E15.00015
G1 X85.788 Y90.187 E15.0509
G1 X86.008 Y89.603 E15.08196
G1 X86.279 Y89.052 E15.11252
G1 X86.663 Y88.45 E15.14805
G1 X87.332 Y87.624 E15.20095
G1 F1500 E14.20095
G0 F2400 X89.125 Y89.382
G0 X90.094 Y90.219
G0 X90.365 Y90.486
;TYPE:WALL-INNER
G1 F1500 E15.20095
G1 F1050 X90.473 Y90.376 E15.20862
G1 X90.68 Y90.196 E15.22227
G1 X90.897 Y90.041 E15.23554
G1 X91.14 Y89.899 E15.24955
G1 X91.389 Y89.783 E15.26322
G1 X91.66 Y89.687 E15.27753
G1 X91.929 Y89.619 E15.29133
G1 X92.186 Y89.58 E15.30427
G1 X92.461 Y89.564 E15.31798
G1 X92.76 Y89.576 E15.33287
G1 X93.016 Y89.61 E15.34572
G1 X93.316 Y89.679 E15.36104
G1 X93.424 Y89.712 E15.36666
G1 X93.682 Y89.811 E15.38041
G1 X93.94 Y89.941 E15.39479
G1 X94.165 Y90.082 E15.40801
G1 X94.388 Y90.252 E15.42196
G1 X94.596 Y90.444 E15.43605
G1 X94.841 Y90.726 E15.45464
G1 X95.024 Y90.999 E15.47099
G1 X95.152 Y91.238 E15.48449
G1 X95.2 Y91.345 E15.49032
G1 X95.301 Y91.617 E15.50476
G1 X95.373 Y91.892 E15.51891
G1 X95.419 Y92.178 E15.53332
G1 X95.436 Y92.435 E15.54614
G1 X95.427 Y92.718 E15.56023
G1 X95.395 Y92.994 E15.57406
G1 X95.335 Y93.27 E15.58812
G1 X95.3 Y93.388 E15.59424
G1 X95.199 Y93.657 E15.60854
G1 X95.086 Y93.89 E15.62143
G1 X94.925 Y94.155 E15.63686
G1 X94.859 Y94.249 E15.64257
G1 X94.675 Y94.472 E15.65696
G1 X94.588 Y94.565 E15.6633
G1 X94.385 Y94.751 E15.677
G1 X94.144 Y94.933 E15.69203
G1 X93.938 Y95.061 E15.7041
G1 X93.662 Y95.197 E15.71941
G1 X93.416 Y95.29 E15.7325
G1 X93.277 Y95.332 E15.73973
G1 X93.025 Y95.388 E15.75257
G1 X92.709 Y95.429 E15.76843
G1 X92.618 Y95.435 E15.77297
G1 X92.326 Y95.429 E15.7875
G1 X92.044 Y95.399 E15.80162
G1 X91.765 Y95.341 E15.8158
G1 X91.503 Y95.261 E15.82943
G1 X91.253 Y95.158 E15.84289
G1 X91.005 Y95.026 E15.85687
G1 X90.893 Y94.956 E15.86344
G1 X90.659 Y94.787 E15.87781
G1 X90.464 Y94.615 E15.89075
G1 X90.364 Y94.513 E15.89786
G1 X90.174 Y94.291 E15.9124
G1 X90.016 Y94.064 E15.92616
G1 X89.88 Y93.824 E15.93989
G1 X89.77 Y93.578 E15.9533
G1 X89.681 Y93.318 E15.96698
G1 X89.613 Y93.033 E15.98156
G1 X89.575 Y92.76 E15.99527
G1 X89.568 Y92.645 E16.00101
G1 X89.569 Y92.35 E16.01569
G1 X89.595 Y92.084 E16.02899
G1 X89.65 Y91.802 E16.04329
G1 X89.725 Y91.543 E16.05671
G1 X89.834 Y91.271 E16.07129
G1 X89.888 Y91.158 E16.07752
G1 X90.028 Y90.917 E16.09139
G1 X90.184 Y90.695 E16.10489
G1 X90.365 Y90.486 E16.11865
G0 F2400 X90.08 Y90.206
G1 F1050 X90.195 Y90.089 E16.12682
G1 X90.434 Y89.881 E16.14259
G1 X90.676 Y89.708 E16.15739
G1 X90.956 Y89.544 E16.17354
G1 X91.239 Y89.413 E16.18906
G1 X91.542 Y89.305 E16.20507
G1 X91.846 Y89.229 E16.22066
G1 X92.146 Y89.183 E16.23576
G1 X92.464 Y89.165 E16.25161
G1 X92.795 Y89.178 E16.2681
G1 X93.086 Y89.216 E16.2827
G1 X93.418 Y89.293 E16.29967
G1 X93.55 Y89.333 E16.30653
G1 X93.848 Y89.448 E16.32243
G1 X94.133 Y89.591 E16.33829
G1 X94.391 Y89.753 E16.35345
G1 X94.647 Y89.948 E16.36947
G1 X94.879 Y90.162 E16.38518
G1 X95.106 Y90.417 E16.40217
G1 X95.173 Y90.504 E16.40763
G1 X95.362 Y90.787 E16.42457
G1 X95.51 Y91.062 E16.44011
G1 X95.569 Y91.192 E16.44721
G1 X95.683 Y91.501 E16.4636
G1 X95.764 Y91.811 E16.47955
G1 X95.816 Y92.129 E16.49558
G1 X95.835 Y92.433 E16.51074
G1 X95.826 Y92.743 E16.52618
G1 X95.788 Y93.064 E16.54226
G1 X95.721 Y93.371 E16.5579
G1 X95.68 Y93.51 E16.56511
G1 X95.567 Y93.813 E16.58121
G1 X95.435 Y94.086 E16.5963
G1 X95.261 Y94.371 E16.61291
