;FLAVOR:Marlin
;TIME:16698
;Filament used: 13.6502m
;Layer height: 0.15
;Generated with Cura_SteamEngine 2.7.0
M190 S60
M104 S220
M109 S220
G21 ;metric values
G90 ;absolute positioning
M82 ;set extruder to absolute mode
M107 ;start with the fan off
G92 E0 ;zero the extruded length
G1 F200 E3 ;extrude 3mm of feed stock
G92 E0 ;zero the extruded length again
G1 F9000
M301 P31.36 I3.30 D74.51 ;set PID tuning for E0
M304 P72.25 I2.72 D479.41 ; set PID tuning for heated bed
M117 Printing...
;LAYER_COUNT:39
;LAYER:0
M107
M205 X20 Y20
G0 F2400 X97.802 Y41.892 Z0.3
;TYPE:SKIRT
G1 F1050 X98.267 Y41.483 E0.03082
G1 X98.781 Y41.138 E0.06163
G1 X99.335 Y40.862 E0.09243
G1 X99.755 Y40.708 E0.11469
G1 X102.494 Y39.847 E0.25757
G1 X107.61 Y37.996 E0.52833
G1 X112.538 Y35.89 E0.79503
G1 X117.389 Y33.485 E1.06448
G1 X122.048 Y30.836 E1.33119
G1 X126.582 Y27.908 E1.59979
G1 X130.925 Y24.74 E1.86731
G1 X135.133 Y21.291 E2.13808
G1 X137.591 Y19.086 E2.30241
G1 X138.077 Y18.703 E2.3332
G1 X138.609 Y18.386 E2.36402
G1 X139.177 Y18.14 E2.39483
G1 X139.772 Y17.969 E2.42564
G1 X140.385 Y17.877 E2.45648
G1 X140.794 Y17.859 E2.47686
G1 X143.608 Y17.859 E2.6169
G1 X144.226 Y17.899 E2.64772
G1 X144.833 Y18.018 E2.6785
G1 X145.42 Y18.215 E2.70931
G1 X145.977 Y18.485 E2.74012
G1 X146.495 Y18.825 E2.77095
G1 X146.999 Y19.263 E2.80418
G1 X168.195 Y40.453 E4.29572
G1 X168.603 Y40.918 E4.32651
G1 X168.949 Y41.432 E4.35735
G1 X169.225 Y41.986 E4.38815
G1 X169.351 Y42.321 E4.40596
G1 X171.486 Y48.692 E4.74034
G1 X171.645 Y49.291 E4.77119
G1 X171.725 Y49.904 E4.80195
G1 X171.725 Y50.524 E4.83281
G1 X171.646 Y51.138 E4.86361
G1 X171.488 Y51.736 E4.89439
G1 X171.254 Y52.309 E4.9252
G1 X170.948 Y52.848 E4.95604
G1 X170.576 Y53.342 E4.98682
G1 X170.33 Y53.607 E5.00481
G1 X138.514 Y85.427 E7.24413
G1 X137.919 Y85.932 E7.28297
G1 X132.163 Y90.063 E7.63555
G1 X127.993 Y93.478 E7.90379
G1 X124.003 Y97.141 E8.17334
G1 X55.38 Y165.735 E13.00194
G1 X54.914 Y166.144 E13.03279
G1 X54.4 Y166.489 E13.0636
G1 X53.846 Y166.765 E13.0944
G1 X53.261 Y166.967 E13.1252
G1 X52.655 Y167.093 E13.156
G1 X52.038 Y167.139 E13.18679
G1 X51.419 Y167.105 E13.21764
G1 X50.811 Y166.992 E13.24842
G1 X50.222 Y166.801 E13.27923
G1 X49.613 Y166.509 E13.31285
G1 X46.69 Y164.842 E13.4803
G1 X40.333 Y161.647 E13.83437
G1 X39.799 Y161.334 E13.86518
G1 X39.143 Y160.8 E13.90727
G1 X38.556 Y160.229 E13.94802
G1 X38.267 Y159.923 E13.96897
G1 X32.923 Y153.724 E14.37628
G1 X29.177 Y149.877 E14.64349
G1 X25.194 Y146.224 E14.91245
G1 X21.567 Y143.205 E15.1473
G1 X21.221 Y142.887 E15.17068
G1 X20.336 Y141.99 E15.23339
G1 X19.93 Y141.523 E15.26419
G1 X19.474 Y140.794 E15.30698
G1 X17.795 Y137.49 E15.49142
G1 X15.105 Y132.748 E15.76273
G1 X13.983 Y130.931 E15.86901
G1 X13.692 Y130.385 E15.8998
G1 X13.475 Y129.805 E15.93061
G1 X13.334 Y129.202 E15.96143
G1 X13.271 Y128.586 E15.99225
G1 X13.289 Y127.968 E16.02302
G1 X13.386 Y127.356 E16.05385
G1 X13.561 Y126.762 E16.08467
G1 X13.811 Y126.196 E16.11546
G1 X14.132 Y125.666 E16.1463
G1 X14.673 Y125.021 E16.18819
G1 X97.802 Y41.892 E22.03873
G0 F2400 X98.084 Y42.174
G1 F1050 X98.53 Y41.784 E22.06821
G1 X99.025 Y41.458 E22.09771
G1 X99.559 Y41.201 E22.1272
G1 X99.875 Y41.088 E22.1439
G1 X102.643 Y40.218 E22.2883
G1 X107.751 Y38.369 E22.55864
G1 X112.716 Y36.248 E22.82733
G1 X117.55 Y33.851 E23.09585
G1 X122.274 Y31.166 E23.36626
G1 X126.796 Y28.245 E23.63416
G1 X131.179 Y25.048 E23.90415
G1 X135.369 Y21.614 E24.17375
G1 X137.857 Y19.382 E24.34009
G1 X138.324 Y19.017 E24.36958
G1 X138.836 Y18.718 E24.39909
G1 X139.383 Y18.49 E24.42858
G1 X139.956 Y18.339 E24.45807
G1 X140.794 Y18.258 E24.49997
G1 X143.608 Y18.258 E24.64001
G1 X144.199 Y18.298 E24.66949
G1 X144.78 Y18.417 E24.699
G1 X145.339 Y18.613 E24.72848
G1 X145.867 Y18.883 E24.75799
G1 X146.354 Y19.221 E24.78749
G1 X146.717 Y19.545 E24.81171
G1 X167.913 Y40.735 E26.30325
G1 X168.303 Y41.182 E26.33277
G1 X168.629 Y41.677 E26.36227
G1 X168.973 Y42.448 E26.40428
G1 X171.108 Y48.819 E26.73867
G1 X171.258 Y49.392 E26.76814
G1 X171.33 Y49.981 E26.79767
G1 X171.321 Y50.573 E26.82714
G1 X171.234 Y51.16 E26.85667
G1 X171.068 Y51.729 E26.88617
G1 X170.827 Y52.27 E26.91564
G1 X170.515 Y52.774 E26.94514
G1 X170.048 Y53.325 E26.98108
G1 X138.232 Y85.145 E29.2204
G1 X137.687 Y85.608 E29.25599
G1 X131.91 Y89.754 E29.60986
G1 X127.734 Y93.174 E29.87848
G1 X123.721 Y96.858 E30.14958
G1 X55.097 Y165.453 E34.97825
G1 X54.651 Y165.843 E35.00774
G1 X54.156 Y166.169 E35.03723
G1 X53.622 Y166.426 E35.06673
G1 X53.058 Y166.608 E35.09622
G1 X52.474 Y166.713 E35.12575
G1 X51.882 Y166.739 E35.15524
G1 X51.292 Y166.684 E35.18473
G1 X50.714 Y166.551 E35.21424
G1 X50.16 Y166.342 E35.24371
G1 X49.81 Y166.162 E35.2633
G1 X46.88 Y164.491 E35.43115
G1 X40.513 Y161.291 E35.78578
G1 X40.002 Y160.99 E35.81529
G1 X39.421 Y160.514 E35.85267
G1 X38.834 Y159.943 E35.89343
G1 X38.57 Y159.662 E35.91261
G1 X33.222 Y153.458 E36.32024
G1 X29.469 Y149.603 E36.58798
G1 X25.447 Y145.915 E36.85955
G1 X21.822 Y142.898 E37.09425
G1 X21.505 Y142.607 E37.11567
G1 X20.62 Y141.71 E37.17838
G1 X20.233 Y141.261 E37.20788
G1 X19.83 Y140.614 E37.24581
G1 X18.146 Y137.299 E37.43085
G1 X15.447 Y132.543 E37.70299
G1 X14.323 Y130.722 E37.80949
G1 X14.046 Y130.198 E37.83898
G1 X13.842 Y129.641 E37.8685
G1 X13.715 Y129.062 E37.898
G1 X13.667 Y128.471 E37.92751
G1 X13.699 Y127.879 E37.95701
G1 X13.811 Y127.297 E37.98651
G1 X13.999 Y126.735 E38.016
G1 X14.262 Y126.204 E38.04549
G1 X14.593 Y125.712 E38.075
G1 X14.955 Y125.303 E38.10218
G1 X98.084 Y42.174 E43.95272
G0 F2400 X98.366 Y42.456
G1 F1050 X98.793 Y42.086 E43.98084
G1 X99.268 Y41.779 E44.00898
G1 X99.994 Y41.469 E44.04827
G1 X102.766 Y40.598 E44.19287
G1 X107.88 Y38.747 E44.46353
G1 X112.892 Y36.605 E44.73477
G1 X117.746 Y34.199 E45.00438
G1 X122.483 Y31.506 E45.27555
G1 X127.026 Y28.571 E45.54472
G1 X131.423 Y25.365 E45.81552
G1 X135.629 Y21.918 E46.08615
G1 X138.124 Y19.679 E46.25298
G1 X138.57 Y19.333 E46.28107
G1 X139.061 Y19.052 E46.30923
G1 X139.586 Y18.844 E46.33733
G1 X140.136 Y18.712 E46.36548
G1 X140.794 Y18.657 E46.39834
G1 X143.608 Y18.657 E46.53838
G1 X144.172 Y18.697 E46.56651
G1 X144.724 Y18.816 E46.59462
G1 X145.254 Y19.012 E46.62274
G1 X145.752 Y19.28 E46.65088
G1 X146.206 Y19.616 E46.67899
G1 X146.435 Y19.828 E46.69452
G1 X167.631 Y41.018 E48.18606
G1 X168.001 Y41.444 E48.21414
G1 X168.308 Y41.919 E48.24229
G1 X168.595 Y42.575 E48.27792
G1 X170.73 Y48.946 E48.61231
G1 X170.871 Y49.493 E48.64042
G1 X170.934 Y50.055 E48.66856
G1 X170.917 Y50.62 E48.69669
G1 X170.82 Y51.176 E48.72478
G1 X170.646 Y51.714 E48.75292
G1 X170.397 Y52.222 E48.78107
G1 X170.08 Y52.689 E48.80916
G1 X169.766 Y53.043 E48.83271
G1 X137.95 Y84.863 E51.07203
G1 X137.454 Y85.284 E51.10441
G1 X131.663 Y89.44 E51.45913
G1 X127.475 Y92.87 E51.72853
G1 X123.451 Y96.564 E52.00037
G1 X54.815 Y165.171 E56.82989
G1 X54.388 Y165.541 E56.858
G1 X53.914 Y165.847 E56.88608
G1 X53.4 Y166.084 E56.91425
G1 X52.859 Y166.245 E56.94234
G1 X52.3 Y166.329 E56.97047
G1 X51.734 Y166.333 E56.99864
G1 X51.174 Y166.257 E57.02676
G1 X50.63 Y166.103 E57.0549
G1 X50.008 Y165.816 E57.08899
G1 X47.056 Y164.132 E57.25812
G1 X40.692 Y160.934 E57.61257
G1 X40.206 Y160.645 E57.64071
G1 X39.699 Y160.228 E57.67337
G1 X39.112 Y159.657 E57.71413
G1 X38.872 Y159.401 E57.73159
G1 X33.527 Y153.201 E58.13897
G1 X29.733 Y149.305 E58.4096
G1 X25.723 Y145.626 E58.68042
G1 X22.077 Y142.592 E58.91647
G1 X21.789 Y142.327 E58.93595
G1 X20.904 Y141.43 E58.99866
G1 X20.536 Y141.001 E59.02678
G1 X20.186 Y140.433 E59.05999
G1 X18.501 Y137.117 E59.24509
G1 X15.794 Y132.345 E59.51812
G1 X14.662 Y130.512 E59.62533
G1 X14.4 Y130.011 E59.65347
G1 X14.211 Y129.479 E59.68157
G1 X14.099 Y128.925 E59.7097
G1 X14.066 Y128.361 E59.73781
G1 X14.114 Y127.797 E59.76598
G1 X14.24 Y127.246 E59.79411
G1 X14.442 Y126.719 E59.8222
G1 X14.717 Y126.225 E59.85033
G1 X15.237 Y125.585 E59.89137
G1 X98.366 Y42.456 E65.74191
G0 F2400 X98.648 Y42.738
G1 F1050 X99.054 Y42.388 E65.76858
G1 X99.508 Y42.103 E65.79526
G1 X100.114 Y41.85 E65.82794
G1 X102.881 Y40.98 E65.97229
G1 X108.031 Y39.116 E66.24485
G1 X113.062 Y36.967 E66.51711
G1 X117.928 Y34.554 E66.7874
G1 X122.683 Y31.851 E67.0596
G1 X127.253 Y28.899 E67.33035
G1 X131.666 Y25.681 E67.60215
G1 X135.891 Y22.219 E67.87398
G1 X138.39 Y19.976 E68.0411
G1 X138.815 Y19.649 E68.06778
G1 X139.284 Y19.388 E68.09449
G1 X139.786 Y19.2 E68.12117
G1 X140.31 Y19.089 E68.14782
G1 X140.794 Y19.056 E68.17197
G1 X143.608 Y19.056 E68.31201
G1 X144.143 Y19.096 E68.33871
G1 X144.666 Y19.215 E68.3654
G1 X145.165 Y19.41 E68.39206
G1 X145.63 Y19.678 E68.41877
G1 X146.153 Y20.11 E68.45253
G1 X167.349 Y41.3 E69.94407
G1 X167.698 Y41.706 E69.97071
G1 X167.984 Y42.16 E69.99742
G1 X168.216 Y42.701 E70.02671
G1 X170.351 Y49.072 E70.3611
G1 X170.484 Y49.592 E70.38781
G1 X170.537 Y50.126 E70.41451
G1 X170.51 Y50.661 E70.44117
G1 X170.405 Y51.187 E70.46786
G1 X170.222 Y51.691 E70.49455
G1 X169.966 Y52.162 E70.52123
G1 X169.484 Y52.761 E70.55949
G1 X137.668 Y84.581 E72.79881
G1 X137.221 Y84.96 E72.82797
G1 X131.426 Y89.119 E73.18295
G1 X127.205 Y92.575 E73.45444
G1 X123.169 Y96.281 E73.72712
G1 X54.533 Y164.888 E78.55663
G1 X54.127 Y165.238 E78.58331
G1 X53.673 Y165.524 E78.61001
G1 X53.182 Y165.739 E78.63669
G1 X52.664 Y165.878 E78.66338
G1 X52.131 Y165.939 E78.69008
G1 X51.595 Y165.92 E78.71677
G1 X51.068 Y165.822 E78.74344
G1 X50.562 Y165.647 E78.77009
G1 X50.206 Y165.469 E78.7899
G1 X47.263 Y163.79 E78.95851
G1 X40.871 Y160.578 E79.31452
G1 X40.411 Y160.302 E79.34122
G1 X39.978 Y159.942 E79.36924
G1 X39.391 Y159.371 E79.40999
G1 X39.174 Y159.141 E79.42573
G1 X33.817 Y152.927 E79.83402
G1 X30.007 Y149.014 E80.10581
G1 X25.977 Y145.318 E80.37794
G1 X22.333 Y142.285 E80.61388
G1 X22.073 Y142.047 E80.63143
G1 X21.188 Y141.15 E80.69413
G1 X20.841 Y140.741 E80.72083
G1 X20.541 Y140.252 E80.74938
G1 X18.847 Y136.918 E80.93548
G1 X16.136 Y132.14 E81.20887
G1 X15.002 Y130.303 E81.31631
G1 X14.755 Y129.827 E81.34299
G1 X14.581 Y129.319 E81.36972
G1 X14.485 Y128.792 E81.39638
G1 X14.468 Y128.256 E81.42306
G1 X14.532 Y127.723 E81.44978
G1 X14.673 Y127.206 E81.47645
G1 X14.89 Y126.716 E81.50312
G1 X15.177 Y126.263 E81.5298
G1 X15.519 Y125.867 E81.55584
G1 X98.648 Y42.738 E87.40638
G0 F2400 X98.93 Y43.02
G1 F1050 X99.315 Y42.692 E87.43155
G1 X99.746 Y42.429 E87.45668
G1 X100.234 Y42.23 E87.4829
G1 X103.018 Y41.355 E87.62813
G1 X108.182 Y39.486 E87.90144
G1 X113.218 Y37.334 E88.17398
G1 X118.132 Y34.898 E88.44693
G1 X122.885 Y32.196 E88.71901
G1 X127.483 Y29.226 E88.99142
G1 X131.909 Y25.997 E89.26407
G1 X136.151 Y22.522 E89.53696
G1 X138.657 Y20.273 E89.70453
G1 X139.059 Y19.966 E89.7297
G1 X139.504 Y19.727 E89.75484
G1 X139.981 Y19.56 E89.77999
G1 X140.479 Y19.471 E89.80517
G1 X140.794 Y19.455 E89.82086
G1 X143.608 Y19.455 E89.9609
G1 X144.112 Y19.495 E89.98606
G1 X144.603 Y19.614 E90.01121
G1 X145.07 Y19.808 E90.03637
G1 X145.5 Y20.074 E90.06154
G1 X145.87 Y20.392 E90.08582
G1 X167.066 Y41.582 E91.57736
G1 X167.395 Y41.967 E91.60256
G1 X167.658 Y42.398 E91.62769
G1 X167.838 Y42.828 E91.65089
G1 X169.973 Y49.199 E91.98527
G1 X170.095 Y49.69 E92.01045
G1 X170.139 Y50.193 E92.03558
G1 X170.103 Y50.698 E92.06077
G1 X169.987 Y51.19 E92.08593
G1 X169.796 Y51.658 E92.11108
G1 X169.533 Y52.09 E92.13625
G1 X169.202 Y52.479 E92.16167
G1 X137.386 Y84.299 E94.40099
G1 X136.989 Y84.636 E94.4269
G1 X131.172 Y88.81 E94.78321
G1 X126.946 Y92.271 E95.05504
G1 X122.899 Y95.987 E95.32847
G1 X54.251 Y164.606 E100.15883
G1 X53.867 Y164.934 E100.18396
G1 X53.435 Y165.198 E100.20915
G1 X52.967 Y165.39 E100.23433
G1 X52.475 Y165.506 E100.25948
G1 X51.971 Y165.543 E100.28463
G1 X51.467 Y165.5 E100.30981
G1 X50.977 Y165.379 E100.33492
G1 X50.404 Y165.123 E100.36616
G1 X47.439 Y163.432 E100.53602
G1 X41.05 Y160.221 E100.89187
G1 X40.618 Y159.959 E100.91701
G1 X40.256 Y159.656 E100.94051
G1 X39.669 Y159.085 E100.98126
G1 X39.476 Y158.88 E100.99527
G1 X34.108 Y152.653 E101.40441
G1 X30.29 Y148.731 E101.6768
G1 X26.242 Y145.019 E101.95013
G1 X22.588 Y141.978 E102.18671
G1 X22.357 Y141.766 E102.20231
G1 X21.472 Y140.869 E102.26502
G1 X21.147 Y140.483 E102.29013
G1 X20.897 Y140.072 E102.31407
G1 X19.197 Y136.727 E102.5008
G1 X16.483 Y131.942 E102.77457
G1 X15.341 Y130.093 E102.88272
G1 X15.11 Y129.643 E102.90789
G1 X14.953 Y129.163 E102.93302
G1 X14.874 Y128.663 E102.95822
G1 X14.874 Y128.158 E102.98335
G1 X14.954 Y127.658 E103.00855
G1 X15.111 Y127.178 E103.03368
G1 X15.343 Y126.728 E103.05888
G1 X15.801 Y126.149 E103.09561
G1 X98.93 Y43.02 E108.94615
G1 F1500 E107.94615
G0 F2400 X17.471 Y128.058
G0 X17.471 Y128.77
G0 X25.345 Y136.981
;TYPE:SUPPORT
G1 F1500 E108.94615
G1 F1050 X26.453 Y138.089 E109.02413
G1 X25.049 Y139.493 E109.12294
G1 X24.888 Y139.493 E109.13096
G1 X23.94 Y138.545 E109.19768
G1 X23.94 Y138.386 E109.20559
G1 X25.345 Y136.981 E109.30447
G0 F2400 X25.327 Y137.226
G1 F1050 X25.327 Y138.989 E109.39221
G0 F2400 X25.682 Y138.632
G1 F1050 X24.253 Y138.632 E109.46332
G0 F2400 X25.254 Y137.299
G1 F1050 X25.435 Y137.299 E109.47233
G0 F2400 X41.618 Y156.062
G1 F1050 X43.022 Y154.658 E109.57114
G1 X44.133 Y155.769 E109.64933
G1 X42.727 Y157.171 E109.74814
G1 X42.563 Y157.171 E109.75631
G1 X41.618 Y156.226 E109.82281
G1 X41.618 Y156.062 E109.83098
G0 F2400 X41.945 Y155.961
G1 F1050 X43.712 Y155.961 E109.91891
G0 F2400 X42.656 Y155.251
G1 F1050 X42.656 Y157.016 E110.00675
G1 F1500 E109.00675
G0 F2400 X44.186 Y155.49
G0 X45.091 Y154.584
G0 X51.99 Y160.947
;TYPE:WALL-INNER
G1 F1500 E110.00675
G1 F1050 X19.457 Y128.414 E112.29639
G1 X101.491 Y46.38 E118.06986
G1 X114.926 Y49.917 E118.76124
G1 X141.201 Y23.641 E120.61048
G1 X143.205 Y23.641 E120.71021
G1 X163.958 Y44.394 E122.17079
G1 X165.811 Y49.954 E122.46245
G1 X134.72 Y81.046 E124.65064
G1 X131.891 Y81.046 E124.79142
G1 X51.99 Y160.947 E130.41478
G0 F2400 X62.335 Y141.403
G1 F1050 X62.8 Y141.645 E130.44086
G1 X63.305 Y141.783 E130.46692
G1 X63.819 Y141.814 E130.49254
G1 X64.336 Y141.74 E130.51853
G1 X64.832 Y141.555 E130.54488
G1 X65.271 Y141.273 E130.57085
G1 X65.645 Y140.906 E130.59692
G1 X65.932 Y140.47 E130.6229
G1 X66.124 Y139.985 E130.64886
G1 X66.208 Y139.472 E130.67473
G1 X66.188 Y138.949 E130.70077
G1 X66.056 Y138.442 E130.72685
G1 X65.823 Y137.972 E130.75295
G1 X65.497 Y137.564 E130.77894
G1 X65.092 Y137.231 E130.80504
G1 X64.627 Y136.99 E130.8311
G1 X64.126 Y136.852 E130.85696
G1 X63.608 Y136.82 E130.88279
G1 X63.09 Y136.894 E130.90883
G1 X62.596 Y137.08 E130.9351
G1 X62.157 Y137.361 E130.96104
G1 X61.785 Y137.726 E130.98697
G1 X61.495 Y138.164 E131.01311
G1 X61.304 Y138.652 E131.03919
G1 X61.22 Y139.161 E131.06487
G1 X61.239 Y139.686 E131.09101
G1 X61.374 Y140.196 E131.11727
G1 X61.606 Y140.662 E131.14317
G1 X61.931 Y141.07 E131.16913
G1 X62.335 Y141.403 E131.19518
G0 F2400 X49.717 Y125.715
G1 F1050 X50.086 Y125.35 E131.22101
G1 X50.376 Y124.915 E131.24703
G1 X50.567 Y124.426 E131.27316
G1 X50.651 Y123.917 E131.29883
G1 X50.632 Y123.394 E131.32488
G1 X50.5 Y122.884 E131.35109
G1 X50.266 Y122.415 E131.37718
G1 X49.938 Y122.006 E131.40327
G1 X49.535 Y121.675 E131.42922
G1 X49.072 Y121.436 E131.45515
G1 X48.569 Y121.295 E131.48115
G1 X48.052 Y121.264 E131.50692
G1 X47.534 Y121.338 E131.53296
G1 X47.04 Y121.523 E131.55921
G1 X46.6 Y121.805 E131.58522
G1 X46.229 Y122.171 E131.61116
G1 X45.939 Y122.607 E131.63722
G1 X45.748 Y123.096 E131.66334
G1 X45.664 Y123.604 E131.68897
G1 X45.683 Y124.128 E131.71506
G1 X45.817 Y124.641 E131.74145
G1 X46.051 Y125.107 E131.7674
G1 X46.375 Y125.515 E131.79332
G1 X46.78 Y125.847 E131.81939
G1 X47.243 Y126.086 E131.84532
G1 X47.746 Y126.227 E131.87131
G1 X48.263 Y126.258 E131.89709
G1 X48.78 Y126.184 E131.92308
G1 X49.276 Y125.999 E131.94942
G1 X49.717 Y125.715 E131.97553
G0 F2400 X97.337 Y63.975
G1 F1050 X97.802 Y64.217 E132.00162
G1 X98.307 Y64.355 E132.02767
G1 X98.821 Y64.386 E132.05329
G1 X99.338 Y64.312 E132.07928
G1 X99.834 Y64.127 E132.10563
G1 X100.275 Y63.843 E132.13173
G1 X100.645 Y63.478 E132.1576
G1 X100.933 Y63.044 E132.18352
G1 X101.126 Y62.556 E132.20964
G1 X101.21 Y62.044 E132.23546
