;FLAVOR:Marlin
;TIME:5574
;Filament used: 4.42852m
;Layer height: 0.15
;Generated with Cura_SteamEngine 2.7.0
M190 S60
M104 S220
M109 S220
G21 ;metric values
G90 ;absolute positioning
M82 ;set extruder to absolute mode
M107 ;start with the fan off
G92 E0 ;zero the extruded length
G1 F200 E3 ;extrude 3mm of feed stock
G92 E0 ;zero the extruded length again
G1 F9000
M301 P31.36 I3.30 D74.51 ;set PID tuning for E0
M304 P72.25 I2.72 D479.41 ; set PID tuning for heated bed
M117 Printing...
;LAYER_COUNT:39
;LAYER:0
M107
M205 X20 Y20
G0 F2400 X48.051 Y59.858 Z0.3
;TYPE:SKIRT
G1 F1050 X48.553 Y59.496 E0.0308
G1 X49.098 Y59.202 E0.06162
G1 X49.676 Y58.98 E0.09243
G1 X50.278 Y58.835 E0.12325
G1 X50.874 Y58.769 E0.15309
G1 X56.226 Y58.516 E0.41973
G1 X62.608 Y57.828 E0.73917
G1 X63.122 Y57.8 E0.76479
G1 X64.882 Y57.8 E0.85238
G1 X65.377 Y57.826 E0.87705
G1 X71.952 Y58.509 E1.20601
G1 X77.377 Y58.739 E1.47623
G1 X84.281 Y58.749 E1.81982
G1 X89.721 Y58.595 E2.09065
G1 X95.182 Y58.131 E2.3634
G1 X98.065 Y57.818 E2.50771
G1 X98.619 Y57.79 E2.53532
G1 X99.919 Y57.8 E2.60002
G1 X100.381 Y57.826 E2.62304
G1 X107.175 Y58.537 E2.963
G1 X112.21 Y58.764 E3.21382
G1 X112.826 Y58.832 E3.24466
G1 X113.427 Y58.978 E3.27544
G1 X114.005 Y59.201 E3.30627
G1 X114.549 Y59.496 E3.33707
G1 X115.051 Y59.859 E3.3679
G1 X115.501 Y60.284 E3.3987
G1 X115.893 Y60.763 E3.4295
G1 X116.283 Y61.408 E3.46702
G1 X117.933 Y64.703 E3.6504
G1 X120.566 Y69.41 E3.91881
G1 X123.457 Y73.951 E4.1867
G1 X126.611 Y78.338 E4.45559
G1 X129.984 Y82.51 E4.72258
G1 X133.628 Y86.529 E4.99256
G1 X135.459 Y88.385 E5.12231
G1 X139.434 Y92.084 E5.39253
G1 X143.586 Y95.532 E5.66111
G1 X147.925 Y98.737 E5.92956
G1 X151.658 Y101.218 E6.15262
G1 X152.15 Y101.593 E6.18341
G1 X152.547 Y101.981 E6.21104
G1 X155.724 Y105.466 E6.44572
G1 X156.111 Y105.949 E6.47652
G1 X156.432 Y106.479 E6.50736
G1 X156.682 Y107.045 E6.53815
G1 X156.858 Y107.639 E6.56898
G1 X156.955 Y108.25 E6.59977
G1 X156.976 Y108.665 E6.62045
G1 X156.986 Y110.171 E6.69539
G1 X156.95 Y110.789 E6.7262
G1 X156.77 Y111.628 E6.76891
G1 X154.819 Y117.9 E7.09579
G1 X153.646 Y122.605 E7.3371
G1 X153.457 Y123.195 E7.36793
G1 X153.195 Y123.755 E7.3987
G1 X152.862 Y124.278 E7.42956
G1 X152.465 Y124.753 E7.46036
G1 X152.01 Y125.172 E7.49114
G1 X151.505 Y125.53 E7.52195
G1 X150.958 Y125.82 E7.55276
G1 X150.378 Y126.036 E7.58356
G1 X149.775 Y126.177 E7.61438
G1 X148.992 Y126.241 E7.65348
G1 X144.609 Y126.241 E7.8716
G1 X143.991 Y126.201 E7.90242
G1 X143.384 Y126.082 E7.9332
G1 X142.797 Y125.885 E7.96401
G1 X142.298 Y125.647 E7.99153
G1 X135.814 Y122.081 E8.35979
G1 X130.957 Y119.806 E8.6267
G1 X125.905 Y117.779 E8.8976
G1 X123.45 Y116.917 E9.02708
G1 X118.271 Y115.334 E9.29659
G1 X112.983 Y114.04 E9.56751
G1 X110.382 Y113.519 E9.69952
G1 X107.791 Y113.078 E9.83032
G1 X102.39 Y112.39 E10.10128
G1 X97.039 Y112.013 E10.36823
G1 X91.643 Y111.94 E10.63679
G1 X86.254 Y112.171 E10.90522
G1 X80.914 Y112.704 E11.17229
G1 X75.554 Y113.547 E11.44231
G1 X72.953 Y114.07 E11.57434
G1 X70.353 Y114.67 E11.70713
G1 X65.144 Y116.107 E11.97605
G1 X60.004 Y117.843 E12.24604
G1 X57.563 Y118.783 E12.37621
G1 X52.584 Y120.952 E12.64648
G1 X47.753 Y123.388 E12.91573
G1 X43.855 Y125.611 E13.13905
G1 X43.299 Y125.883 E13.16985
G1 X42.712 Y126.08 E13.20067
G1 X42.105 Y126.2 E13.23146
G1 X41.48 Y126.241 E13.26263
G1 X36.524 Y126.241 E13.50927
G1 X35.906 Y126.201 E13.54009
G1 X35.299 Y126.082 E13.57087
G1 X34.712 Y125.885 E13.60168
G1 X34.155 Y125.615 E13.63249
G1 X33.637 Y125.275 E13.66332
G1 X33.135 Y124.839 E13.69641
G1 X29.621 Y121.33 E13.94355
G1 X29.212 Y120.865 E13.97437
G1 X28.867 Y120.351 E14.00517
G1 X28.59 Y119.797 E14.036
G1 X28.387 Y119.213 E14.06677
G1 X28.261 Y118.606 E14.09762
G1 X28.214 Y117.935 E14.13109
G1 X28.215 Y112.968 E14.37828
G1 X28.255 Y112.35 E14.4091
G1 X28.374 Y111.743 E14.43988
G1 X28.571 Y111.156 E14.47069
G1 X28.842 Y110.599 E14.50152
G1 X29.047 Y110.27 E14.52081
G1 X31.073 Y107.294 E14.69997
G1 X33.908 Y102.688 E14.96913
G1 X36.47 Y97.945 E15.23741
G1 X38.772 Y93.038 E15.50714
G1 X39.77 Y90.655 E15.63571
G1 X41.661 Y85.534 E15.90738
G1 X43.236 Y80.391 E16.17506
G1 X44.538 Y75.088 E16.4468
G1 X45.044 Y72.558 E16.5752
G1 X45.888 Y67.184 E16.84592
G1 X46.331 Y63.049 E17.05288
G1 X46.437 Y62.439 E17.08369
G1 X46.62 Y61.848 E17.11448
G1 X46.878 Y61.285 E17.1453
G1 X47.206 Y60.76 E17.17611
G1 X47.599 Y60.282 E17.2069
G1 X48.051 Y59.858 E17.23774
G0 F2400 X48.423 Y60.072
G1 F1050 X48.916 Y59.744 E17.26721
G1 X49.45 Y59.484 E17.29677
G1 X50.013 Y59.3 E17.32624
G1 X50.596 Y59.192 E17.35575
G1 X50.893 Y59.168 E17.37058
G1 X56.238 Y58.916 E17.63687
G1 X62.651 Y58.224 E17.95787
G1 X63.122 Y58.199 E17.98134
G1 X64.882 Y58.199 E18.06893
G1 X65.336 Y58.223 E18.09156
G1 X71.927 Y58.907 E18.42132
G1 X77.36 Y59.138 E18.69194
G1 X84.292 Y59.148 E19.03692
G1 X89.748 Y58.994 E19.30854
G1 X95.215 Y58.529 E19.58159
G1 X98.108 Y58.215 E19.72641
G1 X98.616 Y58.189 E19.75173
G1 X99.916 Y58.199 E19.81642
G1 X100.339 Y58.223 E19.83751
G1 X107.131 Y58.933 E20.17736
G1 X112.192 Y59.162 E20.42948
G1 X112.781 Y59.229 E20.45898
G1 X113.356 Y59.374 E20.48849
G1 X113.906 Y59.596 E20.51801
G1 X114.421 Y59.889 E20.54749
G1 X114.892 Y60.248 E20.57696
G1 X115.311 Y60.668 E20.60649
G1 X115.669 Y61.141 E20.63601
G1 X115.926 Y61.587 E20.66163
G1 X117.575 Y64.881 E20.84495
G1 X120.226 Y69.619 E21.11514
G1 X123.125 Y74.173 E21.38379
G1 X126.285 Y78.569 E21.65322
G1 X129.693 Y82.784 E21.92297
G1 X133.33 Y86.795 E22.19242
G1 X135.185 Y88.675 E22.32385
G1 X139.171 Y92.384 E22.59481
G1 X143.338 Y95.845 E22.86438
G1 X147.693 Y99.061 E23.1338
G1 X151.437 Y101.55 E23.35754
G1 X151.907 Y101.911 E23.38703
G1 X152.252 Y102.25 E23.4111
G1 X155.429 Y105.735 E23.64579
G1 X155.798 Y106.199 E23.67529
G1 X156.101 Y106.708 E23.70477
G1 X156.333 Y107.254 E23.73429
G1 X156.49 Y107.825 E23.76376
G1 X156.577 Y108.668 E23.80594
G1 X156.587 Y110.174 E23.88089
G1 X156.551 Y110.765 E23.91035
G1 X156.389 Y111.509 E23.94824
G1 X154.432 Y117.801 E24.27616
G1 X153.258 Y122.509 E24.51764
G1 X153.077 Y123.073 E24.54711
G1 X152.821 Y123.607 E24.57658
G1 X152.495 Y124.103 E24.60612
G1 X152.106 Y124.55 E24.63561
G1 X151.66 Y124.94 E24.66509
G1 X151.165 Y125.267 E24.69462
G1 X150.632 Y125.525 E24.72409
G1 X150.068 Y125.708 E24.7536
G1 X149.485 Y125.814 E24.78308
G1 X148.992 Y125.842 E24.80766
G1 X144.609 Y125.842 E25.02578
G1 X144.018 Y125.802 E25.05526
G1 X143.437 Y125.683 E25.08477
G1 X142.878 Y125.487 E25.11425
G1 X142.49 Y125.298 E25.13573
G1 X135.991 Y121.724 E25.50484
G1 X131.111 Y119.438 E25.77302
G1 X126.033 Y117.401 E26.0453
G1 X123.58 Y116.539 E26.17469
G1 X118.373 Y114.948 E26.44565
G1 X113.087 Y113.655 E26.71646
G1 X110.456 Y113.127 E26.85001
G1 X107.838 Y112.682 E26.98216
G1 X102.432 Y111.993 E27.25337
G1 X97.055 Y111.614 E27.52162
G1 X91.631 Y111.541 E27.79158
G1 X86.231 Y111.772 E28.06056
G1 X80.866 Y112.308 E28.32888
G1 X75.482 Y113.155 E28.60011
G1 X72.89 Y113.676 E28.73168
G1 X70.254 Y114.284 E28.86631
G1 X65.015 Y115.729 E29.13676
G1 X59.852 Y117.473 E29.40797
G1 X57.428 Y118.406 E29.53723
G1 X52.416 Y120.589 E29.80928
G1 X47.578 Y123.03 E30.07896
G1 X43.658 Y125.265 E30.30352
G1 X43.124 Y125.523 E30.33303
G1 X42.561 Y125.707 E30.36251
G1 X41.978 Y125.814 E30.39201
G1 X41.48 Y125.842 E30.41683
G1 X36.524 Y125.842 E30.66347
G1 X35.933 Y125.802 E30.69294
G1 X35.352 Y125.683 E30.72246
G1 X34.793 Y125.487 E30.75194
G1 X34.265 Y125.217 E30.78145
G1 X33.778 Y124.879 E30.81095
G1 X33.417 Y124.556 E30.83506
G1 X29.903 Y121.047 E31.08219
G1 X29.513 Y120.601 E31.11168
G1 X29.186 Y120.107 E31.14116
G1 X28.929 Y119.573 E31.17065
G1 X28.746 Y119.009 E31.20016
G1 X28.64 Y118.425 E31.2297
G1 X28.613 Y117.935 E31.25412
G1 X28.614 Y112.968 E31.50131
G1 X28.654 Y112.377 E31.53079
G1 X28.773 Y111.796 E31.5603
G1 X28.97 Y111.237 E31.5898
G1 X29.376 Y110.495 E31.63189
G1 X31.404 Y107.517 E31.81119
G1 X34.261 Y102.874 E32.08249
G1 X36.822 Y98.133 E32.35065
G1 X39.139 Y93.193 E32.62219
G1 X40.138 Y90.807 E32.75092
G1 X42.044 Y85.647 E33.02467
G1 X43.621 Y80.499 E33.29261
G1 X44.924 Y75.192 E33.56456
G1 X45.437 Y72.625 E33.69483
G1 X46.285 Y67.226 E33.96681
G1 X46.728 Y63.092 E34.17372
G1 X46.831 Y62.508 E34.20323
G1 X47.011 Y61.943 E34.23274
G1 X47.266 Y61.408 E34.26224
G1 X47.59 Y60.912 E34.29172
G1 X47.978 Y60.464 E34.32121
G1 X48.423 Y60.072 E34.35073
G0 F2400 X48.793 Y60.295
G1 F1050 X49.276 Y60.002 E34.37884
G1 X49.796 Y59.781 E34.40696
G1 X50.342 Y59.634 E34.4351
G1 X50.911 Y59.566 E34.46362
G1 X56.282 Y59.312 E34.73121
G1 X62.693 Y58.621 E35.0521
G1 X63.122 Y58.598 E35.07348
G1 X64.882 Y58.598 E35.16107
G1 X65.295 Y58.619 E35.18165
G1 X71.918 Y59.307 E35.51302
G1 X77.342 Y59.537 E35.78319
G1 X84.303 Y59.547 E36.12961
G1 X89.757 Y59.393 E36.40113
G1 X95.251 Y58.926 E36.67553
G1 X98.151 Y58.611 E36.8207
G1 X98.613 Y58.588 E36.84372
G1 X99.913 Y58.598 E36.90842
G1 X100.298 Y58.62 E36.92761
G1 X107.106 Y59.332 E37.26826
G1 X112.174 Y59.561 E37.52073
G1 X112.736 Y59.626 E37.54888
G1 X113.282 Y59.77 E37.57698
G1 X113.803 Y59.99 E37.60513
G1 X114.288 Y60.281 E37.63328
G1 X114.727 Y60.637 E37.6614
G1 X115.111 Y61.051 E37.68951
G1 X115.433 Y61.516 E37.71765
G1 X115.569 Y61.765 E37.73177
G1 X117.223 Y65.068 E37.91561
G1 X119.879 Y69.815 E38.18631
G1 X122.802 Y74.407 E38.4572
G1 X125.966 Y78.808 E38.72694
G1 X129.387 Y83.039 E38.99772
G1 X133.044 Y87.073 E39.26868
G1 X134.9 Y88.954 E39.40019
G1 X138.917 Y92.692 E39.67326
G1 X143.091 Y96.159 E39.94329
G1 X147.46 Y99.386 E40.2136
G1 X151.216 Y101.882 E40.43802
G1 X151.663 Y102.228 E40.46616
G1 X151.958 Y102.519 E40.48678
G1 X155.135 Y106.004 E40.72146
G1 X155.485 Y106.447 E40.74956
G1 X155.769 Y106.936 E40.7777
G1 X155.982 Y107.459 E40.8058
G1 X156.118 Y108.008 E40.83395
G1 X156.178 Y108.67 E40.86703
G1 X156.188 Y110.176 E40.94198
G1 X156.152 Y110.74 E40.9701
G1 X156.008 Y111.391 E41.00328
G1 X154.047 Y117.695 E41.33183
G1 X152.871 Y122.412 E41.57376
G1 X152.696 Y122.949 E41.60187
G1 X152.447 Y123.457 E41.63002
G1 X152.129 Y123.924 E41.65814
G1 X151.748 Y124.341 E41.68625
G1 X151.312 Y124.701 E41.71439
G1 X150.83 Y124.996 E41.74251
G1 X150.311 Y125.219 E41.77062
G1 X149.765 Y125.368 E41.79879
G1 X148.992 Y125.443 E41.83744
G1 X144.609 Y125.443 E42.05556
G1 X144.045 Y125.403 E42.0837
G1 X143.493 Y125.284 E42.1118
G1 X142.963 Y125.088 E42.13992
G1 X142.682 Y124.948 E42.15554
G1 X136.175 Y121.369 E42.52512
G1 X131.264 Y119.069 E42.79499
G1 X126.194 Y117.035 E43.06685
G1 X123.703 Y116.159 E43.19826
G1 X118.463 Y114.558 E43.47093
G1 X113.187 Y113.268 E43.74123
G1 X110.504 Y112.729 E43.87741
G1 X107.906 Y112.288 E44.00855
G1 X102.476 Y111.596 E44.28097
G1 X97.071 Y111.216 E44.55061
G1 X91.62 Y111.141 E44.82191
G1 X86.209 Y111.373 E45.09144
G1 X80.801 Y111.913 E45.36191
G1 X75.434 Y112.758 E45.63229
G1 X72.8 Y113.287 E45.76599
G1 X70.15 Y113.898 E45.90133
G1 X64.902 Y115.346 E46.17226
G1 X59.728 Y117.094 E46.44404
G1 X57.257 Y118.045 E46.5758
G1 X52.262 Y120.221 E46.84695
G1 X47.371 Y122.688 E47.11956
G1 X43.46 Y124.918 E47.34361
G1 X42.951 Y125.163 E47.37172
G1 X42.412 Y125.333 E47.39985
G1 X41.854 Y125.425 E47.42799
G1 X41.48 Y125.443 E47.44662
G1 X36.524 Y125.443 E47.69326
G1 X35.96 Y125.403 E47.7214
G1 X35.408 Y125.284 E47.7495
G1 X34.878 Y125.088 E47.77762
G1 X34.38 Y124.82 E47.80577
G1 X33.926 Y124.484 E47.83388
G1 X33.699 Y124.274 E47.84926
G1 X30.185 Y120.765 E48.0964
G1 X29.814 Y120.338 E48.12455
G1 X29.507 Y119.864 E48.15266
G1 X29.271 Y119.351 E48.18076
G1 X29.109 Y118.809 E48.20891
G1 X29.024 Y118.25 E48.23705
G1 X29.012 Y117.935 E48.25274
G1 X29.013 Y112.968 E48.49992
G1 X29.053 Y112.404 E48.52806
G1 X29.172 Y111.852 E48.55616
G1 X29.368 Y111.322 E48.58428
G1 X29.706 Y110.719 E48.61868
G1 X31.742 Y107.729 E48.7987
G1 X34.603 Y103.081 E49.07032
G1 X37.189 Y98.293 E49.34113
G1 X39.495 Y93.377 E49.61136
G1 X40.519 Y90.931 E49.74332
G1 X42.413 Y85.802 E50.01541
G1 X44.006 Y80.601 E50.28611
G1 X45.314 Y75.274 E50.55909
G1 X45.829 Y72.695 E50.68997
G1 X46.682 Y67.268 E50.96336
G1 X47.125 Y63.134 E51.17027
G1 X47.225 Y62.578 E51.19838
G1 X47.402 Y62.041 E51.22652
G1 X47.653 Y61.535 E51.25463
G1 X47.973 Y61.069 E51.28276
G1 X48.355 Y60.653 E51.31087
G1 X48.793 Y60.295 E51.33902
G0 F2400 X49.16 Y60.529
G1 F1050 X49.632 Y60.274 E51.36572
G1 X50.136 Y60.092 E51.39239
G1 X50.662 Y59.988 E51.41907
G1 X50.93 Y59.965 E51.43245
G1 X56.311 Y59.711 E51.70054
G1 X62.736 Y59.018 E52.02214
G1 X63.122 Y58.997 E52.04138
G1 X64.882 Y58.997 E52.12896
G1 X65.254 Y59.016 E52.1475
G1 X71.877 Y59.704 E52.47887
G1 X77.349 Y59.936 E52.75143
G1 X84.28 Y59.946 E53.09636
G1 X89.802 Y59.79 E53.37127
G1 X95.284 Y59.324 E53.64507
G1 X98.194 Y59.008 E53.79074
G1 X98.61 Y58.987 E53.81147
G1 X99.91 Y58.997 E53.87616
G1 X100.256 Y59.017 E53.89341
G1 X107.08 Y59.731 E54.23487
G1 X112.156 Y59.96 E54.48773
G1 X112.689 Y60.024 E54.51445
G1 X113.206 Y60.166 E54.54113
G1 X113.696 Y60.384 E54.56782
G1 X114.148 Y60.672 E54.59449
G1 X114.553 Y61.024 E54.62119
G1 X114.9 Y61.432 E54.64785
G1 X115.212 Y61.944 E54.67769
G1 X116.865 Y65.246 E54.86145
G1 X119.539 Y70.025 E55.13398
G1 X122.47 Y74.629 E55.40559
G1 X125.646 Y79.047 E55.67637
G1 X129.088 Y83.304 E55.94881
G1 X132.746 Y87.339 E56.21985
G1 X134.626 Y89.244 E56.35304
G1 X138.654 Y92.992 E56.62685
G1 X142.844 Y96.472 E56.89791
G1 X147.242 Y99.72 E57.16999
G1 X150.995 Y102.215 E57.39427
G1 X151.418 Y102.544 E57.42094
G1 X151.663 Y102.787 E57.43811
G1 X154.84 Y106.272 E57.67279
G1 X155.17 Y106.694 E57.69945
G1 X155.435 Y107.161 E57.72618
G1 X155.627 Y107.662 E57.75288
G1 X155.742 Y108.185 E57.77953
G1 X155.779 Y108.673 E57.80388
G1 X155.789 Y110.179 E57.87883
G1 X155.753 Y110.714 E57.90551
G1 X155.627 Y111.272 E57.93398
G1 X153.664 Y117.581 E58.2628
G1 X152.484 Y122.316 E58.50565
G1 X152.316 Y122.825 E58.53232
G1 X152.074 Y123.303 E58.55898
G1 X151.764 Y123.741 E58.58569
G1 X151.392 Y124.127 E58.61237
G1 X150.967 Y124.454 E58.63905
G1 X150.498 Y124.714 E58.66574
G1 X149.996 Y124.901 E58.6924
G1 X149.471 Y125.012 E58.7191
G1 X148.992 Y125.044 E58.74299
G1 X144.609 Y125.044 E58.96112
G1 X144.074 Y125.004 E58.98781
G1 X143.551 Y124.885 E59.01451
G1 X142.875 Y124.599 E59.05104
G1 X136.346 Y121.008 E59.42186
G1 X131.433 Y118.707 E59.69184
G1 X126.322 Y116.657 E59.96589
G1 X123.833 Y115.782 E60.09719
G1 X118.581 Y114.177 E60.37049
G1 X113.269 Y112.877 E60.64264
G1 X110.578 Y112.338 E60.77922
G1 X107.954 Y111.892 E60.91168
G1 X102.518 Y111.199 E61.18439
G1 X97.087 Y110.817 E61.45534
G1 X91.626 Y110.742 E61.72713
G1 X86.171 Y110.976 E61.99885
G1 X80.751 Y111.517 E62.26992
G1 X75.344 Y112.368 E62.54232
G1 X72.73 Y112.894 E62.67501
G1 X70.051 Y113.512 E62.81184
G1 X64.795 Y114.961 E63.08316
G1 X59.598 Y116.717 E63.35616
G1 X57.115 Y117.673 E63.48857
G1 X52.065 Y119.872 E63.76267
G1 X47.211 Y122.321 E64.03324
G1 X43.263 Y124.572 E64.25941
G1 X42.778 Y124.802 E64.28612
G1 X42.265 Y124.957 E64.31279
G1 X41.48 Y125.044 E64.35209
G1 X36.524 Y125.044 E64.59873
G1 X35.989 Y125.004 E64.62543
G1 X35.466 Y124.885 E64.65212
G1 X34.967 Y124.69 E64.67878
G1 X34.502 Y124.422 E64.70549
G1 X33.981 Y123.992 E64.73911
G1 X30.467 Y120.483 E64.98625
G1 X30.117 Y120.077 E65.01292
G1 X29.831 Y119.623 E65.03963
G1 X29.616 Y119.132 E65.0663
G1 X29.475 Y118.614 E65.09302
G1 X29.411 Y117.935 E65.12696
G1 X29.412 Y112.968 E65.37414
G1 X29.452 Y112.434 E65.40079
G1 X29.571 Y111.911 E65.42749
G1 X29.767 Y111.411 E65.45421
G1 X30.036 Y110.944 E65.48103
G1 X32.077 Y107.946 E65.66152
G1 X34.949 Y103.28 E65.93419
G1 X37.541 Y98.481 E66.20562
G1 X39.863 Y93.531 E66.47772
G1 X40.888 Y91.083 E66.60979
G1 X42.796 Y85.915 E66.88395
G1 X44.392 Y80.704 E67.15517
G1 X45.705 Y75.361 E67.42897
G1 X46.224 Y72.762 E67.56087
G1 X47.074 Y67.351 E67.83345
G1 X47.521 Y63.177 E68.04236
G1 X47.618 Y62.649 E68.06908
G1 X47.792 Y62.142 E68.09575
G1 X48.04 Y61.666 E68.12246
G1 X48.355 Y61.233 E68.14911
G1 X48.731 Y60.851 E68.17578
G1 X49.16 Y60.529 E68.20248
G0 F2400 X49.524 Y60.775
G1 F1050 X49.982 Y60.562 E68.22762
G1 X50.468 Y60.423 E68.25277
G1 X50.949 Y60.364 E68.27689
