;FLAVOR:Marlin
;TIME:5173
;Filament used: 4.12466m
;Layer height: 0.15
;Generated with Cura_SteamEngine 2.7.0
M190 S60
M104 S220
M109 S220
G21 ;metric values
G90 ;absolute positioning
M82 ;set extruder to absolute mode
M107 ;start with the fan off
G92 E0 ;zero the extruded length
G1 F200 E3 ;extrude 3mm of feed stock
G92 E0 ;zero the extruded length again
G1 F9000
M301 P31.36 I3.30 D74.51 ;set PID tuning for E0
M304 P72.25 I2.72 D479.41 ; set PID tuning for heated bed
M117 Printing...
;LAYER_COUNT:39
;LAYER:0
M107
M205 X20 Y20
G0 F2400 X34.24 Y56.175 Z0.3
;TYPE:SKIRT
G1 F1050 X34.768 Y55.851 E0.03083
G1 X35.333 Y55.597 E0.06166
G1 X35.926 Y55.419 E0.09247
G1 X36.536 Y55.318 E0.12324
G1 X37 Y55.295 E0.14636
G1 X41.382 Y55.287 E0.36443
G1 X42 Y55.326 E0.39525
G1 X42.608 Y55.444 E0.42607
G1 X43.195 Y55.639 E0.45685
G1 X43.581 Y55.816 E0.47798
G1 X50.109 Y59.167 E0.84316
G1 X55.048 Y61.312 E1.11113
G1 X57.582 Y62.288 E1.24626
G1 X60.024 Y63.147 E1.37509
G1 X65.245 Y64.743 E1.64678
G1 X70.489 Y66.026 E1.91545
G1 X73.112 Y66.552 E2.04858
G1 X75.724 Y66.997 E2.18045
G1 X81.089 Y67.681 E2.4496
G1 X86.455 Y68.059 E2.7173
G1 X91.851 Y68.132 E2.98586
G1 X97.243 Y67.901 E3.25444
G1 X102.579 Y67.369 E3.52131
G1 X107.94 Y66.526 E3.79138
G1 X110.541 Y66.003 E3.92341
G1 X113.125 Y65.407 E4.05538
G1 X118.363 Y63.963 E4.32577
G1 X123.49 Y62.231 E4.59509
G1 X125.931 Y61.291 E4.72526
G1 X130.887 Y59.132 E4.99429
G1 X137.318 Y55.82 E5.35428
G1 X137.885 Y55.573 E5.38506
G1 X138.48 Y55.401 E5.41588
G1 X139.092 Y55.307 E5.44669
G1 X139.513 Y55.288 E5.46766
G1 X144.478 Y55.287 E5.71475
G1 X145.096 Y55.327 E5.74557
G1 X145.703 Y55.446 E5.77635
G1 X146.291 Y55.642 E5.8072
G1 X146.847 Y55.913 E5.83798
G1 X147.365 Y56.252 E5.86879
G1 X147.869 Y56.69 E5.90202
G1 X151.38 Y60.198 E6.14901
G1 X151.789 Y60.663 E6.17983
G1 X152.134 Y61.177 E6.21064
G1 X152.411 Y61.731 E6.24146
G1 X152.613 Y62.316 E6.27226
G1 X152.739 Y62.922 E6.30306
G1 X152.786 Y63.591 E6.33644
G1 X152.786 Y68.55 E6.58323
G1 X152.746 Y69.168 E6.61405
G1 X152.627 Y69.775 E6.64483
G1 X152.43 Y70.362 E6.67564
G1 X152.16 Y70.919 E6.70645
G1 X151.82 Y71.437 E6.73728
G1 X151.384 Y71.939 E6.77037
G1 X137.801 Y85.54 E7.72696
G1 X134.057 Y89.503 E7.99828
G1 X130.592 Y93.611 E8.26573
G1 X127.353 Y97.926 E8.53423
G1 X124.372 Y102.404 E8.80194
G1 X121.65 Y107.04 E9.06949
G1 X119.182 Y111.847 E9.3384
G1 X116.983 Y116.802 E9.60818
G1 X116.014 Y119.259 E9.73961
G1 X114.516 Y123.512 E9.96401
G1 X114.273 Y124.082 E9.99485
G1 X113.958 Y124.615 E10.02566
G1 X113.578 Y125.104 E10.05648
G1 X113.138 Y125.539 E10.08727
G1 X112.645 Y125.914 E10.1181
G1 X111.867 Y126.333 E10.16207
G1 X107.362 Y128.247 E10.40566
G1 X104.789 Y129.457 E10.54716
G1 X104.213 Y129.684 E10.57797
G1 X103.612 Y129.834 E10.6088
G1 X102.747 Y129.913 E10.65202
G1 X101.26 Y129.913 E10.72602
G1 X100.873 Y129.897 E10.7453
G1 X98.796 Y129.729 E10.849
G1 X93.356 Y129.497 E11.11997
G1 X87.946 Y129.572 E11.38923
G1 X82.487 Y129.914 E11.66143
G1 X82.132 Y129.923 E11.6791
G1 X81.195 Y129.912 E11.72574
G1 X80.577 Y129.864 E11.75658
G1 X79.971 Y129.738 E11.78739
G1 X79.453 Y129.562 E11.81461
G1 X73.918 Y127.324 E12.11173
G1 X71.404 Y126.434 E12.24445
G1 X70.835 Y126.19 E12.27526
G1 X70.302 Y125.875 E12.30607
G1 X69.815 Y125.494 E12.33684
G1 X69.38 Y125.053 E12.36767
G1 X69.006 Y124.56 E12.39846
G1 X68.698 Y124.023 E12.42927
G1 X68.562 Y123.719 E12.44584
G1 X67.702 Y121.603 E12.55951
G1 X65.456 Y116.652 E12.83007
G1 X62.964 Y111.89 E13.09754
G1 X60.197 Y107.266 E13.36571
G1 X57.173 Y102.803 E13.634
G1 X53.906 Y98.525 E13.90187
G1 X50.416 Y94.454 E14.16873
G1 X46.649 Y90.533 E14.43932
G1 X44.76 Y88.724 E14.56948
G1 X40.679 Y85.14 E14.83977
G1 X36.4 Y81.791 E15.11018
G1 X34.209 Y80.216 E15.24447
G1 X33.73 Y79.823 E15.2753
G1 X33.307 Y79.372 E15.30608
G1 X32.945 Y78.87 E15.33688
G1 X32.65 Y78.325 E15.36772
G1 X32.384 Y77.593 E15.40647
G1 X31.427 Y74.112 E15.58614
G1 X31.301 Y73.506 E15.61694
G1 X31.255 Y72.838 E15.65026
G1 X31.256 Y71.052 E15.73914
G1 X31.295 Y70.446 E15.76936
G1 X31.463 Y69.134 E15.83519
G1 X32.047 Y63.212 E16.13133
G1 X32.219 Y59.846 E16.29906
G1 X32.291 Y59.231 E16.32987
G1 X32.441 Y58.63 E16.3607
G1 X32.667 Y58.054 E16.39149
G1 X32.966 Y57.511 E16.42234
G1 X33.332 Y57.012 E16.45314
G1 X33.759 Y56.564 E16.48394
G1 X34.24 Y56.175 E16.51472
G0 F2400 X34.617 Y56.402
G1 F1050 X35.135 Y56.113 E16.54424
G1 X35.687 Y55.897 E16.57374
G1 X36.263 Y55.758 E16.60323
G1 X37.001 Y55.694 E16.64009
G1 X41.383 Y55.686 E16.85816
G1 X41.974 Y55.725 E16.88764
G1 X42.555 Y55.843 E16.91714
G1 X43.115 Y56.038 E16.94665
G1 X43.399 Y56.171 E16.96226
G1 X49.94 Y59.529 E17.32817
G1 X54.906 Y61.685 E17.59759
G1 X57.413 Y62.651 E17.73129
G1 X59.923 Y63.534 E17.86371
G1 X65.118 Y65.121 E18.13403
G1 X70.413 Y66.418 E18.40533
G1 X73.038 Y66.944 E18.53856
G1 X75.653 Y67.389 E18.67057
G1 X81.065 Y68.079 E18.94208
G1 X86.439 Y68.458 E19.21018
G1 X91.863 Y68.531 E19.48014
G1 X97.265 Y68.3 E19.74922
G1 X102.627 Y67.766 E20.01738
G1 X108.012 Y66.918 E20.28867
G1 X110.604 Y66.397 E20.42024
G1 X113.247 Y65.788 E20.55522
G1 X118.476 Y64.346 E20.82515
G1 X123.642 Y62.601 E21.09651
G1 X126.066 Y61.668 E21.22577
G1 X131.064 Y59.491 E21.49707
G1 X137.501 Y56.175 E21.85742
G1 X138.045 Y55.94 E21.88691
G1 X138.615 Y55.78 E21.91637
G1 X139.202 Y55.698 E21.94587
G1 X139.513 Y55.687 E21.96135
G1 X144.478 Y55.686 E22.20844
G1 X145.07 Y55.726 E22.23797
G1 X145.65 Y55.845 E22.26743
G1 X146.21 Y56.041 E22.29696
G1 X146.738 Y56.31 E22.32645
G1 X147.224 Y56.648 E22.35591
G1 X147.587 Y56.973 E22.38016
G1 X151.098 Y60.481 E22.62715
G1 X151.488 Y60.927 E22.65664
G1 X151.815 Y61.421 E22.68612
G1 X152.072 Y61.956 E22.71566
G1 X152.254 Y62.519 E22.7451
G1 X152.36 Y63.103 E22.77464
G1 X152.387 Y63.591 E22.79896
G1 X152.387 Y68.55 E23.04575
G1 X152.347 Y69.141 E23.07523
G1 X152.228 Y69.722 E23.10474
G1 X152.032 Y70.281 E23.13422
G1 X151.762 Y70.809 E23.16373
G1 X151.424 Y71.296 E23.19323
G1 X151.101 Y71.657 E23.21734
G1 X137.528 Y85.248 E24.17323
G1 X133.761 Y89.236 E24.44623
G1 X130.276 Y93.367 E24.7152
G1 X127.031 Y97.691 E24.98424
G1 X124.033 Y102.194 E25.25346
G1 X121.296 Y106.854 E25.52241
G1 X118.822 Y111.674 E25.79203
G1 X116.621 Y116.634 E26.06208
G1 X115.633 Y119.138 E26.19604
G1 X114.139 Y123.38 E26.41986
G1 X113.905 Y123.924 E26.44933
G1 X113.6 Y124.432 E26.47881
G1 X113.229 Y124.895 E26.50834
G1 X112.799 Y125.303 E26.53784
G1 X112.319 Y125.65 E26.56731
G1 X111.711 Y125.966 E26.60141
G1 X107.193 Y127.885 E26.8457
G1 X104.619 Y129.096 E26.98726
G1 X104.067 Y129.311 E27.01674
G1 X103.491 Y129.451 E27.04624
G1 X102.747 Y129.514 E27.0834
G1 X101.26 Y129.514 E27.1574
G1 X100.905 Y129.5 E27.17508
G1 X98.792 Y129.329 E27.28058
G1 X93.367 Y129.098 E27.5508
G1 X87.917 Y129.174 E27.82205
G1 X82.463 Y129.515 E28.094
G1 X82.136 Y129.524 E28.11028
G1 X81.199 Y129.513 E28.15691
G1 X80.608 Y129.466 E28.18642
G1 X80.029 Y129.34 E28.21591
G1 X79.603 Y129.192 E28.23835
G1 X74.062 Y126.952 E28.53578
G1 X71.538 Y126.058 E28.66903
G1 X70.993 Y125.823 E28.69857
G1 X70.486 Y125.517 E28.72804
G1 X70.024 Y125.145 E28.75756
G1 X69.616 Y124.715 E28.78706
G1 X69.27 Y124.234 E28.81655
G1 X68.932 Y123.569 E28.85367
G1 X68.065 Y121.436 E28.96825
G1 X65.824 Y116.495 E29.23825
G1 X63.303 Y111.679 E29.50877
G1 X60.541 Y107.062 E29.77652
G1 X57.497 Y102.571 E30.04652
G1 X54.219 Y98.277 E30.31536
G1 X50.7 Y94.172 E30.58443
G1 X46.943 Y90.262 E30.85429
G1 X45.018 Y88.418 E30.98695
G1 X40.944 Y84.84 E31.25678
G1 X36.636 Y81.469 E31.52901
G1 X34.442 Y79.892 E31.66347
G1 X33.985 Y79.515 E31.69295
G1 X33.583 Y79.079 E31.72247
G1 X33.243 Y78.593 E31.75198
G1 X32.972 Y78.066 E31.78147
G1 X32.768 Y77.488 E31.81198
G1 X31.811 Y74.007 E31.99164
G1 X31.693 Y73.426 E32.02114
G1 X31.654 Y72.839 E32.05042
G1 X31.655 Y71.053 E32.1393
G1 X31.691 Y70.496 E32.16708
G1 X31.859 Y69.187 E32.23275
G1 X32.446 Y63.229 E32.53069
G1 X32.618 Y59.866 E32.69827
G1 X32.688 Y59.277 E32.72779
G1 X32.837 Y58.704 E32.75725
G1 X33.061 Y58.155 E32.78676
G1 X33.357 Y57.642 E32.81624
G1 X33.72 Y57.173 E32.84575
G1 X34.142 Y56.757 E32.87524
G1 X34.617 Y56.402 E32.90475
G0 F2400 X34.991 Y56.64
G1 F1050 X35.497 Y56.39 E32.93284
G1 X36.034 Y56.214 E32.96096
G1 X36.591 Y56.115 E32.98912
G1 X37.002 Y56.093 E33.0096
G1 X41.384 Y56.085 E33.22767
G1 X41.948 Y56.124 E33.25581
G1 X42.5 Y56.242 E33.2839
G1 X43.217 Y56.526 E33.32228
G1 X49.766 Y59.888 E33.68863
G1 X54.752 Y62.053 E33.95914
G1 X57.304 Y63.036 E34.09524
G1 X59.8 Y63.914 E34.22691
G1 X65.011 Y65.506 E34.49807
G1 X70.313 Y66.804 E34.76972
G1 X72.99 Y67.342 E34.90561
G1 X75.585 Y67.783 E35.0366
G1 X81.02 Y68.476 E35.30927
G1 X86.423 Y68.856 E35.57881
G1 X91.874 Y68.931 E35.85011
G1 X97.285 Y68.699 E36.11964
G1 X102.694 Y68.16 E36.39015
G1 X108.06 Y67.315 E36.66049
G1 X110.694 Y66.786 E36.79419
G1 X113.351 Y66.173 E36.92989
G1 X118.583 Y64.731 E37.19997
G1 X123.773 Y62.978 E37.47258
G1 X126.237 Y62.029 E37.60399
G1 X131.228 Y59.855 E37.87491
G1 X137.683 Y56.53 E38.23626
G1 X138.203 Y56.307 E38.26441
G1 X138.748 Y56.16 E38.2925
G1 X139.513 Y56.086 E38.33075
G1 X144.478 Y56.085 E38.57784
G1 X145.042 Y56.125 E38.60598
G1 X145.595 Y56.244 E38.63413
G1 X146.125 Y56.439 E38.66223
G1 X146.622 Y56.708 E38.69036
G1 X147.077 Y57.044 E38.7185
G1 X147.305 Y57.255 E38.73396
G1 X150.816 Y60.763 E38.98096
G1 X151.186 Y61.19 E39.00908
G1 X151.493 Y61.664 E39.03718
G1 X151.73 Y62.177 E39.0653
G1 X151.892 Y62.719 E39.09345
G1 X151.976 Y63.278 E39.12159
G1 X151.988 Y63.591 E39.13717
G1 X151.988 Y68.55 E39.38396
G1 X151.948 Y69.114 E39.4121
G1 X151.829 Y69.666 E39.4402
G1 X151.633 Y70.196 E39.46832
G1 X151.365 Y70.694 E39.49647
G1 X151.029 Y71.148 E39.52457
G1 X150.819 Y71.375 E39.53996
G1 X137.238 Y84.974 E40.49641
G1 X133.464 Y88.968 E40.76988
G1 X129.966 Y93.115 E41.03987
G1 X126.703 Y97.464 E41.31044
G1 X123.693 Y101.984 E41.5807
G1 X120.946 Y106.662 E41.85067
G1 X118.462 Y111.502 E42.1214
G1 X116.252 Y116.483 E42.39259
G1 X115.261 Y118.993 E42.52688
G1 X113.763 Y123.247 E42.75133
G1 X113.538 Y123.766 E42.77948
G1 X113.242 Y124.247 E42.80759
G1 X112.881 Y124.682 E42.83572
G1 X112.463 Y125.062 E42.86383
G1 X111.995 Y125.379 E42.89196
G1 X111.555 Y125.599 E42.91644
G1 X107.024 Y127.523 E43.16142
G1 X104.449 Y128.735 E43.30305
G1 X103.922 Y128.939 E43.33117
G1 X103.371 Y129.066 E43.35931
G1 X102.747 Y129.115 E43.39046
G1 X101.26 Y129.115 E43.46446
G1 X100.937 Y129.102 E43.48055
G1 X98.815 Y128.93 E43.5865
G1 X93.378 Y128.698 E43.85732
G1 X87.907 Y128.775 E44.12961
G1 X82.438 Y129.117 E44.40231
G1 X82.141 Y129.125 E44.4171
G1 X81.204 Y129.114 E44.46373
G1 X80.641 Y129.067 E44.49184
G1 X80.09 Y128.942 E44.51996
G1 X79.752 Y128.822 E44.53781
G1 X74.204 Y126.579 E44.83562
G1 X71.671 Y125.682 E44.96935
G1 X71.153 Y125.456 E44.99747
G1 X70.671 Y125.159 E45.02565
G1 X70.237 Y124.798 E45.05374
G1 X69.858 Y124.379 E45.08186
G1 X69.542 Y123.91 E45.11
G1 X69.301 Y123.419 E45.13722
G1 X68.431 Y121.278 E45.25223
G1 X66.174 Y116.302 E45.52414
G1 X63.657 Y111.495 E45.79418
G1 X60.869 Y106.834 E46.06446
G1 X57.83 Y102.35 E46.33403
G1 X54.524 Y98.02 E46.60515
G1 X51 Y93.909 E46.87461
G1 X47.225 Y89.979 E47.1458
G1 X45.286 Y88.123 E47.27938
G1 X41.189 Y84.525 E47.55073
G1 X36.887 Y81.158 E47.82259
G1 X34.675 Y79.568 E47.95816
G1 X34.24 Y79.207 E47.9863
G1 X33.861 Y78.788 E48.01441
G1 X33.545 Y78.319 E48.04256
G1 X33.298 Y77.811 E48.07067
G1 X33.153 Y77.382 E48.0932
G1 X32.196 Y73.901 E48.27286
G1 X32.085 Y73.347 E48.30098
G1 X32.053 Y72.839 E48.32631
G1 X32.054 Y71.053 E48.41519
G1 X32.086 Y70.547 E48.44043
G1 X32.257 Y69.21 E48.5075
G1 X32.843 Y63.267 E48.80469
G1 X33.016 Y59.886 E48.97317
G1 X33.085 Y59.325 E49.0013
G1 X33.232 Y58.78 E49.02939
G1 X33.455 Y58.26 E49.05755
G1 X33.748 Y57.777 E49.08566
G1 X34.107 Y57.341 E49.11377
G1 X34.524 Y56.959 E49.14191
G1 X34.991 Y56.64 E49.17006
G0 F2400 X35.361 Y56.892
G1 F1050 X35.854 Y56.682 E49.19672
G1 X36.374 Y56.549 E49.22344
G1 X37.002 Y56.492 E49.25482
G1 X41.384 Y56.484 E49.47289
G1 X41.919 Y56.523 E49.49959
G1 X42.442 Y56.641 E49.52627
G1 X43.035 Y56.881 E49.5581
G1 X49.596 Y60.249 E49.92512
G1 X54.598 Y62.421 E50.1965
G1 X57.164 Y63.409 E50.33334
G1 X59.663 Y64.289 E50.46519
G1 X64.909 Y65.892 E50.73818
G1 X70.231 Y67.195 E51.01085
G1 X72.916 Y67.733 E51.14713
G1 X75.537 Y68.179 E51.27944
G1 X80.978 Y68.873 E51.5524
G1 X86.407 Y69.255 E51.82325
G1 X91.868 Y69.33 E52.09504
G1 X97.325 Y69.096 E52.36686
G1 X102.742 Y68.556 E52.63778
G1 X108.15 Y67.705 E52.91022
G1 X110.764 Y67.179 E53.04292
G1 X113.428 Y66.565 E53.17897
G1 X118.712 Y65.109 E53.45173
G1 X123.896 Y63.357 E53.72405
G1 X126.379 Y62.401 E53.85646
G1 X131.404 Y60.213 E54.12921
G1 X137.866 Y56.884 E54.49096
G1 X138.36 Y56.675 E54.51765
G1 X138.879 Y56.541 E54.54433
G1 X139.513 Y56.485 E54.576
G1 X144.478 Y56.484 E54.82309
G1 X145.013 Y56.524 E54.84979
G1 X145.536 Y56.643 E54.87648
G1 X146.035 Y56.838 E54.90314
G1 X146.5 Y57.105 E54.92982
G1 X147.023 Y57.537 E54.96358
G1 X150.534 Y61.045 E55.21058
G1 X150.884 Y61.451 E55.23725
G1 X151.17 Y61.905 E55.26396
G1 X151.385 Y62.396 E55.29063
G1 X151.525 Y62.914 E55.31734
G1 X151.589 Y63.591 E55.35118
G1 X151.589 Y68.55 E55.59796
G1 X151.549 Y69.085 E55.62466
G1 X151.43 Y69.608 E55.65135
G1 X151.235 Y70.107 E55.67802
G1 X150.967 Y70.572 E55.70473
G1 X150.537 Y71.093 E55.73834
G1 X136.948 Y84.7 E56.69536
G1 X133.16 Y88.709 E56.96984
G1 X129.657 Y92.863 E57.24026
G1 X126.381 Y97.228 E57.51186
G1 X123.354 Y101.773 E57.78362
G1 X120.597 Y106.47 E58.05466
G1 X118.106 Y111.322 E58.32608
G1 X115.882 Y116.335 E58.599
G1 X114.89 Y118.849 E58.7335
G1 X113.387 Y123.115 E58.95859
G1 X113.171 Y123.606 E58.98529
G1 X112.885 Y124.059 E59.01195
G1 X112.535 Y124.466 E59.03866
G1 X112.129 Y124.815 E59.06531
G1 X111.675 Y125.1 E59.09198
G1 X111.399 Y125.232 E59.10721
G1 X106.855 Y127.162 E59.35289
G1 X104.279 Y128.374 E59.49457
G1 X103.778 Y128.565 E59.52125
G1 X103.254 Y128.68 E59.54795
G1 X102.747 Y128.716 E59.57325
G1 X101.26 Y128.716 E59.64725
G1 X100.97 Y128.704 E59.66169
G1 X98.865 Y128.534 E59.76679
G1 X93.372 Y128.299 E60.0404
G1 X87.897 Y128.376 E60.31289
G1 X82.413 Y128.719 E60.58634
G1 X82.146 Y128.726 E60.59963
G1 X81.209 Y128.715 E60.64627
G1 X80.675 Y128.669 E60.67294
G1 X79.902 Y128.453 E60.71288
G1 X74.335 Y126.202 E61.01172
G1 X71.804 Y125.306 E61.14533
G1 X71.313 Y125.09 E61.17203
G1 X70.86 Y124.803 E61.19872
G1 X70.454 Y124.452 E61.22542
G1 X70.105 Y124.045 E61.25211
G1 X69.821 Y123.591 E61.27876
G1 X69.671 Y123.268 E61.29648
G1 X68.806 Y121.141 E61.41075
G1 X66.534 Y116.131 E61.68451
G1 X64.008 Y111.305 E61.95559
G1 X61.199 Y106.61 E62.22787
G1 X58.154 Y102.117 E62.49797
G1 X54.829 Y97.763 E62.77061
G1 X51.292 Y93.636 E63.0411
G1 X47.507 Y89.696 E63.31299
G1 X45.568 Y87.839 E63.4466
G1 X41.445 Y84.219 E63.71965
G1 X37.134 Y80.845 E63.99208
G1 X34.907 Y79.244 E64.12858
G1 X34.497 Y78.9 E64.15521
G1 X34.141 Y78.498 E64.18194
G1 X33.85 Y78.048 E64.20861
G1 X33.629 Y77.56 E64.23526
G1 X33.538 Y77.276 E64.25011
G1 X32.581 Y73.795 E64.42977
G1 X32.478 Y73.269 E64.45644
G1 X32.452 Y72.839 E64.47788
G1 X32.453 Y71.053 E64.56676
G1 X32.482 Y70.598 E64.58945
G1 X32.654 Y69.254 E64.65688
G1 X33.242 Y63.284 E64.95542
G1 X33.415 Y59.907 E65.1237
G1 X33.482 Y59.375 E65.15038
G1 X33.627 Y58.859 E65.17705
G1 X33.848 Y58.37 E65.20376
G1 X34.139 Y57.92 E65.23043
G1 X34.493 Y57.517 E65.25712
G1 X34.904 Y57.172 E65.28383
G1 X35.361 Y56.892 E65.3105
G0 F2400 X35.726 Y57.159
G1 F1050 X36.204 Y56.994 E65.33566
G1 X36.702 Y56.906 E65.36083
G1 X37.003 Y56.891 E65.37583
G1 X41.385 Y56.883 E65.5939
G1 X41.889 Y56.922 E65.61906
G1 X42.381 Y57.04 E65.64424
G1 X42.852 Y57.236 E65.66963
G1 X49.421 Y60.608 E66.03709
G1 X54.456 Y62.795 E66.31028
G1 X56.995 Y63.772 E66.44566
G1 X59.562 Y64.675 E66.58108
G1 X64.802 Y66.277 E66.85377
G1 X70.15 Y67.586 E67.12777
G1 X72.81 Y68.12 E67.26279
G1 X75.493 Y68.576 E67.39822
G1 X80.934 Y69.27 E67.67119
G1 X86.391 Y69.654 E67.94343
G1 X91.88 Y69.729 E68.21662
G1 X97.347 Y69.495 E68.48894
G1 X102.79 Y68.952 E68.76116
G1 X108.222 Y68.098 E69.0348
