;FLAVOR:Marlin
;TIME:3312
;Filament used: 2.5146m
;Layer height: 0.15
;Generated with Cura_SteamEngine 2.7.0
M190 S60
M104 S220
M109 S220
G21 ;metric values
G90 ;absolute positioning
M82 ;set extruder to absolute mode
M107 ;start with the fan off
G92 E0 ;zero the extruded length
G1 F200 E3 ;extrude 3mm of feed stock
G92 E0 ;zero the extruded length again
G1 F9000
M301 P26.92 I2.54 D71.46 ;set PID tuning for E0
M117 Printing...
;LAYER_COUNT:52
;LAYER:0
M107
G0 F2400 X75.37 Y74.586 Z0.3
;TYPE:SKIRT
G1 F1200 X75.726 Y74.253 E0.02426
G1 X77.269 Y72.949 E0.1248
G1 X77.644 Y72.663 E0.14827
G1 X79.255 Y71.553 E0.24563
G1 X79.661 Y71.302 E0.26938
G1 X81.437 Y70.323 E0.3703
G1 X81.87 Y70.112 E0.39427
G1 X83.689 Y69.336 E0.49269
G1 X84.138 Y69.17 E0.51651
G1 X86.061 Y68.568 E0.61679
G1 X86.493 Y68.455 E0.63901
G1 X88.185 Y68.094 E0.72511
G1 X88.631 Y68.02 E0.74761
G1 X90.649 Y67.785 E0.84872
G1 X91.127 Y67.754 E0.87255
G1 X93.065 Y67.723 E0.96901
G1 X93.534 Y67.738 E0.99236
G1 X95.52 Y67.901 E1.09153
G1 X96.029 Y67.97 E1.11709
G1 X98.257 Y68.396 E1.22998
G1 X98.724 Y68.51 E1.2539
G1 X100.434 Y69.019 E1.34269
G1 X100.887 Y69.179 E1.3666
G1 X102.895 Y70.003 E1.47462
G1 X103.344 Y70.215 E1.49933
G1 X105.101 Y71.159 E1.59858
G1 X105.508 Y71.405 E1.62225
G1 X107.158 Y72.515 E1.72122
G1 X107.547 Y72.806 E1.74539
G1 X109.108 Y74.104 E1.84642
G1 X109.463 Y74.431 E1.87044
G1 X110.858 Y75.851 E1.96951
G1 X111.174 Y76.206 E1.99316
G1 X112.412 Y77.745 E2.09145
G1 X112.69 Y78.128 E2.115
G1 X113.786 Y79.806 E2.21474
G1 X114.029 Y80.223 E2.23876
G1 X114.944 Y81.989 E2.33774
G1 X115.132 Y82.397 E2.3601
G1 X115.792 Y84.029 E2.44771
G1 X115.94 Y84.451 E2.46996
G1 X116.501 Y86.324 E2.56727
G1 X116.595 Y86.689 E2.58602
G1 X116.855 Y87.895 E2.64742
G1 X116.923 Y88.288 E2.66727
G1 X117.187 Y90.321 E2.76929
G1 X117.225 Y90.801 E2.79325
G1 X117.282 Y92.775 E2.89153
G1 X117.272 Y93.248 E2.91507
G1 X117.134 Y95.219 E3.0134
G1 X117.077 Y95.696 E3.03731
G1 X116.736 Y97.681 E3.13754
G1 X116.632 Y98.145 E3.1612
G1 X116.106 Y100.05 E3.25956
G1 X115.954 Y100.51 E3.28366
G1 X115.223 Y102.392 E3.38414
G1 X115.031 Y102.821 E3.40753
G1 X114.145 Y104.572 E3.50519
G1 X113.841 Y105.09 E3.53508
G1 X112.161 Y107.579 E3.68452
G1 X111.795 Y108.054 E3.71436
G1 X110.479 Y109.558 E3.81382
G1 X110.147 Y109.902 E3.83761
G1 X108.699 Y111.257 E3.9363
G1 X108.337 Y111.563 E3.95989
G1 X106.764 Y112.767 E4.05847
G1 X106.371 Y113.039 E4.08225
G1 X104.669 Y114.091 E4.18183
G1 X104.252 Y114.321 E4.20553
G1 X102.493 Y115.18 E4.30295
G1 X102.065 Y115.363 E4.32611
G1 X100.213 Y116.054 E4.42448
G1 X99.746 Y116.202 E4.44886
G1 X97.748 Y116.723 E4.55162
G1 X97.297 Y116.818 E4.57456
G1 X95.581 Y117.093 E4.66104
G1 X95.142 Y117.142 E4.68303
G1 X93.153 Y117.275 E4.78223
G1 X92.667 Y117.283 E4.80642
G1 X90.621 Y117.212 E4.9083
G1 X90.138 Y117.171 E4.93242
G1 X88.175 Y116.903 E5.03102
G1 X87.798 Y116.836 E5.05008
G1 X86.615 Y116.577 E5.11034
G1 X86.273 Y116.489 E5.12792
G1 X84.566 Y115.981 E5.21655
G1 X84.137 Y115.831 E5.23917
G1 X82.34 Y115.105 E5.33562
G1 X82.003 Y114.953 E5.35401
G1 X80.91 Y114.41 E5.41475
G1 X80.567 Y114.222 E5.43422
G1 X78.848 Y113.185 E5.53412
G1 X78.448 Y112.915 E5.55814
G1 X76.833 Y111.704 E5.6586
G1 X76.464 Y111.398 E5.68245
G1 X75.017 Y110.068 E5.78026
G1 X74.685 Y109.731 E5.8038
G1 X73.355 Y108.241 E5.9032
G1 X73.054 Y107.867 E5.92709
G1 X71.883 Y106.256 E6.0262
G1 X71.619 Y105.851 E6.05026
G1 X70.61 Y104.12 E6.14997
G1 X70.394 Y103.705 E6.17326
G1 X69.57 Y101.909 E6.27159
G1 X69.397 Y101.479 E6.29466
G1 X68.806 Y99.773 E6.38451
G1 X68.679 Y99.34 E6.40696
G1 X68.206 Y97.401 E6.50629
G1 X68.116 Y96.935 E6.52991
G1 X67.843 Y95.004 E6.62696
G1 X67.8 Y94.538 E6.65025
G1 X67.716 Y92.572 E6.74818
G1 X67.72 Y92.091 E6.77212
G1 X67.838 Y90.045 E6.87411
G1 X67.891 Y89.556 E6.89858
G1 X68.211 Y87.575 E6.99845
G1 X68.286 Y87.205 E7.01724
G1 X68.569 Y86.043 E7.07675
G1 X68.674 Y85.676 E7.09575
G1 X69.293 Y83.799 E7.19411
G1 X69.516 Y83.244 E7.22387
G1 X70.802 Y80.536 E7.37306
G1 X71.093 Y80.011 E7.40293
G1 X72.162 Y78.338 E7.50174
G1 X72.437 Y77.95 E7.5254
G1 X73.688 Y76.364 E7.62593
G1 X74.002 Y76.004 E7.6497
G1 X75.37 Y74.586 E7.74776
G0 F2400 X75.658 Y74.863
G1 F1200 X75.984 Y74.558 E7.76997
G1 X77.527 Y73.254 E7.87051
G1 X77.87 Y72.991 E7.89202
G1 X79.481 Y71.881 E7.98938
G1 X79.853 Y71.651 E8.01115
G1 X81.629 Y70.672 E8.11207
G1 X82.027 Y70.479 E8.13408
G1 X83.846 Y69.703 E8.2325
G1 X84.257 Y69.551 E8.25431
G1 X86.18 Y68.949 E8.35458
G1 X86.577 Y68.845 E8.37501
G1 X88.269 Y68.484 E8.46111
G1 X88.677 Y68.417 E8.48168
G1 X90.695 Y68.182 E8.58279
G1 X91.134 Y68.153 E8.60468
G1 X93.072 Y68.122 E8.70114
G1 X93.502 Y68.136 E8.72255
G1 X95.488 Y68.299 E8.82172
G1 X95.954 Y68.362 E8.84512
G1 X98.182 Y68.788 E8.95801
G1 X98.61 Y68.893 E8.97994
G1 X100.32 Y69.402 E9.06873
G1 X100.735 Y69.548 E9.09062
G1 X102.743 Y70.372 E9.19864
G1 X103.155 Y70.567 E9.22132
G1 X104.912 Y71.511 E9.32058
G1 X105.285 Y71.736 E9.34226
G1 X106.935 Y72.846 E9.44122
G1 X107.292 Y73.113 E9.46341
G1 X108.853 Y74.411 E9.56444
G1 X109.179 Y74.711 E9.58649
G1 X110.574 Y76.131 E9.68555
G1 X110.863 Y76.456 E9.70719
G1 X112.101 Y77.995 E9.80549
G1 X112.356 Y78.347 E9.82712
G1 X113.452 Y80.025 E9.92686
G1 X113.675 Y80.406 E9.94883
G1 X114.59 Y82.172 E10.04781
G1 X114.762 Y82.547 E10.06834
G1 X115.422 Y84.179 E10.15595
G1 X115.558 Y84.565 E10.17631
G1 X116.119 Y86.438 E10.27362
G1 X116.205 Y86.773 E10.29083
G1 X116.465 Y87.979 E10.35222
G1 X116.527 Y88.34 E10.37045
G1 X116.791 Y90.373 E10.47248
G1 X116.826 Y90.812 E10.49439
G1 X116.883 Y92.786 E10.59267
G1 X116.874 Y93.22 E10.61427
G1 X116.736 Y95.191 E10.7126
G1 X116.684 Y95.628 E10.7345
G1 X116.343 Y97.613 E10.83473
G1 X116.247 Y98.039 E10.85646
G1 X115.721 Y99.944 E10.95482
G1 X115.582 Y100.366 E10.97693
G1 X114.851 Y102.248 E11.0774
G1 X114.675 Y102.641 E11.09883
G1 X113.789 Y104.392 E11.19649
G1 X113.51 Y104.867 E11.22391
G1 X111.83 Y107.356 E11.37335
G1 X111.495 Y107.791 E11.40067
G1 X110.179 Y109.295 E11.50013
G1 X109.874 Y109.611 E11.52198
G1 X108.426 Y110.966 E11.62067
G1 X108.095 Y111.247 E11.64228
G1 X106.522 Y112.451 E11.74086
G1 X106.161 Y112.699 E11.76266
G1 X104.459 Y113.751 E11.86223
G1 X104.076 Y113.962 E11.88399
G1 X102.317 Y114.821 E11.98141
G1 X101.925 Y114.99 E12.00265
G1 X100.073 Y115.681 E12.10103
G1 X99.645 Y115.816 E12.12336
G1 X97.647 Y116.337 E12.22612
G1 X97.234 Y116.424 E12.24712
G1 X95.518 Y116.699 E12.33361
G1 X95.115 Y116.744 E12.35379
G1 X93.126 Y116.877 E12.45299
G1 X92.681 Y116.884 E12.47514
G1 X90.635 Y116.813 E12.57702
G1 X90.192 Y116.776 E12.59914
G1 X88.229 Y116.508 E12.69774
G1 X87.884 Y116.446 E12.71518
G1 X86.701 Y116.187 E12.77545
G1 X86.387 Y116.106 E12.79159
G1 X84.68 Y115.598 E12.88022
G1 X84.287 Y115.461 E12.90093
G1 X82.49 Y114.735 E12.99738
G1 X82.181 Y114.596 E13.01425
G1 X81.088 Y114.053 E13.07498
G1 X80.773 Y113.88 E13.09287
G1 X79.054 Y112.843 E13.19278
G1 X78.687 Y112.596 E13.21479
G1 X77.072 Y111.385 E13.31525
G1 X76.734 Y111.104 E13.33712
G1 X75.287 Y109.774 E13.43493
G1 X74.983 Y109.465 E13.4565
G1 X73.653 Y107.975 E13.5559
G1 X73.376 Y107.632 E13.57784
G1 X72.205 Y106.021 E13.67695
G1 X71.963 Y105.65 E13.69899
G1 X70.954 Y103.919 E13.7987
G1 X70.757 Y103.539 E13.82001
G1 X69.933 Y101.743 E13.91834
G1 X69.774 Y101.348 E13.93953
G1 X69.183 Y99.642 E14.02938
G1 X69.066 Y99.245 E14.04998
G1 X68.593 Y97.306 E14.1493
G1 X68.511 Y96.88 E14.17089
G1 X68.238 Y94.949 E14.26795
G1 X68.199 Y94.521 E14.28933
G1 X68.115 Y92.555 E14.38726
G1 X68.118 Y92.114 E14.40921
G1 X68.236 Y90.068 E14.5112
G1 X68.285 Y89.62 E14.53363
G1 X68.605 Y87.639 E14.63349
G1 X68.674 Y87.3 E14.65071
G1 X68.957 Y86.138 E14.71022
G1 X69.053 Y85.801 E14.72766
G1 X69.672 Y83.924 E14.82602
G1 X69.876 Y83.415 E14.85331
G1 X71.162 Y80.707 E15.0025
G1 X71.429 Y80.225 E15.02992
G1 X72.498 Y78.552 E15.12872
G1 X72.751 Y78.197 E15.15042
G1 X74.002 Y76.611 E15.25094
G1 X74.29 Y76.281 E15.27274
G1 X75.658 Y74.863 E15.37079
G0 F2400 X75.945 Y75.14
G1 F1200 X76.241 Y74.862 E15.391
G1 X77.784 Y73.558 E15.49154
G1 X78.097 Y73.32 E15.51111
G1 X79.708 Y72.21 E15.60847
G1 X80.046 Y72.001 E15.62824
G1 X81.822 Y71.022 E15.72917
G1 X82.183 Y70.846 E15.74915
G1 X84.002 Y70.07 E15.84757
G1 X84.377 Y69.932 E15.86746
G1 X86.3 Y69.33 E15.96773
G1 X86.66 Y69.235 E15.98626
G1 X88.352 Y68.874 E16.07236
G1 X88.724 Y68.813 E16.09112
G1 X90.742 Y68.578 E16.19223
G1 X91.14 Y68.552 E16.21208
G1 X93.078 Y68.521 E16.30853
G1 X93.469 Y68.533 E16.328
G1 X95.455 Y68.696 E16.42717
G1 X95.879 Y68.754 E16.44847
G1 X98.107 Y69.18 E16.56135
G1 X98.497 Y69.275 E16.58133
G1 X100.207 Y69.784 E16.67012
G1 X100.584 Y69.917 E16.69001
G1 X102.592 Y70.741 E16.79803
G1 X102.966 Y70.918 E16.81862
G1 X104.723 Y71.862 E16.91788
G1 X105.063 Y72.067 E16.93764
G1 X106.713 Y73.177 E17.0366
G1 X107.037 Y73.42 E17.05675
G1 X108.598 Y74.718 E17.15779
G1 X108.894 Y74.99 E17.17779
G1 X110.289 Y76.41 E17.27685
G1 X110.552 Y76.706 E17.29656
G1 X111.79 Y78.245 E17.39485
G1 X112.022 Y78.565 E17.41452
G1 X113.118 Y80.243 E17.51426
G1 X113.321 Y80.59 E17.53427
G1 X114.236 Y82.356 E17.63325
G1 X114.392 Y82.696 E17.65187
G1 X115.052 Y84.328 E17.73948
G1 X115.176 Y84.68 E17.75805
G1 X115.737 Y86.553 E17.85535
G1 X115.815 Y86.857 E17.87097
G1 X116.075 Y88.063 E17.93237
G1 X116.132 Y88.391 E17.94893
G1 X116.396 Y90.424 E18.05096
G1 X116.427 Y90.824 E18.07092
G1 X116.484 Y92.798 E18.1692
G1 X116.476 Y93.192 E18.18881
G1 X116.338 Y95.163 E18.28714
G1 X116.29 Y95.561 E18.30709
G1 X115.949 Y97.546 E18.40732
G1 X115.863 Y97.933 E18.42705
G1 X115.337 Y99.838 E18.5254
G1 X115.21 Y100.222 E18.54553
G1 X114.479 Y102.104 E18.646
G1 X114.319 Y102.461 E18.66547
G1 X113.433 Y104.212 E18.76313
G1 X113.18 Y104.644 E18.78805
G1 X111.5 Y107.133 E18.93749
G1 X111.195 Y107.529 E18.96236
G1 X109.879 Y109.033 E19.06182
G1 X109.602 Y109.319 E19.08163
G1 X108.154 Y110.674 E19.18032
G1 X107.852 Y110.93 E19.20003
G1 X106.279 Y112.134 E19.29861
G1 X105.951 Y112.36 E19.31843
G1 X104.249 Y113.412 E19.418
G1 X103.901 Y113.604 E19.43778
G1 X102.142 Y114.463 E19.5352
G1 X101.786 Y114.616 E19.55448
G1 X99.934 Y115.307 E19.65286
G1 X99.545 Y115.43 E19.67316
G1 X97.547 Y115.951 E19.77592
G1 X97.171 Y116.03 E19.79504
G1 X95.455 Y116.305 E19.88152
G1 X95.089 Y116.346 E19.89985
G1 X93.1 Y116.479 E19.99906
G1 X92.694 Y116.486 E20.01926
G1 X90.648 Y116.415 E20.12114
G1 X90.246 Y116.38 E20.14123
G1 X88.283 Y116.112 E20.23982
G1 X87.969 Y116.056 E20.25569
G1 X86.786 Y115.797 E20.31596
G1 X86.501 Y115.724 E20.3306
G1 X84.794 Y115.216 E20.41923
G1 X84.436 Y115.091 E20.43811
G1 X82.639 Y114.365 E20.53456
G1 X82.358 Y114.238 E20.5499
G1 X81.265 Y113.695 E20.61064
G1 X80.979 Y113.538 E20.62688
G1 X79.26 Y112.501 E20.72678
G1 X78.927 Y112.277 E20.74676
G1 X77.312 Y111.066 E20.84721
G1 X77.004 Y110.811 E20.86711
G1 X75.557 Y109.481 E20.96492
G1 X75.28 Y109.199 E20.98459
G1 X73.95 Y107.709 E21.08398
G1 X73.699 Y107.398 E21.10387
G1 X72.528 Y105.787 E21.20299
G1 X72.308 Y105.449 E21.22306
G1 X71.299 Y103.718 E21.32277
G1 X71.119 Y103.372 E21.34218
G1 X70.295 Y101.576 E21.44051
G1 X70.151 Y101.218 E21.45972
G1 X69.56 Y99.512 E21.54957
G1 X69.454 Y99.15 E21.56834
G1 X68.981 Y97.211 E21.66766
G1 X68.906 Y96.824 E21.68728
G1 X68.633 Y94.893 E21.78433
G1 X68.598 Y94.504 E21.80377
G1 X68.514 Y92.538 E21.9017
G1 X68.517 Y92.137 E21.92166
G1 X68.635 Y90.091 E22.02365
G1 X68.679 Y89.683 E22.04407
G1 X68.999 Y87.702 E22.14393
G1 X69.062 Y87.394 E22.15958
G1 X69.345 Y86.232 E22.21909
G1 X69.432 Y85.926 E22.23493
G1 X70.051 Y84.049 E22.33328
G1 X70.237 Y83.586 E22.35811
G1 X71.523 Y80.878 E22.5073
G1 X71.765 Y80.44 E22.53221
G1 X72.834 Y78.767 E22.63101
G1 X73.064 Y78.444 E22.65074
G1 X74.315 Y76.858 E22.75127
G1 X74.577 Y76.558 E22.77109
G1 X75.945 Y75.14 E22.86914
G0 F2400 X76.232 Y75.417
G1 F1200 X76.499 Y75.167 E22.88735
G1 X78.042 Y73.863 E22.98788
G1 X78.323 Y73.648 E23.00549
G1 X79.934 Y72.538 E23.10285
G1 X80.239 Y72.35 E23.12068
G1 X82.015 Y71.371 E23.2216
G1 X82.34 Y71.213 E23.23959
G1 X84.159 Y70.437 E23.33801
G1 X84.496 Y70.312 E23.35589
G1 X86.419 Y69.71 E23.45617
G1 X86.743 Y69.625 E23.47284
G1 X88.435 Y69.264 E23.55894
G1 X88.77 Y69.209 E23.57583
G1 X90.788 Y68.974 E23.67694
G1 X91.146 Y68.95 E23.6948
G1 X93.084 Y68.919 E23.79125
G1 X93.436 Y68.931 E23.80878
G1 X95.422 Y69.094 E23.90795
G1 X95.804 Y69.146 E23.92713
G1 X98.032 Y69.572 E24.04002
G1 X98.383 Y69.658 E24.058
G1 X100.093 Y70.167 E24.14679
G1 X100.432 Y70.286 E24.16467
G1 X102.44 Y71.11 E24.27269
G1 X102.777 Y71.27 E24.29125
G1 X104.534 Y72.214 E24.39051
G1 X104.84 Y72.398 E24.40828
G1 X106.49 Y73.508 E24.50725
G1 X106.782 Y73.727 E24.52541
G1 X108.343 Y75.025 E24.62644
G1 X108.609 Y75.27 E24.64444
G1 X110.004 Y76.69 E24.7435
G1 X110.241 Y76.956 E24.76123
G1 X111.479 Y78.495 E24.85952
G1 X111.688 Y78.783 E24.87723
G1 X112.784 Y80.461 E24.97697
G1 X112.967 Y80.773 E24.99498
G1 X113.882 Y82.539 E25.09396
G1 X114.022 Y82.846 E25.11075
G1 X114.682 Y84.478 E25.19836
G1 X114.794 Y84.794 E25.21504
G1 X115.355 Y86.667 E25.31234
G1 X115.425 Y86.942 E25.32646
G1 X115.685 Y88.148 E25.38786
G1 X115.736 Y88.443 E25.40276
G1 X116 Y90.476 E25.50478
G1 X116.029 Y90.835 E25.52271
G1 X116.086 Y92.809 E25.62098
G1 X116.078 Y93.164 E25.63865
G1 X115.94 Y95.135 E25.73698
G1 X115.897 Y95.493 E25.75493
G1 X115.556 Y97.478 E25.85516
G1 X115.478 Y97.827 E25.87296
G1 X114.952 Y99.732 E25.97131
G1 X114.838 Y100.077 E25.98939
G1 X114.107 Y101.959 E26.08986
G1 X113.963 Y102.281 E26.10742
G1 X113.077 Y104.032 E26.20508
G1 X112.849 Y104.42 E26.22747
G1 X111.169 Y106.909 E26.37691
G1 X110.895 Y107.266 E26.39931
G1 X109.579 Y108.77 E26.49877
G1 X109.329 Y109.028 E26.51664
G1 X107.881 Y110.383 E26.61533
G1 X107.609 Y110.613 E26.63306
G1 X106.036 Y111.817 E26.73164
G1 X105.741 Y112.02 E26.74946
G1 X104.039 Y113.072 E26.84904
G1 X103.726 Y113.245 E26.86683
G1 X101.967 Y114.104 E26.96425
G1 X101.646 Y114.242 E26.98164
G1 X99.794 Y114.933 E27.08001
G1 X99.444 Y115.044 E27.09829
G1 X97.446 Y115.565 E27.20104
G1 X97.107 Y115.636 E27.21828
G1 X95.391 Y115.911 E27.30477
G1 X95.062 Y115.948 E27.32124
G1 X93.073 Y116.081 E27.42045
G1 X92.708 Y116.087 E27.43861
G1 X90.662 Y116.016 E27.54049
G1 X90.3 Y115.985 E27.55858
G1 X88.337 Y115.717 E27.65717
G1 X88.054 Y115.667 E27.67147
G1 X86.871 Y115.408 E27.73174
G1 X86.614 Y115.341 E27.74496
G1 X84.907 Y114.833 E27.83359
G1 X84.586 Y114.721 E27.85051
G1 X82.789 Y113.995 E27.94696
G1 X82.536 Y113.881 E27.96077
G1 X81.443 Y113.338 E28.02151
G1 X81.185 Y113.197 E28.03614
G1 X79.466 Y112.16 E28.13604
G1 X79.166 Y111.957 E28.15407
G1 X77.551 Y110.746 E28.25453
G1 X77.275 Y110.517 E28.27238
G1 X75.828 Y109.187 E28.37018
G1 X75.578 Y108.934 E28.38788
G1 X74.248 Y107.444 E28.48728
G1 X74.022 Y107.163 E28.50522
G1 X72.851 Y105.552 E28.60434
G1 X72.653 Y105.248 E28.62239
G1 X71.644 Y103.517 E28.7221
G1 X71.482 Y103.206 E28.73955
G1 X70.658 Y101.41 E28.83789
G1 X70.528 Y101.087 E28.85522
G1 X69.937 Y99.381 E28.94507
G1 X69.842 Y99.056 E28.96192
G1 X69.369 Y97.117 E29.06124
G1 X69.301 Y96.768 E29.07894
G1 X69.028 Y94.837 E29.17599
G1 X68.996 Y94.487 E29.19348
G1 X68.912 Y92.521 E29.29141
G1 X68.915 Y92.16 E29.30938
G1 X69.033 Y90.114 E29.41136
G1 X69.073 Y89.747 E29.42974
G1 X69.393 Y87.766 E29.5296
G1 X69.449 Y87.488 E29.54371
G1 X69.732 Y86.326 E29.60323
G1 X69.811 Y86.051 E29.61747
G1 X70.43 Y84.174 E29.71583
G1 X70.597 Y83.757 E29.73818
G1 X71.883 Y81.049 E29.88737
G1 X72.101 Y80.655 E29.90978
G1 X73.17 Y78.982 E30.00858
G1 X73.377 Y78.691 E30.02636
G1 X74.628 Y77.105 E30.12688
G1 X74.864 Y76.835 E30.14473
G1 X76.232 Y75.417 E30.24278
G0 F2400 X76.519 Y75.694
G1 F1200 X76.756 Y75.472 E30.25894
G1 X78.299 Y74.168 E30.35948
G1 X78.549 Y73.977 E30.37514
G1 X80.16 Y72.867 E30.4725
G1 X80.431 Y72.7 E30.48834
G1 X82.207 Y71.721 E30.58926
G1 X82.496 Y71.58 E30.60526
G1 X84.315 Y70.804 E30.70368
G1 X84.615 Y70.693 E30.7196
G1 X86.538 Y70.091 E30.81988
G1 X86.826 Y70.015 E30.8347
G1 X88.518 Y69.654 E30.9208
G1 X88.816 Y69.605 E30.93583
G1 X90.834 Y69.37 E31.03693
G1 X91.153 Y69.349 E31.05284
