;FLAVOR:Marlin
;TIME:1309
;Filament used: 1.17817m
;Layer height: 0.2
;Generated with Cura_SteamEngine 2.7.0
M190 S60
M104 S220
M109 S220
G21 ;metric values
G90 ;absolute positioning
M82 ;set extruder to absolute mode
M107 ;start with the fan off
G92 E0 ;zero the extruded length
G1 F200 E3 ;extrude 3mm of feed stock
G92 E0 ;zero the extruded length again
G1 F9000
M301 P31.36 I3.30 D74.51 ;set PID tuning for E0
M304 P72.25 I2.72 D479.41 ; set PID tuning for heated bed
M117 Printing...
;LAYER_COUNT:52
;LAYER:0
M107
M205 X20 Y20
G0 F2400 X66.481 Y79.685 Z0.3
;TYPE:SKIRT
G1 F1050 X66.991 Y79.334 E0.03081
G1 X67.542 Y79.052 E0.06161
G1 X68.125 Y78.844 E0.09242
G1 X68.73 Y78.712 E0.12323
G1 X69.446 Y78.658 E0.15897
G1 X115.583 Y78.659 E2.455
G1 X116.201 Y78.699 E2.48582
G1 X116.808 Y78.818 E2.5166
G1 X117.396 Y79.015 E2.54746
G1 X117.952 Y79.285 E2.57822
G1 X118.47 Y79.625 E2.60906
G1 X118.939 Y80.029 E2.63986
G1 X119.352 Y80.49 E2.67066
G1 X119.703 Y81 E2.70147
G1 X119.985 Y81.551 E2.73228
G1 X120.194 Y82.134 E2.7631
G1 X120.325 Y82.739 E2.7939
G1 X120.379 Y83.456 E2.82969
G1 X120.378 Y90.187 E3.16466
G1 X120.338 Y90.805 E3.19548
G1 X120.219 Y91.412 E3.22626
G1 X120.022 Y91.999 E3.25707
G1 X119.752 Y92.556 E3.28788
G1 X119.412 Y93.073 E3.31867
G1 X119.008 Y93.543 E3.34952
G1 X118.547 Y93.956 E3.38032
G1 X117.933 Y94.366 E3.41706
G1 X113.466 Y96.879 E3.67213
G1 X108.937 Y99.758 E3.9392
G1 X103.116 Y103.963 E4.29656
G1 X102.592 Y104.292 E4.32735
G1 X102.029 Y104.551 E4.35819
G1 X101.438 Y104.736 E4.38901
G1 X101.131 Y104.8 E4.40462
G1 X100.638 Y104.886 E4.42952
G1 X99.762 Y104.957 E4.47326
G1 X91.068 Y104.863 E4.90595
G1 X85.103 Y104.95 E5.20283
G1 X84.484 Y104.92 E5.23367
G1 X83.875 Y104.809 E5.26448
G1 X83.079 Y104.535 E5.30637
G1 X82.438 Y104.249 E5.3413
G1 X81.89 Y103.961 E5.37211
G1 X81.533 Y103.72 E5.39355
G1 X77.507 Y100.731 E5.64308
G1 X73.023 Y97.77 E5.91049
G1 X67.06 Y94.349 E6.25261
G1 X66.544 Y94.007 E6.28342
G1 X66.076 Y93.601 E6.31425
G1 X65.664 Y93.139 E6.34506
G1 X65.316 Y92.627 E6.37587
G1 X65.036 Y92.075 E6.40667
G1 X64.83 Y91.491 E6.43749
G1 X64.701 Y90.886 E6.46827
G1 X64.65 Y90.189 E6.50305
G1 X64.65 Y83.454 E6.83822
G1 X64.69 Y82.836 E6.86904
G1 X64.809 Y82.229 E6.89983
G1 X65.006 Y81.642 E6.93064
G1 X65.276 Y81.085 E6.96144
G1 X65.616 Y80.567 E6.99228
G1 X66.02 Y80.098 E7.02308
G1 X66.481 Y79.685 E7.05389
G0 F2400 X66.868 Y79.892
G1 F1050 X67.371 Y79.577 E7.08342
G1 X67.911 Y79.334 E7.11289
G1 X68.479 Y79.165 E7.14238
G1 X69.065 Y79.074 E7.17189
G1 X69.446 Y79.057 E7.19087
G1 X115.583 Y79.058 E9.4869
G1 X116.175 Y79.098 E9.51643
G1 X116.755 Y79.217 E9.5459
G1 X117.315 Y79.413 E9.57542
G1 X117.842 Y79.683 E9.60489
G1 X118.329 Y80.021 E9.63439
G1 X118.766 Y80.422 E9.66391
G1 X119.145 Y80.877 E9.69338
G1 X119.46 Y81.38 E9.72291
G1 X119.703 Y81.92 E9.75238
G1 X119.872 Y82.488 E9.78187
G1 X119.963 Y83.074 E9.81139
G1 X119.98 Y83.456 E9.83042
G1 X119.979 Y90.187 E10.16539
G1 X119.939 Y90.778 E10.19487
G1 X119.82 Y91.359 E10.22438
G1 X119.623 Y91.918 E10.25388
G1 X119.354 Y92.446 E10.28336
G1 X119.016 Y92.933 E10.31287
G1 X118.615 Y93.37 E10.34238
G1 X118.159 Y93.749 E10.37189
G1 X117.738 Y94.018 E10.39675
G1 X113.27 Y96.531 E10.65186
G1 X108.694 Y99.44 E10.92171
G1 X102.882 Y103.639 E11.27853
G1 X102.379 Y103.953 E11.30804
G1 X101.839 Y104.197 E11.33753
G1 X101.063 Y104.407 E11.37754
G1 X100.57 Y104.493 E11.40244
G1 X99.767 Y104.558 E11.44254
G1 X91.106 Y104.465 E11.87358
G1 X85.097 Y104.552 E12.17265
G1 X84.505 Y104.52 E12.20216
G1 X83.923 Y104.409 E12.23164
G1 X83.241 Y104.17 E12.26761
G1 X82.6 Y103.884 E12.30254
G1 X82.077 Y103.607 E12.33199
G1 X81.771 Y103.399 E12.3504
G1 X77.743 Y100.409 E12.60005
G1 X73.239 Y97.434 E12.86868
G1 X67.258 Y94.003 E13.21182
G1 X66.765 Y93.674 E13.24132
G1 X66.321 Y93.282 E13.27079
G1 X65.933 Y92.833 E13.30032
G1 X65.609 Y92.337 E13.32981
G1 X65.355 Y91.801 E13.35932
G1 X65.176 Y91.236 E13.38882
G1 X65.073 Y90.653 E13.41828
G1 X65.049 Y90.189 E13.4414
G1 X65.049 Y83.454 E13.77657
G1 X65.089 Y82.863 E13.80605
G1 X65.208 Y82.282 E13.83557
G1 X65.404 Y81.723 E13.86505
G1 X65.674 Y81.195 E13.89456
G1 X66.012 Y80.708 E13.92406
G1 X66.413 Y80.271 E13.95357
G1 X66.868 Y79.892 E13.98304
G0 F2400 X67.254 Y80.111
G1 F1050 X67.747 Y79.835 E14.01116
G1 X68.274 Y79.632 E14.03927
G1 X68.825 Y79.505 E14.06741
G1 X69.446 Y79.456 E14.09841
G1 X115.583 Y79.457 E16.39444
G1 X116.147 Y79.497 E16.42258
G1 X116.699 Y79.616 E16.45068
G1 X117.23 Y79.812 E16.47884
G1 X117.727 Y80.08 E16.50695
G1 X118.181 Y80.416 E16.53505
G1 X118.584 Y80.813 E16.56321
G1 X118.926 Y81.263 E16.59133
G1 X119.202 Y81.756 E16.61945
G1 X119.405 Y82.283 E16.64756
G1 X119.533 Y82.834 E16.67571
G1 X119.581 Y83.456 E16.70675
G1 X119.58 Y90.187 E17.04172
G1 X119.54 Y90.75 E17.06981
G1 X119.421 Y91.303 E17.09796
G1 X119.225 Y91.833 E17.12608
G1 X118.956 Y92.33 E17.15421
G1 X118.62 Y92.785 E17.18236
G1 X118.223 Y93.187 E17.21047
G1 X117.542 Y93.671 E17.25205
G1 X113.054 Y96.195 E17.5083
G1 X108.475 Y99.106 E17.77832
G1 X102.648 Y103.316 E18.13607
G1 X102.168 Y103.613 E18.16416
G1 X101.65 Y103.841 E18.19233
G1 X100.994 Y104.014 E18.22609
G1 X100.501 Y104.1 E18.251
G1 X99.771 Y104.159 E18.28744
G1 X91.104 Y104.066 E18.71879
G1 X85.091 Y104.153 E19.01806
G1 X84.527 Y104.121 E19.04617
G1 X83.973 Y104.01 E19.07429
G1 X83.404 Y103.806 E19.10437
G1 X82.763 Y103.52 E19.1393
G1 X82.264 Y103.254 E19.16744
G1 X82.009 Y103.079 E19.18283
G1 X77.968 Y100.078 E19.43332
G1 X73.448 Y97.093 E19.70289
G1 X67.457 Y93.657 E20.04659
G1 X66.988 Y93.342 E20.0747
G1 X66.568 Y92.964 E20.10282
G1 X66.205 Y92.53 E20.13098
G1 X65.907 Y92.05 E20.1591
G1 X65.68 Y91.532 E20.18724
G1 X65.529 Y90.987 E20.21539
G1 X65.448 Y90.189 E20.2553
G1 X65.448 Y83.454 E20.59048
G1 X65.488 Y82.89 E20.61861
G1 X65.607 Y82.338 E20.64671
G1 X65.803 Y81.808 E20.67484
G1 X66.071 Y81.31 E20.70298
G1 X66.407 Y80.856 E20.73109
G1 X66.804 Y80.453 E20.75924
G1 X67.254 Y80.111 E20.78737
G0 F2400 X67.636 Y80.343
G1 F1050 X68.118 Y80.109 E20.81403
G1 X68.63 Y79.949 E20.84073
G1 X69.16 Y79.866 E20.86743
G1 X69.446 Y79.855 E20.88167
G1 X115.583 Y79.856 E23.1777
G1 X116.118 Y79.896 E23.2044
G1 X116.641 Y80.015 E23.23109
G1 X117.14 Y80.21 E23.25775
G1 X117.605 Y80.478 E23.28446
G1 X118.025 Y80.811 E23.31114
G1 X118.39 Y81.203 E23.33779
G1 X118.694 Y81.645 E23.36449
G1 X118.928 Y82.128 E23.3912
G1 X119.088 Y82.639 E23.41784
G1 X119.171 Y83.169 E23.44454
G1 X119.182 Y83.456 E23.45883
G1 X119.181 Y90.187 E23.79381
G1 X119.141 Y90.721 E23.82045
G1 X119.022 Y91.244 E23.84715
G1 X118.827 Y91.743 E23.87381
G1 X118.559 Y92.208 E23.90052
G1 X118.226 Y92.628 E23.92719
G1 X117.834 Y92.994 E23.95388
G1 X117.346 Y93.323 E23.98317
G1 X112.852 Y95.851 E24.23977
G1 X108.253 Y98.774 E24.51096
G1 X102.415 Y102.992 E24.86939
G1 X101.958 Y103.273 E24.89609
G1 X101.464 Y103.483 E24.9228
G1 X100.925 Y103.62 E24.95048
G1 X100.432 Y103.706 E24.97538
G1 X99.775 Y103.76 E25.00819
G1 X91.102 Y103.667 E25.43983
G1 X85.085 Y103.754 E25.7393
G1 X84.55 Y103.721 E25.76597
G1 X84.026 Y103.61 E25.79263
G1 X83.567 Y103.442 E25.81695
G1 X82.926 Y103.156 E25.85188
G1 X82.247 Y102.759 E25.89103
G1 X78.192 Y99.748 E26.14238
G1 X73.663 Y96.757 E26.41248
G1 X67.655 Y93.311 E26.75716
G1 X67.211 Y93.01 E26.78385
G1 X66.817 Y92.647 E26.81051
G1 X66.481 Y92.229 E26.8372
G1 X66.211 Y91.766 E26.86388
G1 X66.012 Y91.268 E26.89057
G1 X65.89 Y90.745 E26.91729
G1 X65.847 Y90.189 E26.94504
G1 X65.847 Y83.454 E27.28021
G1 X65.887 Y82.919 E27.30691
G1 X66.006 Y82.396 E27.33361
G1 X66.201 Y81.897 E27.36027
G1 X66.469 Y81.432 E27.38698
G1 X66.802 Y81.012 E27.41365
G1 X67.194 Y80.647 E27.44031
G1 X67.636 Y80.343 E27.467
G0 F2400 X68.015 Y80.592
G1 F1050 X68.483 Y80.402 E27.49214
G1 X68.976 Y80.289 E27.51731
G1 X69.446 Y80.254 E27.54076
G1 X115.583 Y80.255 E29.83679
G1 X116.087 Y80.295 E29.86196
G1 X116.578 Y80.414 E29.8871
G1 X117.045 Y80.609 E29.91228
G1 X117.475 Y80.874 E29.93742
G1 X117.858 Y81.205 E29.96261
G1 X118.184 Y81.591 E29.98775
G1 X118.445 Y82.024 E30.01292
G1 X118.635 Y82.492 E30.03805
G1 X118.748 Y82.985 E30.06322
G1 X118.783 Y83.455 E30.08668
G1 X118.782 Y90.186 E30.42165
G1 X118.742 Y90.69 E30.44681
G1 X118.623 Y91.182 E30.472
G1 X118.428 Y91.648 E30.49714
G1 X118.162 Y92.078 E30.5223
G1 X117.832 Y92.461 E30.54746
G1 X117.446 Y92.787 E30.5726
G1 X117.151 Y92.975 E30.59001
G1 X112.656 Y95.503 E30.84666
G1 X108.022 Y98.449 E31.11993
G1 X102.181 Y102.669 E31.47854
G1 X101.749 Y102.932 E31.50371
G1 X101.281 Y103.123 E31.52886
G1 X100.857 Y103.227 E31.55059
G1 X100.364 Y103.313 E31.57549
G1 X99.78 Y103.361 E31.60465
G1 X91.101 Y103.267 E32.03659
G1 X85.079 Y103.355 E32.33631
G1 X84.575 Y103.322 E32.36145
G1 X84.082 Y103.21 E32.38661
G1 X83.729 Y103.077 E32.40538
G1 X83.088 Y102.791 E32.44031
G1 X82.484 Y102.438 E32.47513
G1 X78.42 Y99.42 E32.72704
G1 X73.872 Y96.417 E32.99826
G1 X67.854 Y92.965 E33.34353
G1 X67.436 Y92.679 E33.36873
G1 X67.069 Y92.332 E33.39387
G1 X66.762 Y91.931 E33.419
G1 X66.521 Y91.486 E33.44418
G1 X66.353 Y91.009 E33.46935
G1 X66.262 Y90.512 E33.4945
G1 X66.246 Y90.189 E33.51059
G1 X66.246 Y83.454 E33.84576
G1 X66.286 Y82.95 E33.87092
G1 X66.405 Y82.459 E33.89606
G1 X66.599 Y81.992 E33.92123
G1 X66.865 Y81.562 E33.94639
G1 X67.195 Y81.179 E33.97155
G1 X67.582 Y80.853 E33.99673
G1 X68.015 Y80.592 E34.02189
G1 F1500 E33.02189
G0 F2400 X68.775 Y90.352
G0 X69.279 Y90.856
G0 X84.3 Y98.216
;TYPE:SUPPORT
G1 F1500 E34.02189
G1 F1050 X84.513 Y98.365 E34.03483
G1 X84.685 Y98.442 E34.04421
G1 X84.93 Y98.508 E34.05683
G1 X85.074 Y98.525 E34.06405
G1 X88.015 Y98.524 E34.21041
G1 X88.015 Y99.849 E34.27635
G1 X87.897 Y99.967 E34.28465
G1 X85.043 Y99.965 E34.42669
G1 X84.894 Y99.936 E34.43424
G1 X84.77 Y99.889 E34.44084
G1 X84.67 Y99.835 E34.44649
G1 X84.553 Y99.745 E34.45384
G1 X84.429 Y99.402 E34.47199
G1 X84.363 Y99.313 E34.47751
G1 X84.303 Y98.94 E34.49631
G1 X84.264 Y98.867 E34.50043
G1 X84.243 Y98.474 E34.52001
G1 X84.214 Y98.405 E34.52374
G1 X84.23 Y98.153 E34.5363
G1 X84.3 Y98.216 E34.54099
G0 F2400 X84.413 Y98.642
G1 F1050 X84.814 Y98.642 E34.56094
G0 F2400 X85.312 Y98.684
G1 F1050 X85.312 Y99.805 E34.61673
G0 F2400 X86.645 Y99.806
G1 F1050 X86.645 Y98.684 E34.67257
G0 F2400 X97.011 Y99.342
G1 F1050 X97.001 Y98.525 E34.71323
G1 X99.956 Y98.525 E34.86029
G1 X100.096 Y98.508 E34.86731
G1 X100.343 Y98.443 E34.88002
G1 X100.52 Y98.363 E34.88968
G1 X100.762 Y98.194 E34.90437
G1 X100.797 Y98.158 E34.90687
G1 X100.814 Y98.415 E34.91969
G1 X100.795 Y98.46 E34.92212
G1 X100.76 Y98.853 E34.94175
G1 X100.719 Y98.946 E34.94681
G1 X100.668 Y99.314 E34.9653
G1 X100.632 Y99.359 E34.96817
G1 X100.517 Y99.711 E34.9866
G1 X100.406 Y99.803 E34.99377
G1 X100.304 Y99.868 E34.99979
G1 X100.179 Y99.925 E35.00663
G1 X99.97 Y99.966 E35.01723
G1 X97.126 Y99.968 E35.15876
G1 X97.009 Y99.851 E35.16699
G1 X97.011 Y99.342 E35.19233
G0 F2400 X97.309 Y99.807
G1 F1050 X97.309 Y98.685 E35.24816
G0 F2400 X98.642 Y98.685
G1 F1050 X98.642 Y99.807 E35.304
G0 F2400 X99.975 Y99.803
G1 F1050 X99.975 Y98.683 E35.35974
G0 F2400 X100.214 Y98.642
G1 F1050 X100.618 Y98.642 E35.37984
G1 F1500 E34.37984
G0 F2400 X100.513 Y98.081
G0 X99.776 Y97.012
G0 X99.539 Y96.42
;TYPE:WALL-INNER
G1 F1500 E35.37984
G1 F1050 X99.507 Y96.63 E35.39041
G1 X98.208 Y96.63 E35.45506
G1 X98.009 Y96.63 E35.46496
G1 X98.009 Y96.431 E35.47137
G1 X98.01 Y89.273 E35.82759
G1 X98.01 Y89.074 E35.83749
G1 X97.811 Y89.074 E35.8439
G1 X87.018 Y89.074 E36.38102
G1 X87.018 Y96.629 E36.757
G1 X85.521 Y96.63 E36.8315
G1 X85.491 Y96.427 E36.84171
G1 X85.478 Y96.175 E36.85427
G1 X85.477 Y91.244 E37.09966
G1 X85.449 Y90.976 E37.11307
G1 X85.375 Y90.718 E37.12643
G1 X85.274 Y90.489 E37.13888
G1 X85.076 Y90.176 E37.15731
G1 X84.848 Y89.926 E37.17415
G1 X84.695 Y89.783 E37.18457
G1 X84.41 Y89.578 E37.20205
G1 X84.09 Y89.41 E37.22003
G1 X83.753 Y89.288 E37.23787
G1 X83.537 Y89.238 E37.2489
G1 X83.342 Y89.211 E37.2587
G1 X83.16 Y89.199 E37.26778
G1 X72.573 Y89.199 E37.79464
G1 X70.432 Y89.199 E37.90119
G1 X70.432 Y89.066 E37.90781
G1 X72.573 Y89.066 E37.94333
G1 X72.573 Y88.403 E37.97632
G1 X72.573 Y84.574 E38.16687
G1 X70.432 Y84.574 E38.27342
G1 X70.432 Y84.441 E38.28004
G1 X72.581 Y84.441 E38.31582
G1 X72.581 Y84.574 E38.31971
G1 X72.581 Y88.403 E38.32353
G1 X112.323 Y88.403 E40.30131
G1 X112.323 Y84.574 E40.49187
G1 X112.323 Y84.441 E40.49849
G1 X114.596 Y84.441 E40.6116
G1 X114.596 Y84.574 E40.61822
G1 X112.331 Y84.574 E40.65294
G1 X112.331 Y88.403 E40.65676
G1 X112.331 Y89.066 E40.68975
G1 X114.596 Y89.066 E40.80247
G1 X114.596 Y89.199 E40.80909
G1 X112.332 Y89.199 E40.84663
G1 X101.777 Y89.2 E41.3719
G1 X101.558 Y89.227 E41.38288
G1 X101.266 Y89.29 E41.39775
G1 X101.058 Y89.36 E41.40867
G1 X100.819 Y89.467 E41.4217
G1 X100.56 Y89.616 E41.43657
G1 X100.338 Y89.78 E41.45031
G1 X100.158 Y89.947 E41.46253
G1 X99.997 Y90.123 E41.4744
G1 X99.851 Y90.324 E41.48676
G1 X99.74 Y90.516 E41.4978
G1 X99.63 Y90.775 E41.5118
G1 X99.578 Y90.984 E41.52252
G1 X99.551 Y91.243 E41.53548
G1 X99.552 Y96.165 E41.78043
G1 X99.539 Y96.42 E41.79313
G0 F2400 X99.951 Y96.165
G1 F1050 X99.936 Y96.459 E41.80778
G1 X99.904 Y96.692 E41.81949
G1 X99.837 Y96.929 E41.83174
G1 X99.786 Y97.029 E41.83733
G1 X97.809 Y97.029 E41.93572
G1 X97.61 Y97.029 E41.94562
G1 X97.61 Y96.83 E41.95203
G1 X97.611 Y89.672 E42.30825
G1 X97.611 Y89.473 E42.31815
G1 X97.412 Y89.473 E42.32456
G1 X87.417 Y89.473 E42.82197
G1 X87.417 Y97.028 E43.19794
G1 X85.247 Y97.029 E43.30593
G1 X85.189 Y96.921 E43.31203
G1 X85.125 Y96.695 E43.32372
G1 X85.092 Y96.455 E43.33578
G1 X85.079 Y96.195 E43.34874
G1 X85.078 Y91.265 E43.59408
G1 X85.056 Y91.052 E43.60474
G1 X84.999 Y90.854 E43.61499
G1 X84.921 Y90.677 E43.62462
G1 X84.758 Y90.419 E43.6398
G1 X84.564 Y90.207 E43.6541
G1 X84.441 Y90.092 E43.66248
G1 X84.2 Y89.918 E43.67728
G1 X83.929 Y89.776 E43.6925
G1 X83.64 Y89.671 E43.7078
G1 X83.465 Y89.631 E43.71674
G1 X83.301 Y89.608 E43.72498
G1 X83.147 Y89.598 E43.73266
G1 X70.033 Y89.598 E44.38528
G1 X70.033 Y88.667 E44.43162
G1 X72.174 Y88.667 E44.53816
G1 X72.174 Y84.973 E44.722
G1 X70.033 Y84.973 E44.82854
G1 X70.033 Y84.042 E44.87488
G1 X72.98 Y84.042 E45.02154
G1 X111.924 Y84.042 E46.9596
G1 X114.995 Y84.042 E47.11243
G1 X114.995 Y84.973 E47.15876
G1 X112.73 Y84.973 E47.27148
G1 X112.73 Y88.667 E47.45532
G1 X114.995 Y88.667 E47.56803
G1 X114.995 Y89.598 E47.61437
G1 X101.802 Y89.599 E48.27092
G1 X101.624 Y89.621 E48.27985
G1 X101.372 Y89.675 E48.29267
G1 X101.204 Y89.732 E48.3015
G1 X101.001 Y89.823 E48.31257
G1 X100.779 Y89.951 E48.32533
G1 X100.593 Y90.088 E48.33682
G1 X100.442 Y90.228 E48.34707
G1 X100.307 Y90.376 E48.35704
G1 X100.186 Y90.542 E48.36726
G1 X100.098 Y90.694 E48.376
G1 X100.01 Y90.902 E48.38724
G1 X99.972 Y91.054 E48.39504
G1 X99.95 Y91.264 E48.40555
G1 X99.951 Y96.165 E48.64945
G0 F2400 X99.852 Y96.163
G0 X99.933 Y91.048
G0 X100.153 Y90.521
G0 X100.568 Y90.058
G0 X101.19 Y89.695
G0 X101.8 Y89.56
G0 X111.994 Y88.074
G0 X111.924 Y88.004
G1 F1050 X111.924 Y84.348 E48.83139
G1 X72.98 Y84.348 E50.31773
G1 X72.98 Y88.004 E50.49967
G1 X111.924 Y88.004 E52.43774
G0 F2400 X111.994 Y88.074
G0 X111.952 Y84.32
G0 X111.526 Y84.248
G0 X111.526 Y84.746
;TYPE:WALL-OUTER
G1 F1050 X73.378 Y84.746 E54.33619
G1 X73.378 Y87.606 E54.47852
G1 X111.526 Y87.606 E56.37697
G1 X111.526 Y84.746 E56.5193
G0 F2400 X111.326 Y84.746
G0 X111.326 Y84.248
G0 X111.952 Y84.32
G0 X111.952 Y88.032
G0 X87.389 Y89.445
G0 X87.347 Y96.958
G0 X87.815 Y97.426
G1 F1050 X85.139 Y97.427 E56.65247
G1 X85.057 Y97.405 E56.6567
G1 X84.984 Y97.355 E56.6611
G1 X84.947 Y97.31 E56.664
G1 X84.818 Y97.073 E56.67743
G1 X84.735 Y96.781 E56.69254
G1 X84.696 Y96.492 E56.70705
G1 X84.681 Y96.195 E56.72185
G1 X84.68 Y91.285 E56.9662
G1 X84.664 Y91.128 E56.97405
G1 X84.624 Y90.99 E56.9812
G1 X84.569 Y90.865 E56.988
G1 X84.44 Y90.661 E57.00001
G1 X84.281 Y90.487 E57.01174
G1 X84.188 Y90.4 E57.01808
G1 X83.99 Y90.257 E57.03023
G1 X83.768 Y90.141 E57.0427
G1 X83.528 Y90.054 E57.0554
G1 X83.392 Y90.023 E57.06234
G1 X83.26 Y90.004 E57.06898
G1 X83.134 Y89.996 E57.07526
