;FLAVOR:Marlin
;TIME:1799
;Filament used: 1.18463m
;Layer height: 0.15
;Generated with Cura_SteamEngine 2.7.0
M190 S60
M104 S220
M109 S220
G21 ;metric values
G90 ;absolute positioning
M82 ;set extruder to absolute mode
M107 ;start with the fan off
G92 E0 ;zero the extruded length
G1 F200 E3 ;extrude 3mm of feed stock
G92 E0 ;zero the extruded length again
G1 F9000
M301 P26.92 I2.54 D71.46 ;set PID tuning for E0
M117 Printing...
;LAYER_COUNT:72
;LAYER:0
M107
G0 F2400 X72.872 Y83.677 Z0.3
G0 X72.431 Y84.111
;TYPE:SKIRT
G1 F1200 X72.872 Y83.677 E0.03079
G1 X73.366 Y83.303 E0.06163
G1 X73.904 Y82.996 E0.09245
G1 X74.476 Y82.761 E0.12323
G1 X75.075 Y82.602 E0.15407
G1 X75.428 Y82.545 E0.17186
G1 X91.71 Y80.563 E0.98813
G1 X92.286 Y80.528 E1.01684
G1 X108.956 Y80.514 E1.84644
G1 X109.574 Y80.553 E1.87725
G1 X110.181 Y80.672 E1.90803
G1 X110.769 Y80.868 E1.93888
G1 X111.326 Y81.138 E1.96968
G1 X111.843 Y81.478 E2.00048
G1 X112.313 Y81.881 E2.03129
G1 X112.545 Y82.125 E2.04804
G1 X112.776 Y82.385 E2.06535
G1 X113.157 Y82.873 E2.09616
G1 X113.471 Y83.406 E2.12695
G1 X113.714 Y83.976 E2.15778
G1 X113.882 Y84.572 E2.1886
G1 X113.971 Y85.184 E2.21938
G1 X113.983 Y85.765 E2.2483
G1 X113.765 Y91.141 E2.51606
G1 X113.842 Y96.603 E2.7879
G1 X113.979 Y99.205 E2.91757
G1 X113.972 Y99.824 E2.94838
G1 X113.885 Y100.437 E2.97919
G1 X113.72 Y101.033 E3.00997
G1 X113.549 Y101.456 E3.03267
G1 X112.983 Y102.69 E3.10023
G1 X112.689 Y103.235 E3.13105
G1 X112.328 Y103.738 E3.16186
G1 X111.904 Y104.19 E3.1927
G1 X111.426 Y104.583 E3.2235
G1 X110.902 Y104.912 E3.25429
G1 X110.339 Y105.17 E3.28511
G1 X109.748 Y105.353 E3.3159
G1 X109.138 Y105.459 E3.34671
G1 X108.621 Y105.487 E3.37248
G1 X105.62 Y105.485 E3.52183
G1 X105.117 Y105.458 E3.54689
G1 X98.205 Y104.725 E3.8928
G1 X92.076 Y104.467 E4.19808
G1 X91.697 Y104.436 E4.21701
G1 X75.442 Y102.453 E5.03194
G1 X74.834 Y102.338 E5.06274
G1 X74.245 Y102.146 E5.09357
G1 X73.686 Y101.88 E5.12437
G1 X73.166 Y101.544 E5.15518
G1 X72.483 Y100.928 E5.20096
G1 X72.27 Y100.695 E5.21667
G1 X71.883 Y100.212 E5.24747
G1 X71.561 Y99.683 E5.27829
G1 X71.31 Y99.117 E5.3091
G1 X71.134 Y98.524 E5.33988
G1 X71.035 Y97.913 E5.37069
G1 X71.014 Y97.452 E5.39365
G1 X71.028 Y87.505 E5.88867
G1 X71.069 Y86.888 E5.91944
G1 X71.189 Y86.28 E5.95028
G1 X71.386 Y85.693 E5.9811
G1 X71.657 Y85.137 E6.01188
G1 X71.998 Y84.62 E6.0427
G1 X72.247 Y84.317 E6.06222
G1 X72.431 Y84.111 E6.07596
G0 F2400 X72.729 Y84.377
G1 F1200 X73.152 Y83.962 E6.10545
G1 X73.628 Y83.609 E6.13494
G1 X74.147 Y83.322 E6.16446
G1 X74.7 Y83.108 E6.19397
G1 X75.477 Y82.941 E6.23352
G1 X91.759 Y80.959 E7.04978
G1 X92.286 Y80.927 E7.07606
G1 X108.956 Y80.913 E7.90565
G1 X109.548 Y80.952 E7.93517
G1 X110.129 Y81.071 E7.96469
G1 X110.688 Y81.267 E7.99417
G1 X111.216 Y81.536 E8.02366
G1 X111.703 Y81.874 E8.05316
G1 X112.247 Y82.39 E8.09047
G1 X112.478 Y82.65 E8.10778
G1 X112.841 Y83.118 E8.13725
G1 X113.138 Y83.631 E8.16675
G1 X113.362 Y84.18 E8.19626
G1 X113.512 Y84.754 E8.22579
G1 X113.582 Y85.342 E8.25525
G1 X113.584 Y85.748 E8.27546
G1 X113.365 Y91.13 E8.54352
G1 X113.443 Y96.604 E8.81596
G1 X113.581 Y99.226 E8.94663
G1 X113.572 Y99.819 E8.97614
G1 X113.484 Y100.405 E9.00563
G1 X113.317 Y100.974 E9.03514
G1 X113.187 Y101.29 E9.05215
G1 X112.621 Y102.524 E9.11971
G1 X112.338 Y103.045 E9.14922
G1 X111.987 Y103.523 E9.17873
G1 X111.576 Y103.95 E9.20822
G1 X111.111 Y104.317 E9.2377
G1 X110.6 Y104.619 E9.26724
G1 X110.054 Y104.849 E9.29673
G1 X109.482 Y105.003 E9.32621
G1 X108.621 Y105.088 E9.36926
G1 X105.62 Y105.086 E9.51861
G1 X105.159 Y105.061 E9.54158
G1 X98.232 Y104.326 E9.88824
G1 X92.093 Y104.068 E10.19402
G1 X91.746 Y104.04 E10.21135
G1 X75.491 Y102.057 E11.02628
G1 X74.908 Y101.945 E11.05583
G1 X74.346 Y101.757 E11.08532
G1 X73.815 Y101.494 E11.11481
G1 X73.324 Y101.163 E11.14428
G1 X72.778 Y100.659 E11.18126
G1 X72.565 Y100.426 E11.19697
G1 X72.195 Y99.962 E11.2265
G1 X71.891 Y99.453 E11.256
G1 X71.659 Y98.908 E11.28548
G1 X71.501 Y98.337 E11.31497
G1 X71.413 Y97.453 E11.35918
G1 X71.427 Y87.506 E11.85419
G1 X71.468 Y86.914 E11.88373
G1 X71.588 Y86.334 E11.9132
G1 X71.785 Y85.775 E11.9427
G1 X72.055 Y85.247 E11.97221
G1 X72.545 Y84.583 E12.01328
G1 X72.729 Y84.377 E12.02702
G0 F2400 X73.026 Y84.643
G1 F1200 X73.432 Y84.249 E12.05518
G1 X73.888 Y83.916 E12.08328
G1 X74.388 Y83.651 E12.11144
G1 X74.919 Y83.459 E12.13954
G1 X75.525 Y83.337 E12.1703
G1 X91.807 Y81.355 E12.98656
G1 X92.287 Y81.326 E13.0105
G1 X108.957 Y81.312 E13.84009
G1 X109.52 Y81.351 E13.86817
G1 X110.073 Y81.47 E13.89632
G1 X110.603 Y81.665 E13.92443
G1 X111.101 Y81.934 E13.95259
G1 X111.556 Y82.269 E13.98071
G1 X111.949 Y82.655 E14.00813
G1 X112.18 Y82.915 E14.02543
G1 X112.524 Y83.363 E14.05354
G1 X112.802 Y83.855 E14.08167
G1 X113.008 Y84.381 E14.10978
G1 X113.138 Y84.931 E14.1379
G1 X113.186 Y85.732 E14.17784
G1 X112.967 Y91.138 E14.44709
G1 X113.044 Y96.631 E14.72048
G1 X113.182 Y99.247 E14.85085
G1 X113.172 Y99.812 E14.87897
G1 X113.082 Y100.37 E14.9071
G1 X112.824 Y101.124 E14.94676
G1 X112.258 Y102.358 E15.01432
G1 X111.987 Y102.854 E15.04245
G1 X111.648 Y103.306 E15.07056
G1 X111.249 Y103.706 E15.09868
G1 X110.798 Y104.047 E15.12682
G1 X110.303 Y104.319 E15.15492
G1 X109.774 Y104.52 E15.18309
G1 X109.223 Y104.644 E15.21119
G1 X108.621 Y104.689 E15.24124
G1 X105.62 Y104.687 E15.39058
G1 X105.201 Y104.665 E15.41146
G1 X98.243 Y103.927 E15.75967
G1 X92.11 Y103.669 E16.06515
G1 X91.794 Y103.644 E16.08093
G1 X75.539 Y101.661 E16.89586
G1 X74.984 Y101.553 E16.924
G1 X74.45 Y101.368 E16.95213
G1 X73.947 Y101.109 E16.98028
G1 X73.486 Y100.782 E17.00841
G1 X73.072 Y100.39 E17.03678
G1 X72.859 Y100.157 E17.05249
G1 X72.508 Y99.713 E17.08066
G1 X72.223 Y99.225 E17.10878
G1 X72.01 Y98.702 E17.13689
G1 X71.873 Y98.154 E17.165
G1 X71.812 Y97.453 E17.20002
G1 X71.826 Y87.506 E17.69503
G1 X71.867 Y86.943 E17.72313
G1 X71.987 Y86.39 E17.75129
G1 X72.183 Y85.86 E17.77941
G1 X72.452 Y85.363 E17.80753
G1 X72.842 Y84.849 E17.83964
G1 X73.026 Y84.643 E17.85339
G0 F2400 X73.14 Y85.114
G1 F1200 X73.324 Y84.908 E17.86713
G1 X73.71 Y84.536 E17.89381
G1 X74.147 Y84.226 E17.92047
G1 X74.625 Y83.983 E17.94716
G1 X75.134 Y83.815 E17.97383
G1 X75.573 Y83.733 E17.99606
G1 X91.855 Y81.751 E18.81232
G1 X92.287 Y81.725 E18.83386
G1 X108.957 Y81.711 E19.66345
G1 X109.492 Y81.75 E19.69015
G1 X110.015 Y81.869 E19.71684
G1 X110.514 Y82.064 E19.7435
G1 X110.979 Y82.331 E19.77018
G1 X111.399 Y82.664 E19.79686
G1 X111.65 Y82.92 E19.8147
G1 X111.881 Y83.18 E19.83201
G1 X112.207 Y83.606 E19.8587
G1 X112.465 Y84.076 E19.88539
G1 X112.651 Y84.579 E19.91207
G1 X112.76 Y85.104 E19.93876
G1 X112.787 Y85.716 E19.96924
G1 X112.567 Y91.127 E20.23875
G1 X112.645 Y96.631 E20.51268
G1 X112.784 Y99.268 E20.6441
G1 X112.772 Y99.804 E20.67078
G1 X112.681 Y100.332 E20.69744
G1 X112.461 Y100.957 E20.73042
G1 X111.895 Y102.191 E20.79798
G1 X111.636 Y102.661 E20.82469
G1 X111.31 Y103.086 E20.85134
G1 X110.924 Y103.459 E20.87805
G1 X110.487 Y103.77 E20.90475
G1 X110.009 Y104.013 E20.93143
G1 X109.5 Y104.182 E20.95812
G1 X108.972 Y104.273 E20.98479
G1 X108.622 Y104.29 E21.00222
G1 X105.621 Y104.288 E21.15157
G1 X105.243 Y104.268 E21.17041
G1 X98.286 Y103.53 E21.51857
G1 X92.127 Y103.271 E21.82535
G1 X91.842 Y103.248 E21.83957
G1 X75.587 Y101.265 E22.65451
G1 X75.061 Y101.16 E22.6812
G1 X74.557 Y100.979 E22.70785
G1 X74.085 Y100.724 E22.73455
G1 X73.656 Y100.403 E22.76122
G1 X73.367 Y100.12 E22.78135
G1 X73.154 Y99.887 E22.79706
G1 X72.822 Y99.466 E22.82374
G1 X72.557 Y99 E22.85042
G1 X72.365 Y98.499 E22.87712
G1 X72.248 Y97.976 E22.90379
G1 X72.211 Y97.454 E22.92983
G1 X72.225 Y87.507 E23.42485
G1 X72.266 Y86.972 E23.45155
G1 X72.385 Y86.45 E23.47819
G1 X72.581 Y85.95 E23.50492
G1 X72.849 Y85.486 E23.53159
G1 X73.14 Y85.114 E23.55509
G0 F2400 X73.437 Y85.38
G1 F1200 X73.621 Y85.174 E23.56884
G1 X73.987 Y84.825 E23.594
G1 X74.403 Y84.538 E23.61916
G1 X74.859 Y84.319 E23.64433
G1 X75.344 Y84.176 E23.66949
G1 X75.621 Y84.129 E23.68348
G1 X91.903 Y82.147 E24.49974
G1 X92.287 Y82.124 E24.51888
G1 X108.957 Y82.11 E25.34847
G1 X109.461 Y82.15 E25.37363
G1 X109.953 Y82.268 E25.39881
G1 X110.42 Y82.462 E25.42398
G1 X110.85 Y82.728 E25.44914
G1 X111.352 Y83.185 E25.48293
G1 X111.583 Y83.445 E25.50023
G1 X111.888 Y83.848 E25.52539
G1 X112.126 Y84.294 E25.55054
G1 X112.29 Y84.772 E25.57569
G1 X112.377 Y85.27 E25.60085
G1 X112.388 Y85.7 E25.62226
G1 X112.168 Y91.117 E25.89206
G1 X112.246 Y96.632 E26.16654
G1 X112.386 Y99.289 E26.29895
G1 X112.372 Y99.794 E26.32409
G1 X112.279 Y100.291 E26.34926
G1 X112.099 Y100.791 E26.3757
G1 X111.533 Y102.025 E26.44327
G1 X111.286 Y102.467 E26.46846
G1 X110.973 Y102.864 E26.49362
G1 X110.602 Y103.207 E26.51877
G1 X110.181 Y103.487 E26.54393
G1 X109.721 Y103.697 E26.56909
G1 X109.234 Y103.832 E26.59424
G1 X108.622 Y103.891 E26.62484
G1 X105.621 Y103.889 E26.77419
G1 X105.286 Y103.871 E26.79088
G1 X98.316 Y103.132 E27.13969
G1 X92.143 Y102.872 E27.44717
G1 X91.89 Y102.851 E27.4598
G1 X75.635 Y100.868 E28.27474
G1 X75.14 Y100.768 E28.29987
G1 X74.667 Y100.59 E28.32502
G1 X74.227 Y100.341 E28.35018
G1 X73.661 Y99.851 E28.38743
G1 X73.448 Y99.618 E28.40314
G1 X73.138 Y99.219 E28.42829
G1 X72.894 Y98.776 E28.45346
G1 X72.723 Y98.301 E28.47858
G1 X72.629 Y97.804 E28.50375
G1 X72.61 Y97.454 E28.5212
G1 X72.624 Y87.507 E29.01622
G1 X72.665 Y87.004 E29.04133
G1 X72.784 Y86.512 E29.06652
G1 X72.98 Y86.046 E29.09168
G1 X73.246 Y85.616 E29.11684
G1 X73.437 Y85.38 E29.13195
G0 F2400 X75.999 Y87.601
;TYPE:SUPPORT
G1 F1200 X76.102 Y87.485 E29.13967
G1 X92.308 Y85.513 E29.95212
G1 X92.509 Y85.499 E29.96215
G1 X108.101 Y85.499 E30.73809
G1 X75.999 Y89.39 E32.34735
G1 X75.999 Y87.601 E32.43638
G0 F2400 X79.995 Y87.172
G1 F1200 X79.995 Y88.745 E32.51467
G0 F2400 X85.328 Y88.098
G1 F1200 X85.328 Y86.523 E32.59305
G0 F2400 X90.661 Y85.875
G1 F1200 X90.661 Y87.452 E32.67153
G0 F2400 X95.994 Y86.805
G1 F1200 X95.994 Y85.659 E32.72856
G0 F2400 X101.327 Y85.659
G1 F1200 X101.327 Y86.159 E32.75344
G1 F1500 E26.25344
G0 F2400 X75.771 Y89.657
G0 X75.338 Y90.146
G0 X75.338 Y94.854
G0 X75.771 Y95.343
G0 X105.435 Y99.501
G1 F1500 E32.75344
G1 F1200 X92.498 Y99.501 E33.39726
G1 X92.233 Y99.474 E33.41051
G1 X76.1 Y97.512 E34.21929
G1 X75.999 Y97.399 E34.22684
G1 X75.999 Y95.61 E34.31587
G1 X108.798 Y99.586 E35.96007
G1 X108.435 Y99.95 E35.98566
G1 X108.435 Y100.501 E36.01308
G1 X105.833 Y100.501 E36.14257
G1 X105.833 Y99.899 E36.17253
G1 X105.435 Y99.501 E36.20054
G0 F2400 X106.66 Y99.489
G1 F1200 X106.66 Y100.341 E36.24294
G0 F2400 X101.327 Y99.341
G1 F1200 X101.327 Y98.843 E36.26772
G0 F2400 X95.994 Y99.341
G1 F1200 X95.994 Y98.196 E36.3247
G0 F2400 X90.661 Y97.55
G1 F1200 X90.661 Y99.117 E36.40268
G0 F2400 X85.328 Y98.47
G1 F1200 X85.328 Y96.903 E36.48067
G0 F2400 X79.995 Y96.257
G1 F1200 X79.995 Y97.823 E36.5586
G0 F2400 X77.834 Y95.994
G1 F1200 X76.159 Y95.994 E36.64196
G1 F1500 E30.14196
G0 F2400 X109.08 Y99.381
G0 X109.661 Y98.869
G0 X109.661 Y96.343
G0 X105.833 Y89.501
G1 F1500 E36.64196
G1 F1200 X105.833 Y89.399 E36.64703
G1 X108.435 Y89.399 E36.77652
G1 X108.435 Y89.501 E36.7816
G1 X105.833 Y89.501 E36.91109
G1 F1500 E30.41109
G0 F2400 X105.833 Y89.165
G0 X105.833 Y87.883
G0 X107.994 Y87.421
;TYPE:WALL-INNER
G1 F1500 E36.91109
G1 F1200 X108.004 Y87.419 E36.9116
G1 X108.004 Y87.504 E36.91389
G1 X107.304 Y87.504 E36.94872
G1 X107.994 Y87.421 E36.95036
G0 F2400 X107.994 Y87.862
G0 X100.897 Y87.864
G0 X94.371 Y90.047
G0 X94.371 Y94.953
G0 X100.897 Y97.136
G0 X108.003 Y97.135
G0 X108.004 Y97.496
G1 F1200 X108.004 Y97.582 E36.95464
G1 X107.297 Y97.496 E36.99008
G1 X108.004 Y97.496 E36.99383
G0 F2400 X104.527 Y97.101
G0 X100.897 Y97.136
G0 X99.014 Y96.476
G0 X97.145 Y96.265
G1 F1200 X95.185 Y96.029 E37.09207
G1 X95.183 Y96.028 E37.09219
G1 X76.996 Y93.822 E38.0039
G1 X76.996 Y91.178 E38.13548
G1 X95.18 Y88.973 E39.04705
G1 X95.183 Y88.972 E39.04721
G1 X97.142 Y88.736 E39.1454
G1 X95.27 Y89.36 E39.19475
G1 X95.267 Y89.361 E39.19491
G1 X94.004 Y89.782 E39.26116
G1 X94.004 Y95.218 E39.53169
G1 X95.269 Y95.64 E39.59805
G1 X95.272 Y95.641 E39.59821
G1 X97.145 Y96.265 E39.64758
G0 F2400 X94.322 Y94.988
G0 X94.403 Y94.93
G1 F1200 X99.15 Y96.513 E39.89661
G1 X100.903 Y97.097 E39.98856
G1 X103.993 Y97.097 E40.14233
G1 X108.403 Y97.097 E40.3618
G1 X108.403 Y97.807 E40.39713
G1 X108.403 Y97.808 E40.39718
G1 X108.403 Y98.032 E40.40833
G1 X108.18 Y98.005 E40.41533
G1 X103.967 Y97.494 E40.62653
G1 X100.9 Y97.123 E40.70853
G1 X99.066 Y96.901 E40.7577
G1 X76.597 Y94.175 E41.88408
G1 X76.597 Y90.825 E42.05079
G1 X99.057 Y88.102 E43.17671
G1 X100.9 Y87.879 E43.2691
G1 X103.98 Y87.506 E43.42349
G1 X108.18 Y86.996 E43.63404
G1 X108.403 Y86.969 E43.64522
G1 X108.403 Y87.193 E43.6522
G1 X108.403 Y87.194 E43.65225
G1 X108.403 Y87.903 E43.68754
G1 X104.006 Y87.903 E43.90636
G1 X100.903 Y87.903 E43.98835
G1 X99.142 Y88.49 E44.03754
G1 X94.403 Y90.07 E44.28614
G1 X94.403 Y94.93 E44.528
G0 F2400 X94.801 Y94.643
;TYPE:WALL-OUTER
G1 F1200 X100.968 Y96.699 E44.85151
G1 X108.801 Y96.699 E45.24133
G1 X108.801 Y98.256 E45.31881
G1 X108.801 Y98.257 E45.31886
G1 X108.801 Y98.481 E45.33001
G1 X108.578 Y98.454 E45.33701
G1 X76.199 Y94.528 E46.96016
G1 X76.199 Y90.472 E47.16201
G1 X108.578 Y86.547 E48.78517
G1 X108.801 Y86.52 E48.79634
G1 X108.801 Y86.744 E48.80332
G1 X108.801 Y86.745 E48.80337
G1 X108.801 Y88.301 E48.88081
G1 X100.968 Y88.301 E49.27062
G1 X94.801 Y90.357 E49.59413
G1 X94.801 Y94.643 E49.80743
G0 F2400 X94.99 Y94.706
G0 X94.833 Y95.177
G0 X94.371 Y94.953
G0 X94.371 Y90.047
G0 X94.927 Y89.284
G0 X94.883 Y89.24
G1 F1200 X94.42 Y89.341 E49.81635
G1 X93.956 Y89.442 E49.83092
G1 X93.576 Y89.626 E49.85694
G0 F2400 X93.823 Y90.438
;TYPE:SKIN
G1 F1200 X92.827 Y89.441 E49.92707
G1 X92.758 Y89.371
G0 F2400 X92.324 Y89.502
G1 F1200 X93.823 Y91.002 E50.0326
G1 X93.893 Y91.072
G0 F2400 X93.823 Y91.566
G1 F1200 X91.82 Y89.563 E50.17357
G1 X91.75 Y89.493
G0 F2400 X91.317 Y89.624
G1 F1200 X93.823 Y92.131 E50.34998
G1 X93.893 Y92.201
G0 F2400 X93.824 Y92.696
G1 F1200 X90.814 Y89.685 E50.56185
G1 X90.744 Y89.615
G0 F2400 X90.31 Y89.746
G1 F1200 X93.824 Y93.26 E50.80916
G1 X93.894 Y93.33
G0 F2400 X93.824 Y93.824
G1 F1200 X89.807 Y89.807 E51.09188
G1 X89.737 Y89.737
G0 F2400 X89.304 Y89.868
G1 F1200 X93.824 Y94.388 E51.40999
G1 X93.894 Y94.458
G0 F2400 X93.824 Y94.953
G1 F1200 X88.801 Y89.929 E51.76354
G1 X88.732 Y89.859
G0 F2400 X88.297 Y89.99
G1 F1200 X94.008 Y95.701 E52.16547
G1 X94.078 Y95.771
G0 F2400 X94.414 Y95.542
G1 F1200 X94.65 Y95.779 E52.18212
G0 F2400 X93.366 Y95.623
G1 F1200 X87.794 Y90.051 E52.57427
G1 X87.724 Y89.981
G0 F2400 X87.29 Y90.112
G1 F1200 X92.724 Y95.545 E52.95667
G1 X92.794 Y95.614
G0 F2400 X92.082 Y95.467
G1 F1200 X86.788 Y90.173 E53.32926
G1 X86.718 Y90.103
G0 F2400 X86.284 Y90.234
G1 F1200 X91.44 Y95.39 E53.69213
G1 X91.51 Y95.46
G0 F2400 X90.798 Y95.312
G1 F1200 X85.781 Y90.295 E54.04523
G1 X85.711 Y90.225
G0 F2400 X85.277 Y90.356
G1 F1200 X90.156 Y95.234 E54.38857
G1 X90.226 Y95.303
G0 F2400 X89.514 Y95.156
G1 F1200 X84.775 Y90.417 E54.7221
G1 X84.705 Y90.347
G0 F2400 X84.271 Y90.478
G1 F1200 X88.872 Y95.078 E55.04587
G1 X88.942 Y95.147
G0 F2400 X88.229 Y95.001
G1 F1200 X83.768 Y90.539 E55.35987
G1 X83.698 Y90.469
G0 F2400 X83.264 Y90.6
G1 F1200 X87.587 Y94.922 E55.66408
G1 X87.657 Y94.992
G0 F2400 X86.945 Y94.844
G1 F1200 X82.761 Y90.66 E55.95855
G1 X82.691 Y90.59
G0 F2400 X82.258 Y90.722
G1 F1200 X86.303 Y94.767 E56.24323
G1 X86.373 Y94.837
G0 F2400 X85.661 Y94.689
G1 F1200 X81.754 Y90.783 E56.51817
G1 X81.684 Y90.713
G0 F2400 X81.251 Y90.844
G1 F1200 X85.018 Y94.611 E56.78329
G1 X85.088 Y94.681
G0 F2400 X84.376 Y94.533
G1 F1200 X80.748 Y90.904 E57.03866
G1 X80.678 Y90.834
G0 F2400 X80.245 Y90.966
G1 F1200 X83.734 Y94.456 E57.28424
G1 X83.804 Y94.526
G0 F2400 X83.092 Y94.378
G1 F1200 X79.741 Y91.027 E57.52008
G1 X79.671 Y90.957
G0 F2400 X79.238 Y91.088
G1 F1200 X82.45 Y94.3 E57.74614
G1 X82.52 Y94.37
G0 F2400 X81.808 Y94.222
G1 F1200 X78.734 Y91.148 E57.96249
G1 X78.664 Y91.078
G0 F2400 X78.232 Y91.21
