;FLAVOR:Marlin
;TIME:617
;Filament used: 0.534768m
;Layer height: 0.2
;Generated with Cura_SteamEngine 2.7.0
M190 S60
M104 S220
M109 S220
G21 ;metric values
G90 ;absolute positioning
M82 ;set extruder to absolute mode
M107 ;start with the fan off
G92 E0 ;zero the extruded length
G1 F200 E3 ;extrude 3mm of feed stock
G92 E0 ;zero the extruded length again
G1 F9000
M301 P31.36 I3.30 D74.51 ;set PID tuning for E0
M304 P72.25 I2.72 D479.41 ; set PID tuning for heated bed
M117 Printing...
;LAYER_COUNT:72
;LAYER:0
M107
M205 X20 Y20
G0 F2400 X76.651 Y91.489 Z0.3
G0 X76.214 Y91.927
;TYPE:SKIRT
G1 F1050 X76.651 Y91.489 E0.03079
G1 X77.144 Y91.108 E0.0618
G1 X80.871 Y88.601 E0.28533
G1 X85.201 Y85.362 E0.55443
G1 X88.28 Y82.815 E0.75329
G1 X88.781 Y82.452 E0.78408
G1 X89.326 Y82.156 E0.81495
G1 X89.903 Y81.933 E0.84573
G1 X90.505 Y81.787 E0.87656
G1 X91.337 Y81.714 E0.91812
G1 X93.657 Y81.714 E1.03358
G1 X94.275 Y81.754 E1.0644
G1 X94.882 Y81.873 E1.09518
G1 X95.469 Y82.07 E1.12599
G1 X96.026 Y82.34 E1.1568
G1 X96.647 Y82.76 E1.19411
G1 X102.468 Y87.402 E1.56462
G1 X108.02 Y91.254 E1.90091
G1 X108.505 Y91.639 E1.93173
G1 X108.936 Y92.084 E1.96256
G1 X109.306 Y92.58 E1.99335
G1 X109.61 Y93.119 E2.02415
G1 X109.841 Y93.694 E2.05499
G1 X110.004 Y94.332 E2.08776
G1 X110.062 Y94.649 E2.10379
G1 X110.14 Y95.529 E2.14776
G1 X110.132 Y97.756 E2.25859
G1 X110.09 Y98.374 E2.28941
G1 X109.968 Y98.981 E2.32022
G1 X109.77 Y99.567 E2.35101
G1 X109.497 Y100.123 E2.38183
G1 X109.156 Y100.639 E2.41261
G1 X108.847 Y101.007 E2.43652
G1 X108.699 Y101.166 E2.44734
G1 X108.248 Y101.591 E2.47817
G1 X107.747 Y101.954 E2.50896
G1 X107.203 Y102.25 E2.53978
G1 X106.805 Y102.413 E2.56119
G1 X106.495 Y102.524 E2.57757
G1 X105.9 Y102.695 E2.60838
G1 X105.288 Y102.787 E2.63918
G1 X104.873 Y102.805 E2.65985
G1 X79.946 Y102.78 E3.90036
G1 X79.328 Y102.739 E3.93118
G1 X78.721 Y102.62 E3.96196
G1 X78.134 Y102.423 E3.99278
G1 X77.578 Y102.152 E4.02356
G1 X77.148 Y101.876 E4.04899
G1 X76.93 Y101.719 E4.06236
G1 X76.452 Y101.325 E4.09318
G1 X76.029 Y100.874 E4.12396
G1 X75.667 Y100.371 E4.1548
G1 X75.373 Y99.826 E4.18561
G1 X75.152 Y99.248 E4.21641
G1 X75.007 Y98.646 E4.24722
G1 X74.939 Y97.954 E4.28183
G1 X74.871 Y95.393 E4.40932
G1 X74.894 Y94.775 E4.4401
G1 X74.997 Y94.164 E4.47093
G1 X75.178 Y93.572 E4.50174
G1 X75.434 Y93.008 E4.53256
G1 X75.76 Y92.482 E4.56336
G1 X76.058 Y92.105 E4.58728
G1 X76.214 Y91.927 E4.59905
G0 F2400 X76.358 Y92.368
G1 F1050 X76.514 Y92.19 E4.61083
G1 X76.934 Y91.771 E4.64036
G1 X77.367 Y91.44 E4.66748
G1 X81.081 Y88.942 E4.89023
G1 X85.445 Y85.677 E5.16146
G1 X88.534 Y83.122 E5.36096
G1 X89.015 Y82.776 E5.39044
G1 X89.539 Y82.497 E5.41999
G1 X90.095 Y82.292 E5.44948
G1 X90.673 Y82.163 E5.47895
G1 X91.337 Y82.113 E5.51209
G1 X93.657 Y82.113 E5.62754
G1 X94.248 Y82.153 E5.65702
G1 X94.829 Y82.272 E5.68653
G1 X95.388 Y82.468 E5.71601
G1 X95.916 Y82.738 E5.74553
G1 X96.398 Y83.072 E5.77471
G1 X102.233 Y87.725 E6.14611
G1 X107.792 Y91.582 E6.48283
G1 X108.256 Y91.952 E6.51236
G1 X108.665 Y92.381 E6.54186
G1 X109.013 Y92.861 E6.57136
G1 X109.293 Y93.384 E6.60089
G1 X109.5 Y93.939 E6.63036
G1 X109.611 Y94.404 E6.65416
G1 X109.669 Y94.721 E6.67019
G1 X109.741 Y95.528 E6.71051
G1 X109.733 Y97.755 E6.82134
G1 X109.691 Y98.346 E6.85083
G1 X109.57 Y98.926 E6.88031
G1 X109.372 Y99.485 E6.90982
G1 X109.1 Y100.012 E6.93934
G1 X108.76 Y100.497 E6.96881
G1 X108.554 Y100.735 E6.98448
G1 X108.406 Y100.894 E6.99529
G1 X107.974 Y101.299 E7.02476
G1 X107.491 Y101.643 E7.05427
G1 X106.967 Y101.919 E7.08374
G1 X106.67 Y102.038 E7.09966
G1 X106.36 Y102.149 E7.11605
G1 X105.79 Y102.31 E7.14553
G1 X105.203 Y102.394 E7.17504
G1 X104.874 Y102.406 E7.19142
G1 X79.947 Y102.381 E8.43193
G1 X79.355 Y102.34 E8.46146
G1 X78.775 Y102.221 E8.49092
G1 X78.216 Y102.024 E8.52042
G1 X77.688 Y101.754 E8.54993
G1 X77.381 Y101.552 E8.56822
G1 X77.163 Y101.395 E8.58159
G1 X76.707 Y101.017 E8.61106
G1 X76.305 Y100.581 E8.64058
G1 X75.966 Y100.095 E8.67007
G1 X75.695 Y99.568 E8.69956
G1 X75.498 Y99.009 E8.72905
G1 X75.377 Y98.428 E8.75859
G1 X75.338 Y97.944 E8.78275
G1 X75.27 Y95.383 E8.91025
G1 X75.294 Y94.79 E8.93978
G1 X75.397 Y94.207 E8.96924
G1 X75.579 Y93.642 E8.99878
G1 X75.834 Y93.108 E9.02823
G1 X76.159 Y92.612 E9.05774
G1 X76.358 Y92.368 E9.07341
G0 F2400 X76.814 Y92.453
G1 F1050 X77.216 Y92.055 E9.10157
G1 X77.59 Y91.771 E9.12494
G1 X81.316 Y89.265 E9.3484
G1 X85.687 Y85.995 E9.62006
G1 X88.789 Y83.429 E9.8204
G1 X89.249 Y83.101 E9.84852
G1 X89.75 Y82.84 E9.87663
G1 X90.283 Y82.653 E9.90474
G1 X90.838 Y82.543 E9.9329
G1 X91.337 Y82.512 E9.95778
G1 X93.657 Y82.512 E10.07324
G1 X94.221 Y82.552 E10.10137
G1 X94.773 Y82.671 E10.12948
G1 X95.303 Y82.867 E10.1576
G1 X95.801 Y83.135 E10.18574
G1 X96.15 Y83.384 E10.20708
G1 X101.998 Y88.048 E10.57933
G1 X107.565 Y91.91 E10.91651
G1 X108.005 Y92.264 E10.94461
G1 X108.392 Y92.677 E10.97278
G1 X108.716 Y93.14 E11.0009
G1 X108.971 Y93.644 E11.02901
G1 X109.153 Y94.179 E11.05714
G1 X109.219 Y94.475 E11.07223
G1 X109.277 Y94.792 E11.08827
G1 X109.342 Y95.526 E11.12494
G1 X109.334 Y97.753 E11.23577
G1 X109.292 Y98.317 E11.26391
G1 X109.171 Y98.869 E11.29203
G1 X108.973 Y99.399 E11.32019
G1 X108.703 Y99.895 E11.34829
G1 X108.262 Y100.463 E11.38408
G1 X108.114 Y100.622 E11.39489
G1 X107.701 Y101.007 E11.42299
G1 X107.237 Y101.331 E11.45115
G1 X106.536 Y101.662 E11.48973
G1 X106.226 Y101.773 E11.50612
G1 X105.682 Y101.925 E11.53423
G1 X104.874 Y102.007 E11.57464
G1 X79.947 Y101.982 E12.81515
G1 X79.383 Y101.941 E12.84329
G1 X78.831 Y101.822 E12.87139
G1 X78.301 Y101.626 E12.89951
G1 X77.615 Y101.228 E12.93898
G1 X77.397 Y101.071 E12.95235
G1 X76.962 Y100.709 E12.98052
G1 X76.584 Y100.29 E13.0086
G1 X76.268 Y99.821 E13.03674
G1 X76.021 Y99.313 E13.06485
G1 X75.849 Y98.774 E13.09301
G1 X75.754 Y98.217 E13.12113
G1 X75.736 Y97.933 E13.13529
G1 X75.668 Y95.372 E13.26278
G1 X75.693 Y94.807 E13.29093
G1 X75.798 Y94.252 E13.31904
G1 X75.979 Y93.717 E13.34715
G1 X76.235 Y93.213 E13.37528
G1 X76.658 Y92.631 E13.41108
G1 X76.814 Y92.453 E13.42286
G0 F2400 X77.114 Y92.716
G1 F1050 X77.497 Y92.34 E13.44957
G1 X77.812 Y92.102 E13.46922
G1 X81.548 Y89.589 E13.69329
G1 X85.944 Y86.301 E13.96648
G1 X89.043 Y83.737 E14.16665
G1 X89.48 Y83.427 E14.19331
G1 X89.959 Y83.185 E14.22002
G1 X90.468 Y83.017 E14.24669
G1 X90.997 Y82.927 E14.2734
G1 X91.337 Y82.911 E14.29034
G1 X93.657 Y82.911 E14.40579
G1 X94.192 Y82.951 E14.43249
G1 X94.715 Y83.07 E14.45919
G1 X95.214 Y83.265 E14.48585
G1 X95.679 Y83.533 E14.51256
G1 X95.901 Y83.696 E14.52626
G1 X101.757 Y88.366 E14.89901
G1 X107.338 Y92.238 E15.23705
G1 X107.754 Y92.576 E15.26372
G1 X108.116 Y92.971 E15.29039
G1 X108.415 Y93.416 E15.31707
G1 X108.644 Y93.901 E15.34376
G1 X108.826 Y94.547 E15.37716
G1 X108.884 Y94.864 E15.3932
G1 X108.943 Y95.525 E15.42622
G1 X108.935 Y97.752 E15.53705
G1 X108.893 Y98.287 E15.56376
G1 X108.772 Y98.809 E15.59042
G1 X108.575 Y99.308 E15.61712
G1 X108.306 Y99.771 E15.64377
G1 X107.97 Y100.191 E15.67054
G1 X107.822 Y100.35 E15.68135
G1 X107.429 Y100.714 E15.70801
G1 X106.986 Y101.016 E15.73469
G1 X106.401 Y101.286 E15.76675
G1 X106.091 Y101.397 E15.78314
G1 X105.574 Y101.54 E15.80983
G1 X104.874 Y101.608 E15.84483
G1 X79.947 Y101.583 E17.08534
G1 X79.413 Y101.543 E17.11199
G1 X78.89 Y101.423 E17.13869
G1 X78.391 Y101.227 E17.16537
G1 X77.848 Y100.904 E17.19681
G1 X77.63 Y100.747 E17.21018
G1 X77.219 Y100.403 E17.23685
G1 X76.864 Y100 E17.26358
G1 X76.573 Y99.55 E17.29025
G1 X76.352 Y99.062 E17.31691
G1 X76.206 Y98.546 E17.3436
G1 X76.135 Y97.923 E17.3748
G1 X76.067 Y95.362 E17.5023
G1 X76.093 Y94.826 E17.529
G1 X76.198 Y94.3 E17.55569
G1 X76.38 Y93.796 E17.58236
G1 X76.635 Y93.324 E17.60906
G1 X76.958 Y92.894 E17.63582
G1 X77.114 Y92.716 E17.6476
G0 F2400 X77.258 Y93.157
G1 F1050 X77.414 Y92.979 E17.65938
G1 X77.777 Y92.626 E17.68458
G1 X78.035 Y92.433 E17.70061
G1 X81.784 Y89.912 E17.92544
G1 X86.175 Y86.626 E18.19838
G1 X89.297 Y84.044 E18.4
G1 X89.711 Y83.754 E18.42515
G1 X90.165 Y83.532 E18.4503
G1 X90.649 Y83.385 E18.47547
G1 X91.337 Y83.31 E18.50992
G1 X93.657 Y83.31 E18.62537
G1 X94.161 Y83.35 E18.65053
G1 X94.652 Y83.469 E18.67567
G1 X95.119 Y83.663 E18.70084
G1 X95.652 Y84.008 E18.73244
G1 X101.521 Y88.689 E19.10603
G1 X107.11 Y92.566 E19.44454
G1 X107.501 Y92.886 E19.46968
G1 X107.837 Y93.264 E19.49485
G1 X108.11 Y93.69 E19.52003
G1 X108.312 Y94.153 E19.54517
G1 X108.434 Y94.619 E19.56914
G1 X108.492 Y94.936 E19.58518
G1 X108.544 Y95.523 E19.61451
G1 X108.536 Y97.75 E19.72534
G1 X108.494 Y98.254 E19.75051
G1 X108.374 Y98.745 E19.77566
G1 X108.177 Y99.211 E19.80084
G1 X107.91 Y99.64 E19.82598
G1 X107.678 Y99.919 E19.84404
G1 X107.53 Y100.078 E19.85485
G1 X107.158 Y100.42 E19.88
G1 X106.736 Y100.699 E19.90518
G1 X106.267 Y100.911 E19.93079
G1 X105.957 Y101.022 E19.94718
G1 X105.469 Y101.154 E19.97233
G1 X104.875 Y101.209 E20.00202
G1 X79.948 Y101.184 E21.24253
G1 X79.444 Y101.144 E21.26769
G1 X78.953 Y101.024 E21.29284
G1 X78.486 Y100.829 E21.31803
G1 X78.081 Y100.581 E21.34166
G1 X77.863 Y100.424 E21.35503
G1 X77.477 Y100.097 E21.3802
G1 X77.148 Y99.713 E21.40537
G1 X76.883 Y99.282 E21.43055
G1 X76.689 Y98.815 E21.45571
G1 X76.572 Y98.324 E21.48083
G1 X76.534 Y97.912 E21.50142
G1 X76.466 Y95.351 E21.62892
G1 X76.493 Y94.846 E21.65409
G1 X76.598 Y94.352 E21.67922
G1 X76.781 Y93.88 E21.70441
G1 X77.035 Y93.443 E21.72957
G1 X77.258 Y93.157 E21.74761
G1 F1500 E20.74761
G0 F2400 X79.293 Y94.661
G0 X80.266 Y95.593
G0 X80.651 Y95.978
;TYPE:WALL-INNER
G1 F1500 E21.74761
G1 F1050 X90.918 Y95.978 E22.25856
G1 X91.215 Y95.95 E22.2734
G1 X91.463 Y95.867 E22.28642
G1 X91.701 Y95.756 E22.29949
G1 X91.949 Y95.558 E22.31528
G1 X92.126 Y95.325 E22.32984
G1 X92.239 Y95.098 E22.34246
G1 X92.298 Y94.874 E22.35399
G1 X92.302 Y94.857 E22.35486
G1 X92.329 Y94.641 E22.36569
G1 X92.33 Y87.496 E22.72126
G1 X92.67 Y87.496 E22.73818
G1 X92.672 Y94.634 E23.04219
G1 X92.692 Y94.812 E23.05033
G1 X92.694 Y94.83 E23.05123
G1 X92.703 Y94.902 E23.05484
G1 X92.841 Y95.277 E23.07472
G1 X93.049 Y95.551 E23.09184
G1 X93.28 Y95.74 E23.1067
G1 X93.524 Y95.867 E23.12038
G1 X93.791 Y95.95 E23.1343
G1 X94.078 Y95.979 E23.14865
G1 X104.349 Y95.978 E23.6598
G1 X104.35 Y96.823 E23.70185
G1 X104.35 Y97.022 E23.71175
G1 X104.151 Y97.022 E23.71816
G1 X80.651 Y97.022 E24.88765
G1 X80.651 Y95.978 E24.9396
G0 F2400 X80.252 Y95.579
G1 F1050 X90.899 Y95.579 E25.46946
G1 X91.132 Y95.557 E25.4811
G1 X91.315 Y95.496 E25.4907
G1 X91.489 Y95.415 E25.50025
G1 X91.661 Y95.277 E25.51123
G1 X91.786 Y95.113 E25.52149
G1 X91.863 Y94.958 E25.5301
G1 X91.909 Y94.781 E25.5392
G1 X91.93 Y94.616 E25.54748
G1 X91.931 Y87.097 E25.92167
G1 X93.069 Y87.097 E25.9783
G1 X93.071 Y94.611 E26.35224
G1 X93.094 Y94.809 E26.36216
G1 X93.195 Y95.083 E26.37669
G1 X93.338 Y95.272 E26.38849
G1 X93.501 Y95.405 E26.39896
G1 X93.677 Y95.497 E26.40884
G1 X93.871 Y95.557 E26.41894
G1 X94.098 Y95.58 E26.4303
G1 X104.748 Y95.579 E26.9603
G1 X104.749 Y97.222 E27.04207
G1 X104.749 Y97.421 E27.05197
G1 X104.55 Y97.421 E27.05838
G1 X80.252 Y97.421 E28.26758
G1 X80.252 Y95.579 E28.35925
G0 F2400 X80.322 Y95.649
G0 X91.14 Y95.596
G0 X93.49 Y95.511
G0 X93.721 Y95.071
;TYPE:WALL-OUTER
G1 F1050 X93.829 Y95.127 E28.3653
G1 X93.951 Y95.165 E28.37166
G1 X94.118 Y95.182 E28.38001
G1 X104.887 Y95.181 E28.91594
G1 X104.986 Y95.197 E28.92093
G1 X105.067 Y95.244 E28.92559
G1 X105.146 Y95.324 E28.93118
G1 X105.147 Y97.626 E29.04574
G1 X105.147 Y97.677 E29.04828
G1 X105.068 Y97.759 E29.05395
G1 X104.989 Y97.803 E29.05845
G1 X104.887 Y97.819 E29.06359
G1 X104.836 Y97.819 E29.06612
G1 X80.113 Y97.819 E30.29648
G1 X80.012 Y97.803 E30.30157
G1 X79.934 Y97.758 E30.30605
G1 X79.854 Y97.677 E30.31171
G1 X79.854 Y95.323 E30.42886
G1 X79.931 Y95.243 E30.43439
G1 X80.013 Y95.197 E30.43907
G1 X80.113 Y95.181 E30.44411
G1 X90.88 Y95.181 E30.97993
G1 X91.05 Y95.165 E30.98843
G1 X91.168 Y95.126 E30.99461
G1 X91.277 Y95.075 E31.0006
G1 X91.374 Y94.997 E31.0068
G1 X91.447 Y94.902 E31.01276
G1 X91.488 Y94.819 E31.01737
G1 X91.517 Y94.706 E31.02317
G1 X91.532 Y94.59 E31.02899
G1 X91.533 Y86.699 E31.42169
G1 X93.467 Y86.699 E31.51794
G1 X93.469 Y94.588 E31.91054
G1 X93.484 Y94.716 E31.91695
G1 X93.548 Y94.89 E31.92618
G1 X93.627 Y94.994 E31.93268
G1 X93.721 Y95.071 E31.93872
G0 F2400 X93.829 Y95.127
G0 X93.904 Y95.15
G0 X93.756 Y95.625
G0 X104.168 Y96.269
G0 X104.113 Y96.213
G1 F1050 X103.831 Y96.495 E31.96638
;TYPE:SKIN
G1 X104.238 Y96.903
G0 F2400 X103.612 Y96.841
G1 F1050 X102.929 Y96.158 E32.01445
G1 X102.859 Y96.088
G0 F2400 X102.365 Y96.158
G1 F1050 X103.048 Y96.841 E32.06252
G1 X103.118 Y96.911
G0 F2400 X102.483 Y96.841
G1 F1050 X101.801 Y96.158 E32.11055
G1 X101.732 Y96.088
G0 F2400 X101.237 Y96.158
G1 F1050 X101.919 Y96.841 E32.15859
G1 X101.988 Y96.911
G0 F2400 X101.355 Y96.841
G1 F1050 X100.672 Y96.158 E32.20665
G1 X100.602 Y96.088
G0 F2400 X100.108 Y96.158
G1 F1050 X100.791 Y96.841 E32.25472
G1 X100.861 Y96.911
G0 F2400 X100.226 Y96.841
G1 F1050 X99.544 Y96.158 E32.30276
G1 X99.475 Y96.088
G0 F2400 X98.98 Y96.158
G1 F1050 X99.662 Y96.841 E32.35079
G1 X99.731 Y96.911
G0 F2400 X99.098 Y96.841
G1 F1050 X98.415 Y96.158 E32.39886
G1 X98.345 Y96.088
G0 F2400 X97.851 Y96.158
G1 F1050 X98.533 Y96.841 E32.44689
G1 X98.602 Y96.911
G0 F2400 X97.969 Y96.841
G1 F1050 X97.287 Y96.158 E32.49493
G1 X97.218 Y96.088
G0 F2400 X96.723 Y96.158
G1 F1050 X97.405 Y96.841 E32.54296
G1 X97.474 Y96.911
G0 F2400 X96.841 Y96.841
G1 F1050 X96.158 Y96.158 E32.59103
G1 X96.088 Y96.088
G0 F2400 X95.594 Y96.158
G1 F1050 X96.276 Y96.841 E32.63906
G1 X96.345 Y96.911
G0 F2400 X95.712 Y96.841
G1 F1050 X95.03 Y96.158 E32.6871
G1 X94.961 Y96.088
G0 F2400 X94.465 Y96.158
G1 F1050 X95.148 Y96.841 E32.73517
G1 X95.218 Y96.911
G0 F2400 X94.584 Y96.841
G1 F1050 X93.882 Y96.139 E32.78457
G1 X93.812 Y96.069
G0 F2400 X94.019 Y96.841
G1 F1050 X92.384 Y95.206 E32.89964
G1 X92.314 Y95.136
G0 F2400 X92.172 Y95.558
G1 F1050 X93.455 Y96.841 E32.98994
G1 X93.525 Y96.911
G0 F2400 X92.891 Y96.841
G1 F1050 X91.887 Y95.837 E33.0606
G1 X91.817 Y95.767
G0 F2400 X91.522 Y96.036
G1 F1050 X92.326 Y96.841 E33.11722
G1 X92.396 Y96.911
G0 F2400 X91.762 Y96.841
G1 F1050 X91.066 Y96.144 E33.16624
G1 X90.997 Y96.074
G0 F2400 X90.514 Y96.157
G1 F1050 X91.198 Y96.841 E33.21438
G1 X91.268 Y96.911
G0 F2400 X90.634 Y96.841
G1 F1050 X89.95 Y96.157 E33.26252
G1 X89.88 Y96.087
G0 F2400 X89.386 Y96.157
G1 F1050 X90.069 Y96.841 E33.31062
G1 X90.138 Y96.911
G0 F2400 X89.505 Y96.841
G1 F1050 X88.821 Y96.157 E33.35876
G1 X88.751 Y96.087
G0 F2400 X88.257 Y96.157
G1 F1050 X88.941 Y96.841 E33.4069
G1 X89.011 Y96.911
G0 F2400 X88.377 Y96.841
G1 F1050 X87.693 Y96.157 E33.45504
G1 X87.623 Y96.087
G0 F2400 X87.128 Y96.157
G1 F1050 X87.812 Y96.841 E33.50318
G1 X87.882 Y96.911
G0 F2400 X87.248 Y96.841
G1 F1050 X86.564 Y96.157 E33.55132
G1 X86.494 Y96.087
G0 F2400 X86 Y96.157
G1 F1050 X86.684 Y96.841 E33.59945
G1 X86.754 Y96.911
G0 F2400 X86.119 Y96.841
G1 F1050 X85.436 Y96.157 E33.64756
G1 X85.367 Y96.087
G0 F2400 X84.871 Y96.157
G1 F1050 X85.555 Y96.841 E33.6957
G1 X85.625 Y96.911
G0 F2400 X84.991 Y96.841
G1 F1050 X84.307 Y96.157 E33.74384
G1 X84.237 Y96.087
G0 F2400 X83.743 Y96.157
G1 F1050 X84.427 Y96.841 E33.79198
G1 X84.497 Y96.911
G0 F2400 X83.862 Y96.841
G1 F1050 X83.179 Y96.157 E33.84008
G1 X83.11 Y96.087
G0 F2400 X82.614 Y96.157
G1 F1050 X83.298 Y96.841 E33.88822
G1 X83.368 Y96.911
G0 F2400 X82.734 Y96.841
G1 F1050 X82.05 Y96.157 E33.93636
G1 X81.98 Y96.087
G0 F2400 X81.486 Y96.157
G1 F1050 X82.17 Y96.841 E33.9845
G1 X82.24 Y96.911
G0 F2400 X81.605 Y96.841
G1 F1050 X80.922 Y96.157 E34.0326
G1 X80.853 Y96.087
G0 F2400 X80.83 Y96.63
G1 F1050 X81.041 Y96.841 E34.04745
G0 F2400 X80.534 Y95.828
;TIME_ELAPSED:44.194996
;LAYER:1
M140 S60
M106 S255
G0 F3600 X80.534 Y95.828 Z0.5
;TYPE:WALL-INNER
G1 F1575 X90.687 Y95.827 E34.3843
G1 X90.988 Y95.797 E34.39433
G1 X91.289 Y95.699 E34.40484
G1 X91.527 Y95.56 E34.41398
G1 X91.755 Y95.375 E34.42372
G1 X91.945 Y95.114 E34.43443
G1 X92.039 Y94.905 E34.44204
G1 X92.105 Y94.682 E34.44975
G1 X92.131 Y94.465 E34.457
