;FLAVOR:Marlin
;TIME:787
;Filament used: 0.553979m
;Layer height: 0.15
;Generated with Cura_SteamEngine 2.7.0
M190 S60
M104 S220
M109 S220
G21 ;metric values
G90 ;absolute positioning
M82 ;set extruder to absolute mode
M107 ;start with the fan off
G92 E0 ;zero the extruded length
G1 F200 E3 ;extrude 3mm of feed stock
G92 E0 ;zero the extruded length again
G1 F9000
M301 P31.36 I3.30 D74.51 ;set PID tuning for E0
M304 P72.25 I2.72 D479.41 ; set PID tuning for heated bed
M117 Printing...
;LAYER_COUNT:15
;LAYER:0
M107
M205 X20 Y20
G0 F2400 X76.168 Y86.729 Z0.3
;TYPE:SKIRT
G1 F1050 X76.603 Y86.378 E0.02782
G1 X77.848 Y85.49 E0.10392
G1 X78.374 Y85.165 E0.13469
G1 X79.387 Y84.624 E0.19184
G1 X79.917 Y84.38 E0.22088
G1 X81.454 Y83.786 E0.30288
G1 X82.013 Y83.609 E0.33206
G1 X83.023 Y83.355 E0.38389
G1 X83.639 Y83.242 E0.41506
G1 X85.231 Y83.057 E0.49482
G1 X85.807 Y83.025 E0.52353
G1 X86.894 Y83.03 E0.57762
G1 X87.233 Y83.044 E0.59451
G1 X93.967 Y83.552 E0.93058
G1 X99.336 Y83.637 E1.1978
G1 X104.728 Y83.417 E1.46636
G1 X110.127 Y82.89 E1.73632
G1 X112.929 Y82.517 E1.877
G1 X113.562 Y82.475 E1.90857
G1 X115.119 Y82.475 E1.98605
G1 X115.67 Y82.507 E2.01352
G1 X116.707 Y82.627 E2.06547
G1 X117.314 Y82.737 E2.09617
G1 X118.966 Y83.148 E2.18089
G1 X119.618 Y83.361 E2.21502
G1 X120.803 Y83.844 E2.2787
G1 X121.285 Y84.072 E2.30524
G1 X122.432 Y84.696 E2.37022
G1 X122.984 Y85.047 E2.40278
G1 X124.19 Y85.935 E2.47731
G1 X124.687 Y86.357 E2.50975
G1 X125.695 Y87.336 E2.57968
G1 X126.139 Y87.83 E2.61274
G1 X127.178 Y89.165 E2.69692
G1 X127.561 Y89.738 E2.73122
G1 X128.239 Y90.929 E2.79942
G1 X128.458 Y91.364 E2.82366
G1 X128.781 Y92.095 E2.86343
G1 X128.989 Y92.658 E2.8933
G1 X129.541 Y94.503 E2.98914
G1 X129.68 Y95.11 E3.02013
G1 X129.802 Y95.862 E3.05804
G1 X129.858 Y96.388 E3.08437
G1 X129.937 Y97.954 E3.1624
G1 X129.909 Y98.77 E3.20303
G1 X129.645 Y100.96 E3.31281
G1 X129.459 Y101.821 E3.35664
G1 X128.94 Y103.476 E3.44296
G1 X128.656 Y104.182 E3.48083
G1 X125.387 Y110.735 E3.84527
G1 X123.241 Y115.673 E4.11322
G1 X121.113 Y121.249 E4.41023
G1 X120.705 Y122.072 E4.45594
G1 X120.243 Y122.815 E4.49948
G1 X119.822 Y123.391 E4.53499
G1 X119.255 Y124.057 E4.57852
G1 X118.762 Y124.557 E4.61346
G1 X118.105 Y125.132 E4.65691
G1 X117.546 Y125.553 E4.69174
G1 X116.813 Y126.026 E4.73515
G1 X116.186 Y126.368 E4.77069
G1 X115.386 Y126.729 E4.81437
G1 X114.723 Y126.971 E4.84949
G1 X113.888 Y127.208 E4.89269
G1 X113.198 Y127.35 E4.92775
G1 X112.316 Y127.465 E4.97201
G1 X111.458 Y127.499 E5.01475
G1 X106.646 Y127.26 E5.25451
G1 X101.213 Y127.206 E5.5249
G1 X95.822 Y127.458 E5.79348
G1 X89.747 Y128.048 E6.09723
G1 X88.949 Y128.058 E6.13694
G1 X88.091 Y127.998 E6.17975
G1 X87.406 Y127.9 E6.21418
G1 X86.584 Y127.721 E6.25605
G1 X85.912 Y127.523 E6.29091
G1 X85.074 Y127.207 E6.33548
G1 X84.434 Y126.91 E6.37059
G1 X83.688 Y126.495 E6.41308
G1 X83.087 Y126.098 E6.44892
G1 X82.351 Y125.529 E6.49522
G1 X81.825 Y125.057 E6.53039
G1 X81.265 Y124.474 E6.57062
G1 X80.821 Y123.94 E6.60518
G1 X80.291 Y123.198 E6.65056
G1 X79.881 Y122.507 E6.69054
G1 X79.356 Y121.427 E6.75031
G1 X79.191 Y121.047 E6.77092
G1 X76.662 Y114.451 E7.12248
G1 X74.401 Y109.517 E7.39257
G1 X71.873 Y104.448 E7.67446
G1 X71.633 Y103.878 E7.70524
G1 X71.529 Y103.536 E7.72303
G1 X71.014 Y101.592 E7.82311
G1 X70.874 Y100.804 E7.86294
G1 X70.718 Y99.11 E7.9476
G1 X70.702 Y98.485 E7.97872
G1 X70.744 Y97.395 E8.033
G1 X70.801 Y96.821 E8.06171
G1 X71.043 Y95.312 E8.13776
G1 X71.244 Y94.509 E8.17896
G1 X71.9 Y92.605 E8.27918
G1 X72.18 Y91.953 E8.31449
G1 X72.73 Y90.896 E8.37379
G1 X73.001 Y90.438 E8.40027
G1 X73.684 Y89.42 E8.46128
G1 X74.053 Y88.939 E8.49145
G1 X75.094 Y87.746 E8.57024
G1 X75.488 Y87.345 E8.59822
G1 X76.168 Y86.729 E8.64388
G0 F2400 X76.436 Y87.024
G1 F1050 X76.835 Y86.703 E8.66936
G1 X78.08 Y85.815 E8.74547
G1 X78.562 Y85.516 E8.77369
G1 X79.575 Y84.975 E8.83085
G1 X80.061 Y84.753 E8.85744
G1 X81.598 Y84.159 E8.93944
G1 X82.111 Y83.996 E8.96623
G1 X83.121 Y83.742 E9.01805
G1 X83.685 Y83.638 E9.0466
G1 X85.277 Y83.453 E9.12635
G1 X85.805 Y83.424 E9.15267
G1 X86.892 Y83.429 E9.20677
G1 X87.203 Y83.441 E9.22225
G1 X93.964 Y83.951 E9.55968
G1 X99.346 Y84.036 E9.82755
G1 X104.746 Y83.816 E10.0965
G1 X110.165 Y83.287 E10.36746
G1 X112.982 Y82.912 E10.50889
G1 X113.562 Y82.874 E10.53782
G1 X115.119 Y82.874 E10.6153
G1 X115.624 Y82.903 E10.64047
G1 X116.661 Y83.023 E10.69242
G1 X117.218 Y83.124 E10.7206
G1 X118.87 Y83.535 E10.80531
G1 X119.468 Y83.73 E10.83662
G1 X120.653 Y84.213 E10.9003
G1 X121.094 Y84.423 E10.92461
G1 X122.241 Y85.047 E10.98959
G1 X122.747 Y85.368 E11.01941
G1 X123.953 Y86.256 E11.09394
G1 X124.409 Y86.643 E11.12371
G1 X125.417 Y87.622 E11.19363
G1 X125.824 Y88.075 E11.22394
G1 X126.863 Y89.41 E11.30813
G1 X127.214 Y89.936 E11.3396
G1 X127.892 Y91.127 E11.4078
G1 X128.093 Y91.525 E11.42999
G1 X128.416 Y92.256 E11.46976
G1 X128.607 Y92.773 E11.49719
G1 X129.159 Y94.618 E11.59303
G1 X129.286 Y95.174 E11.62141
G1 X129.408 Y95.926 E11.65932
G1 X129.459 Y96.408 E11.68344
G1 X129.538 Y97.974 E11.76147
G1 X129.512 Y98.722 E11.79872
G1 X129.248 Y100.912 E11.9085
G1 X129.079 Y101.702 E11.9487
G1 X128.56 Y103.357 E12.03502
G1 X128.299 Y104.004 E12.06974
G1 X125.024 Y110.569 E12.43484
G1 X122.871 Y115.524 E12.7037
G1 X120.74 Y121.107 E13.0011
G1 X120.366 Y121.861 E13.04298
G1 X119.904 Y122.604 E13.08652
G1 X119.518 Y123.132 E13.11907
G1 X118.951 Y123.798 E13.1626
G1 X118.499 Y124.257 E13.19466
G1 X117.842 Y124.832 E13.23811
G1 X117.33 Y125.218 E13.27002
G1 X116.597 Y125.691 E13.31343
G1 X116.022 Y126.004 E13.34601
G1 X115.222 Y126.365 E13.38969
G1 X114.614 Y126.587 E13.4219
G1 X113.779 Y126.824 E13.4651
G1 X113.146 Y126.954 E13.49726
G1 X112.264 Y127.069 E13.54152
G1 X111.478 Y127.101 E13.58067
G1 X106.645 Y126.861 E13.82148
G1 X101.198 Y126.807 E14.09257
G1 X95.786 Y127.06 E14.36219
G1 X89.709 Y127.65 E14.66604
G1 X88.977 Y127.66 E14.70247
G1 X88.119 Y127.6 E14.74527
G1 X87.49 Y127.51 E14.77689
G1 X86.668 Y127.331 E14.81876
G1 X86.053 Y127.149 E14.85068
G1 X85.215 Y126.833 E14.89525
G1 X84.628 Y126.561 E14.92744
G1 X83.882 Y126.146 E14.96993
G1 X83.331 Y125.783 E15.00276
G1 X82.595 Y125.214 E15.04906
G1 X82.113 Y124.781 E15.08131
G1 X81.553 Y124.198 E15.12153
G1 X81.146 Y123.708 E15.15323
G1 X80.616 Y122.966 E15.19861
G1 X80.239 Y122.332 E15.23532
G1 X79.714 Y121.252 E15.29508
G1 X79.563 Y120.904 E15.31396
G1 X77.026 Y114.287 E15.66663
G1 X74.764 Y109.351 E15.93684
G1 X72.23 Y104.27 E16.2194
G1 X72.002 Y103.723 E16.24889
G1 X71.915 Y103.434 E16.26391
G1 X71.4 Y101.49 E16.36399
G1 X71.272 Y100.767 E16.40053
G1 X71.116 Y99.073 E16.48519
G1 X71.1 Y98.501 E16.51367
G1 X71.142 Y97.411 E16.56795
G1 X71.194 Y96.884 E16.59431
G1 X71.436 Y95.375 E16.67036
G1 X71.621 Y94.639 E16.70813
G1 X72.277 Y92.735 E16.80835
G1 X72.533 Y92.137 E16.84072
G1 X73.083 Y91.08 E16.90002
G1 X73.333 Y90.66 E16.92434
G1 X74.016 Y89.642 E16.98535
G1 X74.354 Y89.201 E17.013
G1 X75.395 Y88.008 E17.0918
G1 X75.756 Y87.64 E17.11745
G1 X76.436 Y87.024 E17.16311
G0 F2400 X76.704 Y87.32
G1 F1050 X77.066 Y87.028 E17.18626
G1 X78.311 Y86.14 E17.26236
G1 X78.75 Y85.868 E17.28806
G1 X79.763 Y85.327 E17.34521
G1 X80.205 Y85.125 E17.3694
G1 X81.742 Y84.531 E17.4514
G1 X82.208 Y84.383 E17.47573
G1 X83.218 Y84.129 E17.52756
G1 X83.732 Y84.035 E17.55356
G1 X85.324 Y83.85 E17.63332
G1 X85.803 Y83.823 E17.6572
G1 X86.89 Y83.828 E17.71129
G1 X87.173 Y83.839 E17.72539
G1 X93.928 Y84.349 E18.06251
G1 X99.356 Y84.434 E18.33267
G1 X104.784 Y84.213 E18.60302
G1 X110.228 Y83.682 E18.87523
G1 X113.035 Y83.308 E19.01616
G1 X113.562 Y83.273 E19.04244
G1 X115.119 Y83.273 E19.11993
G1 X115.579 Y83.3 E19.14286
G1 X116.616 Y83.42 E19.19481
G1 X117.121 Y83.511 E19.22035
G1 X118.773 Y83.922 E19.30506
G1 X119.317 Y84.1 E19.33355
G1 X120.502 Y84.583 E19.39723
G1 X120.904 Y84.773 E19.41936
G1 X122.051 Y85.397 E19.48434
G1 X122.511 Y85.69 E19.51148
G1 X123.717 Y86.578 E19.58601
G1 X124.131 Y86.929 E19.61303
G1 X125.139 Y87.908 E19.68295
G1 X125.509 Y88.32 E19.71051
G1 X126.548 Y89.655 E19.7947
G1 X126.867 Y90.133 E19.8233
G1 X127.545 Y91.324 E19.8915
G1 X127.728 Y91.686 E19.91169
G1 X128.051 Y92.417 E19.95146
G1 X128.224 Y92.887 E19.97638
G1 X128.776 Y94.732 E20.07222
G1 X128.892 Y95.238 E20.09805
G1 X129.014 Y95.99 E20.13597
G1 X129.061 Y96.429 E20.15794
G1 X129.14 Y97.995 E20.23597
G1 X129.116 Y98.674 E20.26978
G1 X128.852 Y100.864 E20.37956
G1 X128.698 Y101.582 E20.4161
G1 X128.179 Y103.237 E20.50242
G1 X127.942 Y103.826 E20.53401
G1 X124.661 Y110.402 E20.89974
G1 X122.501 Y115.375 E21.16956
G1 X120.367 Y120.965 E21.46734
G1 X120.027 Y121.65 E21.50539
G1 X119.565 Y122.393 E21.54893
G1 X119.214 Y122.874 E21.57857
G1 X118.647 Y123.54 E21.6221
G1 X118.236 Y123.957 E21.65123
G1 X117.579 Y124.532 E21.69468
G1 X117.114 Y124.882 E21.72365
G1 X116.381 Y125.355 E21.76706
G1 X115.857 Y125.64 E21.79674
G1 X115.057 Y126.001 E21.84042
G1 X114.505 Y126.203 E21.86967
G1 X113.67 Y126.44 E21.91287
G1 X113.095 Y126.558 E21.94208
G1 X112.213 Y126.673 E21.98635
G1 X111.498 Y126.702 E22.02196
G1 X106.669 Y126.462 E22.26257
G1 X101.202 Y126.408 E22.53465
G1 X95.748 Y126.663 E22.80637
G1 X89.67 Y127.253 E23.11027
G1 X89.005 Y127.262 E23.14336
G1 X88.147 Y127.202 E23.18617
G1 X87.575 Y127.12 E23.21492
G1 X86.753 Y126.941 E23.25679
G1 X86.193 Y126.776 E23.28584
G1 X85.355 Y126.46 E23.33041
G1 X84.822 Y126.213 E23.35965
G1 X84.076 Y125.798 E23.40213
G1 X83.575 Y125.467 E23.43201
G1 X82.839 Y124.898 E23.47831
G1 X82.401 Y124.505 E23.5076
G1 X81.841 Y123.922 E23.54783
G1 X81.471 Y123.476 E23.57666
G1 X80.941 Y122.734 E23.62204
G1 X80.598 Y122.158 E23.6554
G1 X80.073 Y121.078 E23.71517
G1 X79.936 Y120.761 E23.73235
G1 X77.402 Y114.15 E24.08469
G1 X75.115 Y109.161 E24.35781
G1 X72.587 Y104.092 E24.63971
G1 X72.3 Y103.332 E24.68014
G1 X71.785 Y101.388 E24.78022
G1 X71.669 Y100.731 E24.81342
G1 X71.513 Y99.037 E24.89808
G1 X71.499 Y98.516 E24.92402
G1 X71.541 Y97.426 E24.9783
G1 X71.588 Y96.947 E25.00225
G1 X71.83 Y95.438 E25.07831
G1 X71.998 Y94.769 E25.11263
G1 X72.654 Y92.865 E25.21285
G1 X72.887 Y92.322 E25.24226
G1 X73.437 Y91.265 E25.30156
G1 X73.664 Y90.883 E25.32367
G1 X74.347 Y89.865 E25.38468
G1 X74.655 Y89.463 E25.40988
G1 X75.696 Y88.27 E25.48867
G1 X76.024 Y87.936 E25.51197
G1 X76.704 Y87.32 E25.55763
G0 F2400 X76.972 Y87.616
G1 F1050 X77.298 Y87.353 E25.57848
G1 X78.543 Y86.465 E25.65458
G1 X78.938 Y86.22 E25.67771
G1 X79.951 Y85.679 E25.73486
G1 X80.349 Y85.497 E25.75664
G1 X81.886 Y84.903 E25.83865
G1 X82.305 Y84.77 E25.86052
G1 X83.315 Y84.516 E25.91235
G1 X83.778 Y84.431 E25.93578
G1 X85.37 Y84.246 E26.01554
G1 X85.802 Y84.222 E26.03707
G1 X86.889 Y84.227 E26.09116
G1 X87.143 Y84.237 E26.10381
G1 X93.908 Y84.748 E26.44144
G1 X99.367 Y84.834 E26.71314
G1 X104.804 Y84.612 E26.98394
G1 X110.26 Y84.079 E27.25675
G1 X113.087 Y83.703 E27.39868
G1 X113.562 Y83.672 E27.42237
G1 X115.119 Y83.672 E27.49985
G1 X115.533 Y83.696 E27.52049
G1 X116.57 Y83.816 E27.57244
G1 X117.025 Y83.898 E27.59545
G1 X118.677 Y84.309 E27.68017
G1 X119.166 Y84.469 E27.70577
G1 X120.351 Y84.952 E27.76946
G1 X120.713 Y85.124 E27.7894
G1 X121.86 Y85.748 E27.85438
G1 X122.274 Y86.011 E27.87879
G1 X123.48 Y86.899 E27.95332
G1 X123.853 Y87.215 E27.97765
G1 X124.861 Y88.194 E28.04758
G1 X125.194 Y88.566 E28.07243
G1 X126.233 Y89.901 E28.15661
G1 X126.521 Y90.33 E28.18233
G1 X127.199 Y91.521 E28.25053
G1 X127.363 Y91.847 E28.26869
G1 X127.686 Y92.578 E28.30846
G1 X127.842 Y93.001 E28.3309
G1 X128.394 Y94.846 E28.42674
G1 X128.499 Y95.302 E28.45002
G1 X128.621 Y96.054 E28.48794
G1 X128.662 Y96.449 E28.5077
G1 X128.741 Y98.015 E28.58573
G1 X128.72 Y98.627 E28.61621
G1 X128.456 Y100.817 E28.72598
G1 X128.317 Y101.463 E28.75887
G1 X127.798 Y103.118 E28.84518
G1 X127.584 Y103.648 E28.87363
G1 X124.305 Y110.22 E29.23914
G1 X122.127 Y115.233 E29.51114
G1 X119.994 Y120.822 E29.80884
G1 X119.688 Y121.439 E29.84312
G1 X119.226 Y122.182 E29.88666
G1 X118.91 Y122.615 E29.91334
G1 X118.343 Y123.281 E29.95686
G1 X117.973 Y123.656 E29.98308
G1 X117.316 Y124.231 E30.02653
G1 X116.897 Y124.547 E30.05265
G1 X116.164 Y125.02 E30.09606
G1 X115.693 Y125.276 E30.12274
G1 X114.893 Y125.637 E30.16642
G1 X114.396 Y125.819 E30.19276
G1 X113.561 Y126.056 E30.23595
G1 X113.043 Y126.163 E30.26228
G1 X112.161 Y126.278 E30.30654
G1 X111.518 Y126.304 E30.33857
G1 X106.668 Y126.063 E30.58023
G1 X101.187 Y126.009 E30.853
G1 X95.732 Y126.264 E31.12477
G1 X89.632 Y126.856 E31.42977
G1 X89.033 Y126.864 E31.45958
G1 X88.175 Y126.804 E31.50238
G1 X87.66 Y126.731 E31.52827
G1 X86.838 Y126.552 E31.57013
G1 X86.334 Y126.403 E31.59629
G1 X85.496 Y126.087 E31.64086
G1 X85.016 Y125.864 E31.6672
G1 X84.27 Y125.449 E31.70968
G1 X83.819 Y125.151 E31.73658
G1 X83.083 Y124.582 E31.78288
G1 X82.688 Y124.228 E31.80928
G1 X82.128 Y123.645 E31.8495
G1 X81.795 Y123.244 E31.87544
G1 X81.265 Y122.502 E31.92082
G1 X80.957 Y121.983 E31.95086
G1 X80.432 Y120.903 E32.01062
G1 X80.309 Y120.618 E32.02607
G1 X77.77 Y113.994 E32.3791
G1 X75.484 Y109.006 E32.65216
G1 X72.944 Y103.914 E32.93534
G1 X72.686 Y103.23 E32.97172
G1 X72.171 Y101.286 E33.0718
G1 X72.066 Y100.694 E33.10172
G1 X71.91 Y99 E33.18638
G1 X71.898 Y98.531 E33.20973
G1 X71.94 Y97.441 E33.26401
G1 X71.982 Y97.01 E33.28556
G1 X72.224 Y95.501 E33.36162
G1 X72.375 Y94.899 E33.39251
G1 X73.031 Y92.995 E33.49273
G1 X73.241 Y92.506 E33.51921
G1 X73.791 Y91.449 E33.57851
G1 X73.995 Y91.105 E33.59841
G1 X74.678 Y90.087 E33.65942
G1 X74.955 Y89.726 E33.68206
G1 X75.996 Y88.533 E33.76086
G1 X76.292 Y88.232 E33.78187
G1 X76.972 Y87.616 E33.82753
G0 F2400 X77.24 Y87.911
G1 F1050 X77.53 Y87.678 E33.84604
G1 X78.775 Y86.79 E33.92214
G1 X79.126 Y86.572 E33.94271
G1 X80.139 Y86.031 E33.99986
G1 X80.492 Y85.869 E34.01919
G1 X82.029 Y85.275 E34.10119
G1 X82.403 Y85.157 E34.12071
G1 X83.413 Y84.903 E34.17253
G1 X83.824 Y84.827 E34.19333
G1 X85.416 Y84.642 E34.27309
G1 X85.8 Y84.621 E34.29223
G1 X86.887 Y84.626 E34.34633
G1 X87.113 Y84.635 E34.35758
G1 X93.889 Y85.146 E34.69575
G1 X99.376 Y85.233 E34.96885
G1 X104.824 Y85.011 E35.2402
G1 X110.323 Y84.474 E35.51516
G1 X113.14 Y84.099 E35.65659
G1 X113.562 Y84.071 E35.67763
G1 X115.119 Y84.071 E35.75512
G1 X115.487 Y84.092 E35.77346
G1 X116.524 Y84.212 E35.82541
G1 X116.929 Y84.286 E35.8459
G1 X118.581 Y84.697 E35.93062
G1 X119.016 Y84.839 E35.95339
G1 X120.201 Y85.322 E36.01708
G1 X120.522 Y85.474 E36.03475
G1 X121.669 Y86.098 E36.09973
G1 X122.037 Y86.332 E36.12143
G1 X123.243 Y87.22 E36.19597
G1 X123.575 Y87.501 E36.21761
G1 X124.583 Y88.48 E36.28754
G1 X124.879 Y88.811 E36.30964
G1 X125.918 Y90.146 E36.39383
G1 X126.174 Y90.528 E36.41671
G1 X126.852 Y91.719 E36.48491
G1 X126.998 Y92.009 E36.50107
G1 X127.321 Y92.74 E36.54084
G1 X127.46 Y93.116 E36.56079
G1 X128.012 Y94.961 E36.65663
G1 X128.105 Y95.366 E36.67731
G1 X128.227 Y96.118 E36.71522
G1 X128.264 Y96.469 E36.73279
G1 X128.343 Y98.035 E36.81082
G1 X128.324 Y98.579 E36.83791
G1 X128.06 Y100.769 E36.94768
G1 X127.936 Y101.344 E36.97696
G1 X127.417 Y102.999 E37.06327
G1 X127.227 Y103.47 E37.08855
G1 X123.942 Y110.054 E37.45472
G1 X121.767 Y115.06 E37.72635
G1 X119.622 Y120.68 E38.02571
G1 X119.349 Y121.229 E38.05622
G1 X118.887 Y121.972 E38.09976
G1 X118.607 Y122.356 E38.12341
G1 X118.04 Y123.022 E38.16694
G1 X117.71 Y123.356 E38.19031
G1 X117.053 Y123.931 E38.23376
G1 X116.681 Y124.212 E38.25696
G1 X115.948 Y124.685 E38.30037
G1 X115.529 Y124.913 E38.32411
G1 X114.729 Y125.274 E38.36779
G1 X114.287 Y125.435 E38.3912
G1 X113.452 Y125.672 E38.43439
G1 X112.992 Y125.767 E38.45777
G1 X112.11 Y125.882 E38.50203
G1 X111.537 Y125.905 E38.53057
G1 X106.691 Y125.664 E38.77203
G1 X101.189 Y125.61 E39.04586
G1 X95.694 Y125.867 E39.31962
G1 X89.593 Y126.459 E39.62466
G1 X89.061 Y126.466 E39.65114
G1 X88.203 Y126.406 E39.69394
G1 X87.745 Y126.341 E39.71696
G1 X86.923 Y126.162 E39.75883
G1 X86.475 Y126.029 E39.78208
G1 X85.637 Y125.713 E39.82665
G1 X85.21 Y125.515 E39.85008
G1 X84.464 Y125.1 E39.89256
G1 X84.063 Y124.836 E39.91645
G1 X83.327 Y124.267 E39.96275
G1 X82.976 Y123.952 E39.98622
