;FLAVOR:Marlin
;TIME:5530
;Filament used: 6.08569m
;Layer height: 0.2
;Generated with Cura_SteamEngine 2.7.0
M190 S60
M104 S220
M109 S220
G21 ;metric values
G90 ;absolute positioning
M82 ;set extruder to absolute mode
M107 ;start with the fan off
G92 E0 ;zero the extruded length
G1 F200 E3 ;extrude 3mm of feed stock
G92 E0 ;zero the extruded length again
G1 F9000
M301 P26.92 I2.54 D71.46 ;set PID tuning for E0
M117 Printing...
;LAYER_COUNT:75
;LAYER:0
M107
G0 F2400 X50.908 Y65.69 Z0.3
;TYPE:SKIRT
G1 F1200 X51.289 Y65.399 E0.02386
G1 X51.804 Y65.055 E0.05468
G1 X52.359 Y64.781 E0.08548
G1 X53.061 Y64.551 E0.12224
G1 X60.317 Y62.777 E0.49398
G1 X65.424 Y61.175 E0.76034
G1 X70.465 Y59.275 E1.02844
G1 X75.374 Y57.1 E1.29564
G1 X81.535 Y53.902 E1.64109
G1 X82.359 Y53.568 E1.68534
G1 X82.72 Y53.459 E1.7041
G1 X83.323 Y53.318 E1.73492
G1 X84.094 Y53.254 E1.77342
G1 X100.314 Y53.212 E2.58062
G1 X100.931 Y53.25 E2.61139
G1 X101.268 Y53.305 E2.62838
G1 X102.316 Y53.515 E2.68157
G1 X102.914 Y53.676 E2.71239
G1 X103.594 Y53.967 E2.7492
G1 X109.345 Y56.97 E3.07207
G1 X111.734 Y58.079 E3.20314
G1 X116.747 Y60.153 E3.47313
G1 X121.828 Y61.925 E3.74092
G1 X127.022 Y63.414 E4.00981
G1 X129.649 Y64.048 E4.1443
G1 X131.703 Y64.49 E4.24886
G1 X132.299 Y64.659 E4.27969
G1 X132.701 Y64.823 E4.3013
G1 X133.005 Y64.963 E4.31795
G1 X133.55 Y65.257 E4.34877
G1 X134.052 Y65.62 E4.3796
G1 X134.503 Y66.044 E4.4104
G1 X134.8 Y66.395 E4.43328
G1 X135.09 Y66.772 E4.45695
G1 X135.435 Y67.286 E4.48776
G1 X135.711 Y67.84 E4.51856
G1 X135.914 Y68.425 E4.54938
G1 X136.039 Y69.032 E4.58022
G1 X136.085 Y69.691 E4.6131
G1 X136.142 Y124.892 E7.3602
G1 X136.103 Y125.51 E7.39102
G1 X135.983 Y126.123 E7.4221
G1 X135.827 Y126.713 E7.45247
G1 X135.63 Y127.3 E7.48329
G1 X135.36 Y127.857 E7.51409
G1 X135.02 Y128.374 E7.54489
G1 X134.573 Y128.887 E7.57875
G1 X134.374 Y129.085 E7.59272
G1 X133.908 Y129.492 E7.62351
G1 X133.393 Y129.836 E7.65433
G1 X132.838 Y130.111 E7.68515
G1 X132.421 Y130.263 E7.70724
G1 X131.912 Y130.422 E7.73378
G1 X131.31 Y130.568 E7.76461
G1 X130.482 Y130.64 E7.80597
G1 X54.523 Y130.641 E11.5861
G1 X53.905 Y130.601 E11.61692
G1 X53.526 Y130.536 E11.63606
G1 X53.14 Y130.454 E11.6557
G1 X52.544 Y130.287 E11.6865
G1 X51.975 Y130.044 E11.71729
G1 X51.441 Y129.73 E11.74812
G1 X51.028 Y129.415 E11.77397
G1 X50.698 Y129.134 E11.79554
G1 X50.253 Y128.703 E11.82637
G1 X49.868 Y128.218 E11.85719
G1 X49.548 Y127.688 E11.888
G1 X49.223 Y126.894 E11.93069
G1 X49.073 Y126.407 E11.95605
G1 X48.93 Y125.805 E11.98684
G1 X48.861 Y124.992 E12.02745
G1 X48.893 Y69.767 E14.77575
G1 X48.933 Y69.149 E14.80657
G1 X49.053 Y68.542 E14.83736
G1 X49.371 Y67.683 E14.88294
G1 X49.501 Y67.414 E14.89781
G1 X49.806 Y66.875 E14.92863
G1 X50.177 Y66.38 E14.95942
G1 X50.61 Y65.937 E14.99024
G1 X50.908 Y65.69 E15.00951
G0 F2400 X51.531 Y65.716
G1 F1200 X52.025 Y65.388 E15.03902
G1 X52.559 Y65.131 E15.06851
G1 X53.156 Y64.939 E15.09972
G1 X60.405 Y63.166 E15.4711
G1 X65.557 Y61.55 E15.73981
G1 X70.632 Y59.638 E16.0097
G1 X75.542 Y57.462 E16.27697
G1 X81.719 Y54.256 E16.62331
G1 X82.474 Y53.95 E16.66385
G1 X82.835 Y53.841 E16.68262
G1 X83.413 Y53.708 E16.71213
G1 X84.095 Y53.653 E16.74618
G1 X100.315 Y53.611 E17.55338
G1 X101.19 Y53.697 E17.59713
G1 X102.238 Y53.907 E17.65033
G1 X102.81 Y54.062 E17.67982
G1 X103.409 Y54.32 E17.71228
G1 X109.179 Y57.333 E18.03621
G1 X111.574 Y58.445 E18.16762
G1 X116.595 Y60.522 E18.43803
G1 X121.707 Y62.305 E18.70746
G1 X126.937 Y63.804 E18.97821
G1 X129.549 Y64.435 E19.11194
G1 X131.619 Y64.88 E19.21731
G1 X132.189 Y65.044 E19.24683
G1 X132.534 Y65.185 E19.26537
G1 X132.838 Y65.325 E19.28203
G1 X133.359 Y65.609 E19.31156
G1 X133.836 Y65.96 E19.34103
G1 X134.262 Y66.372 E19.37053
G1 X134.484 Y66.638 E19.38777
G1 X134.774 Y67.015 E19.41144
G1 X135.103 Y67.508 E19.44093
G1 X135.363 Y68.041 E19.47045
G1 X135.548 Y68.604 E19.49994
G1 X135.656 Y69.187 E19.52944
G1 X135.686 Y69.691 E19.55457
G1 X135.743 Y124.892 E22.30168
G1 X135.704 Y125.484 E22.3312
G1 X135.597 Y126.021 E22.35845
G1 X135.441 Y126.611 E22.38882
G1 X135.251 Y127.173 E22.41834
G1 X134.988 Y127.703 E22.44779
G1 X134.655 Y128.194 E22.47731
G1 X134.291 Y128.604 E22.5046
G1 X134.092 Y128.802 E22.51857
G1 X133.645 Y129.191 E22.54806
G1 X133.149 Y129.516 E22.57757
G1 X132.614 Y129.771 E22.60706
G1 X132.302 Y129.882 E22.62354
G1 X131.793 Y130.041 E22.65008
G1 X131.217 Y130.179 E22.67956
G1 X130.482 Y130.241 E22.71626
G1 X54.523 Y130.242 E26.4964
G1 X53.932 Y130.202 E26.52588
G1 X53.609 Y130.146 E26.54219
G1 X53.223 Y130.064 E26.56183
G1 X52.653 Y129.902 E26.59132
G1 X52.11 Y129.665 E26.62081
G1 X51.603 Y129.357 E26.65033
G1 X51.286 Y129.111 E26.6703
G1 X50.956 Y128.83 E26.69187
G1 X50.532 Y128.416 E26.72136
G1 X50.167 Y127.949 E26.75085
G1 X49.868 Y127.437 E26.78036
G1 X49.605 Y126.776 E26.81576
G1 X49.455 Y126.289 E26.84112
G1 X49.319 Y125.712 E26.87062
G1 X49.26 Y124.992 E26.90658
G1 X49.292 Y69.767 E29.65487
G1 X49.332 Y69.176 E29.68435
G1 X49.452 Y68.595 E29.71388
G1 X49.73 Y67.857 E29.75312
G1 X49.86 Y67.588 E29.76799
G1 X50.153 Y67.073 E29.79748
G1 X50.513 Y66.602 E29.82698
G1 X51.15 Y66.007 E29.87036
G1 X51.531 Y65.716 E29.89422
G0 F2400 X51.773 Y66.033
G1 F1200 X52.246 Y65.722 E29.92239
G1 X52.757 Y65.482 E29.95048
G1 X53.25 Y65.326 E29.97622
G1 X60.53 Y63.546 E30.34918
G1 X65.692 Y61.927 E30.61841
G1 X70.771 Y60.013 E30.88852
G1 X75.729 Y57.816 E31.1584
G1 X81.903 Y54.611 E31.50458
G1 X82.589 Y54.332 E31.54144
G1 X82.95 Y54.223 E31.5602
G1 X83.502 Y54.098 E31.58837
G1 X84.096 Y54.052 E31.61802
G1 X100.316 Y54.01 E32.42522
G1 X101.112 Y54.088 E32.46502
G1 X102.16 Y54.298 E32.51821
G1 X102.704 Y54.448 E32.54629
G1 X103.224 Y54.674 E32.57451
G1 X108.996 Y57.688 E32.89856
G1 X111.422 Y58.814 E33.03166
G1 X116.447 Y60.893 E33.30229
G1 X121.592 Y62.688 E33.57347
G1 X126.825 Y64.187 E33.84437
G1 X129.45 Y64.821 E33.97876
G1 X131.536 Y65.27 E34.08495
G1 X132.078 Y65.428 E34.11304
G1 X132.367 Y65.548 E34.12861
G1 X132.671 Y65.688 E34.14527
G1 X133.167 Y65.96 E34.17342
G1 X133.619 Y66.299 E34.20154
G1 X134.168 Y66.881 E34.24135
G1 X134.458 Y67.258 E34.26503
G1 X134.77 Y67.73 E34.29318
G1 X135.012 Y68.24 E34.32128
G1 X135.181 Y68.78 E34.34943
G1 X135.271 Y69.338 E34.37756
G1 X135.287 Y69.692 E34.3952
G1 X135.344 Y124.893 E37.1423
G1 X135.305 Y125.457 E37.17044
G1 X135.211 Y125.919 E37.1939
G1 X135.055 Y126.509 E37.22427
G1 X134.872 Y127.044 E37.25241
G1 X134.616 Y127.548 E37.28054
G1 X134.291 Y128.01 E37.30865
G1 X134.01 Y128.321 E37.32951
G1 X133.811 Y128.519 E37.34348
G1 X133.383 Y128.888 E37.3716
G1 X132.907 Y129.194 E37.39976
G1 X132.183 Y129.501 E37.4389
G1 X131.674 Y129.66 E37.46544
G1 X131.124 Y129.79 E37.49356
G1 X130.482 Y129.842 E37.52562
G1 X54.523 Y129.843 E41.30575
G1 X53.692 Y129.756 E41.34733
G1 X53.306 Y129.674 E41.36697
G1 X52.763 Y129.518 E41.39509
G1 X52.247 Y129.286 E41.42324
G1 X51.769 Y128.985 E41.45135
G1 X51.545 Y128.807 E41.46559
G1 X51.215 Y128.526 E41.48716
G1 X50.812 Y128.13 E41.51528
G1 X50.468 Y127.681 E41.54343
G1 X50.191 Y127.188 E41.57157
G1 X49.986 Y126.659 E41.5998
G1 X49.836 Y126.172 E41.62516
G1 X49.708 Y125.621 E41.65332
G1 X49.659 Y124.993 E41.68466
G1 X49.691 Y69.768 E44.43296
G1 X49.731 Y69.204 E44.4611
G1 X49.851 Y68.651 E44.48926
G1 X50.089 Y68.03 E44.52236
G1 X50.219 Y67.761 E44.53723
G1 X50.501 Y67.271 E44.56536
G1 X50.848 Y66.825 E44.59348
G1 X51.392 Y66.324 E44.63029
G1 X51.773 Y66.033 E44.65414
G0 F2400 X52.015 Y66.35
G1 F1200 X52.465 Y66.057 E44.68087
G1 X52.952 Y65.834 E44.70752
G1 X53.345 Y65.714 E44.72797
G1 X60.633 Y63.932 E45.10135
G1 X65.815 Y62.307 E45.37162
G1 X70.931 Y60.379 E45.6437
G1 X75.896 Y58.179 E45.91395
G1 X82.087 Y54.965 E46.26109
G1 X82.705 Y54.714 E46.29429
G1 X83.066 Y54.605 E46.31305
G1 X83.589 Y54.488 E46.33972
G1 X84.097 Y54.451 E46.36507
G1 X100.317 Y54.409 E47.17227
G1 X101.033 Y54.479 E47.20807
G1 X102.081 Y54.689 E47.26126
G1 X102.598 Y54.833 E47.28797
G1 X103.04 Y55.028 E47.31201
G1 X108.822 Y58.047 E47.63662
G1 X111.241 Y59.171 E47.76936
G1 X116.321 Y61.271 E48.04292
G1 X121.461 Y63.065 E48.31385
G1 X126.74 Y64.578 E48.58714
G1 X129.351 Y65.208 E48.7208
G1 X131.452 Y65.66 E48.82775
G1 X132.2 Y65.91 E48.867
G1 X132.504 Y66.05 E48.88366
G1 X132.973 Y66.31 E48.91035
G1 X133.399 Y66.637 E48.93707
G1 X133.852 Y67.125 E48.97021
G1 X134.142 Y67.502 E48.99388
G1 X134.436 Y67.95 E49.02054
G1 X134.661 Y68.437 E49.04724
G1 X134.81 Y68.952 E49.07392
G1 X134.888 Y69.692 E49.11095
G1 X134.945 Y124.893 E51.85806
G1 X134.906 Y125.428 E51.88475
G1 X134.825 Y125.817 E51.90453
G1 X134.669 Y126.407 E51.9349
G1 X134.494 Y126.914 E51.96159
G1 X134.245 Y127.389 E51.98828
G1 X133.929 Y127.822 E52.01496
G1 X133.728 Y128.038 E52.02964
G1 X133.529 Y128.236 E52.04361
G1 X133.122 Y128.585 E52.07029
G1 X132.668 Y128.87 E52.09697
G1 X132.064 Y129.12 E52.1295
G1 X131.555 Y129.279 E52.15604
G1 X131.033 Y129.401 E52.18271
G1 X130.482 Y129.443 E52.21021
G1 X54.523 Y129.444 E55.99035
G1 X53.775 Y129.365 E56.02778
G1 X53.389 Y129.283 E56.04742
G1 X52.874 Y129.133 E56.07411
G1 X52.388 Y128.908 E56.10077
G1 X51.804 Y128.503 E56.13613
G1 X51.474 Y128.222 E56.1577
G1 X51.092 Y127.845 E56.18441
G1 X50.772 Y127.416 E56.21105
G1 X50.518 Y126.943 E56.23777
G1 X50.367 Y126.541 E56.25914
G1 X50.217 Y126.054 E56.2845
G1 X50.098 Y125.532 E56.31114
G1 X50.058 Y124.993 E56.33804
G1 X50.09 Y69.768 E59.08634
G1 X50.13 Y69.233 E59.11304
G1 X50.25 Y68.71 E59.13974
G1 X50.449 Y68.204 E59.1668
G1 X50.579 Y67.935 E59.18167
G1 X50.847 Y67.471 E59.20833
G1 X51.182 Y67.052 E59.23503
G1 X51.634 Y66.641 E59.26543
G1 X52.015 Y66.35 E59.28929
G0 F2400 X52.258 Y66.667
G1 F1200 X52.682 Y66.393 E59.31441
G1 X53.145 Y66.189 E59.33959
G1 X53.44 Y66.102 E59.3549
G1 X60.735 Y64.318 E59.72864
G1 X65.955 Y62.681 E60.00089
G1 X71.062 Y60.757 E60.27248
G1 X76.077 Y58.534 E60.54547
G1 X82.271 Y55.319 E60.89277
G1 X82.82 Y55.096 E60.92226
G1 X83.181 Y54.987 E60.94102
G1 X83.675 Y54.879 E60.96619
G1 X84.098 Y54.85 E60.98729
G1 X100.318 Y54.808 E61.79449
G1 X100.955 Y54.87 E61.82634
G1 X102.003 Y55.08 E61.87953
G1 X102.489 Y55.219 E61.90468
G1 X102.855 Y55.381 E61.9246
G1 X108.656 Y58.41 E62.25028
G1 X111.089 Y59.54 E62.38378
G1 X116.178 Y61.645 E62.65785
G1 X121.34 Y63.446 E62.92992
G1 X126.611 Y64.956 E63.20279
G1 X129.326 Y65.612 E63.34179
G1 X131.368 Y66.051 E63.44573
G1 X132.034 Y66.272 E63.48065
G1 X132.338 Y66.412 E63.49731
G1 X132.779 Y66.66 E63.52249
G1 X133.175 Y66.973 E63.54761
G1 X133.535 Y67.368 E63.5742
G1 X133.825 Y67.745 E63.59787
G1 X134.101 Y68.169 E63.62305
G1 X134.306 Y68.631 E63.6482
G1 X134.437 Y69.119 E63.67335
G1 X134.489 Y69.693 E63.70203
G1 X134.546 Y124.894 E66.44914
G1 X134.507 Y125.398 E66.47429
G1 X134.44 Y125.715 E66.49042
G1 X134.284 Y126.305 E66.52079
G1 X134.116 Y126.782 E66.54596
G1 X133.876 Y127.227 E66.57112
G1 X133.447 Y127.755 E66.60497
G1 X133.248 Y127.953 E66.61894
G1 X132.863 Y128.281 E66.64411
G1 X132.43 Y128.543 E66.6693
G1 X131.945 Y128.739 E66.69533
G1 X131.436 Y128.898 E66.72187
G1 X130.943 Y129.011 E66.74704
G1 X130.482 Y129.044 E66.77004
G1 X54.523 Y129.045 E70.55018
G1 X53.858 Y128.975 E70.58345
G1 X53.472 Y128.893 E70.60309
G1 X52.987 Y128.749 E70.62827
G1 X52.531 Y128.531 E70.65342
G1 X52.062 Y128.199 E70.68202
G1 X51.732 Y127.918 E70.70359
G1 X51.375 Y127.561 E70.72871
G1 X51.077 Y127.152 E70.7539
G1 X50.848 Y126.701 E70.77907
G1 X50.749 Y126.424 E70.79371
G1 X50.599 Y125.937 E70.81907
G1 X50.489 Y125.444 E70.84421
G1 X50.457 Y124.993 E70.86671
G1 X50.489 Y69.768 E73.61501
G1 X50.529 Y69.264 E73.64017
G1 X50.648 Y68.773 E73.66531
G1 X50.808 Y68.378 E73.68652
G1 X50.938 Y68.109 E73.70139
G1 X51.193 Y67.672 E73.72656
G1 X51.514 Y67.281 E73.75174
G1 X51.877 Y66.958 E73.77592
G1 X52.258 Y66.667 E73.79978
G1 F1500 E72.79978
G0 F2400 X66.191 Y68.514
G0 X66.27 Y68.525
G0 X91.926 Y71.927
G0 X92.006 Y71.938
G0 X92.449 Y71.997
;TYPE:SUPPORT
G1 F1500 E73.79978
G1 F1200 X92.457 Y71.974 E73.80099
G1 X92.487 Y71.95 E73.8029
G1 X92.522 Y71.954 E73.80466
G1 X92.543 Y71.974 E73.8061
G1 X92.551 Y71.997 E73.80731
G1 X92.545 Y72.022 E73.80859
G1 X92.514 Y72.05 E73.81067
G1 X92.483 Y72.048 E73.81222
G1 X92.455 Y72.022 E73.81412
G1 X92.449 Y71.997 E73.8154
G1 F1500 E72.8154
G0 F2400 X92.448 Y72.494
G0 X92.449 Y72.574
G0 X92.52 Y122.422
G0 X92.52 Y122.502
G0 X92.522 Y122.954
G1 F1500 E73.8154
G1 F1200 X92.543 Y122.974 E73.81684
G1 X92.551 Y122.997 E73.81805
G1 X92.545 Y123.022 E73.81933
G1 X92.514 Y123.05 E73.82141
G1 X92.483 Y123.048 E73.82296
G1 X92.455 Y123.022 E73.82486
G1 X92.449 Y122.997 E73.82614
G1 X92.457 Y122.974 E73.82735
G1 X92.487 Y122.95 E73.82926
G1 X92.522 Y122.954 E73.83101
G1 F1500 E72.83101
G0 F2400 X92.73 Y122.558
G0 X93.337 Y121.431
G0 X93.48 Y120.623
;TYPE:WALL-INNER
G1 F1500 E73.83101
G1 F1200 X93 Y120.48 E73.85594
G1 X92.5 Y120.429 E73.88095
G1 X92 Y120.48 E73.90596
G1 X91.52 Y120.623 E73.93089
G1 X91.071 Y120.864 E73.95625
G1 X90.684 Y121.184 E73.98124
G1 X90.364 Y121.571 E74.00623
G1 X90.123 Y122.02 E74.03159
G1 X89.98 Y122.5 E74.05651
G1 X89.929 Y123 E74.08153
G1 X89.98 Y123.5 E74.10654
G1 X90.123 Y123.98 E74.13146
G1 X90.219 Y124.159 E74.14157
G1 X90.364 Y124.429 E74.15682
G1 X90.39 Y124.46 E74.15884
G1 X90.364 Y124.46
G1 X90.057 Y124.46 E74.16808
G1 X55.041 Y124.46 E75.91067
G1 X55.041 Y70.541 E78.59397
G1 X83.895 Y70.54 E80.0299
G1 X83.895 Y60.061 E80.5514
G1 X83.912 Y59.883 E80.5603
G1 X83.947 Y59.768 E80.56628
G1 X83.998 Y59.674 E80.5716
G1 X84.077 Y59.577 E80.57783
G1 X84.174 Y59.498 E80.58405
G1 X84.268 Y59.447 E80.58937
G1 X84.383 Y59.412 E80.59536
G1 X84.561 Y59.395 E80.60425
G1 X100.439 Y59.395 E81.39443
G1 X100.617 Y59.412 E81.40333
G1 X100.732 Y59.447 E81.40931
G1 X100.826 Y59.498 E81.41463
G1 X100.923 Y59.577 E81.42086
G1 X101.002 Y59.674 E81.42708
G1 X101.053 Y59.768 E81.43241
G1 X101.088 Y59.883 E81.43839
G1 X101.105 Y60.061 E81.44729
G1 X101.105 Y70.54 E81.96878
G1 X129.762 Y70.541 E83.39491
G1 X129.961 Y70.541 E83.40481
G1 X129.961 Y70.74 E83.41122
G1 X129.959 Y124.459 E86.08457
G1 X94.944 Y124.459 E87.82711
G1 X94.636 Y124.459 E87.84244
G1 X94.611 Y124.459 E87.84368
G1 X94.636 Y124.429
G1 X94.781 Y124.158 E87.85291
G1 X94.877 Y123.98 E87.86297
G1 X95.02 Y123.5 E87.8879
G1 X95.071 Y123 E87.91291
G1 X95.02 Y122.5 E87.93792
G1 X94.877 Y122.02 E87.96284
G1 X94.636 Y121.571 E87.9882
G1 X94.316 Y121.184 E88.01319
G1 X93.929 Y120.864 E88.03819
G1 X93.48 Y120.623 E88.06355
G0 F2400 X92.5 Y74.571
G1 F1200 X93 Y74.52 E88.08856
G1 X93.48 Y74.377 E88.11348
G1 X93.929 Y74.136 E88.13884
G1 X94.316 Y73.816 E88.16383
G1 X94.636 Y73.429 E88.18882
G1 X94.877 Y72.98 E88.21418
G1 X95.02 Y72.5 E88.23911
G1 X95.071 Y72 E88.26412
G1 X95.02 Y71.5 E88.28913
G1 X94.877 Y71.02 E88.31406
G1 X94.636 Y70.571 E88.33942
G1 X94.316 Y70.184 E88.36441
G1 X93.929 Y69.864 E88.3894
G1 X93.48 Y69.623 E88.41476
G1 X93 Y69.48 E88.43968
G1 X92.5 Y69.429 E88.46469
G1 X92 Y69.48 E88.48971
G1 X91.52 Y69.623 E88.51463
G1 X91.071 Y69.864 E88.53999
G1 X90.684 Y70.184 E88.56498
G1 X90.364 Y70.571 E88.58997
G1 X90.123 Y71.02 E88.61533
G1 X89.98 Y71.5 E88.64026
G1 X89.929 Y72 E88.66527
G1 X89.98 Y72.5 E88.69028
G1 X90.123 Y72.98 E88.71521
G1 X90.364 Y73.429 E88.74057
G1 X90.684 Y73.816 E88.76556
G1 X91.071 Y74.136 E88.79055
G1 X91.52 Y74.377 E88.81591
G1 X92 Y74.52 E88.84083
G1 X92.5 Y74.571 E88.86584
G0 F2400 X92.5 Y74.17
G1 F1200 X92.922 Y74.127 E88.88695
G1 X93.327 Y74.006 E88.90799
G1 X93.706 Y73.803 E88.92938
G1 X94.033 Y73.533 E88.95049
G1 X94.303 Y73.206 E88.97159
G1 X94.506 Y72.827 E88.99299
G1 X94.627 Y72.422 E89.01402
G1 X94.67 Y72 E89.03513
G1 X94.627 Y71.578 E89.05624
G1 X94.506 Y71.173 E89.07728
G1 X94.303 Y70.794 E89.09867
G1 X94.033 Y70.467 E89.11978
G1 X93.706 Y70.197 E89.14088
G1 X93.327 Y69.994 E89.16228
G1 X92.922 Y69.873 E89.18331
G1 X92.5 Y69.83 E89.20442
G1 X92.078 Y69.873 E89.22553
G1 X91.673 Y69.994 E89.24657
G1 X91.294 Y70.197 E89.26796
G1 X90.967 Y70.467 E89.28907
G1 X90.697 Y70.794 E89.31017
G1 X90.494 Y71.173 E89.33157
G1 X90.373 Y71.578 E89.3526
G1 X90.33 Y72 E89.37371
G1 X90.373 Y72.422 E89.39482
