;FLAVOR:Marlin
;TIME:11785
;Filament used: 9.4075m
;Layer height: 0.15
;Generated with Cura_SteamEngine 2.7.0
M190 S60
M104 S220
M109 S220
G21 ;metric values
G90 ;absolute positioning
M82 ;set extruder to absolute mode
M107 ;start with the fan off
G92 E0 ;zero the extruded length
G1 F200 E3 ;extrude 3mm of feed stock
G92 E0 ;zero the extruded length again
G1 F9000
M301 P31.36 I3.30 D74.51 ;set PID tuning for E0
M304 P72.25 I2.72 D479.41 ; set PID tuning for heated bed
M117 Printing...
;LAYER_COUNT:39
;LAYER:0
M107
M205 X20 Y20
G0 F2400 X30.548 Y63.276 Z0.3
;TYPE:SKIRT
G1 F1050 X31.112 Y63.021 E0.0308
G1 X31.705 Y62.841 E0.06164
G1 X32.315 Y62.739 E0.09242
G1 X32.802 Y62.714 E0.11669
G1 X145.199 Y62.714 E5.71018
G1 X145.817 Y62.754 E5.741
G1 X146.424 Y62.873 E5.77178
G1 X147.011 Y63.07 E5.8026
G1 X147.568 Y63.34 E5.8334
G1 X148.086 Y63.68 E5.86424
G1 X148.555 Y64.084 E5.89504
G1 X148.968 Y64.545 E5.92584
G1 X149.333 Y65.078 E5.95799
G1 X159.327 Y82.067 E6.9389
G1 X159.606 Y82.62 E6.96972
G1 X159.811 Y83.204 E7.00052
G1 X159.939 Y83.81 E7.03135
G1 X159.989 Y84.502 E7.06587
G1 X159.974 Y110.517 E8.36052
G1 X159.934 Y111.135 E8.39134
G1 X159.814 Y111.742 E8.42213
G1 X159.617 Y112.329 E8.45295
G1 X159.347 Y112.886 E8.48375
G1 X159.006 Y113.403 E8.51457
G1 X158.45 Y114.02 E8.55591
G1 X150.998 Y120.974 E9.06315
G1 X150.519 Y121.367 E9.09398
G1 X149.994 Y121.694 E9.12476
G1 X149.43 Y121.951 E9.15561
G1 X148.839 Y122.133 E9.18638
G1 X148.228 Y122.238 E9.21724
G1 X147.728 Y122.264 E9.24215
G1 X116.695 Y122.278 E10.78652
G1 X116.077 Y122.238 E10.81734
G1 X115.47 Y122.119 E10.84813
G1 X114.622 Y121.808 E10.89308
G1 X108.127 Y118.699 E11.25142
G1 X103.09 Y116.673 E11.52161
G1 X100.654 Y115.814 E11.65016
G1 X95.463 Y114.224 E11.92034
G1 X90.195 Y112.93 E12.19029
G1 X87.555 Y112.398 E12.32431
G1 X84.98 Y111.958 E12.45432
G1 X79.6 Y111.268 E12.72425
G1 X74.212 Y110.884 E12.99307
G1 X70.098 Y110.796 E13.19785
G1 X32.803 Y110.786 E15.05385
G1 X32.185 Y110.746 E15.08467
G1 X31.577 Y110.627 E15.1155
G1 X30.99 Y110.43 E15.14632
G1 X30.434 Y110.159 E15.1771
G1 X29.916 Y109.819 E15.20793
G1 X29.447 Y109.415 E15.23874
G1 X29.034 Y108.954 E15.26954
G1 X28.683 Y108.444 E15.30035
G1 X28.402 Y107.893 E15.33113
G1 X28.122 Y107.028 E15.37638
G1 X26.539 Y99.883 E15.74057
G1 X25.002 Y94.596 E16.01458
G1 X24.868 Y93.991 E16.04541
G1 X24.812 Y93.149 E16.08741
G1 X25.026 Y83.679 E16.55881
G1 X24.807 Y78.278 E16.82781
G1 X24.803 Y78.059 E16.83871
G1 X24.81 Y76.723 E16.9052
G1 X24.853 Y76.105 E16.93603
G1 X24.976 Y75.498 E16.96685
G1 X25.131 Y75.024 E16.99167
G1 X26.09 Y72.534 E17.12446
G1 X26.982 Y70.006 E17.25787
G1 X28.23 Y66.063 E17.46369
G1 X28.454 Y65.486 E17.49449
G1 X28.751 Y64.942 E17.52534
G1 X29.116 Y64.442 E17.55614
G1 X29.542 Y63.993 E17.58694
G1 X30.022 Y63.602 E17.61775
G1 X30.548 Y63.276 E17.64855
G0 F2400 X30.871 Y63.56
G1 F1050 X31.419 Y63.336 E17.67801
G1 X31.993 Y63.188 E17.70751
G1 X32.802 Y63.113 E17.74794
G1 X145.199 Y63.113 E23.34143
G1 X145.79 Y63.153 E23.37091
G1 X146.371 Y63.272 E23.40043
G1 X146.93 Y63.468 E23.42991
G1 X147.458 Y63.738 E23.45942
G1 X147.945 Y64.076 E23.48892
G1 X148.382 Y64.477 E23.51844
G1 X148.761 Y64.932 E23.54791
G1 X148.989 Y65.281 E23.56865
G1 X158.983 Y82.27 E24.54956
G1 X159.248 Y82.8 E24.57905
G1 X159.44 Y83.36 E24.60851
G1 X159.555 Y83.942 E24.63803
G1 X159.59 Y84.502 E24.66595
G1 X159.575 Y110.517 E25.9606
G1 X159.535 Y111.108 E25.99008
G1 X159.415 Y111.689 E26.01961
G1 X159.219 Y112.248 E26.04909
G1 X158.949 Y112.775 E26.07855
G1 X158.61 Y113.262 E26.10808
G1 X158.178 Y113.729 E26.13974
G1 X150.726 Y120.683 E26.64698
G1 X150.266 Y121.057 E26.67649
G1 X149.76 Y121.366 E26.70599
G1 X149.218 Y121.604 E26.73545
G1 X148.648 Y121.767 E26.76496
G1 X148.061 Y121.852 E26.79447
G1 X147.728 Y121.865 E26.81106
G1 X116.695 Y121.879 E28.35543
G1 X116.104 Y121.839 E28.38491
G1 X115.523 Y121.72 E28.41442
G1 X114.795 Y121.448 E28.4531
G1 X108.288 Y118.333 E28.81211
G1 X103.243 Y116.305 E29.08271
G1 X100.764 Y115.43 E29.21353
G1 X95.57 Y113.839 E29.48387
G1 X90.3 Y112.544 E29.75394
G1 X87.629 Y112.007 E29.88952
G1 X85.028 Y111.562 E30.02084
G1 X79.643 Y110.871 E30.29103
G1 X74.229 Y110.486 E30.56114
G1 X70.106 Y110.397 E30.76637
G1 X32.803 Y110.387 E32.62277
G1 X32.211 Y110.347 E32.6523
G1 X31.631 Y110.228 E32.68176
G1 X31.071 Y110.031 E32.71131
G1 X30.544 Y109.762 E32.74075
G1 X30.057 Y109.423 E32.77028
G1 X29.62 Y109.023 E32.79976
G1 X29.241 Y108.567 E32.82927
G1 X28.927 Y108.064 E32.85878
G1 X28.683 Y107.524 E32.88827
G1 X28.511 Y106.941 E32.91852
G1 X26.924 Y99.778 E33.28363
G1 X25.385 Y94.484 E33.558
G1 X25.258 Y93.905 E33.5875
G1 X25.211 Y93.158 E33.62475
G1 X25.425 Y83.672 E34.09694
G1 X25.206 Y78.262 E34.36639
G1 X25.202 Y78.061 E34.3764
G1 X25.209 Y76.725 E34.44289
G1 X25.252 Y76.134 E34.47237
G1 X25.374 Y75.554 E34.50187
G1 X25.503 Y75.167 E34.52217
G1 X26.468 Y72.662 E34.65576
G1 X27.357 Y70.142 E34.78875
G1 X28.61 Y66.183 E34.9954
G1 X28.827 Y65.631 E35.02492
G1 X29.115 Y65.114 E35.05437
G1 X29.471 Y64.64 E35.08387
G1 X29.888 Y64.218 E35.1134
G1 X30.357 Y63.856 E35.14288
G1 X30.871 Y63.56 E35.1724
G0 F2400 X31.189 Y63.852
G1 F1050 X31.721 Y63.661 E35.20053
G1 X32.274 Y63.547 E35.22863
G1 X32.802 Y63.512 E35.25496
G1 X145.199 Y63.512 E40.84845
G1 X145.763 Y63.552 E40.87659
G1 X146.315 Y63.671 E40.90469
G1 X146.845 Y63.867 E40.93281
G1 X147.343 Y64.135 E40.96096
G1 X147.797 Y64.471 E40.98906
G1 X148.2 Y64.868 E41.01722
G1 X148.645 Y65.483 E41.05499
G1 X158.639 Y82.472 E42.0359
G1 X158.89 Y82.978 E42.06401
G1 X159.068 Y83.515 E42.09216
G1 X159.168 Y84.071 E42.12028
G1 X159.191 Y84.501 E42.14171
G1 X159.176 Y110.516 E43.43635
G1 X159.136 Y111.08 E43.46449
G1 X159.016 Y111.632 E43.49261
G1 X158.82 Y112.163 E43.52077
G1 X158.551 Y112.66 E43.5489
G1 X158.215 Y113.114 E43.57701
G1 X157.906 Y113.437 E43.59925
G1 X150.454 Y120.391 E44.10649
G1 X150.014 Y120.746 E44.13463
G1 X149.529 Y121.036 E44.16275
G1 X149.008 Y121.255 E44.19088
G1 X148.461 Y121.398 E44.21901
G1 X147.728 Y121.466 E44.25565
G1 X116.695 Y121.48 E45.80002
G1 X116.131 Y121.44 E45.82816
G1 X115.578 Y121.322 E45.8563
G1 X114.967 Y121.088 E45.88886
G1 X108.45 Y117.969 E46.24841
G1 X103.372 Y115.926 E46.5208
G1 X100.909 Y115.058 E46.65077
G1 X95.677 Y113.455 E46.92308
G1 X90.355 Y112.147 E47.19582
G1 X87.737 Y111.62 E47.32872
G1 X85.077 Y111.165 E47.46302
G1 X79.686 Y110.474 E47.7335
G1 X74.246 Y110.087 E48.00491
G1 X70.115 Y109.998 E48.21053
G1 X32.803 Y109.988 E50.06738
G1 X32.239 Y109.948 E50.09552
G1 X31.687 Y109.829 E50.12362
G1 X31.157 Y109.633 E50.15175
G1 X30.659 Y109.364 E50.17991
G1 X30.205 Y109.028 E50.20802
G1 X29.803 Y108.631 E50.23614
G1 X29.46 Y108.181 E50.2643
G1 X29.184 Y107.688 E50.29241
G1 X28.981 Y107.161 E50.32052
G1 X28.901 Y106.855 E50.33626
G1 X27.313 Y99.688 E50.70158
G1 X25.768 Y94.373 E50.97703
G1 X25.649 Y93.82 E51.00518
G1 X25.61 Y93.167 E51.03774
G1 X25.824 Y83.681 E51.50993
G1 X25.604 Y78.246 E51.78063
G1 X25.601 Y78.063 E51.78974
G1 X25.608 Y76.727 E51.85622
G1 X25.651 Y76.163 E51.88437
G1 X25.773 Y75.612 E51.91246
G1 X25.875 Y75.311 E51.92827
G1 X26.849 Y72.783 E52.0631
G1 X27.726 Y70.296 E52.19433
G1 X28.99 Y66.303 E52.40276
G1 X29.199 Y65.778 E52.43089
G1 X29.479 Y65.287 E52.45901
G1 X29.826 Y64.841 E52.48714
G1 X30.232 Y64.448 E52.51526
G1 X30.689 Y64.116 E52.54337
G1 X31.189 Y63.852 E52.5715
G0 F2400 X31.502 Y64.154
G1 F1050 X32.015 Y63.998 E52.59819
G1 X32.802 Y63.911 E52.63759
G1 X145.199 Y63.911 E58.23108
G1 X145.734 Y63.951 E58.25778
G1 X146.257 Y64.07 E58.28447
G1 X146.756 Y64.265 E58.31114
G1 X147.221 Y64.533 E58.33785
G1 X147.641 Y64.866 E58.36452
G1 X148.006 Y65.258 E58.39118
G1 X148.301 Y65.685 E58.417
G1 X158.295 Y82.674 E59.39791
G1 X158.532 Y83.155 E59.42459
G1 X158.694 Y83.666 E59.45127
G1 X158.779 Y84.196 E59.47798
G1 X158.792 Y84.501 E59.49318
G1 X158.777 Y110.516 E60.78783
G1 X158.737 Y111.051 E60.81452
G1 X158.617 Y111.574 E60.84123
G1 X158.422 Y112.073 E60.86789
G1 X158.154 Y112.537 E60.89456
G1 X157.633 Y113.145 E60.9344
G1 X150.181 Y120.099 E61.44165
G1 X149.763 Y120.435 E61.46833
G1 X149.3 Y120.705 E61.49501
G1 X148.801 Y120.903 E61.52172
G1 X148.279 Y121.024 E61.54839
G1 X147.728 Y121.067 E61.57589
G1 X116.695 Y121.081 E63.12027
G1 X116.16 Y121.041 E63.14697
G1 X115.637 Y120.923 E63.17365
G1 X115.139 Y120.728 E63.20026
G1 X108.612 Y117.604 E63.56037
G1 X103.514 Y115.554 E63.83382
G1 X101.018 Y114.673 E63.96554
G1 X95.784 Y113.07 E64.23796
G1 X90.455 Y111.761 E64.51104
G1 X87.785 Y111.223 E64.64659
G1 X85.169 Y110.776 E64.77866
G1 X79.713 Y110.075 E65.05241
G1 X74.262 Y109.688 E65.32437
G1 X70.124 Y109.599 E65.53034
G1 X32.803 Y109.589 E67.38764
G1 X32.268 Y109.549 E67.41434
G1 X31.746 Y109.43 E67.44098
G1 X31.246 Y109.234 E67.46771
G1 X30.781 Y108.967 E67.49439
G1 X30.362 Y108.633 E67.52106
G1 X29.996 Y108.241 E67.54775
G1 X29.693 Y107.799 E67.57442
G1 X29.458 Y107.317 E67.6011
G1 X29.29 Y106.769 E67.62963
G1 X27.697 Y99.579 E67.99612
G1 X26.151 Y94.261 E68.27173
G1 X26.04 Y93.737 E68.29838
G1 X26.009 Y93.176 E68.32635
G1 X26.223 Y83.674 E68.79934
G1 X26.003 Y78.23 E69.07048
G1 X26 Y78.065 E69.07869
G1 X26.007 Y76.729 E69.14518
G1 X26.05 Y76.195 E69.17184
G1 X26.248 Y75.454 E69.21001
G1 X27.216 Y72.942 E69.34398
G1 X28.114 Y70.396 E69.47834
G1 X29.371 Y66.424 E69.68567
G1 X29.57 Y65.926 E69.71236
G1 X29.841 Y65.464 E69.73901
G1 X30.178 Y65.046 E69.76573
G1 X30.574 Y64.684 E69.79243
G1 X31.018 Y64.384 E69.8191
G1 X31.502 Y64.154 E69.84577
G0 F2400 X31.81 Y64.468
G1 F1050 X32.301 Y64.349 E69.87091
G1 X32.802 Y64.31 E69.89592
G1 X145.199 Y64.31 E75.48941
G1 X145.703 Y64.35 E75.51457
G1 X146.194 Y64.469 E75.53971
G1 X146.661 Y64.663 E75.56488
G1 X147.091 Y64.929 E75.59004
G1 X147.474 Y65.259 E75.6152
G1 X147.8 Y65.646 E75.64038
G1 X147.957 Y65.887 E75.65469
G1 X157.951 Y82.876 E76.6356
G1 X158.172 Y83.331 E76.66077
G1 X158.319 Y83.815 E76.68595
G1 X158.393 Y84.501 E76.72028
G1 X158.378 Y110.516 E78.01493
G1 X158.338 Y111.02 E78.04009
G1 X158.219 Y111.511 E78.06524
G1 X158.024 Y111.978 E78.09042
G1 X157.758 Y112.408 E78.11558
G1 X157.361 Y112.854 E78.1453
G1 X149.909 Y119.808 E78.65254
G1 X149.513 Y120.122 E78.67769
G1 X149.073 Y120.371 E78.70285
G1 X148.599 Y120.547 E78.72801
G1 X148.103 Y120.646 E78.75318
G1 X147.727 Y120.668 E78.77193
G1 X116.694 Y120.682 E80.3163
G1 X116.19 Y120.642 E80.34146
G1 X115.699 Y120.524 E80.36659
G1 X115.311 Y120.368 E80.3874
G1 X108.775 Y117.239 E80.74802
G1 X103.656 Y115.181 E81.02259
G1 X101.149 Y114.297 E81.15488
G1 X95.888 Y112.685 E81.42871
G1 X90.538 Y111.37 E81.70288
G1 X87.865 Y110.833 E81.83856
G1 X85.214 Y110.379 E81.97241
G1 X79.758 Y109.679 E82.24616
G1 X74.279 Y109.289 E82.51951
G1 X70.132 Y109.2 E82.72594
G1 X32.803 Y109.19 E84.58363
G1 X32.299 Y109.15 E84.60879
G1 X31.808 Y109.031 E84.63393
G1 X31.341 Y108.836 E84.65912
G1 X30.911 Y108.57 E84.68428
G1 X30.529 Y108.24 E84.7094
G1 X30.203 Y107.853 E84.73459
G1 X29.942 Y107.42 E84.75975
G1 X29.752 Y106.952 E84.78488
G1 X29.68 Y106.682 E84.79879
G1 X28.087 Y99.492 E85.16528
G1 X26.534 Y94.15 E85.44213
G1 X26.432 Y93.655 E85.46728
G1 X26.408 Y93.185 E85.4907
G1 X26.623 Y83.666 E85.96454
G1 X26.402 Y78.213 E86.23614
G1 X26.399 Y78.067 E86.2434
G1 X26.406 Y76.731 E86.30989
G1 X26.449 Y76.227 E86.33506
G1 X26.62 Y75.598 E86.3675
G1 X27.589 Y73.082 E86.50168
G1 X28.489 Y70.532 E86.63625
G1 X29.751 Y66.544 E86.84442
G1 X29.941 Y66.076 E86.86955
G1 X30.203 Y65.643 E86.89474
G1 X30.529 Y65.257 E86.91988
G1 X30.913 Y64.927 E86.94508
G1 X31.343 Y64.662 E86.97022
G1 X31.81 Y64.468 E86.99538
G0 F2400 X29.912 Y76.715
;TYPE:SUPPORT
G1 F1050 X31.896 Y76.715 E87.09412
G1 X31.896 Y78.285 E87.17225
G1 X29.912 Y78.285 E87.27098
G1 X29.794 Y78.167 E87.27929
G1 X29.794 Y76.833 E87.34568
G1 X29.912 Y76.715 E87.35398
G0 F2400 X29.955 Y77.314
G1 F1050 X31.735 Y77.314 E87.44256
G0 F2400 X30.659 Y76.875
G1 F1050 X30.659 Y78.123 E87.50467
G0 F2400 X29.912 Y91.715
G1 F1050 X31.896 Y91.715 E87.60341
G1 X31.896 Y93.285 E87.68154
G1 X29.912 Y93.285 E87.78027
G1 X29.794 Y93.167 E87.78858
G1 X29.794 Y91.833 E87.85496
G1 X29.912 Y91.715 E87.86327
G0 F2400 X29.955 Y91.977
G1 F1050 X31.735 Y91.977 E87.95185
G0 F2400 X30.659 Y91.875
G1 F1050 X30.659 Y93.123 E88.01396
G1 F1500 E87.01396
G0 F2400 X32.13 Y93.123
G0 X33.412 Y93.123
G0 X33.791 Y105.004
;TYPE:WALL-INNER
G1 F1500 E88.01396
G1 F1050 X33.791 Y68.496 E89.8308
G1 X144.635 Y68.496 E95.347
G1 X154.209 Y84.772 E96.28672
G1 X154.209 Y110.068 E97.54559
G1 X147.313 Y116.504 E98.01502
G1 X117.105 Y116.504 E99.51833
G1 X105.105 Y105.004 E100.34547
G1 X33.791 Y105.004 E103.89445
G0 F2400 X50.418 Y98.516
G1 F1050 X50.68 Y98.971 E103.92058
G1 X51.032 Y99.361 E103.94672
G1 X51.454 Y99.666 E103.97264
G1 X51.931 Y99.88 E103.99865
G1 X52.443 Y99.988 E104.02469
G1 X52.967 Y99.988 E104.05077
G1 X53.478 Y99.88 E104.07676
G1 X53.955 Y99.666 E104.10278
G1 X54.378 Y99.36 E104.12876
G1 X54.729 Y98.971 E104.15484
G1 X54.991 Y98.517 E104.18092
G1 X55.151 Y98.02 E104.20691
G1 X55.206 Y97.5 E104.23293
G1 X55.151 Y96.98 E104.25895
G1 X54.991 Y96.483 E104.28493
G1 X54.729 Y96.029 E104.31102
G1 X54.378 Y95.64 E104.33709
G1 X53.955 Y95.334 E104.36308
G1 X53.478 Y95.12 E104.38909
G1 X52.967 Y95.012 E104.41509
G1 X52.443 Y95.012 E104.44116
G1 X51.931 Y95.12 E104.4672
G1 X51.454 Y95.334 E104.49322
G1 X51.032 Y95.639 E104.51913
G1 X50.68 Y96.029 E104.54528
G1 X50.418 Y96.484 E104.57141
G1 X50.257 Y96.981 E104.59741
G1 X50.204 Y97.5 E104.62337
G1 X50.257 Y98.019 E104.64933
G1 X50.418 Y98.516 E104.67533
G0 F2400 X52.443 Y73.988
G1 F1050 X52.967 Y73.988 E104.70141
G1 X53.478 Y73.88 E104.7274
G1 X53.955 Y73.666 E104.75342
G1 X54.378 Y73.36 E104.7794
G1 X54.729 Y72.971 E104.80547
G1 X54.991 Y72.517 E104.83156
G1 X55.151 Y72.02 E104.85754
G1 X55.206 Y71.5 E104.88356
G1 X55.151 Y70.98 E104.90959
G1 X54.991 Y70.483 E104.93557
G1 X54.729 Y70.029 E104.96166
G1 X54.378 Y69.64 E104.98773
G1 X53.955 Y69.334 E105.01371
G1 X53.478 Y69.12 E105.03973
G1 X52.967 Y69.012 E105.06572
G1 X52.443 Y69.012 E105.0918
G1 X51.931 Y69.12 E105.11784
G1 X51.454 Y69.334 E105.14386
G1 X51.032 Y69.639 E105.16977
G1 X50.68 Y70.029 E105.19591
G1 X50.418 Y70.484 E105.22204
G1 X50.257 Y70.981 E105.24804
G1 X50.204 Y71.5 E105.274
G1 X50.257 Y72.019 E105.29997
G1 X50.418 Y72.516 E105.32596
G1 X50.68 Y72.971 E105.35209
G1 X51.032 Y73.361 E105.37824
G1 X51.454 Y73.666 E105.40415
G1 X51.931 Y73.88 E105.43017
G1 X52.443 Y73.988 E105.45621
G0 F2400 X110.11 Y84.95
G1 F1050 X110.054 Y85.5 E105.48372
G1 X110.11 Y86.05 E105.51123
G1 X110.281 Y86.578 E105.53885
G1 X110.56 Y87.059 E105.56653
G1 X110.932 Y87.471 E105.59415
G1 X111.38 Y87.797 E105.62172
G1 X111.885 Y88.02 E105.6492
G1 X112.427 Y88.137 E105.67679
G1 X112.982 Y88.137 E105.70441
G1 X113.525 Y88.022 E105.73203
G1 X114.031 Y87.796 E105.75961
G1 X114.478 Y87.471 E105.78711
G1 X114.851 Y87.059 E105.81477
G1 X115.128 Y86.578 E105.8424
G1 X115.298 Y86.051 E105.86995
G1 X115.356 Y85.5 E105.89752
G1 X115.298 Y84.949 E105.9251
G1 X115.128 Y84.422 E105.95265
G1 X114.851 Y83.941 E105.98028
G1 X114.478 Y83.529 E106.00794
G1 X114.031 Y83.204 E106.03544
G1 X113.525 Y82.978 E106.06302
G1 X112.982 Y82.863 E106.09064
G1 X112.427 Y82.863 E106.11826
G1 X111.885 Y82.98 E106.14585
G1 X111.38 Y83.203 E106.17333
G1 X110.932 Y83.529 E106.2009
G1 X110.56 Y83.941 E106.22852
G1 X110.281 Y84.422 E106.2562
G1 X110.11 Y84.95 E106.28382
G0 F2400 X111.885 Y93.98
G1 F1050 X111.38 Y94.203 E106.31129
G1 X110.932 Y94.529 E106.33886
G1 X110.56 Y94.941 E106.36649
G1 X110.281 Y95.422 E106.39416
G1 X110.11 Y95.95 E106.42178
G1 X110.054 Y96.5 E106.44929
G1 X110.11 Y97.05 E106.4768
G1 X110.281 Y97.578 E106.50442
G1 X110.56 Y98.059 E106.5321
G1 X110.932 Y98.471 E106.55972
G1 X111.38 Y98.797 E106.58729
G1 X111.885 Y99.02 E106.61477
G1 X112.427 Y99.137 E106.64236
G1 X112.982 Y99.137 E106.66998
G1 X113.525 Y99.022 E106.6976
G1 X114.031 Y98.796 E106.72518
G1 X114.478 Y98.471 E106.75268
G1 X114.851 Y98.059 E106.78034
G1 X115.128 Y97.578 E106.80797
G1 X115.298 Y97.051 E106.83552
G1 X115.356 Y96.5 E106.86309
