;FLAVOR:Marlin
;TIME:7191
;Filament used: 5.71648m
;Layer height: 0.15
;Generated with Cura_SteamEngine 2.7.0
M190 S60
M104 S220
M109 S220
G21 ;metric values
G90 ;absolute positioning
M82 ;set extruder to absolute mode
M107 ;start with the fan off
G92 E0 ;zero the extruded length
G1 F200 E3 ;extrude 3mm of feed stock
G92 E0 ;zero the extruded length again
G1 F9000
M301 P31.36 I3.30 D74.51 ;set PID tuning for E0
M304 P72.25 I2.72 D479.41 ; set PID tuning for heated bed
M117 Printing...
;LAYER_COUNT:39
;LAYER:0
M107
M205 X20 Y20
G0 F2400 X42.062 Y79.876 Z0.3
;TYPE:SKIRT
G1 F1050 X42.643 Y79.662 E0.03081
G1 X43.246 Y79.525 E0.06159
G1 X43.77 Y79.47 E0.08781
G1 X45.714 Y79.374 E0.18467
G1 X51.122 Y78.908 E0.4548
G1 X56.456 Y78.142 E0.72297
G1 X61.73 Y77.079 E0.99071
G1 X64.321 Y76.441 E1.1235
G1 X69.517 Y74.925 E1.39287
G1 X74.591 Y73.126 E1.66078
G1 X79.595 Y71.028 E1.93081
G1 X81.972 Y69.916 E2.0614
G1 X82.548 Y69.69 E2.0922
G1 X83.149 Y69.541 E2.12301
G1 X84.004 Y69.464 E2.16573
G1 X131.991 Y69.464 E4.55383
G1 X132.609 Y69.504 E4.58465
G1 X133.216 Y69.623 E4.61543
G1 X134.062 Y69.934 E4.66029
G1 X135.982 Y70.853 E4.76622
G1 X140.949 Y73.011 E5.03572
G1 X145.66 Y74.761 E5.28582
G1 X146.226 Y75.014 E5.31668
G1 X146.754 Y75.337 E5.34748
G1 X147.236 Y75.726 E5.3783
G1 X147.663 Y76.173 E5.40907
G1 X148.03 Y76.672 E5.43989
G1 X148.329 Y77.214 E5.4707
G1 X148.556 Y77.79 E5.50151
G1 X148.707 Y78.391 E5.53235
G1 X148.78 Y79.024 E5.56406
G1 X148.877 Y81.015 E5.66326
G1 X149.344 Y86.457 E5.93508
G1 X149.705 Y89.25 E6.07523
G1 X149.744 Y89.941 E6.10967
G1 X149.675 Y94.204 E6.32185
G1 X149.744 Y101.604 E6.69013
G1 X149.698 Y102.31 E6.72534
G1 X149.41 Y104.377 E6.8292
G1 X148.766 Y111.192 E7.16986
G1 X148.668 Y111.803 E7.20066
G1 X148.492 Y112.397 E7.23149
G1 X148.241 Y112.963 E7.2623
G1 X147.92 Y113.492 E7.29309
G1 X147.533 Y113.975 E7.32389
G1 X147.086 Y114.404 E7.35473
G1 X146.589 Y114.773 E7.38553
G1 X146.048 Y115.074 E7.41634
G1 X145.472 Y115.302 E7.44717
G1 X144.873 Y115.455 E7.47794
G1 X143.991 Y115.537 E7.52202
G1 X44.006 Y115.536 E12.49782
G1 X43.388 Y115.496 E12.52864
G1 X42.781 Y115.377 E12.55942
G1 X42.194 Y115.18 E12.59024
G1 X41.637 Y114.91 E12.62104
G1 X41.119 Y114.57 E12.65188
G1 X40.65 Y114.166 E12.68268
G1 X40.176 Y113.627 E12.7184
G1 X36.98 Y109.388 E12.9826
G1 X36.64 Y108.871 E13.01339
G1 X36.37 Y108.314 E13.0442
G1 X36.173 Y107.727 E13.07501
G1 X36.054 Y107.12 E13.10579
G1 X36.016 Y106.349 E13.14421
G1 X36.229 Y99.601 E13.48019
G1 X36.15 Y94.053 E13.75632
G1 X36.019 Y90.165 E13.94992
G1 X36.038 Y89.547 E13.98069
G1 X36.137 Y88.935 E14.01154
G1 X36.313 Y88.342 E14.04232
G1 X36.62 Y87.673 E14.07895
G1 X39.814 Y81.929 E14.40603
G1 X40.15 Y81.409 E14.43684
G1 X40.549 Y80.936 E14.46763
G1 X41.006 Y80.518 E14.49845
G1 X41.513 Y80.163 E14.52926
G1 X42.062 Y79.876 E14.56009
G0 F2400 X42.339 Y80.191
G1 F1050 X42.902 Y80.004 E14.58961
G1 X43.484 Y79.894 E14.61908
G1 X43.79 Y79.868 E14.63437
G1 X45.74 Y79.772 E14.73153
G1 X51.179 Y79.303 E15.00321
G1 X56.52 Y78.536 E15.27173
G1 X61.836 Y77.464 E15.54161
G1 X64.41 Y76.83 E15.67353
G1 X69.642 Y75.304 E15.94476
G1 X74.731 Y73.5 E16.21345
G1 X79.749 Y71.396 E16.48424
G1 X82.141 Y70.277 E16.61566
G1 X82.694 Y70.063 E16.64517
G1 X83.27 Y69.925 E16.67465
G1 X84.004 Y69.863 E16.7113
G1 X131.991 Y69.863 E19.0994
G1 X132.582 Y69.903 E19.12888
G1 X133.163 Y70.022 E19.15839
G1 X133.89 Y70.294 E19.19702
G1 X135.818 Y71.217 E19.3034
G1 X140.794 Y73.378 E19.57338
G1 X145.522 Y75.135 E19.82439
G1 X146.062 Y75.379 E19.85388
G1 X146.565 Y75.693 E19.88339
G1 X147.021 Y76.071 E19.91286
G1 X147.422 Y76.508 E19.94238
G1 X147.76 Y76.995 E19.97188
G1 X148.03 Y77.522 E20.00135
G1 X148.227 Y78.081 E20.03084
G1 X148.347 Y78.662 E20.06037
G1 X148.382 Y79.043 E20.07941
G1 X148.479 Y81.042 E20.17901
G1 X148.948 Y86.496 E20.45143
G1 X149.31 Y89.301 E20.59218
G1 X149.345 Y89.935 E20.62378
G1 X149.276 Y94.202 E20.83615
G1 X149.345 Y101.607 E21.20468
G1 X149.303 Y102.255 E21.237
G1 X149.013 Y104.331 E21.34132
G1 X148.369 Y111.154 E21.68238
G1 X148.273 Y111.74 E21.71193
G1 X148.1 Y112.306 E21.74138
G1 X147.852 Y112.845 E21.77091
G1 X147.534 Y113.345 E21.8004
G1 X147.152 Y113.798 E21.82988
G1 X146.712 Y114.195 E21.85938
G1 X146.222 Y114.53 E21.88892
G1 X145.692 Y114.795 E21.91841
G1 X145.132 Y114.987 E21.94787
G1 X144.55 Y115.102 E21.97739
G1 X143.991 Y115.138 E22.00527
G1 X44.006 Y115.137 E26.98107
G1 X43.415 Y115.097 E27.01055
G1 X42.834 Y114.978 E27.04006
G1 X42.275 Y114.782 E27.06954
G1 X41.747 Y114.512 E27.09905
G1 X41.26 Y114.174 E27.12855
G1 X40.823 Y113.773 E27.15807
G1 X40.495 Y113.387 E27.18328
G1 X37.299 Y109.148 E27.44747
G1 X36.975 Y108.652 E27.47696
G1 X36.72 Y108.116 E27.5065
G1 X36.54 Y107.552 E27.53596
G1 X36.438 Y106.968 E27.56546
G1 X36.415 Y106.362 E27.59564
G1 X36.629 Y99.608 E27.93193
G1 X36.55 Y94.092 E28.20646
G1 X36.417 Y90.152 E28.40265
G1 X36.438 Y89.56 E28.43213
G1 X36.537 Y88.975 E28.46165
G1 X36.714 Y88.41 E28.49112
G1 X36.969 Y87.867 E28.52097
G1 X40.163 Y82.123 E28.84805
G1 X40.485 Y81.626 E28.87752
G1 X40.872 Y81.176 E28.90705
G1 X41.315 Y80.783 E28.93653
G1 X41.807 Y80.452 E28.96604
G1 X42.339 Y80.191 E28.99553
G0 F2400 X42.613 Y80.513
G1 F1050 X43.155 Y80.354 E29.02364
G1 X43.809 Y80.267 E29.05647
G1 X45.767 Y80.171 E29.15403
G1 X51.218 Y79.7 E29.42631
G1 X56.585 Y78.93 E29.69613
G1 X61.913 Y77.855 E29.96663
G1 X64.52 Y77.214 E30.10023
G1 X69.765 Y75.684 E30.37213
G1 X74.876 Y73.872 E30.64199
G1 X79.924 Y71.755 E30.91441
G1 X82.31 Y70.639 E31.04549
G1 X82.838 Y70.436 E31.07364
G1 X83.389 Y70.31 E31.10177
G1 X84.004 Y70.262 E31.13247
G1 X131.991 Y70.262 E33.52057
G1 X132.555 Y70.302 E33.54871
G1 X133.107 Y70.421 E33.57681
G1 X133.717 Y70.654 E33.6093
G1 X135.643 Y71.576 E33.71557
G1 X140.644 Y73.748 E33.9869
G1 X145.383 Y75.509 E34.2385
G1 X145.897 Y75.743 E34.26661
G1 X146.374 Y76.047 E34.29475
G1 X146.802 Y76.415 E34.32284
G1 X147.175 Y76.84 E34.35099
G1 X147.484 Y77.314 E34.37914
G1 X147.723 Y77.826 E34.40726
G1 X147.888 Y78.366 E34.43536
G1 X147.983 Y79.063 E34.47037
G1 X148.08 Y81.067 E34.57022
G1 X148.55 Y86.535 E34.84334
G1 X148.914 Y89.352 E34.98469
G1 X148.946 Y89.928 E35.0134
G1 X148.877 Y94.199 E35.22598
G1 X148.946 Y101.611 E35.59486
G1 X148.908 Y102.2 E35.62423
G1 X148.614 Y104.305 E35.73
G1 X147.971 Y111.117 E36.07051
G1 X147.878 Y111.674 E36.09861
G1 X147.708 Y112.213 E36.12674
G1 X147.463 Y112.723 E36.1549
G1 X147.149 Y113.193 E36.18303
G1 X146.772 Y113.613 E36.21111
G1 X146.339 Y113.977 E36.23926
G1 X145.859 Y114.276 E36.26741
G1 X145.342 Y114.504 E36.29553
G1 X144.798 Y114.657 E36.32365
G1 X143.991 Y114.739 E36.36402
G1 X44.006 Y114.738 E41.33982
G1 X43.442 Y114.698 E41.36796
G1 X42.89 Y114.579 E41.39606
G1 X42.359 Y114.383 E41.42423
G1 X41.862 Y114.115 E41.45233
G1 X41.408 Y113.779 E41.48044
G1 X41.005 Y113.382 E41.50859
G1 X40.814 Y113.147 E41.52366
G1 X37.618 Y108.908 E41.78785
G1 X37.31 Y108.434 E41.81599
G1 X37.073 Y107.921 E41.84411
G1 X36.91 Y107.38 E41.87223
G1 X36.825 Y106.821 E41.90037
G1 X36.814 Y106.375 E41.92257
G1 X37.028 Y99.616 E42.2591
G1 X36.948 Y94.073 E42.53498
G1 X36.816 Y90.139 E42.73087
G1 X36.837 Y89.574 E42.759
G1 X36.938 Y89.018 E42.78713
G1 X37.115 Y88.481 E42.81526
G1 X37.318 Y88.061 E42.83848
G1 X40.512 Y82.317 E43.16555
G1 X40.821 Y81.844 E43.19367
G1 X41.193 Y81.419 E43.22178
G1 X41.622 Y81.05 E43.24994
G1 X42.098 Y80.746 E43.27805
G1 X42.613 Y80.513 E43.30618
G0 F2400 X42.882 Y80.841
G1 F1050 X43.402 Y80.712 E43.33284
G1 X43.829 Y80.665 E43.35422
G1 X45.794 Y80.568 E43.45212
G1 X51.271 Y80.096 E43.7257
G1 X56.652 Y79.323 E43.99624
G1 X61.996 Y78.246 E44.26753
G1 X64.63 Y77.597 E44.40253
G1 X69.884 Y76.064 E44.6749
G1 X75.022 Y74.243 E44.94618
G1 X80.079 Y72.123 E45.21907
G1 X82.479 Y71 E45.35093
G1 X82.98 Y70.81 E45.3776
G1 X83.504 Y70.696 E45.40429
G1 X84.004 Y70.661 E45.42923
G1 X131.991 Y70.661 E47.81733
G1 X132.526 Y70.701 E47.84402
G1 X133.049 Y70.82 E47.87072
G1 X133.545 Y71.014 E47.89722
G1 X135.479 Y71.94 E48.00393
G1 X140.494 Y74.118 E48.27603
G1 X145.244 Y75.883 E48.5282
G1 X145.731 Y76.107 E48.55488
G1 X146.18 Y76.401 E48.58159
G1 X146.58 Y76.758 E48.60827
G1 X146.922 Y77.17 E48.63492
G1 X147.2 Y77.629 E48.66162
G1 X147.406 Y78.124 E48.6883
G1 X147.536 Y78.644 E48.71498
G1 X147.585 Y79.082 E48.73691
G1 X147.683 Y81.094 E48.83716
G1 X148.156 Y86.596 E49.11198
G1 X148.518 Y89.403 E49.25283
G1 X148.548 Y89.922 E49.2787
G1 X148.479 Y94.236 E49.49341
G1 X148.547 Y101.615 E49.86065
G1 X148.513 Y102.145 E49.88708
G1 X148.218 Y104.259 E49.9933
G1 X147.574 Y111.079 E50.33421
G1 X147.484 Y111.608 E50.36092
G1 X147.316 Y112.117 E50.38759
G1 X147.075 Y112.596 E50.41428
G1 X146.765 Y113.034 E50.44098
G1 X146.394 Y113.421 E50.46766
G1 X145.969 Y113.748 E50.49435
G1 X145.5 Y114.008 E50.52103
G1 X144.998 Y114.196 E50.54771
G1 X144.474 Y114.308 E50.57438
G1 X143.991 Y114.34 E50.59847
G1 X44.006 Y114.339 E55.57427
G1 X43.471 Y114.299 E55.60097
G1 X42.948 Y114.18 E55.62766
G1 X42.449 Y113.985 E55.65432
G1 X41.984 Y113.717 E55.68103
G1 X41.564 Y113.384 E55.7077
G1 X41.132 Y112.907 E55.73973
G1 X37.936 Y108.668 E56.00393
G1 X37.646 Y108.217 E56.03061
G1 X37.426 Y107.728 E56.05729
G1 X37.282 Y107.211 E56.084
G1 X37.215 Y106.679 E56.11069
G1 X37.213 Y106.387 E56.12522
G1 X37.427 Y99.622 E56.46205
G1 X37.347 Y94.036 E56.74007
G1 X37.215 Y90.125 E56.93481
G1 X37.237 Y89.589 E56.96151
G1 X37.338 Y89.063 E56.98816
G1 X37.517 Y88.557 E57.01487
G1 X37.667 Y88.255 E57.03166
G1 X40.861 Y82.511 E57.35873
G1 X41.155 Y82.063 E57.3854
G1 X41.513 Y81.664 E57.41207
G1 X41.927 Y81.322 E57.4388
G1 X42.386 Y81.046 E57.46545
G1 X42.882 Y80.841 E57.49216
G0 F2400 X42.67 Y81.352
G1 F1050 X43.145 Y81.178 E57.51733
G1 X43.849 Y81.064 E57.55283
G1 X45.82 Y80.967 E57.65103
G1 X51.293 Y80.495 E57.92441
G1 X56.733 Y79.714 E58.19791
G1 X62.096 Y78.632 E58.47018
G1 X64.724 Y77.985 E58.60487
G1 X70.009 Y76.444 E58.87883
G1 X75.168 Y74.615 E59.15123
G1 X80.224 Y72.495 E59.42407
G1 X82.648 Y71.361 E59.55725
G1 X83.122 Y71.184 E59.58243
G1 X83.617 Y71.083 E59.60757
G1 X84.004 Y71.06 E59.62686
G1 X131.991 Y71.06 E62.01496
G1 X132.495 Y71.1 E62.04012
G1 X132.986 Y71.219 E62.06526
G1 X133.373 Y71.374 E62.08601
G1 X135.315 Y72.304 E62.19316
G1 X140.344 Y74.488 E62.46601
G1 X145.105 Y76.257 E62.71877
G1 X145.563 Y76.47 E62.74391
G1 X145.982 Y76.753 E62.76907
G1 X146.352 Y77.098 E62.79425
G1 X146.662 Y77.497 E62.81939
G1 X146.906 Y77.94 E62.84456
G1 X147.077 Y78.415 E62.86969
G1 X147.186 Y79.102 E62.9043
G1 X147.284 Y81.119 E63.0048
G1 X147.756 Y86.612 E63.27917
G1 X148.123 Y89.454 E63.42178
G1 X148.149 Y89.916 E63.4448
G1 X148.079 Y94.233 E63.65967
G1 X148.148 Y101.618 E64.0272
G1 X148.117 Y102.09 E64.05074
G1 X147.824 Y104.188 E64.15616
G1 X147.177 Y111.042 E64.49877
G1 X147.09 Y111.54 E64.52393
G1 X146.925 Y112.018 E64.5491
G1 X146.687 Y112.464 E64.57426
G1 X146.382 Y112.867 E64.59941
G1 X146.018 Y113.217 E64.62454
G1 X145.602 Y113.506 E64.64975
G1 X145.147 Y113.725 E64.67487
G1 X144.662 Y113.87 E64.70007
G1 X143.991 Y113.941 E64.73365
G1 X44.006 Y113.94 E69.70945
G1 X43.502 Y113.9 E69.73461
G1 X43.011 Y113.781 E69.75975
G1 X42.544 Y113.587 E69.78492
G1 X42.114 Y113.321 E69.81008
G1 X41.731 Y112.991 E69.83524
G1 X41.451 Y112.666 E69.85659
G1 X38.255 Y108.427 E70.12078
G1 X37.983 Y108.001 E70.14594
G1 X37.782 Y107.537 E70.1711
G1 X37.657 Y107.047 E70.19627
G1 X37.612 Y106.4 E70.22854
G1 X37.826 Y99.629 E70.56567
G1 X37.746 Y94.03 E70.84434
G1 X37.614 Y90.112 E71.03943
G1 X37.637 Y89.607 E71.06459
G1 X37.739 Y89.112 E71.08974
G1 X38.015 Y88.449 E71.12548
G1 X41.209 Y82.705 E71.45255
G1 X41.489 Y82.284 E71.47771
G1 X41.832 Y81.912 E71.50289
G1 X42.229 Y81.599 E71.52805
G1 X42.67 Y81.352 E71.55321
G0 F2400 X41.117 Y89.969
;TYPE:SUPPORT
G1 F1050 X43.101 Y89.969 E71.65194
G1 X43.101 Y91.541 E71.73017
G1 X41.117 Y91.541 E71.82891
G1 X40.999 Y91.423 E71.83721
G1 X40.999 Y90.087 E71.9037
G1 X41.117 Y89.969 E71.912
G0 F2400 X41.323 Y90.129
G1 F1050 X41.323 Y91.379 E71.97421
G0 F2400 X41.16 Y90.644
G1 F1050 X42.94 Y90.644 E72.06279
G0 F2400 X42.656 Y90.129
G1 F1050 X42.656 Y91.38 E72.12505
G0 F2400 X41.117 Y104.969
G1 F1050 X43.101 Y104.969 E72.22379
G1 X43.101 Y106.541 E72.30202
G1 X41.117 Y106.541 E72.40075
G1 X40.999 Y106.423 E72.40906
G1 X40.999 Y105.087 E72.47554
G1 X41.117 Y104.969 E72.48385
G0 F2400 X41.323 Y105.129
G1 F1050 X41.323 Y106.379 E72.54605
G0 F2400 X41.16 Y105.307
G1 F1050 X42.94 Y105.307 E72.63464
G0 F2400 X42.656 Y105.129
G1 F1050 X42.656 Y106.38 E72.69689
G1 F1500 E71.69689
G0 F2400 X43.335 Y106.38
G0 X44.617 Y106.38
G0 X44.996 Y109.754
;TYPE:WALL-INNER
G1 F1500 E72.69689
G1 F1050 X44.996 Y87.135 E73.82254
G1 X44.996 Y87.134 E73.82259
G1 X44.996 Y86.654 E73.84648
G1 X45.336 Y86.994 E73.85935
G1 X53.588 Y95.246 E74.44012
G1 X64.412 Y95.246 E74.97878
G1 X84.412 Y75.246 E76.38636
G1 X131.588 Y75.246 E78.7341
G1 X136.588 Y80.246 E79.08599
G1 X143.004 Y80.246 E79.40529
G1 X143.004 Y109.754 E80.87377
G1 X132.929 Y109.754 E81.37515
G1 X132.88 Y109.754 E81.37759
G1 X132.417 Y109.754 E81.40063
G1 X131.954 Y109.754 E81.42367
G1 X131.877 Y109.754 E81.42751
G1 X44.996 Y109.754 E85.75118
G0 F2400 X101.402 Y106.765
G1 F1050 X101.439 Y107.195 E85.77266
G1 X101.548 Y107.609 E85.79396
G1 X101.722 Y108 E85.81526
G1 X101.959 Y108.359 E85.83667
G1 X102.253 Y108.674 E85.85811
G1 X102.593 Y108.935 E85.87944
G1 X102.969 Y109.134 E85.90061
G1 X103.377 Y109.274 E85.92208
G1 X103.803 Y109.341 E85.94354
G1 X104.232 Y109.339 E85.96489
G1 X104.654 Y109.264 E85.98622
G1 X105.06 Y109.123 E86.00761
G1 X105.434 Y108.917 E86.02886
G1 X105.772 Y108.651 E86.05026
G1 X106.06 Y108.334 E86.07158
G1 X106.294 Y107.972 E86.09303
G1 X106.461 Y107.578 E86.11433
G1 X106.565 Y107.163 E86.13562
G1 X106.598 Y106.735 E86.15698
G1 X106.561 Y106.305 E86.17846
G1 X106.452 Y105.891 E86.19976
G1 X106.278 Y105.5 E86.22106
G1 X106.041 Y105.141 E86.24247
G1 X105.747 Y104.826 E86.26391
G1 X105.407 Y104.565 E86.28524
G1 X105.031 Y104.366 E86.30641
G1 X104.623 Y104.226 E86.32788
G1 X104.197 Y104.159 E86.34934
G1 X103.768 Y104.161 E86.37069
G1 X103.346 Y104.236 E86.39202
G1 X102.94 Y104.377 E86.41341
G1 X102.566 Y104.583 E86.43466
G1 X102.228 Y104.849 E86.45606
G1 X101.94 Y105.166 E86.47738
G1 X101.706 Y105.528 E86.49883
G1 X101.539 Y105.922 E86.52012
G1 X101.435 Y106.337 E86.54142
G1 X101.402 Y106.765 E86.56278
G0 F2400 X103.377 Y100.274
G1 F1050 X103.803 Y100.341 E86.58424
G1 X104.232 Y100.339 E86.60559
G1 X104.654 Y100.264 E86.62692
G1 X105.06 Y100.123 E86.64831
G1 X105.434 Y99.917 E86.66956
G1 X105.772 Y99.651 E86.69096
G1 X106.06 Y99.334 E86.71228
G1 X106.294 Y98.972 E86.73373
G1 X106.461 Y98.578 E86.75502
G1 X106.565 Y98.163 E86.77631
G1 X106.598 Y97.735 E86.79768
G1 X106.561 Y97.305 E86.81916
G1 X106.452 Y96.891 E86.84046
G1 X106.278 Y96.5 E86.86176
G1 X106.041 Y96.141 E86.88317
G1 X105.747 Y95.826 E86.90461
G1 X105.407 Y95.565 E86.92594
G1 X105.031 Y95.366 E86.94711
G1 X104.623 Y95.226 E86.96858
G1 X104.197 Y95.159 E86.99004
G1 X103.768 Y95.161 E87.01139
G1 X103.346 Y95.236 E87.03272
G1 X102.94 Y95.377 E87.05411
G1 X102.566 Y95.583 E87.07536
G1 X102.228 Y95.849 E87.09676
G1 X101.94 Y96.166 E87.11807
G1 X101.706 Y96.528 E87.13953
G1 X101.539 Y96.922 E87.16082
G1 X101.435 Y97.337 E87.18211
G1 X101.402 Y97.765 E87.20348
G1 X101.439 Y98.195 E87.22495
G1 X101.548 Y98.609 E87.24626
G1 X101.722 Y99 E87.26756
G1 X101.959 Y99.359 E87.28896
G1 X102.253 Y99.674 E87.31041
G1 X102.593 Y99.935 E87.33174
G1 X102.969 Y100.134 E87.35291
G1 X103.377 Y100.274 E87.37438
G0 F2400 X128.88 Y105.404
G1 F1050 X128.853 Y105.867 E87.39746
G1 X128.885 Y106.33 E87.42055
G1 X128.978 Y106.787 E87.44376
G1 X129.13 Y107.224 E87.46679
G1 X129.338 Y107.639 E87.48989
G1 X129.596 Y108.022 E87.51287
G1 X129.903 Y108.37 E87.53596
G1 X130.254 Y108.675 E87.55911
G1 X130.641 Y108.93 E87.58217
G1 X131.059 Y109.134 E87.60532
G1 X131.498 Y109.281 E87.62836
G1 X131.879 Y109.356 E87.64768
G1 X131.954 Y109.37 E87.65141
G1 X132.417 Y109.397 E87.67284
G1 X132.88 Y109.365 E87.69443
G1 X132.928 Y109.356 E87.69683
