;FLAVOR:Marlin
;TIME:15455
;Filament used: 12.7806m
;Layer height: 0.15
;Generated with Cura_SteamEngine 2.7.0
M190 S60
M104 S220
M109 S220
G21 ;metric values
G90 ;absolute positioning
M82 ;set extruder to absolute mode
M107 ;start with the fan off
G92 E0 ;zero the extruded length
G1 F200 E3 ;extrude 3mm of feed stock
G92 E0 ;zero the extruded length again
G1 F9000
M301 P31.36 I3.30 D74.51 ;set PID tuning for E0
M304 P72.25 I2.72 D479.41 ; set PID tuning for heated bed
M117 Printing...
;LAYER_COUNT:39
;LAYER:0
M107
M205 X20 Y20
G0 F2400 X65.373 Y20.533 Z0.3
;TYPE:SKIRT
G1 F1050 X65.57 Y19.946 E0.03081
G1 X65.84 Y19.389 E0.06162
G1 X66.18 Y18.872 E0.09241
G1 X66.584 Y18.403 E0.12322
G1 X67.045 Y17.989 E0.15405
G1 X67.555 Y17.639 E0.18483
G1 X68.107 Y17.357 E0.21568
G1 X68.689 Y17.148 E0.24646
G1 X69.294 Y17.017 E0.27726
G1 X69.662 Y16.976 E0.29569
G1 X72.219 Y16.79 E0.42328
G1 X78.557 Y16.038 E0.7409
G1 X79.122 Y16.005 E0.76907
G1 X80.882 Y16.005 E0.85665
G1 X81.441 Y16.038 E0.88452
G1 X85.238 Y16.483 E1.07478
G1 X90.656 Y16.867 E1.34508
G1 X94.697 Y16.953 E1.54623
G1 X98.022 Y16.915 E1.71171
G1 X103.423 Y16.609 E1.98092
G1 X108.829 Y16.025 E2.25152
G1 X109.372 Y15.997 E2.27858
G1 X110.929 Y16.006 E2.35607
G1 X111.561 Y16.052 E2.3876
G1 X113.683 Y16.347 E2.49422
G1 X120.441 Y16.984 E2.83202
G1 X121.052 Y17.082 E2.86282
G1 X121.646 Y17.258 E2.89365
G1 X122.212 Y17.508 E2.92444
G1 X122.741 Y17.83 E2.95526
G1 X123.224 Y18.217 E2.98606
G1 X123.654 Y18.663 E3.0169
G1 X124.022 Y19.161 E3.04771
G1 X124.323 Y19.701 E3.07848
G1 X124.552 Y20.277 E3.10932
G1 X124.705 Y20.877 E3.14014
G1 X124.787 Y21.759 E3.18422
G1 X124.787 Y160.241 E10.07584
G1 X124.747 Y160.859 E10.10666
G1 X124.628 Y161.466 E10.13745
G1 X124.431 Y162.053 E10.16826
G1 X124.161 Y162.61 E10.19906
G1 X123.821 Y163.128 E10.2299
G1 X123.417 Y163.597 E10.26071
G1 X122.956 Y164.01 E10.29151
G1 X122.446 Y164.361 E10.32232
G1 X121.895 Y164.643 E10.35312
G1 X121.312 Y164.851 E10.38393
G1 X120.492 Y165.011 E10.4255
G1 X113.216 Y165.776 E10.78959
G1 X107.891 Y166.689 E11.05846
G1 X105.281 Y167.252 E11.19134
G1 X101.717 Y168.108 E11.37374
G1 X101.107 Y168.214 E11.40456
G1 X100.475 Y168.239 E11.43603
G1 X98.502 Y168.189 E11.53425
G1 X98.305 Y168.18 E11.54406
G1 X94.072 Y167.897 E11.75519
G1 X88.658 Y167.82 E12.02465
G1 X83.171 Y168.052 E12.29796
G1 X79.471 Y168.229 E12.4823
G1 X78.852 Y168.218 E12.51311
G1 X78.24 Y168.128 E12.54389
G1 X77.913 Y168.046 E12.56067
G1 X75.578 Y167.373 E12.6816
G1 X70.285 Y166.075 E12.95282
G1 X64.154 Y164.959 E13.26294
G1 X63.554 Y164.81 E13.29371
G1 X62.977 Y164.583 E13.32457
G1 X62.435 Y164.285 E13.35535
G1 X61.935 Y163.919 E13.38618
G1 X61.487 Y163.492 E13.41698
G1 X61.098 Y163.011 E13.44777
G1 X60.774 Y162.483 E13.4786
G1 X60.52 Y161.919 E13.50938
G1 X60.341 Y161.326 E13.54021
G1 X60.24 Y160.715 E13.57103
G1 X60.219 Y160.096 E13.60185
G1 X60.278 Y159.48 E13.63264
G1 X60.43 Y158.828 E13.66596
G1 X61.429 Y155.587 E13.83474
G1 X62.796 Y150.322 E14.10544
G1 X63.364 Y147.681 E14.23988
G1 X63.837 Y145.12 E14.36948
G1 X64.601 Y139.73 E14.6404
G1 X65.054 Y134.368 E14.90819
G1 X65.204 Y128.987 E15.17609
G1 X65.214 Y21.759 E20.51234
G1 X65.254 Y21.141 E20.54316
G1 X65.373 Y20.533 E20.57399
G0 F2400 X65.772 Y20.587
G1 F1050 X65.968 Y20.027 E20.60352
G1 X66.238 Y19.499 E20.63303
G1 X66.576 Y19.013 E20.66249
G1 X66.977 Y18.576 E20.692
G1 X67.433 Y18.197 E20.72151
G1 X67.935 Y17.882 E20.751
G1 X68.475 Y17.638 E20.78049
G1 X69.044 Y17.47 E20.81002
G1 X69.691 Y17.374 E20.84257
G1 X72.273 Y17.186 E20.9714
G1 X78.604 Y16.435 E21.28868
G1 X79.122 Y16.404 E21.3145
G1 X80.882 Y16.404 E21.40209
G1 X81.394 Y16.434 E21.42761
G1 X85.205 Y16.881 E21.61857
G1 X90.64 Y17.266 E21.88972
G1 X94.693 Y17.352 E22.09147
G1 X98.026 Y17.314 E22.25735
G1 X103.45 Y17.007 E22.52771
G1 X108.872 Y16.421 E22.79911
G1 X109.369 Y16.396 E22.82387
G1 X110.926 Y16.405 E22.90136
G1 X111.506 Y16.447 E22.9303
G1 X113.634 Y16.743 E23.03722
G1 X120.404 Y17.381 E23.37562
G1 X120.989 Y17.477 E23.40513
G1 X121.556 Y17.65 E23.43463
G1 X122.094 Y17.898 E23.46411
G1 X122.594 Y18.216 E23.4936
G1 X123.047 Y18.598 E23.52309
G1 X123.445 Y19.038 E23.55261
G1 X123.779 Y19.527 E23.58208
G1 X124.045 Y20.057 E23.61159
G1 X124.237 Y20.618 E23.6411
G1 X124.352 Y21.199 E23.67058
G1 X124.388 Y21.759 E23.6985
G1 X124.388 Y160.241 E30.59013
G1 X124.348 Y160.832 E30.6196
G1 X124.229 Y161.413 E30.64912
G1 X124.033 Y161.972 E30.6786
G1 X123.763 Y162.5 E30.70811
G1 X123.425 Y162.987 E30.73761
G1 X123.024 Y163.424 E30.76713
G1 X122.569 Y163.803 E30.7966
G1 X122.066 Y164.118 E30.82613
G1 X121.526 Y164.361 E30.8556
G1 X120.958 Y164.53 E30.88509
G1 X120.451 Y164.614 E30.91067
G1 X113.166 Y165.38 E31.27521
G1 X107.813 Y166.298 E31.54549
G1 X105.191 Y166.863 E31.67897
G1 X101.624 Y167.72 E31.86154
G1 X101.04 Y167.82 E31.89102
G1 X100.486 Y167.841 E31.91861
G1 X98.513 Y167.791 E32.01683
G1 X98.331 Y167.782 E32.0259
G1 X94.084 Y167.499 E32.23772
G1 X88.646 Y167.421 E32.50837
G1 X83.152 Y167.653 E32.78203
G1 X79.452 Y167.83 E32.96637
G1 X78.859 Y167.818 E32.99589
G1 X78.024 Y167.663 E33.03815
G1 X75.664 Y166.983 E33.16038
G1 X70.383 Y165.688 E33.43098
G1 X64.226 Y164.567 E33.74242
G1 X63.651 Y164.422 E33.77193
G1 X63.101 Y164.201 E33.80143
G1 X62.586 Y163.907 E33.83094
G1 X62.115 Y163.548 E33.86041
G1 X61.696 Y163.128 E33.88994
G1 X61.338 Y162.655 E33.91946
G1 X61.047 Y162.139 E33.94894
G1 X60.828 Y161.588 E33.97845
G1 X60.684 Y161.013 E34.00794
G1 X60.62 Y160.424 E34.03743
G1 X60.635 Y159.832 E34.0669
G1 X60.73 Y159.246 E34.09644
G1 X60.811 Y158.946 E34.11191
G1 X61.812 Y155.698 E34.28105
G1 X63.185 Y150.41 E34.55293
G1 X63.754 Y147.766 E34.68753
G1 X64.236 Y145.156 E34.81961
G1 X64.997 Y139.784 E35.08962
G1 X65.452 Y134.396 E35.35871
G1 X65.603 Y128.998 E35.62745
G1 X65.613 Y21.759 E40.96425
G1 X65.653 Y21.167 E40.99378
G1 X65.772 Y20.587 E41.02324
G0 F2400 X66.171 Y20.642
G1 F1050 X66.367 Y20.112 E41.05136
G1 X66.636 Y19.615 E41.07949
G1 X66.972 Y19.16 E41.10764
G1 X67.368 Y18.758 E41.13572
G1 X67.818 Y18.415 E41.16388
G1 X68.311 Y18.14 E41.19197
G1 X68.839 Y17.936 E41.22014
G1 X69.389 Y17.809 E41.24823
G1 X69.72 Y17.772 E41.2648
G1 X72.305 Y17.584 E41.39379
G1 X78.651 Y16.831 E41.71182
G1 X79.122 Y16.803 E41.7353
G1 X80.882 Y16.803 E41.82288
G1 X81.348 Y16.83 E41.84611
G1 X85.174 Y17.279 E42.03782
G1 X90.623 Y17.665 E42.30967
G1 X94.689 Y17.751 E42.51207
G1 X98.032 Y17.713 E42.67844
G1 X103.496 Y17.403 E42.9508
G1 X108.915 Y16.818 E43.22204
G1 X109.367 Y16.795 E43.24457
G1 X110.924 Y16.804 E43.32205
G1 X111.451 Y16.842 E43.34835
G1 X113.611 Y17.142 E43.45687
G1 X120.366 Y17.779 E43.79453
G1 X120.924 Y17.871 E43.82267
G1 X121.463 Y18.042 E43.85082
G1 X121.972 Y18.286 E43.87891
G1 X122.442 Y18.6 E43.90704
G1 X122.863 Y18.978 E43.93519
G1 X123.226 Y19.41 E43.96327
G1 X123.525 Y19.89 E43.99142
G1 X123.754 Y20.407 E44.01956
G1 X123.907 Y20.951 E44.04768
G1 X123.989 Y21.759 E44.0881
G1 X123.989 Y160.241 E50.97972
G1 X123.949 Y160.805 E51.00786
G1 X123.83 Y161.357 E51.03596
G1 X123.634 Y161.887 E51.06408
G1 X123.366 Y162.385 E51.09222
G1 X123.03 Y162.839 E51.12033
G1 X122.633 Y163.242 E51.14848
G1 X122.183 Y163.584 E51.17661
G1 X121.69 Y163.86 E51.20473
G1 X121.163 Y164.063 E51.23284
G1 X120.409 Y164.217 E51.27113
G1 X113.104 Y164.985 E51.63667
G1 X107.749 Y165.903 E51.90706
G1 X105.109 Y166.472 E52.04145
G1 X101.531 Y167.332 E52.22459
G1 X100.974 Y167.425 E52.25269
G1 X100.496 Y167.442 E52.27649
G1 X98.523 Y167.392 E52.37471
G1 X98.358 Y167.384 E52.38293
G1 X94.098 Y167.1 E52.5954
G1 X88.635 Y167.021 E52.8673
G1 X83.12 Y167.255 E53.142
G1 X79.433 Y167.431 E53.3257
G1 X78.868 Y167.418 E53.35382
G1 X78.134 Y167.279 E53.391
G1 X75.79 Y166.603 E53.5124
G1 X70.453 Y165.294 E53.78587
G1 X64.297 Y164.174 E54.09726
G1 X63.75 Y164.034 E54.12536
G1 X63.227 Y163.818 E54.15352
G1 X62.741 Y163.531 E54.18161
G1 X62.3 Y163.177 E54.20975
G1 X61.913 Y162.765 E54.23788
G1 X61.588 Y162.303 E54.26599
G1 X61.331 Y161.799 E54.29414
G1 X61.148 Y161.264 E54.32228
G1 X61.043 Y160.709 E54.35039
G1 X61.016 Y160.145 E54.37849
G1 X61.07 Y159.582 E54.40664
G1 X61.192 Y159.063 E54.43317
G1 X62.197 Y155.803 E54.60294
G1 X63.573 Y150.502 E54.87549
G1 X64.144 Y147.85 E55.01049
G1 X64.631 Y145.211 E55.14404
G1 X65.393 Y139.837 E55.41416
G1 X65.851 Y134.406 E55.68539
G1 X66.002 Y129.01 E55.95403
G1 X66.012 Y21.759 E61.29143
G1 X66.052 Y21.195 E61.31957
G1 X66.171 Y20.642 E61.34772
G0 F2400 X66.57 Y20.701
G1 F1050 X66.765 Y20.202 E61.37438
G1 X67.033 Y19.737 E61.40109
G1 X67.366 Y19.317 E61.42776
G1 X67.758 Y18.951 E61.45445
G1 X68.2 Y18.648 E61.48112
G1 X68.683 Y18.414 E61.50783
G1 X69.195 Y18.254 E61.53453
G1 X69.749 Y18.169 E61.56242
G1 X72.358 Y17.979 E61.6926
G1 X78.698 Y17.227 E62.01032
G1 X79.122 Y17.202 E62.03146
G1 X80.882 Y17.202 E62.11905
G1 X81.301 Y17.227 E62.13994
G1 X85.12 Y17.675 E62.3313
G1 X90.607 Y18.064 E62.60504
G1 X94.685 Y18.15 E62.80803
G1 X98.058 Y18.112 E62.9759
G1 X103.521 Y17.802 E63.24821
G1 X108.957 Y17.215 E63.52031
G1 X109.365 Y17.194 E63.54064
G1 X110.922 Y17.203 E63.61812
G1 X111.396 Y17.237 E63.64177
G1 X113.562 Y17.538 E63.7506
G1 X120.329 Y18.176 E64.08886
G1 X120.857 Y18.266 E64.11551
G1 X121.367 Y18.433 E64.14222
G1 X121.846 Y18.675 E64.16893
G1 X122.283 Y18.984 E64.19556
G1 X122.67 Y19.356 E64.22228
G1 X122.997 Y19.781 E64.24896
G1 X123.258 Y20.249 E64.27563
G1 X123.446 Y20.751 E64.30231
G1 X123.557 Y21.276 E64.32901
G1 X123.59 Y21.759 E64.3531
G1 X123.59 Y160.241 E71.24473
G1 X123.55 Y160.776 E71.27142
G1 X123.431 Y161.299 E71.29812
G1 X123.236 Y161.798 E71.32478
G1 X122.968 Y162.263 E71.35149
G1 X122.635 Y162.683 E71.37816
G1 X122.243 Y163.048 E71.40482
G1 X121.801 Y163.352 E71.43151
G1 X121.319 Y163.586 E71.45818
G1 X120.807 Y163.746 E71.48487
G1 X120.367 Y163.82 E71.50708
G1 X113.055 Y164.589 E71.87297
G1 X107.671 Y165.512 E72.14482
G1 X105.018 Y166.084 E72.27988
G1 X101.438 Y166.944 E72.46311
G1 X100.909 Y167.03 E72.48978
G1 X100.506 Y167.043 E72.50984
G1 X98.533 Y166.993 E72.60806
G1 X98.384 Y166.986 E72.61549
G1 X94.11 Y166.701 E72.82866
G1 X88.641 Y166.622 E73.10085
G1 X83.094 Y166.857 E73.37715
G1 X79.414 Y167.033 E73.56049
G1 X78.878 Y167.019 E73.58718
G1 X78.245 Y166.896 E73.61927
G1 X75.876 Y166.213 E73.74197
G1 X70.55 Y164.907 E74.01487
G1 X64.369 Y163.782 E74.32752
G1 X63.85 Y163.647 E74.35421
G1 X63.357 Y163.436 E74.3809
G1 X62.9 Y163.155 E74.4076
G1 X62.491 Y162.808 E74.43429
G1 X62.137 Y162.405 E74.46098
G1 X61.848 Y161.954 E74.48764
G1 X61.628 Y161.465 E74.51432
G1 X61.484 Y160.948 E74.54103
G1 X61.418 Y160.416 E74.56771
G1 X61.432 Y159.88 E74.59439
G1 X61.574 Y159.181 E74.62989
G1 X62.577 Y155.929 E74.79925
G1 X63.961 Y150.595 E75.07349
G1 X64.54 Y147.902 E75.21057
G1 X65.022 Y145.293 E75.34261
G1 X65.79 Y139.875 E75.61493
G1 X66.249 Y134.449 E75.88592
G1 X66.401 Y128.986 E76.1579
G1 X66.411 Y21.759 E81.4941
G1 X66.451 Y21.224 E81.5208
G1 X66.57 Y20.701 E81.54749
G0 F2400 X66.969 Y20.763
G1 F1050 X67.164 Y20.297 E81.57263
G1 X67.429 Y19.867 E81.59777
G1 X67.76 Y19.484 E81.62296
G1 X68.146 Y19.158 E81.6481
G1 X68.579 Y18.897 E81.67326
G1 X69.048 Y18.707 E81.69844
G1 X69.778 Y18.567 E81.73544
G1 X72.39 Y18.377 E81.86577
G1 X78.745 Y17.623 E82.18424
G1 X79.122 Y17.601 E82.20304
G1 X80.882 Y17.601 E82.29062
G1 X81.255 Y17.623 E82.30922
G1 X85.091 Y18.073 E82.50143
G1 X90.59 Y18.463 E82.77578
G1 X94.682 Y18.55 E82.97946
G1 X98.064 Y18.511 E83.14778
G1 X103.567 Y18.199 E83.42208
G1 X109 Y17.612 E83.69403
G1 X109.362 Y17.593 E83.71207
G1 X110.919 Y17.602 E83.78956
G1 X111.341 Y17.632 E83.81061
G1 X113.516 Y17.934 E83.91989
G1 X120.291 Y18.573 E84.25855
G1 X120.789 Y18.66 E84.2837
G1 X121.267 Y18.825 E84.30887
G1 X121.714 Y19.062 E84.33405
G1 X122.117 Y19.367 E84.3592
G1 X122.467 Y19.732 E84.38437
G1 X122.755 Y20.147 E84.4095
G1 X122.975 Y20.603 E84.4347
G1 X123.12 Y21.087 E84.45984
G1 X123.191 Y21.759 E84.49347
G1 X123.191 Y160.241 E91.3851
G1 X123.151 Y160.745 E91.41026
G1 X123.032 Y161.236 E91.4354
G1 X122.838 Y161.703 E91.46056
G1 X122.572 Y162.133 E91.48573
G1 X122.242 Y162.516 E91.51089
G1 X121.855 Y162.842 E91.53607
G1 X121.422 Y163.103 E91.56123
G1 X120.954 Y163.293 E91.58637
G1 X120.326 Y163.423 E91.61828
G1 X113.007 Y164.192 E91.98452
G1 X107.589 Y165.122 E92.25809
G1 X104.928 Y165.695 E92.39355
G1 X101.345 Y166.556 E92.57694
G1 X100.845 Y166.635 E92.60213
G1 X100.516 Y166.644 E92.61851
G1 X98.543 Y166.594 E92.71673
G1 X98.411 Y166.588 E92.7233
G1 X94.124 Y166.302 E92.93712
G1 X88.63 Y166.223 E93.21056
G1 X83.077 Y166.458 E93.48716
G1 X79.395 Y166.634 E93.6706
G1 X78.89 Y166.619 E93.69575
G1 X78.355 Y166.513 E93.72289
G1 X75.978 Y165.828 E93.84599
G1 X70.62 Y164.514 E94.12054
G1 X64.44 Y163.389 E94.43314
G1 X63.951 Y163.26 E94.45831
G1 X63.489 Y163.055 E94.48347
G1 X63.065 Y162.78 E94.50862
G1 X62.689 Y162.441 E94.53381
G1 X62.372 Y162.048 E94.55894
G1 X62.12 Y161.609 E94.58413
G1 X61.941 Y161.137 E94.60925
G1 X61.838 Y160.642 E94.63441
G1 X61.815 Y160.137 E94.65957
G1 X61.871 Y159.634 E94.68476
G1 X61.955 Y159.298 E94.70199
G1 X62.968 Y156.014 E94.87302
G1 X64.352 Y150.682 E95.14716
G1 X64.923 Y148.026 E95.28236
G1 X65.417 Y145.348 E95.41788
G1 X66.186 Y139.928 E95.69031
G1 X66.648 Y134.459 E95.96345
G1 X66.8 Y128.997 E96.23537
G1 X66.81 Y21.759 E101.57212
G1 X66.85 Y21.255 E101.59728
G1 X66.969 Y20.763 E101.62247
G1 F1500 E100.62247
G0 F2400 X64.47 Y159.851
G0 X64.909 Y160.908
G0 X79.215 Y161.149
;TYPE:SUPPORT
G1 F1500 E101.62247
G1 F1050 X80.785 Y161.149 E101.7006
G1 X80.785 Y163.133 E101.79934
G1 X80.667 Y163.251 E101.80764
G1 X79.333 Y163.251 E101.87403
G1 X79.215 Y163.133 E101.88234
G1 X79.215 Y161.149 E101.98107
G0 F2400 X79.98 Y161.309
G1 F1050 X79.98 Y163.091 E102.06975
G0 F2400 X79.375 Y162.626
G1 F1050 X80.624 Y162.626 E102.13191
G0 F2400 X99.215 Y163.133
G1 F1050 X99.215 Y161.149 E102.23064
G1 X100.785 Y161.149 E102.30878
G1 X100.785 Y163.133 E102.40751
G1 X100.667 Y163.251 E102.41582
G1 X99.333 Y163.251 E102.4822
G1 X99.215 Y163.133 E102.49051
G0 F2400 X99.375 Y162.626
G1 F1050 X100.624 Y162.626 E102.55266
G0 F2400 X99.975 Y163.091
G1 F1050 X99.975 Y161.309 E102.64135
G1 F1500 E101.64135
G0 F2400 X99.975 Y160.915
G0 X99.975 Y159.633
G0 X119.004 Y159.254
;TYPE:WALL-INNER
G1 F1500 E102.64135
G1 F1050 X67.885 Y159.254 E105.18531
G1 X67.884 Y159.254 E105.18536
G1 X67.404 Y159.254 E105.20925
G1 X67.744 Y158.914 E105.22212
G1 X70.996 Y155.662 E105.45099
G1 X70.996 Y22.746 E112.06562
G1 X119.004 Y22.746 E114.45476
G1 X119.004 Y159.254 E121.24815
G0 F2400 X85.259 Y121.23
G1 F1050 X85.65 Y120.88 E121.27426
G1 X85.978 Y120.469 E121.30043
G1 X86.232 Y120.007 E121.32667
G1 X86.403 Y119.511 E121.35278
G1 X86.488 Y118.994 E121.37885
G1 X86.486 Y118.469 E121.40498
G1 X86.394 Y117.95 E121.43121
G1 X86.215 Y117.456 E121.45736
G1 X85.957 Y116.998 E121.48352
G1 X85.622 Y116.592 E121.50971
G1 X85.229 Y116.249 E121.53567
G1 X84.778 Y115.974 E121.56196
G1 X84.289 Y115.781 E121.58812
G1 X83.774 Y115.673 E121.61431
G1 X83.248 Y115.656 E121.6405
G1 X82.73 Y115.725 E121.66651
G1 X82.226 Y115.881 E121.69276
G1 X81.757 Y116.124 E121.71905
G1 X81.339 Y116.438 E121.74507
G1 X80.978 Y116.818 E121.77115
G1 X80.685 Y117.256 E121.79737
G1 X80.473 Y117.736 E121.82349
G1 X80.343 Y118.245 E121.84963
G1 X80.302 Y118.768 E121.87574
G1 X80.349 Y119.293 E121.90197
G1 X80.485 Y119.802 E121.92819
G1 X80.704 Y120.278 E121.95426
G1 X81.002 Y120.713 E121.9805
G1 X81.368 Y121.089 E122.00662
G1 X81.791 Y121.398 E122.03269
G1 X82.263 Y121.632 E122.0589
G1 X82.767 Y121.784 E122.0851
G1 X83.289 Y121.846 E122.11126
G1 X83.812 Y121.821 E122.13732
G1 X84.326 Y121.707 E122.16352
G1 X84.811 Y121.507 E122.18963
G1 X85.259 Y121.23 E122.21584
G0 F2400 X85.019 Y120.909
G1 F1050 X85.359 Y120.605 E122.23854
G1 X85.645 Y120.247 E122.26134
G1 X85.866 Y119.845 E122.28417
G1 X86.015 Y119.413 E122.30691
G1 X86.089 Y118.962 E122.32966
G1 X86.087 Y118.505 E122.3524
G1 X86.007 Y118.054 E122.37519
G1 X85.851 Y117.623 E122.39801
G1 X85.627 Y117.225 E122.42073
G1 X85.335 Y116.871 E122.44357
G1 X84.992 Y116.572 E122.46621
