;FLAVOR:Marlin
;TIME:13114
;Filament used: 10.6047m
;Layer height: 0.15
;Generated with Cura_SteamEngine 2.7.0
M190 S60
M104 S220
M109 S220
G21 ;metric values
G90 ;absolute positioning
M82 ;set extruder to absolute mode
M107 ;start with the fan off
G92 E0 ;zero the extruded length
G1 F200 E3 ;extrude 3mm of feed stock
G92 E0 ;zero the extruded length again
G1 F9000
M301 P31.36 I3.30 D74.51 ;set PID tuning for E0
M304 P72.25 I2.72 D479.41 ; set PID tuning for heated bed
M117 Printing...
;LAYER_COUNT:21
;LAYER:0
M107
M205 X20 Y20
G0 F2400 X10.982 Y25.31 Z0.3
;TYPE:SKIRT
G1 F1050 X29.353 Y6.935 E1.29307
G1 X29.818 Y6.526 E1.32389
G1 X30.332 Y6.181 E1.3547
G1 X30.886 Y5.905 E1.3855
G1 X31.471 Y5.702 E1.41632
G1 X32.078 Y5.577 E1.44716
G1 X32.921 Y5.533 E1.48917
G1 X43.206 Y5.91 E2.00135
G1 X43.822 Y5.973 E2.03217
G1 X44.424 Y6.114 E2.06294
G1 X45.004 Y6.332 E2.09377
G1 X45.55 Y6.623 E2.12456
G1 X46.055 Y6.981 E2.15537
G1 X46.421 Y7.312 E2.17992
G1 X68.305 Y29.196 E3.7201
G1 X68.714 Y29.661 E3.75092
G1 X69.059 Y30.175 E3.78172
G1 X69.335 Y30.729 E3.81253
G1 X69.458 Y31.053 E3.82977
G1 X70.901 Y35.329 E4.05436
G1 X72.879 Y40.34 E4.32246
G1 X75.136 Y45.234 E4.59067
G1 X77.669 Y49.994 E4.859
G1 X80.457 Y54.589 E5.12647
G1 X83.511 Y59.034 E5.39486
G1 X86.803 Y63.287 E5.66251
G1 X90.35 Y67.371 E5.93171
G1 X93.122 Y70.263 E6.13106
G1 X119.708 Y96.792 E8.00016
G1 X123.732 Y100.384 E8.26859
G1 X127.935 Y103.73 E8.53594
G1 X132.332 Y106.84 E8.80396
G1 X136.904 Y109.701 E9.07237
G1 X141.621 Y112.294 E9.34024
G1 X146.47 Y114.612 E9.60771
G1 X151.457 Y116.659 E9.87598
G1 X156.986 Y118.566 E10.16704
G1 X157.557 Y118.805 E10.19785
G1 X158.092 Y119.116 E10.22864
G1 X158.583 Y119.493 E10.25945
G1 X158.813 Y119.708 E10.27512
G1 X180.734 Y141.625 E11.81776
G1 X181.143 Y142.09 E11.84858
G1 X181.488 Y142.604 E11.87938
G1 X181.764 Y143.158 E11.91018
G1 X181.967 Y143.743 E11.941
G1 X182.092 Y144.35 E11.97184
G1 X182.136 Y144.852 E11.99692
G1 X182.489 Y155.088 E12.50662
G1 X182.471 Y155.707 E12.53744
G1 X182.372 Y156.318 E12.56824
G1 X182.196 Y156.911 E12.59903
G1 X181.945 Y157.477 E12.62984
G1 X181.623 Y158.006 E12.66066
G1 X181.088 Y158.643 E12.70206
G1 X162.71 Y177.032 E13.99587
G1 X162.245 Y177.441 E14.02669
G1 X161.732 Y177.786 E14.05745
G1 X161.178 Y178.063 E14.08828
G1 X160.521 Y178.285 E14.12279
G1 X141.435 Y183.232 E15.104
G1 X140.827 Y183.348 E15.1348
G1 X140.209 Y183.385 E15.16561
G1 X139.592 Y183.342 E15.19639
G1 X138.985 Y183.22 E15.22721
G1 X138.399 Y183.021 E15.258
G1 X137.843 Y182.748 E15.28883
G1 X137.327 Y182.405 E15.31966
G1 X136.841 Y181.98 E15.35179
G1 X6.505 Y51.657 E24.52426
G1 X6.361 Y51.508 E24.53457
G1 X5.896 Y51.001 E24.5688
G1 X5.508 Y50.518 E24.59964
G1 X5.186 Y49.99 E24.63041
G1 X4.934 Y49.425 E24.6612
G1 X4.756 Y48.831 E24.69206
G1 X4.657 Y48.22 E24.72286
G1 X4.638 Y47.602 E24.75363
G1 X4.698 Y46.985 E24.78448
G1 X4.789 Y46.555 E24.80636
G1 X9.732 Y27.497 E25.78617
G1 X9.925 Y26.909 E25.81697
G1 X10.193 Y26.351 E25.84777
G1 X10.531 Y25.832 E25.87859
G1 X10.982 Y25.31 E25.91292
G0 F2400 X11.265 Y25.592
G1 F1050 X29.636 Y7.217 E27.206
G1 X30.082 Y6.827 E27.23548
G1 X30.577 Y6.501 E27.26498
G1 X31.111 Y6.244 E27.29447
G1 X31.675 Y6.061 E27.32398
G1 X32.258 Y5.956 E27.35346
G1 X32.906 Y5.932 E27.38573
G1 X43.191 Y6.309 E27.89791
G1 X43.781 Y6.371 E27.92743
G1 X44.357 Y6.511 E27.95693
G1 X44.908 Y6.727 E27.98639
G1 X45.426 Y7.016 E28.01591
G1 X45.9 Y7.372 E28.04541
G1 X46.139 Y7.594 E28.06164
G1 X68.023 Y29.478 E29.60181
G1 X68.413 Y29.924 E29.6313
G1 X68.739 Y30.419 E29.66079
G1 X69.08 Y31.181 E29.70234
G1 X70.524 Y35.459 E29.92704
G1 X72.512 Y40.496 E30.19652
G1 X74.782 Y45.418 E30.46626
G1 X77.321 Y50.189 E30.73522
G1 X80.124 Y54.809 E31.00415
G1 X83.189 Y59.27 E31.2735
G1 X86.492 Y63.538 E31.54208
G1 X90.062 Y67.649 E31.81304
G1 X92.812 Y70.518 E32.01081
G1 X119.442 Y97.09 E33.88296
G1 X123.462 Y100.679 E34.15115
G1 X127.701 Y104.053 E34.42077
G1 X132.116 Y107.176 E34.6899
G1 X136.7 Y110.045 E34.95902
G1 X141.435 Y112.648 E35.22792
G1 X146.304 Y114.975 E35.49648
G1 X151.317 Y117.032 E35.76614
G1 X156.856 Y118.943 E36.05773
G1 X157.402 Y119.174 E36.08724
G1 X157.912 Y119.476 E36.11673
G1 X158.531 Y119.991 E36.1568
G1 X180.452 Y141.908 E37.69944
G1 X180.842 Y142.354 E37.72893
G1 X181.168 Y142.849 E37.75842
G1 X181.425 Y143.383 E37.78791
G1 X181.608 Y143.947 E37.81742
G1 X181.713 Y144.53 E37.8469
G1 X181.737 Y144.865 E37.86362
G1 X182.09 Y155.101 E38.37332
G1 X182.071 Y155.694 E38.40285
G1 X181.972 Y156.278 E38.43232
G1 X181.795 Y156.844 E38.46184
G1 X181.544 Y157.381 E38.49134
G1 X181.223 Y157.879 E38.52082
G1 X180.806 Y158.361 E38.55254
G1 X162.428 Y176.75 E39.84635
G1 X161.982 Y177.14 E39.87584
G1 X161.487 Y177.467 E39.90536
G1 X160.953 Y177.724 E39.93485
G1 X160.421 Y177.898 E39.96271
G1 X141.335 Y182.845 E40.94392
G1 X140.753 Y182.955 E40.97339
G1 X140.161 Y182.985 E41.00289
G1 X139.57 Y182.936 E41.03241
G1 X138.991 Y182.807 E41.06193
G1 X138.435 Y182.602 E41.09142
G1 X137.912 Y182.324 E41.12089
G1 X137.431 Y181.978 E41.15038
G1 X137.123 Y181.698 E41.17109
G1 X6.787 Y51.375 E50.34356
G1 X6.656 Y51.238 E50.35299
G1 X6.191 Y50.731 E50.38722
G1 X5.82 Y50.268 E50.41675
G1 X5.516 Y49.76 E50.44621
G1 X5.282 Y49.215 E50.47573
G1 X5.124 Y48.644 E50.50521
G1 X5.044 Y48.056 E50.53474
G1 X5.044 Y47.464 E50.56421
G1 X5.175 Y46.655 E50.60499
G1 X10.118 Y27.597 E51.5848
G1 X10.305 Y27.035 E51.61428
G1 X10.566 Y26.503 E51.64377
G1 X10.896 Y26.01 E51.67329
G1 X11.265 Y25.592 E51.70104
G0 F2400 X11.547 Y25.874
G1 F1050 X29.918 Y7.499 E52.99411
G1 X30.345 Y7.129 E53.02223
G1 X30.819 Y6.822 E53.05034
G1 X31.333 Y6.586 E53.07848
G1 X31.874 Y6.424 E53.10659
G1 X32.433 Y6.34 E53.13472
G1 X32.891 Y6.331 E53.15751
G1 X43.176 Y6.708 E53.6697
G1 X43.738 Y6.768 E53.69782
G1 X44.286 Y6.907 E53.72596
G1 X44.809 Y7.123 E53.75412
G1 X45.296 Y7.409 E53.78222
G1 X45.857 Y7.876 E53.81855
G1 X67.741 Y29.76 E55.35872
G1 X68.111 Y30.187 E55.38684
G1 X68.418 Y30.662 E55.41499
G1 X68.702 Y31.308 E55.45011
G1 X70.151 Y35.601 E55.67559
G1 X72.148 Y40.662 E55.94635
G1 X74.417 Y45.58 E56.21589
G1 X76.977 Y50.391 E56.4871
G1 X79.791 Y55.029 E56.75707
G1 X82.86 Y59.496 E57.02678
G1 X86.191 Y63.799 E57.29759
G1 X89.765 Y67.916 E57.56891
G1 X92.545 Y70.816 E57.76883
G1 X119.157 Y97.37 E59.63971
G1 X123.211 Y100.989 E59.91016
G1 X127.458 Y104.37 E60.18031
G1 X131.895 Y107.508 E60.45076
G1 X136.488 Y110.383 E60.72042
G1 X141.263 Y113.008 E60.99159
G1 X146.144 Y115.34 E61.26079
G1 X151.187 Y117.41 E61.53208
G1 X156.726 Y119.321 E61.82367
G1 X157.246 Y119.542 E61.85179
G1 X157.729 Y119.835 E61.87991
G1 X158.249 Y120.273 E61.91374
G1 X180.17 Y142.19 E63.45638
G1 X180.54 Y142.617 E63.4845
G1 X180.847 Y143.091 E63.5126
G1 X181.083 Y143.605 E63.54075
G1 X181.245 Y144.146 E63.56885
G1 X181.339 Y144.879 E63.60563
G1 X181.692 Y155.115 E64.11533
G1 X181.671 Y155.68 E64.14347
G1 X181.571 Y156.236 E64.17158
G1 X181.394 Y156.773 E64.19972
G1 X181.143 Y157.279 E64.22783
G1 X180.822 Y157.745 E64.25599
G1 X180.524 Y158.079 E64.27827
G1 X162.146 Y176.468 E65.57208
G1 X161.719 Y176.839 E65.60023
G1 X161.244 Y177.145 E65.62835
G1 X160.731 Y177.382 E65.65647
G1 X160.321 Y177.512 E65.67787
G1 X141.235 Y182.459 E66.65909
G1 X140.679 Y182.562 E66.68723
G1 X140.115 Y182.585 E66.71532
G1 X139.552 Y182.529 E66.74347
G1 X139.004 Y182.394 E66.77156
G1 X138.479 Y182.182 E66.79974
G1 X137.99 Y181.899 E66.82785
G1 X137.405 Y181.416 E66.86561
G1 X7.069 Y51.093 E76.03807
G1 X6.95 Y50.968 E76.04666
G1 X6.485 Y50.461 E76.08089
G1 X6.133 Y50.019 E76.10901
G1 X5.847 Y49.531 E76.13716
G1 X5.633 Y49.008 E76.16528
G1 X5.495 Y48.46 E76.19341
G1 X5.435 Y47.898 E76.22153
G1 X5.456 Y47.333 E76.24967
G1 X5.561 Y46.755 E76.27891
G1 X10.504 Y27.697 E77.25872
G1 X10.684 Y27.162 E77.28681
G1 X10.938 Y26.657 E77.31494
G1 X11.261 Y26.193 E77.34308
G1 X11.547 Y25.874 E77.3644
G0 F2400 X11.829 Y26.156
G1 F1050 X30.2 Y7.781 E78.65747
G1 X30.606 Y7.431 E78.68415
G1 X31.06 Y7.146 E78.71082
G1 X31.551 Y6.931 E78.7375
G1 X32.069 Y6.791 E78.7642
G1 X32.602 Y6.73 E78.7909
G1 X32.877 Y6.729 E78.80458
G1 X43.162 Y7.106 E79.31677
G1 X43.695 Y7.166 E79.34346
G1 X44.213 Y7.304 E79.37014
G1 X44.705 Y7.517 E79.39682
G1 X45.159 Y7.802 E79.42349
G1 X45.575 Y8.158 E79.45074
G1 X67.459 Y30.042 E80.99092
G1 X67.809 Y30.448 E81.01759
G1 X68.094 Y30.902 E81.04427
G1 X68.324 Y31.436 E81.0732
G1 X69.774 Y35.731 E81.2988
G1 X71.781 Y40.818 E81.57095
G1 X74.069 Y45.778 E81.84278
G1 X76.62 Y50.573 E82.11307
G1 X79.458 Y55.249 E82.38528
G1 X82.538 Y59.732 E82.65596
G1 X85.881 Y64.051 E82.92776
G1 X89.467 Y68.181 E83.19996
G1 X92.248 Y71.083 E83.39999
G1 X118.883 Y97.66 E85.27249
G1 X122.951 Y101.292 E85.54388
G1 X127.232 Y104.7 E85.81619
G1 X131.665 Y107.835 E86.0864
G1 X136.29 Y110.729 E86.35791
G1 X141.077 Y113.361 E86.62977
G1 X145.992 Y115.71 E86.90087
G1 X151.032 Y117.779 E87.172
G1 X156.596 Y119.698 E87.4649
G1 X157.088 Y119.91 E87.49156
G1 X157.544 Y120.193 E87.51827
G1 X157.967 Y120.555 E87.54597
G1 X179.888 Y142.472 E89.08861
G1 X180.238 Y142.878 E89.11529
G1 X180.523 Y143.332 E89.14196
G1 X180.738 Y143.823 E89.16864
G1 X180.878 Y144.341 E89.19534
G1 X180.94 Y144.893 E89.22299
G1 X181.293 Y155.129 E89.73269
G1 X181.271 Y155.665 E89.75938
G1 X181.171 Y156.191 E89.78603
G1 X180.993 Y156.697 E89.81272
G1 X180.741 Y157.171 E89.83944
G1 X180.242 Y157.797 E89.87928
G1 X161.864 Y176.186 E91.17309
G1 X161.457 Y176.536 E91.19981
G1 X161.004 Y176.822 E91.22647
G1 X160.513 Y177.037 E91.25314
G1 X160.221 Y177.126 E91.26833
G1 X141.135 Y182.073 E92.24954
G1 X140.607 Y182.168 E92.27624
G1 X140.071 Y182.184 E92.30293
G1 X139.539 Y182.121 E92.32959
G1 X139.022 Y181.978 E92.35628
G1 X138.532 Y181.761 E92.38295
G1 X138.079 Y181.473 E92.40967
G1 X137.687 Y181.134 E92.43546
G1 X7.351 Y50.811 E101.60792
G1 X7.244 Y50.699 E101.61563
G1 X6.779 Y50.192 E101.64986
G1 X6.447 Y49.771 E101.67655
G1 X6.181 Y49.305 E101.70325
G1 X5.987 Y48.805 E101.72994
G1 X5.87 Y48.282 E101.75661
G1 X5.832 Y47.747 E101.7833
G1 X5.874 Y47.212 E101.81001
G1 X5.947 Y46.855 E101.82814
G1 X10.89 Y27.797 E102.80795
G1 X11.063 Y27.29 E102.83461
G1 X11.31 Y26.814 E102.8613
G1 X11.624 Y26.379 E102.888
G1 X11.829 Y26.156 E102.90307
G0 F2400 X12.111 Y26.439
G1 F1050 X30.482 Y8.064 E104.19615
G1 X30.867 Y7.735 E104.22135
G1 X31.298 Y7.472 E104.24648
G1 X31.766 Y7.28 E104.27165
G1 X32.258 Y7.163 E104.29682
G1 X32.862 Y7.128 E104.32693
G1 X43.147 Y7.505 E104.83911
G1 X43.649 Y7.564 E104.86426
G1 X44.136 Y7.7 E104.88943
G1 X44.595 Y7.912 E104.91459
G1 X45.015 Y8.193 E104.93973
G1 X45.293 Y8.44 E104.95824
G1 X67.177 Y30.324 E106.49842
G1 X67.505 Y30.709 E106.52359
G1 X67.768 Y31.14 E106.54871
G1 X67.946 Y31.563 E106.57155
G1 X69.401 Y35.874 E106.79798
G1 X71.411 Y40.969 E107.07055
G1 X73.711 Y45.954 E107.34377
G1 X76.276 Y50.775 E107.61553
G1 X79.125 Y55.469 E107.88879
G1 X82.209 Y59.958 E108.15983
G1 X85.579 Y64.313 E108.43387
G1 X89.17 Y68.448 E108.70641
G1 X91.992 Y71.392 E108.90936
G1 X118.608 Y97.95 E110.78053
G1 X122.7 Y101.603 E111.05351
G1 X126.967 Y105 E111.32493
G1 X131.449 Y108.17 E111.59813
G1 X136.099 Y111.08 E111.87112
G1 X140.891 Y113.714 E112.14325
G1 X145.832 Y116.076 E112.41579
G1 X150.891 Y118.152 E112.68793
G1 X156.465 Y120.075 E112.98137
G1 X156.929 Y120.277 E113.00655
G1 X157.355 Y120.55 E113.03173
G1 X157.685 Y120.837 E113.05349
G1 X179.606 Y142.754 E114.59613
G1 X179.934 Y143.139 E114.6213
G1 X180.197 Y143.57 E114.64643
G1 X180.389 Y144.038 E114.6716
G1 X180.506 Y144.53 E114.69677
G1 X180.541 Y144.907 E114.71561
G1 X180.894 Y155.143 E115.22532
G1 X180.872 Y155.648 E115.25047
G1 X180.77 Y156.143 E115.27562
G1 X180.591 Y156.616 E115.30079
G1 X180.34 Y157.055 E115.32596
G1 X179.959 Y157.515 E115.35568
G1 X161.581 Y175.904 E116.64949
G1 X161.197 Y176.232 E116.67463
G1 X160.765 Y176.496 E116.69982
G1 X160.121 Y176.74 E116.73409
G1 X141.035 Y181.687 E117.7153
G1 X140.537 Y181.774 E117.74046
G1 X140.032 Y181.783 E117.7656
G1 X139.531 Y181.711 E117.79079
G1 X139.048 Y181.562 E117.81594
G1 X138.595 Y181.338 E117.84109
G1 X138.182 Y181.046 E117.86626
G1 X137.969 Y180.852 E117.8806
G1 X7.633 Y50.529 E127.05306
G1 X7.538 Y50.429 E127.05993
G1 X7.073 Y49.922 E127.09416
G1 X6.761 Y49.524 E127.11933
G1 X6.517 Y49.081 E127.1445
G1 X6.345 Y48.606 E127.16964
G1 X6.25 Y48.109 E127.19482
G1 X6.235 Y47.604 E127.21996
G1 X6.333 Y46.956 E127.25258
G1 X11.276 Y27.898 E128.23239
G1 X11.442 Y27.42 E128.25757
G1 X11.68 Y26.974 E128.28273
G1 X12.111 Y26.439 E128.31692
G1 F1500 E127.31692
G0 F2400 X14.013 Y28.106
G0 X14.919 Y29.01
G0 X15.261 Y29.206
;TYPE:WALL-INNER
G1 F1500 E128.31692
G1 F1050 X33.146 Y11.32 E129.57568
G1 X42.578 Y11.646 E130.04535
G1 X63.935 Y33.003 E131.54843
G1 X64.288 Y49.621 E132.37562
G1 X138.394 Y123.726 E137.5911
G1 X155.012 Y124.081 E138.41829
G1 X176.37 Y145.438 E139.92141
G1 X176.695 Y154.869 E140.39102
G1 X158.81 Y172.755 E141.64979
G1 X140.531 Y177.494 E142.58953
G1 X10.522 Y47.485 E151.73943
G1 X15.261 Y29.206 E152.67917
G0 F2400 X15.99 Y30.461
G1 F1050 X15.529 Y31.029 E152.71557
G1 X15.196 Y31.683 E152.7521
G1 X15.008 Y32.389 E152.78845
G1 X14.968 Y33.12 E152.82489
G1 X15.085 Y33.844 E152.86139
G1 X15.345 Y34.527 E152.89775
G1 X15.745 Y35.141 E152.93422
G1 X16.262 Y35.659 E152.97064
G1 X16.876 Y36.056 E153.00703
G1 X17.559 Y36.32 E153.04347
G1 X18.283 Y36.434 E153.07995
G1 X19.013 Y36.395 E153.11633
G1 X19.72 Y36.207 E153.15273
G1 X20.374 Y35.874 E153.18926
G1 X20.943 Y35.413 E153.2257
G1 X21.403 Y34.843 E153.26215
G1 X21.736 Y34.192 E153.29854
G1 X21.924 Y33.485 E153.33495
G1 X21.964 Y32.754 E153.37138
G1 X21.847 Y32.03 E153.40788
G1 X21.586 Y31.348 E153.44422
G1 X21.188 Y30.733 E153.48067
G1 X20.669 Y30.215 E153.51717
G1 X20.056 Y29.816 E153.55357
G1 X19.373 Y29.556 E153.58993
G1 X18.649 Y29.439 E153.62643
G1 X17.918 Y29.479 E153.66287
G1 X17.212 Y29.667 E153.69922
G1 X16.558 Y30 E153.73575
G1 X15.99 Y30.461 E153.77215
G0 F2400 X15.365 Y32.446
G0 X15.33 Y33.101
G0 X15.434 Y33.75
G0 X17.509 Y39.659
G1 F1050 X17.005 Y39.793 E153.79811
G1 X16.537 Y40.032 E153.82426
G1 X16.132 Y40.361 E153.85022
G1 X15.803 Y40.766 E153.87619
G1 X15.564 Y41.234 E153.90234
G1 X15.43 Y41.738 E153.9283
G1 X15.401 Y42.26 E153.95431
G1 X15.485 Y42.777 E153.98038
G1 X15.671 Y43.265 E154.00637
G1 X15.956 Y43.703 E154.03237
G1 X16.325 Y44.073 E154.05838
G1 X16.764 Y44.358 E154.08443
G1 X17.252 Y44.545 E154.11043
G1 X17.768 Y44.628 E154.13644
G1 X18.29 Y44.6 E154.16246
G1 X18.798 Y44.466 E154.1886
G1 X19.263 Y44.227 E154.21462
G1 X19.67 Y43.899 E154.24064
G1 X19.998 Y43.492 E154.26665
G1 X20.237 Y43.027 E154.29267
G1 X20.371 Y42.519 E154.31881
G1 X20.399 Y41.997 E154.34483
G1 X20.316 Y41.481 E154.37084
G1 X20.129 Y40.993 E154.39685
G1 X19.844 Y40.555 E154.42285
G1 X19.474 Y40.184 E154.44893
G1 X19.035 Y39.9 E154.47495
G1 X18.548 Y39.714 E154.50089
G1 X18.031 Y39.63 E154.52696
G1 X17.509 Y39.659 E154.55297
G0 F2400 X18.871 Y40.223
G0 X19.247 Y40.465
G0 X19.563 Y40.782
G0 X24.316 Y47.809
G1 F1050 X23.911 Y48.138 E154.57894
G1 X23.58 Y48.544 E154.60501
G1 X23.342 Y49.013 E154.63118
G1 X23.208 Y49.516 E154.65709
G1 X23.179 Y50.041 E154.68325
G1 X23.264 Y50.557 E154.70928
G1 X23.449 Y51.042 E154.73511
G1 X23.734 Y51.481 E154.76116
G1 X24.103 Y51.851 E154.78716
G1 X24.542 Y52.136 E154.81321
G1 X25.03 Y52.323 E154.83922
G1 X25.546 Y52.406 E154.86523
G1 X26.068 Y52.378 E154.89124
G1 X26.576 Y52.244 E154.91739
G1 X27.041 Y52.005 E154.94341
G1 X27.448 Y51.677 E154.96942
G1 X27.776 Y51.27 E154.99543
G1 X28.015 Y50.805 E155.02145
G1 X28.149 Y50.297 E155.0476
G1 X28.177 Y49.775 E155.07361
G1 X28.094 Y49.259 E155.09962
G1 X27.907 Y48.771 E155.12563
G1 X27.622 Y48.332 E155.15168
G1 X27.252 Y47.963 E155.17768
G1 X26.814 Y47.68 E155.20363
G1 X26.328 Y47.492 E155.22957
G1 X25.809 Y47.408 E155.25573
G1 X25.287 Y47.437 E155.28175
G1 X24.783 Y47.571 E155.3077
G1 X24.316 Y47.809 E155.33378
G0 F2400 X25.79 Y47.77
G0 X31.413 Y48.794
G1 F1050 X31.373 Y49.525 E155.37022
G1 X31.49 Y50.249 E155.40672
G1 X31.75 Y50.932 E155.44308
G1 X32.15 Y51.546 E155.47955
G1 X32.667 Y52.064 E155.51597
