;FLAVOR:Marlin
;TIME:8223
;Filament used: 6.57997m
;Layer height: 0.15
;Generated with Cura_SteamEngine 2.7.0
M190 S60
M104 S220
M109 S220
G21 ;metric values
G90 ;absolute positioning
M82 ;set extruder to absolute mode
M107 ;start with the fan off
G92 E0 ;zero the extruded length
G1 F200 E3 ;extrude 3mm of feed stock
G92 E0 ;zero the extruded length again
G1 F9000
M301 P31.36 I3.30 D74.51 ;set PID tuning for E0
M304 P72.25 I2.72 D479.41 ; set PID tuning for heated bed
M117 Printing...
;LAYER_COUNT:39
;LAYER:0
M107
M205 X20 Y20
G0 F2400 X57.834 Y64.103 Z0.3
;TYPE:SKIRT
G1 F1050 X58.301 Y63.697 E0.0308
G1 X58.817 Y63.354 E0.06163
G1 X59.372 Y63.08 E0.09243
G1 X59.958 Y62.88 E0.12325
G1 X60.565 Y62.758 E0.15406
G1 X61.21 Y62.714 E0.18623
G1 X133.786 Y62.714 E3.79801
G1 X134.404 Y62.754 E3.82883
G1 X135.011 Y62.873 E3.85961
G1 X135.598 Y63.07 E3.89043
G1 X136.155 Y63.34 E3.92123
G1 X136.673 Y63.68 E3.95207
G1 X137.142 Y64.084 E3.98287
G1 X137.555 Y64.545 E4.01367
G1 X137.906 Y65.055 E4.04448
G1 X138.188 Y65.606 E4.07529
G1 X138.396 Y66.189 E4.10609
G1 X138.528 Y66.794 E4.13691
G1 X138.569 Y67.162 E4.15534
G1 X138.75 Y69.652 E4.27958
G1 X139.507 Y76.041 E4.59975
G1 X139.538 Y76.748 E4.63497
G1 X139.334 Y83.559 E4.97408
G1 X139.409 Y89.057 E5.24771
G1 X139.544 Y91.844 E5.38657
G1 X139.55 Y92.113 E5.39996
G1 X139.54 Y93.418 E5.46491
G1 X139.514 Y93.879 E5.48789
G1 X138.813 Y100.599 E5.82413
G1 X138.576 Y106.194 E6.10281
G1 X138.51 Y106.81 E6.13364
G1 X138.365 Y107.411 E6.16441
G1 X138.144 Y107.99 E6.19525
G1 X137.85 Y108.535 E6.22607
G1 X137.488 Y109.037 E6.25687
G1 X137.065 Y109.489 E6.28768
G1 X136.587 Y109.883 E6.31851
G1 X136.063 Y110.211 E6.34927
G1 X135.5 Y110.47 E6.38011
G1 X134.909 Y110.653 E6.4109
G1 X134.299 Y110.759 E6.44171
G1 X133.984 Y110.783 E6.45743
G1 X130.866 Y110.913 E6.61274
G1 X125.483 Y111.376 E6.88161
G1 X120.157 Y112.14 E7.14938
G1 X114.837 Y113.214 E7.41947
G1 X112.32 Y113.833 E7.54846
G1 X107.1 Y115.355 E7.81906
G1 X102.013 Y117.158 E8.08764
G1 X97.042 Y119.243 E8.35591
G1 X91.815 Y121.796 E8.6454
G1 X91.243 Y122.032 E8.67619
G1 X90.644 Y122.191 E8.70704
G1 X90.031 Y122.272 E8.73781
G1 X89.71 Y122.283 E8.75379
G1 X58.711 Y122.286 E10.29647
G1 X58.094 Y122.246 E10.32724
G1 X57.486 Y122.127 E10.35807
G1 X56.899 Y121.931 E10.38887
G1 X56.342 Y121.66 E10.4197
G1 X55.825 Y121.32 E10.45049
G1 X55.438 Y120.995 E10.47564
G1 X47.941 Y113.995 E10.98608
G1 X47.517 Y113.545 E11.01685
G1 X47.154 Y113.043 E11.04768
G1 X46.859 Y112.499 E11.07848
G1 X46.636 Y111.921 E11.10931
G1 X46.49 Y111.319 E11.14014
G1 X46.418 Y110.49 E11.18155
G1 X46.419 Y84.503 E12.4748
G1 X46.459 Y83.885 E12.50562
G1 X46.578 Y83.278 E12.5364
G1 X46.775 Y82.69 E12.56726
G1 X47.081 Y82.071 E12.60163
G1 X57.076 Y65.078 E13.58273
G1 X57.424 Y64.566 E13.61354
G1 X57.834 Y64.103 E13.64432
G0 F2400 X58.151 Y64.351
G1 F1050 X58.604 Y63.968 E13.67384
G1 X59.104 Y63.65 E13.70333
G1 X59.642 Y63.402 E13.73281
G1 X60.209 Y63.228 E13.76232
G1 X60.794 Y63.133 E13.79182
G1 X61.21 Y63.113 E13.81254
G1 X133.786 Y63.113 E17.42432
G1 X134.377 Y63.153 E17.4538
G1 X134.958 Y63.272 E17.48332
G1 X135.517 Y63.468 E17.51279
G1 X136.045 Y63.738 E17.54231
G1 X136.532 Y64.076 E17.57181
G1 X136.969 Y64.477 E17.60132
G1 X137.348 Y64.932 E17.63079
G1 X137.663 Y65.435 E17.66033
G1 X137.906 Y65.975 E17.6898
G1 X138.075 Y66.543 E17.71929
G1 X138.171 Y67.191 E17.75189
G1 X138.354 Y69.706 E17.87738
G1 X139.11 Y76.088 E18.1972
G1 X139.139 Y76.736 E18.22949
G1 X138.935 Y83.552 E18.56884
G1 X139.01 Y89.054 E18.84267
G1 X139.146 Y91.864 E18.98268
G1 X139.151 Y92.11 E18.99492
G1 X139.141 Y93.415 E19.05987
G1 X139.117 Y93.837 E19.0809
G1 X138.414 Y100.572 E19.4179
G1 X138.177 Y106.177 E19.69708
G1 X138.112 Y106.766 E19.72657
G1 X137.969 Y107.341 E19.75606
G1 X137.749 Y107.892 E19.78558
G1 X137.457 Y108.408 E19.81509
G1 X137.099 Y108.88 E19.84457
G1 X136.68 Y109.3 E19.87409
G1 X136.209 Y109.659 E19.90357
G1 X135.693 Y109.952 E19.9331
G1 X135.143 Y110.173 E19.96259
G1 X134.568 Y110.317 E19.99209
G1 X133.967 Y110.384 E20.02219
G1 X130.861 Y110.514 E20.17689
G1 X125.426 Y110.981 E20.44837
G1 X120.093 Y111.746 E20.71648
G1 X114.754 Y112.824 E20.98754
G1 X112.209 Y113.449 E21.11796
G1 X106.981 Y114.974 E21.38897
G1 X101.867 Y116.786 E21.65898
G1 X96.884 Y118.876 E21.92789
G1 X91.64 Y121.438 E22.21834
G1 X91.091 Y121.661 E22.24783
G1 X90.517 Y121.809 E22.27733
G1 X89.71 Y121.884 E22.31766
G1 X58.711 Y121.887 E23.86034
G1 X58.12 Y121.847 E23.88982
G1 X57.539 Y121.728 E23.91933
G1 X56.98 Y121.532 E23.94881
G1 X56.452 Y121.262 E23.97833
G1 X55.965 Y120.924 E24.00783
G1 X55.71 Y120.704 E24.02459
G1 X48.213 Y113.704 E24.53503
G1 X47.808 Y113.271 E24.56453
G1 X47.465 Y112.788 E24.59402
G1 X47.19 Y112.263 E24.62351
G1 X46.988 Y111.705 E24.65304
G1 X46.863 Y111.126 E24.68252
G1 X46.817 Y110.49 E24.71425
G1 X46.818 Y84.503 E26.00751
G1 X46.858 Y83.911 E26.03704
G1 X46.977 Y83.331 E26.0665
G1 X47.173 Y82.771 E26.09603
G1 X47.425 Y82.274 E26.12376
G1 X57.42 Y65.281 E27.10486
G1 X57.754 Y64.791 E27.13437
G1 X58.151 Y64.351 E27.16387
G0 F2400 X58.467 Y64.601
G1 F1050 X58.904 Y64.244 E27.19195
G1 X59.388 Y63.951 E27.2201
G1 X59.908 Y63.73 E27.24822
G1 X60.454 Y63.584 E27.27635
G1 X61.21 Y63.512 E27.31414
G1 X133.786 Y63.512 E30.92592
G1 X134.35 Y63.552 E30.95406
G1 X134.902 Y63.671 E30.98216
G1 X135.432 Y63.867 E31.01028
G1 X135.93 Y64.135 E31.03843
G1 X136.384 Y64.471 E31.06654
G1 X136.787 Y64.868 E31.09469
G1 X137.129 Y65.318 E31.12282
G1 X137.405 Y65.811 E31.15093
G1 X137.608 Y66.338 E31.17904
G1 X137.735 Y66.889 E31.20718
G1 X137.773 Y67.22 E31.22376
G1 X137.956 Y69.737 E31.34935
G1 X138.714 Y76.135 E31.66998
G1 X138.74 Y76.725 E31.69937
G1 X138.536 Y83.547 E32.03902
G1 X138.611 Y89.078 E32.3143
G1 X138.747 Y91.883 E32.45405
G1 X138.752 Y92.107 E32.4652
G1 X138.742 Y93.412 E32.53015
G1 X138.72 Y93.796 E32.54929
G1 X138.016 Y100.547 E32.88708
G1 X137.778 Y106.16 E33.16666
G1 X137.715 Y106.722 E33.19481
G1 X137.572 Y107.269 E33.22294
G1 X137.354 Y107.79 E33.25105
G1 X137.065 Y108.276 E33.27919
G1 X136.71 Y108.715 E33.30728
G1 X136.297 Y109.101 E33.33542
G1 X135.833 Y109.424 E33.36355
G1 X135.328 Y109.679 E33.3917
G1 X134.793 Y109.86 E33.41981
G1 X134.237 Y109.963 E33.44795
G1 X133.951 Y109.986 E33.46223
G1 X130.81 Y110.117 E33.61868
G1 X125.407 Y110.582 E33.88856
G1 X120.009 Y111.356 E34.15994
G1 X114.654 Y112.437 E34.43181
G1 X112.121 Y113.059 E34.56161
G1 X106.836 Y114.601 E34.83559
G1 X101.736 Y116.408 E35.10485
G1 X96.718 Y118.513 E35.37566
G1 X91.465 Y121.079 E35.6666
G1 X90.941 Y121.291 E35.69473
G1 X90.392 Y121.426 E35.72286
G1 X89.71 Y121.485 E35.75693
G1 X58.711 Y121.488 E37.29961
G1 X58.148 Y121.448 E37.3277
G1 X57.595 Y121.329 E37.35585
G1 X57.065 Y121.133 E37.38397
G1 X56.568 Y120.865 E37.41207
G1 X55.983 Y120.412 E37.44889
G1 X48.486 Y113.412 E37.95933
G1 X48.101 Y112.998 E37.98747
G1 X47.778 Y112.534 E38.0156
G1 X47.524 Y112.029 E38.04373
G1 X47.344 Y111.494 E38.07182
G1 X47.241 Y110.938 E38.09996
G1 X47.216 Y110.49 E38.12229
G1 X47.217 Y84.503 E39.41555
G1 X47.257 Y83.939 E39.44369
G1 X47.376 Y83.387 E39.47179
G1 X47.572 Y82.856 E39.49996
G1 X47.769 Y82.476 E39.52126
G1 X57.764 Y65.483 E40.50236
G1 X58.084 Y65.017 E40.53049
G1 X58.467 Y64.601 E40.55863
G0 F2400 X58.781 Y64.854
G1 F1050 X59.202 Y64.523 E40.58528
G1 X59.669 Y64.258 E40.61201
G1 X60.169 Y64.065 E40.63868
G1 X60.692 Y63.948 E40.66535
G1 X61.21 Y63.911 E40.69119
G1 X133.786 Y63.911 E44.30297
G1 X134.321 Y63.951 E44.32967
G1 X134.844 Y64.07 E44.35636
G1 X135.343 Y64.265 E44.38303
G1 X135.808 Y64.533 E44.40974
G1 X136.228 Y64.866 E44.43641
G1 X136.593 Y65.258 E44.46306
G1 X136.897 Y65.7 E44.48976
G1 X137.131 Y66.182 E44.51643
G1 X137.291 Y66.694 E44.54312
G1 X137.376 Y67.249 E44.57106
G1 X137.561 Y69.791 E44.6979
G1 X138.318 Y76.182 E45.01818
G1 X138.341 Y76.713 E45.04463
G1 X138.137 Y83.527 E45.38388
G1 X138.212 Y89.074 E45.65995
G1 X138.349 Y91.902 E45.80086
G1 X138.353 Y92.104 E45.81091
G1 X138.343 Y93.409 E45.87586
G1 X138.324 Y93.754 E45.89305
G1 X137.618 Y100.52 E46.23159
G1 X137.38 Y106.143 E46.51167
G1 X137.317 Y106.676 E46.53838
G1 X137.176 Y107.193 E46.56505
G1 X136.96 Y107.684 E46.59175
G1 X136.673 Y108.137 E46.61843
G1 X136.322 Y108.542 E46.64511
G1 X135.915 Y108.891 E46.67179
G1 X135.461 Y109.176 E46.69846
G1 X134.969 Y109.389 E46.72514
G1 X134.451 Y109.528 E46.75183
G1 X133.934 Y109.587 E46.77773
G1 X130.805 Y109.718 E46.93358
G1 X125.35 Y110.187 E47.20606
G1 X119.944 Y110.962 E47.47784
G1 X114.576 Y112.046 E47.75037
G1 X112.005 Y112.677 E47.88212
G1 X106.717 Y114.22 E48.15625
G1 X101.591 Y116.037 E48.4269
G1 X96.56 Y118.146 E48.69838
G1 X91.29 Y120.721 E48.99028
G1 X90.792 Y120.92 E49.01696
G1 X90.27 Y121.042 E49.04364
G1 X89.71 Y121.086 E49.0716
G1 X58.711 Y121.089 E50.61428
G1 X58.177 Y121.049 E50.64093
G1 X57.654 Y120.93 E50.66762
G1 X57.154 Y120.735 E50.69433
G1 X56.69 Y120.468 E50.72097
G1 X56.255 Y120.121 E50.74866
G1 X48.758 Y113.121 E51.2591
G1 X48.394 Y112.726 E51.28583
G1 X48.093 Y112.283 E51.31249
G1 X47.862 Y111.799 E51.33918
G1 X47.704 Y111.287 E51.36584
G1 X47.615 Y110.49 E51.40575
G1 X47.616 Y84.503 E52.69901
G1 X47.656 Y83.968 E52.7257
G1 X47.775 Y83.445 E52.7524
G1 X47.97 Y82.946 E52.77906
G1 X48.113 Y82.678 E52.79418
G1 X58.108 Y65.685 E53.77528
G1 X58.413 Y65.245 E53.80192
G1 X58.781 Y64.854 E53.82864
G0 F2400 X59.093 Y65.11
G1 F1050 X59.498 Y64.807 E53.85381
G1 X59.945 Y64.571 E53.87897
G1 X60.423 Y64.408 E53.9041
G1 X60.922 Y64.323 E53.92929
G1 X61.21 Y64.31 E53.94364
G1 X133.786 Y64.31 E57.55542
G1 X134.29 Y64.35 E57.58058
G1 X134.781 Y64.469 E57.60572
G1 X135.248 Y64.663 E57.63089
G1 X135.678 Y64.929 E57.65605
G1 X136.061 Y65.259 E57.68121
G1 X136.387 Y65.646 E57.70639
G1 X136.648 Y66.079 E57.73155
G1 X136.838 Y66.547 E57.75669
G1 X136.978 Y67.278 E57.79373
G1 X137.163 Y69.823 E57.92072
G1 X137.922 Y76.229 E58.24174
G1 X137.943 Y76.701 E58.26526
G1 X137.738 Y83.556 E58.60655
G1 X137.813 Y89.099 E58.88243
G1 X137.95 Y91.921 E59.02303
G1 X137.954 Y92.101 E59.03199
G1 X137.944 Y93.406 E59.09694
G1 X137.927 Y93.713 E59.11224
G1 X137.22 Y100.495 E59.45158
G1 X136.981 Y106.126 E59.73206
G1 X136.92 Y106.628 E59.75722
G1 X136.78 Y107.114 E59.78239
G1 X136.566 Y107.572 E59.80755
G1 X136.282 Y107.991 E59.83274
G1 X135.936 Y108.359 E59.85788
G1 X135.536 Y108.668 E59.88303
G1 X135.093 Y108.911 E59.90818
G1 X134.617 Y109.081 E59.93333
G1 X133.917 Y109.188 E59.96857
G1 X130.776 Y109.319 E60.12502
G1 X125.312 Y109.789 E60.39794
G1 X119.88 Y110.568 E60.67103
G1 X114.499 Y111.654 E60.94422
G1 X111.89 Y112.296 E61.07793
G1 X106.598 Y113.839 E61.35226
G1 X101.445 Y115.665 E61.62432
G1 X96.388 Y117.786 E61.89723
G1 X91.115 Y120.362 E62.18928
G1 X90.644 Y120.548 E62.21448
G1 X90.151 Y120.657 E62.23961
G1 X89.71 Y120.687 E62.26161
G1 X58.711 Y120.69 E63.80429
G1 X58.207 Y120.65 E63.82945
G1 X57.716 Y120.531 E63.85459
G1 X57.249 Y120.337 E63.87975
G1 X56.819 Y120.071 E63.90492
G1 X56.527 Y119.829 E63.92379
G1 X49.03 Y112.829 E64.43423
G1 X48.689 Y112.456 E64.45938
G1 X48.411 Y112.034 E64.48453
G1 X48.203 Y111.573 E64.5097
G1 X48.07 Y111.085 E64.53487
G1 X48.014 Y110.49 E64.56461
G1 X48.015 Y84.503 E65.85787
G1 X48.055 Y83.999 E65.88303
G1 X48.174 Y83.507 E65.90822
G1 X48.457 Y82.881 E65.94241
G1 X58.452 Y65.888 E66.92351
G1 X58.742 Y65.473 E66.94871
G1 X59.093 Y65.11 E66.97384
G1 F1500 E65.97384
G0 F2400 X60.454 Y67.467
G0 X61.556 Y68.114
G0 X61.775 Y68.496
;TYPE:WALL-INNER
G1 F1500 E66.97384
G1 F1050 X132.799 Y68.496 E70.50838
G1 X132.799 Y105.004 E72.32522
G1 X101.305 Y105.004 E73.89253
G1 X89.305 Y116.504 E74.71967
G1 X59.097 Y116.504 E76.22299
G1 X52.201 Y110.068 E76.69241
G1 X52.201 Y84.772 E77.95128
G1 X61.775 Y68.496 E78.891
G0 F2400 X62.943 Y75.012
G1 F1050 X62.431 Y75.12 E78.91704
G1 X61.954 Y75.334 E78.94306
G1 X61.532 Y75.639 E78.96897
G1 X61.18 Y76.029 E78.99512
G1 X60.918 Y76.484 E79.02125
G1 X60.757 Y76.981 E79.04725
G1 X60.704 Y77.5 E79.07321
G1 X60.757 Y78.019 E79.09917
G1 X60.918 Y78.516 E79.12517
G1 X61.18 Y78.971 E79.1513
G1 X61.532 Y79.361 E79.17744
G1 X61.954 Y79.666 E79.20336
G1 X62.431 Y79.88 E79.22937
G1 X62.943 Y79.988 E79.25542
G1 X63.467 Y79.988 E79.28149
G1 X63.978 Y79.88 E79.30748
G1 X64.455 Y79.666 E79.3335
G1 X64.878 Y79.36 E79.35948
G1 X65.229 Y78.971 E79.38556
G1 X65.491 Y78.517 E79.41164
G1 X65.651 Y78.02 E79.43763
G1 X65.706 Y77.5 E79.46365
G1 X65.651 Y76.98 E79.48967
G1 X65.491 Y76.483 E79.51566
G1 X65.229 Y76.029 E79.54174
G1 X64.878 Y75.64 E79.56782
G1 X64.455 Y75.334 E79.5938
G1 X63.978 Y75.12 E79.61981
G1 X63.467 Y75.012 E79.64581
G1 X62.943 Y75.012 E79.67188
G0 F2400 X61.774 Y75.909
G0 X61.473 Y76.242
G0 X58.856 Y81.368
G1 F1050 X58.187 Y81.069 E79.70835
G1 X57.471 Y80.918 E79.74477
G1 X56.738 Y80.918 E79.78124
G1 X56.022 Y81.069 E79.81766
G1 X55.355 Y81.368 E79.85404
G1 X54.762 Y81.797 E79.89046
G1 X54.271 Y82.343 E79.927
G1 X53.907 Y82.976 E79.96334
G1 X53.678 Y83.672 E79.99981
G1 X53.604 Y84.4 E80.03622
G1 X53.678 Y85.128 E80.07264
G1 X53.907 Y85.824 E80.1091
G1 X54.271 Y86.457 E80.14544
G1 X54.762 Y87.003 E80.18198
G1 X55.355 Y87.432 E80.21841
G1 X56.022 Y87.731 E80.25478
G1 X56.738 Y87.882 E80.2912
G1 X57.471 Y87.882 E80.32768
G1 X58.187 Y87.731 E80.36409
G1 X58.856 Y87.432 E80.40056
G1 X59.449 Y87.002 E80.43701
G1 X59.937 Y86.458 E80.47338
G1 X60.305 Y85.824 E80.50986
G1 X60.529 Y85.128 E80.54625
G1 X60.606 Y84.4 E80.58268
G1 X60.529 Y83.672 E80.61911
G1 X60.305 Y82.976 E80.6555
G1 X59.937 Y82.342 E80.69198
G1 X59.449 Y81.798 E80.72835
G1 X58.856 Y81.368 E80.7648
G0 F2400 X71.757 Y78.019
G1 F1050 X71.918 Y78.516 E80.7908
G1 X72.18 Y78.971 E80.81693
G1 X72.532 Y79.361 E80.84307
G1 X72.954 Y79.666 E80.86899
G1 X73.431 Y79.88 E80.895
G1 X73.943 Y79.988 E80.92104
G1 X74.467 Y79.988 E80.94712
G1 X74.978 Y79.88 E80.97311
G1 X75.455 Y79.666 E80.99913
G1 X75.878 Y79.36 E81.02511
G1 X76.229 Y78.971 E81.05119
G1 X76.491 Y78.517 E81.07727
G1 X76.651 Y78.02 E81.10326
G1 X76.706 Y77.5 E81.12928
G1 X76.651 Y76.98 E81.1553
G1 X76.491 Y76.483 E81.18128
G1 X76.229 Y76.029 E81.20737
G1 X75.878 Y75.64 E81.23344
G1 X75.455 Y75.334 E81.25943
G1 X74.978 Y75.12 E81.28544
G1 X74.467 Y75.012 E81.31144
G1 X73.943 Y75.012 E81.33751
G1 X73.431 Y75.12 E81.36355
G1 X72.954 Y75.334 E81.38957
G1 X72.532 Y75.639 E81.41548
G1 X72.18 Y76.029 E81.44163
G1 X71.918 Y76.484 E81.46776
G1 X71.757 Y76.981 E81.49376
G1 X71.704 Y77.5 E81.51972
G1 X71.757 Y78.019 E81.54568
G0 F2400 X72.774 Y79.091
G0 X77.471 Y82.343
G1 F1050 X77.107 Y82.976 E81.58202
G1 X76.878 Y83.672 E81.61848
G1 X76.804 Y84.4 E81.6549
G1 X76.878 Y85.128 E81.69131
G1 X77.107 Y85.824 E81.72778
G1 X77.471 Y86.457 E81.76412
G1 X77.962 Y87.003 E81.80066
G1 X78.555 Y87.432 E81.83708
G1 X79.222 Y87.731 E81.87346
G1 X79.938 Y87.882 E81.90987
G1 X80.671 Y87.882 E81.94635
G1 X81.387 Y87.731 E81.98277
G1 X82.056 Y87.432 E82.01924
G1 X82.649 Y87.002 E82.05569
G1 X83.137 Y86.458 E82.09206
G1 X83.505 Y85.824 E82.12854
G1 X83.729 Y85.128 E82.16493
G1 X83.806 Y84.4 E82.20136
G1 X83.729 Y83.672 E82.23779
G1 X83.505 Y82.976 E82.27417
G1 X83.137 Y82.342 E82.31066
G1 X82.649 Y81.798 E82.34702
G1 X82.056 Y81.368 E82.38348
G1 X81.387 Y81.069 E82.41994
G1 X80.671 Y80.918 E82.45636
G1 X79.938 Y80.918 E82.49284
G1 X79.222 Y81.069 E82.52925
G1 X78.555 Y81.368 E82.56563
G1 X77.962 Y81.797 E82.60205
G1 X77.471 Y82.343 E82.6386
G0 F2400 X79.334 Y81.413
G0 X79.976 Y81.278
G0 X80.633 Y81.278
G0 X81.275 Y81.413
G0 X91.11 Y84.95
G1 F1050 X91.054 Y85.5 E82.66611
G1 X91.11 Y86.05 E82.69362
G1 X91.281 Y86.578 E82.72124
G1 X91.56 Y87.059 E82.74891
G1 X91.932 Y87.471 E82.77654
G1 X92.38 Y87.797 E82.80411
G1 X92.885 Y88.02 E82.83158
G1 X93.427 Y88.137 E82.85918
G1 X93.982 Y88.137 E82.8868
G1 X94.525 Y88.022 E82.91442
G1 X95.031 Y87.796 E82.942
G1 X95.478 Y87.471 E82.9695
G1 X95.851 Y87.059 E82.99716
G1 X96.128 Y86.578 E83.02478
G1 X96.298 Y86.051 E83.05234
G1 X96.356 Y85.5 E83.07991
G1 X96.298 Y84.949 E83.10749
G1 X96.128 Y84.422 E83.13504
G1 X95.851 Y83.941 E83.16267
G1 X95.478 Y83.529 E83.19032
G1 X95.031 Y83.204 E83.21783
