;FLAVOR:Marlin
;TIME:15972
;Filament used: 12.7694m
;Layer height: 0.15
;Generated with Cura_SteamEngine 2.7.0
M190 S60
M104 S220
M109 S220
G21 ;metric values
G90 ;absolute positioning
M82 ;set extruder to absolute mode
M107 ;start with the fan off
G92 E0 ;zero the extruded length
G1 F200 E3 ;extrude 3mm of feed stock
G92 E0 ;zero the extruded length again
G1 F9000
M301 P31.36 I3.30 D74.51 ;set PID tuning for E0
M304 P72.25 I2.72 D479.41 ; set PID tuning for heated bed
M117 Printing...
;LAYER_COUNT:39
;LAYER:0
M107
M205 X20 Y20
G0 F2400 X60.569 Y21.447 Z0.3
;TYPE:SKIRT
G1 F1050 X60.839 Y20.89 E0.0308
G1 X61.179 Y20.372 E0.06164
G1 X61.583 Y19.903 E0.09245
G1 X62.044 Y19.49 E0.12325
G1 X62.554 Y19.139 E0.15406
G1 X63.105 Y18.857 E0.18486
G1 X63.688 Y18.649 E0.21567
G1 X64.293 Y18.517 E0.24648
G1 X64.661 Y18.476 E0.26491
G1 X67.241 Y18.288 E0.39364
G1 X73.559 Y17.538 E0.71027
G1 X74.127 Y17.505 E0.73858
G1 X76.194 Y17.506 E0.84145
G1 X76.753 Y17.539 E0.86932
G1 X80.503 Y17.981 E1.05723
G1 X85.922 Y18.367 E1.32759
G1 X89.988 Y18.453 E1.52998
G1 X93.012 Y18.415 E1.68049
G1 X98.4 Y18.11 E1.94905
G1 X103.59 Y17.535 E2.20892
G1 X104.12 Y17.506 E2.23533
G1 X106.209 Y17.507 E2.33929
G1 X106.875 Y17.554 E2.37252
G1 X109.22 Y17.884 E2.49037
G1 X115.453 Y18.487 E2.802
G1 X116.064 Y18.587 E2.83281
G1 X116.657 Y18.764 E2.86361
G1 X117.223 Y19.016 E2.89444
G1 X117.751 Y19.339 E2.92525
G1 X118.233 Y19.727 E2.95604
G1 X118.661 Y20.174 E2.98684
G1 X119.029 Y20.673 E3.01769
G1 X119.328 Y21.214 E3.04846
G1 X119.556 Y21.79 E3.07928
G1 X119.707 Y22.39 E3.11008
G1 X119.787 Y23.261 E3.1536
G1 X119.796 Y130.49 E8.48991
G1 X119.95 Y135.934 E8.76094
G1 X120.407 Y141.307 E9.02929
G1 X121.167 Y146.642 E9.29747
G1 X122.228 Y151.935 E9.56612
G1 X122.848 Y154.46 E9.69551
G1 X124.587 Y160.381 E10.00262
G1 X124.722 Y160.985 E10.03342
G1 X124.779 Y161.602 E10.06425
G1 X124.756 Y162.221 E10.09508
G1 X124.654 Y162.831 E10.12586
G1 X124.473 Y163.423 E10.15667
G1 X124.218 Y163.987 E10.18747
G1 X123.892 Y164.514 E10.21831
G1 X123.502 Y164.994 E10.24909
G1 X123.052 Y165.42 E10.27992
G1 X122.552 Y165.784 E10.3107
G1 X122.009 Y166.081 E10.3415
G1 X121.432 Y166.306 E10.37232
G1 X120.83 Y166.454 E10.40317
G1 X120.127 Y166.527 E10.43835
G1 X114.281 Y166.7 E10.7294
G1 X108.82 Y167.164 E11.00215
G1 X105.937 Y167.477 E11.14647
G1 X105.383 Y167.505 E11.17407
G1 X104.086 Y167.495 E11.23862
G1 X103.742 Y167.48 E11.25576
G1 X101.802 Y167.325 E11.35261
G1 X96.369 Y167.093 E11.62323
G1 X90.967 Y167.166 E11.89209
G1 X85.971 Y167.493 E12.14125
G1 X85.63 Y167.503 E12.15823
G1 X84.077 Y167.494 E12.23552
G1 X83.545 Y167.461 E12.26204
G1 X79.764 Y167.016 E12.4515
G1 X74.378 Y166.635 E12.72021
G1 X64.959 Y166.536 E13.18898
G1 X64.341 Y166.489 E13.21982
G1 X63.735 Y166.364 E13.25061
G1 X63.15 Y166.161 E13.28143
G1 X62.596 Y165.885 E13.31223
G1 X62.082 Y165.54 E13.34304
G1 X61.617 Y165.131 E13.37386
G1 X61.209 Y164.666 E13.40464
G1 X60.864 Y164.152 E13.43545
G1 X60.587 Y163.598 E13.46627
G1 X60.385 Y163.013 E13.49707
G1 X60.26 Y162.406 E13.52792
G1 X60.213 Y161.74 E13.56114
G1 X60.213 Y23.259 E20.45271
G1 X60.253 Y22.641 E20.48353
G1 X60.372 Y22.034 E20.51432
G1 X60.569 Y21.447 E20.54513
G0 F2400 X60.967 Y21.528
G1 F1050 X61.237 Y21 E20.57464
G1 X61.575 Y20.513 E20.60414
G1 X61.976 Y20.076 E20.63366
G1 X62.431 Y19.697 E20.66313
G1 X62.934 Y19.382 E20.69267
G1 X63.474 Y19.139 E20.72213
G1 X64.042 Y18.97 E20.75163
G1 X64.69 Y18.874 E20.78423
G1 X67.295 Y18.685 E20.91421
G1 X73.606 Y17.935 E21.23049
G1 X74.127 Y17.904 E21.25646
G1 X76.194 Y17.905 E21.35932
G1 X76.706 Y17.935 E21.38485
G1 X80.472 Y18.378 E21.57356
G1 X85.904 Y18.765 E21.84457
G1 X89.985 Y18.852 E22.04771
G1 X93.016 Y18.814 E22.19856
G1 X98.449 Y18.506 E22.46937
G1 X103.634 Y17.932 E22.72898
G1 X104.12 Y17.905 E22.7532
G1 X106.209 Y17.906 E22.85716
G1 X106.819 Y17.949 E22.88759
G1 X109.17 Y18.28 E23.00575
G1 X115.415 Y18.884 E23.31798
G1 X115.999 Y18.981 E23.34744
G1 X116.566 Y19.156 E23.37697
G1 X117.104 Y19.405 E23.40648
G1 X117.603 Y19.724 E23.43595
G1 X118.055 Y20.108 E23.46547
G1 X118.452 Y20.548 E23.49496
G1 X118.785 Y21.038 E23.52444
G1 X119.049 Y21.569 E23.55395
G1 X119.24 Y22.13 E23.58344
G1 X119.354 Y22.712 E23.61296
G1 X119.388 Y23.261 E23.64033
G1 X119.397 Y130.503 E28.97728
G1 X119.551 Y135.961 E29.24901
G1 X120.009 Y141.346 E29.51796
G1 X120.773 Y146.706 E29.7874
G1 X121.841 Y152.035 E30.05788
G1 X122.461 Y154.561 E30.18732
G1 X124.204 Y160.494 E30.49505
G1 X124.332 Y161.072 E30.52451
G1 X124.381 Y161.663 E30.55403
G1 X124.351 Y162.255 E30.58352
G1 X124.241 Y162.838 E30.61305
G1 X124.054 Y163.4 E30.64253
G1 X123.793 Y163.932 E30.67202
G1 X123.462 Y164.424 E30.70153
G1 X123.069 Y164.868 E30.73103
G1 X122.619 Y165.254 E30.76054
G1 X122.121 Y165.576 E30.79005
G1 X121.585 Y165.829 E30.81955
G1 X121.02 Y166.007 E30.84903
G1 X120.436 Y166.107 E30.87851
G1 X120.115 Y166.128 E30.89452
G1 X114.254 Y166.301 E31.18632
G1 X108.787 Y166.766 E31.45937
G1 X105.894 Y167.08 E31.60419
G1 X105.386 Y167.106 E31.62951
G1 X104.089 Y167.096 E31.69405
G1 X103.774 Y167.082 E31.70975
G1 X101.824 Y166.927 E31.80709
G1 X96.381 Y166.694 E32.07822
G1 X90.955 Y166.767 E32.34827
G1 X85.945 Y167.095 E32.59813
G1 X85.633 Y167.104 E32.61366
G1 X84.08 Y167.095 E32.69095
G1 X83.592 Y167.065 E32.71528
G1 X79.797 Y166.619 E32.90544
G1 X74.393 Y166.236 E33.17504
G1 X64.963 Y166.137 E33.64436
G1 X64.372 Y166.091 E33.67386
G1 X63.793 Y165.965 E33.70335
G1 X63.235 Y165.763 E33.73288
G1 X62.71 Y165.488 E33.76237
G1 X62.227 Y165.145 E33.79186
G1 X61.794 Y164.74 E33.82136
G1 X61.42 Y164.28 E33.85086
G1 X61.111 Y163.775 E33.88033
G1 X60.873 Y163.232 E33.90983
G1 X60.71 Y162.662 E33.93934
G1 X60.625 Y162.075 E33.96885
G1 X60.612 Y161.74 E33.98554
G1 X60.612 Y23.259 E40.87711
G1 X60.652 Y22.668 E40.90659
G1 X60.771 Y22.087 E40.9361
G1 X60.967 Y21.528 E40.96558
G0 F2400 X61.366 Y21.613
G1 F1050 X61.634 Y21.115 E40.99373
G1 X61.97 Y20.661 E41.02183
G1 X62.367 Y20.258 E41.04999
G1 X62.817 Y19.916 E41.07811
G1 X63.31 Y19.64 E41.10623
G1 X63.837 Y19.437 E41.13434
G1 X64.388 Y19.31 E41.16248
G1 X64.719 Y19.272 E41.17906
G1 X67.329 Y19.082 E41.30929
G1 X73.654 Y18.331 E41.62627
G1 X74.127 Y18.303 E41.64985
G1 X76.194 Y18.304 E41.75271
G1 X76.659 Y18.331 E41.77589
G1 X80.439 Y18.776 E41.9653
G1 X85.888 Y19.164 E42.23716
G1 X89.981 Y19.251 E42.4409
G1 X93.022 Y19.213 E42.59225
G1 X98.478 Y18.904 E42.8642
G1 X103.678 Y18.328 E43.12457
G1 X104.12 Y18.304 E43.1466
G1 X106.209 Y18.305 E43.25056
G1 X106.764 Y18.344 E43.27824
G1 X109.148 Y18.679 E43.39805
G1 X115.376 Y19.282 E43.70944
G1 X115.933 Y19.376 E43.73755
G1 X116.472 Y19.547 E43.76569
G1 X116.981 Y19.793 E43.79382
G1 X117.45 Y20.109 E43.82197
G1 X117.87 Y20.487 E43.85009
G1 X118.232 Y20.921 E43.87821
G1 X118.53 Y21.401 E43.90633
G1 X118.757 Y21.919 E43.93448
G1 X118.909 Y22.463 E43.96258
G1 X118.989 Y23.261 E44.0025
G1 X118.998 Y130.514 E49.33999
G1 X119.152 Y135.97 E49.61162
G1 X119.614 Y141.402 E49.88292
G1 X120.379 Y146.769 E50.15271
G1 X121.451 Y152.116 E50.42411
G1 X122.079 Y154.676 E50.55528
G1 X123.821 Y160.606 E50.86286
G1 X123.941 Y161.158 E50.89097
G1 X123.983 Y161.722 E50.91912
G1 X123.945 Y162.286 E50.94725
G1 X123.827 Y162.839 E50.97539
G1 X123.633 Y163.37 E51.00352
G1 X123.365 Y163.868 E51.03167
G1 X123.031 Y164.323 E51.05976
G1 X122.635 Y164.727 E51.08791
G1 X122.186 Y165.07 E51.11603
G1 X121.694 Y165.347 E51.14413
G1 X121.167 Y165.552 E51.17227
G1 X120.617 Y165.681 E51.20038
G1 X120.103 Y165.729 E51.22607
G1 X114.245 Y165.902 E51.51773
G1 X108.751 Y166.369 E51.79212
G1 X105.851 Y166.684 E51.93729
G1 X105.389 Y166.707 E51.96031
G1 X104.092 Y166.697 E52.02486
G1 X103.806 Y166.684 E52.03911
G1 X101.847 Y166.528 E52.13691
G1 X96.392 Y166.294 E52.40863
G1 X90.924 Y166.369 E52.68077
G1 X85.919 Y166.696 E52.93038
G1 X85.635 Y166.705 E52.94452
G1 X84.082 Y166.696 E53.02181
G1 X83.638 Y166.669 E53.04394
G1 X79.828 Y166.221 E53.23486
G1 X74.409 Y165.837 E53.50521
G1 X64.967 Y165.738 E53.97512
G1 X64.404 Y165.692 E54.00323
G1 X63.853 Y165.567 E54.03135
G1 X63.324 Y165.366 E54.05951
G1 X62.83 Y165.092 E54.08763
G1 X62.379 Y164.751 E54.11576
G1 X61.981 Y164.35 E54.14388
G1 X61.643 Y163.897 E54.17201
G1 X61.372 Y163.401 E54.20014
G1 X61.174 Y162.872 E54.22824
G1 X61.053 Y162.32 E54.25637
G1 X61.011 Y161.74 E54.28531
G1 X61.011 Y23.259 E61.17688
G1 X61.051 Y22.695 E61.20502
G1 X61.17 Y22.143 E61.23312
G1 X61.366 Y21.613 E61.26124
G0 F2400 X61.764 Y21.702
G1 F1050 X62.032 Y21.237 E61.28795
G1 X62.365 Y20.817 E61.31462
G1 X62.757 Y20.452 E61.34128
G1 X63.199 Y20.148 E61.36798
G1 X63.681 Y19.914 E61.39464
G1 X64.193 Y19.754 E61.42134
G1 X64.748 Y19.669 E61.44928
G1 X67.383 Y19.477 E61.58076
G1 X73.701 Y18.727 E61.89738
G1 X74.127 Y18.702 E61.91862
G1 X76.194 Y18.703 E62.02149
G1 X76.613 Y18.728 E62.04237
G1 X80.387 Y19.172 E62.23148
G1 X85.871 Y19.563 E62.50509
G1 X89.978 Y19.65 E62.70952
G1 X93.049 Y19.612 E62.86237
G1 X98.508 Y19.303 E63.13447
G1 X103.722 Y18.725 E63.39554
G1 X104.12 Y18.703 E63.41537
G1 X106.209 Y18.704 E63.51933
G1 X106.708 Y18.739 E63.54423
G1 X109.098 Y19.075 E63.66434
G1 X115.338 Y19.679 E63.97632
G1 X115.866 Y19.77 E64.00299
G1 X116.375 Y19.939 E64.02968
G1 X116.853 Y20.181 E64.05634
G1 X117.29 Y20.492 E64.08303
G1 X117.676 Y20.864 E64.10971
G1 X118.002 Y21.29 E64.13641
G1 X118.262 Y21.759 E64.16309
G1 X118.449 Y22.262 E64.1898
G1 X118.559 Y22.787 E64.21649
G1 X118.59 Y23.261 E64.24013
G1 X118.599 Y130.489 E69.57639
G1 X118.755 Y136.015 E69.8515
G1 X119.216 Y141.438 E70.12235
G1 X119.985 Y146.832 E70.3935
G1 X121.067 Y152.226 E70.66728
G1 X121.691 Y154.772 E70.79774
G1 X123.438 Y160.719 E71.1062
G1 X123.55 Y161.243 E71.13286
G1 X123.584 Y161.778 E71.15954
G1 X123.537 Y162.312 E71.18622
G1 X123.412 Y162.834 E71.21293
G1 X123.21 Y163.331 E71.23963
G1 X122.937 Y163.792 E71.26629
G1 X122.598 Y164.208 E71.293
G1 X122.202 Y164.568 E71.31963
G1 X121.756 Y164.866 E71.34632
G1 X121.27 Y165.095 E71.37306
G1 X120.757 Y165.248 E71.3997
G1 X120.091 Y165.33 E71.4331
G1 X114.218 Y165.504 E71.7255
G1 X108.718 Y165.971 E72.00019
G1 X105.808 Y166.287 E72.14586
G1 X105.392 Y166.308 E72.16659
G1 X104.095 Y166.298 E72.23114
G1 X103.837 Y166.287 E72.24399
G1 X101.867 Y166.13 E72.34234
G1 X96.386 Y165.895 E72.61535
G1 X90.911 Y165.97 E72.88784
G1 X85.893 Y166.298 E73.1381
G1 X85.637 Y166.306 E73.15085
G1 X84.084 Y166.297 E73.22813
G1 X83.685 Y166.272 E73.24803
G1 X79.882 Y165.825 E73.43859
G1 X74.424 Y165.438 E73.71089
G1 X64.971 Y165.339 E74.18135
G1 X64.437 Y165.293 E74.20802
G1 X63.916 Y165.169 E74.23468
G1 X63.418 Y164.968 E74.2614
G1 X62.956 Y164.696 E74.28808
G1 X62.54 Y164.358 E74.31476
G1 X62.178 Y163.962 E74.34146
G1 X61.879 Y163.517 E74.36814
G1 X61.65 Y163.032 E74.39483
G1 X61.495 Y162.519 E74.4215
G1 X61.41 Y161.74 E74.4605
G1 X61.41 Y23.259 E81.35207
G1 X61.45 Y22.724 E81.37877
G1 X61.569 Y22.201 E81.40546
G1 X61.764 Y21.702 E81.43212
G0 F2400 X62.162 Y21.797
G1 F1050 X62.428 Y21.367 E81.45728
G1 X62.758 Y20.984 E81.48244
G1 X63.145 Y20.658 E81.50763
G1 X63.578 Y20.397 E81.53279
G1 X64.046 Y20.207 E81.55792
G1 X64.777 Y20.067 E81.59496
G1 X67.415 Y19.875 E81.72659
G1 X73.748 Y19.123 E82.04397
G1 X74.127 Y19.101 E82.06286
G1 X76.194 Y19.102 E82.16573
G1 X76.566 Y19.124 E82.18427
G1 X80.355 Y19.57 E82.37414
G1 X85.854 Y19.962 E82.64849
G1 X89.974 Y20.05 E82.85357
G1 X93.054 Y20.011 E83.00686
G1 X98.537 Y19.7 E83.28016
G1 X103.766 Y19.121 E83.54198
G1 X104.12 Y19.102 E83.55962
G1 X106.209 Y19.103 E83.66358
G1 X106.653 Y19.134 E83.68573
G1 X109.054 Y19.472 E83.8064
G1 X115.299 Y20.076 E84.11863
G1 X115.797 Y20.164 E84.1438
G1 X116.275 Y20.33 E84.16898
G1 X116.72 Y20.569 E84.19412
G1 X117.123 Y20.875 E84.2193
G1 X117.472 Y21.24 E84.24443
G1 X117.759 Y21.656 E84.26958
G1 X117.978 Y22.112 E84.29476
G1 X118.121 Y22.597 E84.31992
G1 X118.191 Y23.261 E84.35315
G1 X118.2 Y130.5 E89.68995
G1 X118.356 Y136.026 E89.96506
G1 X118.821 Y141.492 E90.23806
G1 X119.592 Y146.898 E90.50982
G1 X120.675 Y152.303 E90.78415
G1 X121.309 Y154.887 E90.91655
G1 X123.055 Y160.831 E91.22486
G1 X123.159 Y161.326 E91.25003
G1 X123.184 Y161.831 E91.27519
G1 X123.128 Y162.333 E91.30033
G1 X122.994 Y162.821 E91.32551
G1 X122.785 Y163.281 E91.35066
G1 X122.507 Y163.703 E91.37581
G1 X122.165 Y164.076 E91.40099
G1 X121.769 Y164.39 E91.42614
G1 X121.328 Y164.638 E91.45132
G1 X120.854 Y164.813 E91.47646
G1 X120.358 Y164.911 E91.50162
G1 X120.08 Y164.932 E91.5155
G1 X114.19 Y165.106 E91.80875
G1 X108.641 Y165.578 E92.08589
G1 X105.765 Y165.89 E92.22986
G1 X105.395 Y165.909 E92.24829
G1 X104.098 Y165.899 E92.31284
G1 X103.869 Y165.889 E92.32425
G1 X101.889 Y165.731 E92.4231
G1 X96.398 Y165.496 E92.69661
G1 X90.899 Y165.571 E92.9703
G1 X85.867 Y165.9 E93.22125
G1 X85.639 Y165.907 E93.2326
G1 X84.086 Y165.898 E93.30989
G1 X83.731 Y165.876 E93.32759
G1 X79.911 Y165.427 E93.519
G1 X74.441 Y165.039 E93.7919
G1 X64.976 Y164.94 E94.26296
G1 X64.472 Y164.895 E94.28814
G1 X63.982 Y164.771 E94.3133
G1 X63.517 Y164.571 E94.33849
G1 X63.09 Y164.301 E94.36363
G1 X62.711 Y163.967 E94.38877
G1 X62.389 Y163.577 E94.41394
G1 X62.132 Y163.141 E94.43912
G1 X61.947 Y162.671 E94.46426
G1 X61.839 Y162.177 E94.48942
G1 X61.809 Y161.74 E94.51122
G1 X61.809 Y23.259 E101.4028
G1 X61.849 Y22.755 E101.42796
G1 X61.968 Y22.264 E101.4531
G1 X62.162 Y21.797 E101.47827
G1 F1500 E100.47827
G0 F2400 X64.335 Y23.861
G0 X65.611 Y23.861
G0 X65.996 Y24.246
;TYPE:WALL-INNER
G1 F1500 E101.47827
G1 F1050 X114.004 Y24.246 E103.86741
G1 X114.004 Y31.573 E104.23204
G1 X114.004 Y31.933 E104.24995
G1 X114.004 Y32.073 E104.25692
G1 X113.905 Y31.933
G1 X113.65 Y31.68 E104.26859
G1 X113.594 Y31.624 E104.27253
G1 X113.236 Y31.379 E104.29412
G1 X112.841 Y31.196 E104.31579
G1 X112.416 Y31.086 E104.33763
G1 X111.982 Y31.05 E104.35931
G1 X111.551 Y31.093 E104.38086
G1 X111.131 Y31.206 E104.40251
G1 X110.736 Y31.396 E104.42432
G1 X110.383 Y31.645 E104.44582
G1 X110.074 Y31.956 E104.46763
G1 X109.829 Y32.314 E104.48922
G1 X109.646 Y32.709 E104.51089
G1 X109.536 Y33.134 E104.53274
G1 X109.5 Y33.568 E104.55441
G1 X109.543 Y33.999 E104.57596
G1 X109.656 Y34.419 E104.59761
G1 X109.846 Y34.814 E104.61942
G1 X110.095 Y35.167 E104.64092
G1 X110.406 Y35.476 E104.66274
G1 X110.764 Y35.721 E104.68433
G1 X111.159 Y35.904 E104.70599
G1 X111.584 Y36.014 E104.72784
G1 X112.018 Y36.05 E104.74951
G1 X112.449 Y36.007 E104.77106
G1 X112.869 Y35.894 E104.79271
G1 X113.264 Y35.704 E104.81452
G1 X113.608 Y35.461 E104.83548
G1 X113.617 Y35.455 E104.83602
G1 X113.926 Y35.144 E104.85784
G1 X114.004 Y35.03 E104.86471
G1 X114.004 Y35.144
G1 X114.004 Y35.455 E104.86736
G1 X114.004 Y35.466 E104.8679
G1 X114.004 Y106.473 E108.4016
G1 X114.004 Y106.833 E108.41952
G1 X114.004 Y106.973 E108.42648
G1 X113.905 Y106.833
G1 X113.65 Y106.58 E108.43815
G1 X113.594 Y106.524 E108.44209
G1 X113.236 Y106.279 E108.46368
G1 X112.841 Y106.096 E108.48535
G1 X112.416 Y105.986 E108.50719
G1 X111.982 Y105.95 E108.52887
G1 X111.551 Y105.993 E108.55042
G1 X111.131 Y106.106 E108.57207
G1 X110.736 Y106.296 E108.59388
G1 X110.383 Y106.545 E108.61538
G1 X110.074 Y106.856 E108.6372
G1 X109.829 Y107.214 E108.65878
G1 X109.646 Y107.609 E108.68045
G1 X109.536 Y108.034 E108.7023
G1 X109.5 Y108.468 E108.72397
G1 X109.543 Y108.899 E108.74552
G1 X109.656 Y109.319 E108.76717
G1 X109.846 Y109.714 E108.78898
G1 X110.095 Y110.067 E108.81048
G1 X110.406 Y110.376 E108.8323
G1 X110.764 Y110.621 E108.85389
G1 X111.159 Y110.804 E108.87555
G1 X111.584 Y110.914 E108.8974
G1 X112.018 Y110.95 E108.91907
G1 X112.449 Y110.907 E108.94063
G1 X112.869 Y110.794 E108.96227
G1 X113.264 Y110.604 E108.98408
G1 X113.608 Y110.361 E109.00504
G1 X113.617 Y110.355 E109.00558
G1 X113.926 Y110.044 E109.0274
G1 X114.004 Y109.93 E109.03427
G1 X114.004 Y110.044
G1 X114.004 Y110.355 E109.03692
G1 X114.004 Y110.366 E109.03746
G1 X114.004 Y157.162 E111.36629
G1 X117.256 Y160.414 E111.59516
G1 X117.596 Y160.754 E111.61909
G1 X117.116 Y160.754 E111.63194
G1 X117.115 Y160.754 E111.63199
G1 X65.996 Y160.754 E114.17595
G1 X65.996 Y109.404 E116.73141
