;FLAVOR:Marlin
;TIME:8771
;Filament used: 7.26589m
;Layer height: 0.15
;Generated with Cura_SteamEngine 2.7.0
M190 S60
M104 S220
M109 S220
G21 ;metric values
G90 ;absolute positioning
M82 ;set extruder to absolute mode
M107 ;start with the fan off
G92 E0 ;zero the extruded length
G1 F200 E3 ;extrude 3mm of feed stock
G92 E0 ;zero the extruded length again
G1 F9000
M301 P31.36 I3.30 D74.51 ;set PID tuning for E0
M304 P72.25 I2.72 D479.41 ; set PID tuning for heated bed
M117 Printing...
;LAYER_COUNT:39
;LAYER:0
M107
M205 X20 Y20
G0 F2400 X42.531 Y68.566 Z0.3
;TYPE:SKIRT
G1 F1050 X43.061 Y68.247 E0.03078
G1 X43.629 Y68 E0.06161
G1 X44.224 Y67.827 E0.09245
G1 X44.835 Y67.733 E0.12321
G1 X45.259 Y67.714 E0.14433
G1 X142.741 Y67.714 E4.99557
G1 X143.359 Y67.754 E5.02639
G1 X143.966 Y67.873 E5.05717
G1 X144.553 Y68.07 E5.08799
G1 X145.11 Y68.34 E5.11879
G1 X145.628 Y68.68 E5.14963
G1 X146.097 Y69.084 E5.18043
G1 X146.51 Y69.545 E5.21123
G1 X146.861 Y70.055 E5.24204
G1 X147.143 Y70.606 E5.27285
G1 X147.351 Y71.189 E5.30365
G1 X147.483 Y71.794 E5.33447
G1 X147.522 Y72.137 E5.35165
G1 X148.084 Y79.338 E5.7111
G1 X148.421 Y82.131 E5.8511
G1 X148.455 Y82.816 E5.88523
G1 X148.398 Y85.306 E6.00918
G1 X148.388 Y85.524 E6.02004
G1 X148.099 Y89.741 E6.23039
G1 X148.013 Y95.103 E6.49727
G1 X148.36 Y102.216 E6.85167
G1 X148.366 Y102.454 E6.86352
G1 X148.364 Y104.878 E6.98415
G1 X148.312 Y105.579 E7.01913
G1 X147.762 Y109.284 E7.20554
G1 X147.341 Y113.018 E7.39254
G1 X147.232 Y113.627 E7.42333
G1 X147.045 Y114.218 E7.45418
G1 X146.784 Y114.779 E7.48497
G1 X146.453 Y115.302 E7.51577
G1 X146.058 Y115.778 E7.54655
G1 X145.604 Y116.2 E7.5774
G1 X145.1 Y116.559 E7.60819
G1 X144.553 Y116.85 E7.63903
G1 X143.974 Y117.068 E7.66982
G1 X143.371 Y117.21 E7.70064
G1 X142.575 Y117.277 E7.7404
G1 X45.258 Y117.286 E12.58343
G1 X44.641 Y117.246 E12.6142
G1 X44.033 Y117.127 E12.64503
G1 X43.446 Y116.931 E12.67582
G1 X42.889 Y116.66 E12.70665
G1 X42.372 Y116.32 E12.73744
G1 X41.902 Y115.916 E12.76829
G1 X41.489 Y115.456 E12.79905
G1 X41.138 Y114.945 E12.8299
G1 X40.856 Y114.394 E12.86071
G1 X40.675 Y113.903 E12.88675
G1 X39.895 Y111.373 E13.0185
G1 X37.549 Y104.878 E13.36217
G1 X37.377 Y104.284 E13.39294
G1 X37.283 Y103.672 E13.42376
G1 X37.264 Y103.249 E13.44483
G1 X37.264 Y101.764 E13.51873
G1 X37.28 Y101.377 E13.53801
G1 X37.447 Y99.314 E13.64101
G1 X37.68 Y93.872 E13.91208
G1 X37.605 Y88.463 E14.18129
G1 X37.263 Y82.994 E14.45399
G1 X37.255 Y82.591 E14.47405
G1 X37.276 Y81.621 E14.52233
G1 X37.329 Y81.004 E14.55315
G1 X37.462 Y80.4 E14.58393
G1 X37.595 Y80.003 E14.60476
G1 X38.532 Y77.568 E14.73461
G1 X40.706 Y71.002 E15.07881
G1 X40.938 Y70.428 E15.10962
G1 X41.242 Y69.889 E15.14042
G1 X41.613 Y69.394 E15.1712
G1 X42.045 Y68.95 E15.20203
G1 X42.531 Y68.566 E15.23286
G0 F2400 X42.862 Y68.824
G1 F1050 X43.38 Y68.535 E15.26237
G1 X43.932 Y68.318 E15.29189
G1 X44.508 Y68.178 E15.32139
G1 X45.259 Y68.113 E15.3589
G1 X142.741 Y68.113 E20.21014
G1 X143.332 Y68.153 E20.23962
G1 X143.913 Y68.272 E20.26914
G1 X144.472 Y68.468 E20.29861
G1 X145 Y68.738 E20.32813
G1 X145.487 Y69.076 E20.35763
G1 X145.924 Y69.477 E20.38714
G1 X146.303 Y69.932 E20.41661
G1 X146.618 Y70.435 E20.44615
G1 X146.861 Y70.975 E20.47562
G1 X147.03 Y71.543 E20.50511
G1 X147.125 Y72.168 E20.53657
G1 X147.689 Y79.394 E20.89727
G1 X148.025 Y82.179 E21.03687
G1 X148.056 Y82.807 E21.06816
G1 X147.999 Y85.297 E21.19211
G1 X147.99 Y85.497 E21.20207
G1 X147.7 Y89.727 E21.41308
G1 X147.613 Y95.1 E21.6805
G1 X147.962 Y102.235 E22.036
G1 X147.967 Y102.454 E22.0469
G1 X147.965 Y104.878 E22.16753
G1 X147.917 Y105.52 E22.19957
G1 X147.365 Y109.237 E22.38658
G1 X146.944 Y112.973 E22.57368
G1 X146.838 Y113.557 E22.60322
G1 X146.655 Y114.12 E22.63268
G1 X146.397 Y114.654 E22.66219
G1 X146.07 Y115.148 E22.69168
G1 X145.68 Y115.594 E22.72116
G1 X145.233 Y115.984 E22.75068
G1 X144.738 Y116.309 E22.78015
G1 X144.203 Y116.565 E22.80967
G1 X143.639 Y116.747 E22.83916
G1 X143.055 Y116.852 E22.86869
G1 X142.575 Y116.878 E22.89261
G1 X45.258 Y116.887 E27.73564
G1 X44.667 Y116.847 E27.76512
G1 X44.086 Y116.728 E27.79463
G1 X43.527 Y116.532 E27.82411
G1 X42.999 Y116.262 E27.85362
G1 X42.512 Y115.924 E27.88312
G1 X42.075 Y115.524 E27.91261
G1 X41.696 Y115.068 E27.94211
G1 X41.382 Y114.566 E27.97158
G1 X41.056 Y113.785 E28.0137
G1 X40.269 Y111.233 E28.1466
G1 X37.925 Y104.743 E28.49
G1 X37.761 Y104.173 E28.51952
G1 X37.676 Y103.586 E28.54903
G1 X37.663 Y103.249 E28.56582
G1 X37.663 Y101.764 E28.63972
G1 X37.677 Y101.409 E28.6574
G1 X37.847 Y99.311 E28.76215
G1 X38.079 Y93.884 E29.03247
G1 X38.003 Y88.433 E29.30377
G1 X37.662 Y82.969 E29.57622
G1 X37.654 Y82.6 E29.59459
G1 X37.675 Y81.63 E29.64287
G1 X37.728 Y81.039 E29.6724
G1 X37.859 Y80.461 E29.70189
G1 X37.967 Y80.146 E29.71847
G1 X38.914 Y77.685 E29.84969
G1 X41.085 Y71.128 E30.19343
G1 X41.309 Y70.579 E30.22293
G1 X41.604 Y70.065 E30.25243
G1 X41.966 Y69.596 E30.28191
G1 X42.388 Y69.179 E30.31144
G1 X42.862 Y68.824 E30.34091
G0 F2400 X43.191 Y69.088
G1 F1050 X43.694 Y68.831 E30.36902
G1 X44.229 Y68.647 E30.39717
G1 X44.784 Y68.54 E30.4253
G1 X45.259 Y68.512 E30.44898
G1 X142.741 Y68.512 E35.30022
G1 X143.305 Y68.552 E35.32836
G1 X143.857 Y68.671 E35.35646
G1 X144.387 Y68.867 E35.38458
G1 X144.885 Y69.135 E35.41272
G1 X145.339 Y69.471 E35.44083
G1 X145.742 Y69.868 E35.46898
G1 X146.084 Y70.318 E35.49711
G1 X146.36 Y70.811 E35.52523
G1 X146.563 Y71.338 E35.55333
G1 X146.69 Y71.889 E35.58147
G1 X146.727 Y72.199 E35.59701
G1 X147.291 Y79.426 E35.95776
G1 X147.629 Y82.227 E36.09816
G1 X147.657 Y82.797 E36.12656
G1 X147.6 Y85.287 E36.25051
G1 X147.592 Y85.47 E36.25963
G1 X147.301 Y89.713 E36.47128
G1 X147.214 Y95.114 E36.7401
G1 X147.563 Y102.255 E37.0959
G1 X147.568 Y102.453 E37.10575
G1 X147.566 Y104.877 E37.22639
G1 X147.523 Y105.461 E37.25553
G1 X146.97 Y109.187 E37.44298
G1 X146.548 Y112.929 E37.63039
G1 X146.445 Y113.484 E37.65848
G1 X146.265 Y114.02 E37.68662
G1 X146.011 Y114.525 E37.71475
G1 X145.688 Y114.989 E37.74288
G1 X145.304 Y115.403 E37.77098
G1 X144.864 Y115.759 E37.79915
G1 X144.379 Y116.049 E37.82727
G1 X143.858 Y116.268 E37.8554
G1 X143.311 Y116.411 E37.88353
G1 X142.575 Y116.479 E37.92032
G1 X45.258 Y116.488 E42.76334
G1 X44.695 Y116.448 E42.79143
G1 X44.142 Y116.329 E42.81958
G1 X43.612 Y116.133 E42.84771
G1 X43.115 Y115.865 E42.87581
G1 X42.66 Y115.529 E42.90395
G1 X42.257 Y115.132 E42.93211
G1 X41.915 Y114.683 E42.96019
G1 X41.639 Y114.189 E42.98836
G1 X41.437 Y113.668 E43.01616
G1 X40.645 Y111.1 E43.1499
G1 X38.3 Y104.607 E43.49346
G1 X38.146 Y104.063 E43.52159
G1 X38.062 Y103.249 E43.56232
G1 X38.062 Y101.764 E43.63622
G1 X38.075 Y101.441 E43.65231
G1 X38.246 Y99.333 E43.75756
G1 X38.479 Y93.895 E44.02843
G1 X38.402 Y88.423 E44.30077
G1 X38.06 Y82.944 E44.57397
G1 X38.053 Y82.608 E44.59069
G1 X38.074 Y81.638 E44.63898
G1 X38.126 Y81.076 E44.66706
G1 X38.34 Y80.29 E44.7076
G1 X39.285 Y77.834 E44.83856
G1 X41.464 Y71.253 E45.18356
G1 X41.679 Y70.731 E45.21165
G1 X41.966 Y70.244 E45.23978
G1 X42.318 Y69.802 E45.2679
G1 X42.729 Y69.414 E45.29603
G1 X43.191 Y69.088 E45.32417
G0 F2400 X43.517 Y69.361
G1 F1050 X44.004 Y69.137 E45.35085
G1 X44.519 Y68.988 E45.37753
G1 X45.259 Y68.911 E45.41455
G1 X142.741 Y68.911 E50.26579
G1 X143.276 Y68.951 E50.29249
G1 X143.799 Y69.07 E50.31918
G1 X144.298 Y69.265 E50.34584
G1 X144.763 Y69.533 E50.37255
G1 X145.183 Y69.866 E50.39923
G1 X145.548 Y70.258 E50.42588
G1 X145.852 Y70.7 E50.45258
G1 X146.086 Y71.182 E50.47924
G1 X146.246 Y71.694 E50.50594
G1 X146.329 Y72.23 E50.53293
G1 X146.893 Y79.458 E50.89373
G1 X147.233 Y82.275 E51.03493
G1 X147.258 Y82.788 E51.06049
G1 X147.201 Y85.278 E51.18444
G1 X147.194 Y85.442 E51.19261
G1 X146.904 Y89.678 E51.40391
G1 X146.816 Y95.127 E51.67512
G1 X147.165 Y102.274 E52.03122
G1 X147.169 Y102.453 E52.04013
G1 X147.167 Y104.877 E52.16076
G1 X147.128 Y105.403 E52.18701
G1 X146.572 Y109.144 E52.37522
G1 X146.151 Y112.884 E52.56252
G1 X146.052 Y113.411 E52.58921
G1 X145.875 Y113.917 E52.61589
G1 X145.625 Y114.391 E52.64255
G1 X145.307 Y114.823 E52.66925
G1 X144.929 Y115.203 E52.69592
G1 X144.498 Y115.523 E52.72264
G1 X144.025 Y115.775 E52.74931
G1 X143.52 Y115.954 E52.77597
G1 X142.993 Y116.056 E52.80269
G1 X142.575 Y116.08 E52.82352
G1 X45.258 Y116.089 E57.66655
G1 X44.724 Y116.049 E57.6932
G1 X44.201 Y115.93 E57.71989
G1 X43.701 Y115.735 E57.7466
G1 X43.237 Y115.468 E57.77324
G1 X42.817 Y115.134 E57.79995
G1 X42.451 Y114.742 E57.82663
G1 X42.147 Y114.3 E57.85333
G1 X41.913 Y113.818 E57.88
G1 X41.819 Y113.55 E57.89413
G1 X41.032 Y110.998 E58.02703
G1 X38.675 Y104.472 E58.37234
G1 X38.531 Y103.955 E58.39904
G1 X38.461 Y103.249 E58.43435
G1 X38.461 Y101.764 E58.50825
G1 X38.473 Y101.473 E58.52275
G1 X38.642 Y99.382 E58.62714
G1 X38.878 Y93.889 E58.90076
G1 X38.801 Y88.413 E59.1733
G1 X38.458 Y82.919 E59.44725
G1 X38.452 Y82.617 E59.46228
G1 X38.473 Y81.647 E59.51056
G1 X38.524 Y81.113 E59.53726
G1 X38.712 Y80.433 E59.57237
G1 X39.659 Y77.97 E59.70369
G1 X41.842 Y71.379 E60.04921
G1 X42.048 Y70.884 E60.0759
G1 X42.326 Y70.425 E60.1026
G1 X42.668 Y70.012 E60.12929
G1 X43.068 Y69.655 E60.15597
G1 X43.517 Y69.361 E60.18268
G0 F2400 X43.838 Y69.643
G1 F1050 X44.307 Y69.455 E60.20782
G1 X44.8 Y69.343 E60.23298
G1 X45.259 Y69.31 E60.25588
G1 X142.741 Y69.31 E65.10712
G1 X143.245 Y69.35 E65.13228
G1 X143.736 Y69.469 E65.15742
G1 X144.203 Y69.663 E65.18259
G1 X144.633 Y69.929 E65.20775
G1 X145.016 Y70.259 E65.23291
G1 X145.342 Y70.646 E65.25809
G1 X145.603 Y71.079 E65.28325
G1 X145.793 Y71.547 E65.30839
G1 X145.931 Y72.261 E65.34458
G1 X146.495 Y79.491 E65.70548
G1 X146.837 Y82.323 E65.84744
G1 X146.859 Y82.779 E65.87016
G1 X146.802 Y85.269 E65.99411
G1 X146.796 Y85.415 E66.00138
G1 X146.505 Y89.664 E66.21333
G1 X146.417 Y95.14 E66.48588
G1 X146.766 Y102.294 E66.84232
G1 X146.77 Y102.453 E66.85024
G1 X146.768 Y104.877 E66.97087
G1 X146.733 Y105.344 E66.99418
G1 X146.18 Y109.069 E67.18158
G1 X145.755 Y112.839 E67.37039
G1 X145.659 Y113.336 E67.39558
G1 X145.486 Y113.811 E67.42074
G1 X145.24 Y114.253 E67.44591
G1 X144.928 Y114.65 E67.47104
G1 X144.557 Y114.994 E67.49622
G1 X144.136 Y115.274 E67.52138
G1 X143.677 Y115.485 E67.54652
G1 X143.19 Y115.621 E67.57168
G1 X142.575 Y115.681 E67.60243
G1 X45.258 Y115.69 E72.44546
G1 X44.754 Y115.65 E72.47062
G1 X44.263 Y115.531 E72.49576
G1 X43.796 Y115.337 E72.52093
G1 X43.366 Y115.071 E72.54609
G1 X42.983 Y114.741 E72.57125
G1 X42.657 Y114.354 E72.59643
G1 X42.396 Y113.922 E72.62155
G1 X42.2 Y113.433 E72.64777
G1 X41.408 Y110.865 E72.78151
G1 X39.05 Y104.336 E73.12697
G1 X38.917 Y103.849 E73.15209
G1 X38.86 Y103.249 E73.18208
G1 X38.86 Y101.764 E73.25598
G1 X38.87 Y101.506 E73.26883
G1 X39.042 Y99.381 E73.37493
G1 X39.277 Y93.901 E73.6479
G1 X39.2 Y88.403 E73.92153
G1 X38.856 Y82.894 E74.19623
G1 X38.851 Y82.626 E74.20957
G1 X38.872 Y81.656 E74.25785
G1 X38.923 Y81.153 E74.28301
G1 X39.084 Y80.576 E74.31282
G1 X40.039 Y78.094 E74.44517
G1 X42.221 Y71.504 E74.79063
G1 X42.418 Y71.038 E74.81581
G1 X42.685 Y70.609 E74.84096
G1 X43.016 Y70.227 E74.86611
G1 X43.404 Y69.903 E74.89127
G1 X43.838 Y69.643 E74.91644
G0 F2400 X42.367 Y81.719
;TYPE:SUPPORT
G1 F1050 X44.351 Y81.719 E75.01518
G1 X44.351 Y83.291 E75.09341
G1 X42.367 Y83.291 E75.19214
G1 X42.249 Y83.173 E75.20045
G1 X42.249 Y81.837 E75.26694
G1 X42.367 Y81.719 E75.27524
G0 F2400 X42.656 Y81.879
G1 F1050 X42.656 Y83.129 E75.33745
G0 F2400 X42.409 Y82.646
G1 F1050 X44.19 Y82.646 E75.42608
G0 F2400 X43.989 Y83.13
G1 F1050 X43.989 Y81.879 E75.48834
G0 F2400 X42.367 Y101.719
G1 F1050 X44.351 Y101.719 E75.58707
G1 X44.351 Y103.291 E75.6653
G1 X42.367 Y103.291 E75.76404
G1 X42.249 Y103.173 E75.77234
G1 X42.249 Y101.837 E75.83883
G1 X42.367 Y101.719 E75.84713
G0 F2400 X42.656 Y101.879
G1 F1050 X42.656 Y103.129 E75.90934
G0 F2400 X42.409 Y102.641
G1 F1050 X44.19 Y102.641 E75.99797
G0 F2400 X43.989 Y103.13
G1 F1050 X43.989 Y101.879 E76.06023
G1 F1500 E75.06023
G0 F2400 X44.585 Y101.879
G0 X45.867 Y101.879
G0 X46.246 Y111.504
;TYPE:WALL-INNER
G1 F1500 E76.06023
G1 F1050 X46.246 Y73.496 E77.95171
G1 X141.549 Y73.496 E82.69451
G1 X141.749 Y73.496 E82.70447
G1 X141.749 Y73.696 E82.71091
G1 X141.593 Y111.504 E84.59246
G1 X46.246 Y111.504 E89.33745
G0 F2400 X45.847 Y111.903
G1 F1050 X45.847 Y73.097 E91.26865
G1 X141.95 Y73.097 E96.05126
G1 X142.15 Y73.097 E96.06121
G1 X142.15 Y73.297 E96.06766
G1 X141.99 Y111.903 E97.98892
G1 X45.847 Y111.903 E102.77352
G0 F2400 X45.917 Y111.833
G0 X142.08 Y73.167
G0 X142.55 Y72.699
;TYPE:WALL-OUTER
G1 F1050 X142.55 Y72.899 E102.78348
G1 X142.386 Y112.301 E104.74435
G1 X45.449 Y112.301 E109.56847
G1 X45.449 Y72.699 E111.53928
G1 X142.35 Y72.699 E116.36161
G1 X142.55 Y72.699 E116.36805
G0 F2400 X142.55 Y72.899
G0 X142.08 Y73.167
G0 X141.566 Y73.853
;TYPE:SKIN
G1 F1050 X141.388 Y73.676 E116.38054
G0 F2400 X140.824 Y73.676
G1 F1050 X141.564 Y74.415 E116.43259
G1 X141.634 Y74.485
G0 F2400 X141.562 Y74.978
G1 F1050 X140.26 Y73.676 E116.52422
G1 X140.19 Y73.606
G0 F2400 X139.696 Y73.676
G1 F1050 X141.559 Y75.54 E116.65537
G1 X141.628 Y75.61
G0 F2400 X141.557 Y76.101
G1 F1050 X139.131 Y73.676 E116.82608
G1 X139.061 Y73.607
G0 F2400 X138.567 Y73.676
G1 F1050 X141.554 Y76.663 E117.0363
G1 X141.624 Y76.733
G0 F2400 X141.552 Y77.225
G1 F1050 X138.003 Y73.676 E117.28607
G1 X137.933 Y73.606
G0 F2400 X137.438 Y73.676
G1 F1050 X141.55 Y77.788 E117.57547
G1 X141.62 Y77.858
G0 F2400 X141.547 Y78.349
G1 F1050 X136.874 Y73.676 E117.90435
G1 X136.804 Y73.606
G0 F2400 X136.31 Y73.676
G1 F1050 X141.545 Y78.911 E118.27279
G1 X141.615 Y78.981
G0 F2400 X141.543 Y79.473
G1 F1050 X135.746 Y73.676 E118.68077
G1 X135.676 Y73.606
G0 F2400 X135.181 Y73.676
G1 F1050 X141.541 Y80.036 E119.12839
G1 X141.611 Y80.106
G0 F2400 X141.538 Y80.597
G1 F1050 X134.617 Y73.676 E119.61548
G1 X134.547 Y73.606
G0 F2400 X134.053 Y73.676
G1 F1050 X141.536 Y81.159 E120.14212
G1 X141.606 Y81.229
G0 F2400 X141.534 Y81.721
G1 F1050 X133.489 Y73.676 E120.70832
G1 X133.419 Y73.606
G0 F2400 X132.924 Y73.676
G1 F1050 X141.532 Y82.283 E121.31411
G1 X141.602 Y82.353
G0 F2400 X141.529 Y82.845
G1 F1050 X132.36 Y73.676 E121.95942
G1 X132.29 Y73.606
G0 F2400 X131.796 Y73.676
G1 F1050 X141.527 Y83.407 E122.64427
G1 X141.597 Y83.477
G0 F2400 X141.525 Y83.969
G1 F1050 X131.231 Y73.676 E123.36872
G1 X131.161 Y73.606
G0 F2400 X130.667 Y73.676
G1 F1050 X141.523 Y84.531 E124.13272
G1 X141.593 Y84.601
G0 F2400 X141.52 Y85.093
G1 F1050 X130.103 Y73.676 E124.93624
G1 X130.033 Y73.606
G0 F2400 X129.539 Y73.676
G1 F1050 X141.518 Y85.655 E125.77931
G1 X141.588 Y85.725
G0 F2400 X141.516 Y86.217
G1 F1050 X128.974 Y73.676 E126.66197
G1 X128.904 Y73.606
G0 F2400 X128.41 Y73.676
G1 F1050 X141.513 Y86.779 E127.58414
G1 X141.583 Y86.849
G0 F2400 X141.511 Y87.341
G1 F1050 X127.846 Y73.676 E128.54587
G1 X127.776 Y73.606
G0 F2400 X127.282 Y73.676
G1 F1050 X141.509 Y87.903 E129.54715
G1 X141.579 Y87.973
G0 F2400 X141.506 Y88.465
G1 F1050 X126.717 Y73.676 E130.58799
G1 X126.647 Y73.606
G0 F2400 X126.153 Y73.676
G1 F1050 X141.504 Y89.027 E131.66838
G1 X141.574 Y89.097
G0 F2400 X141.501 Y89.589
G1 F1050 X125.589 Y73.676 E132.78828
G1 X125.519 Y73.606
G0 F2400 X125.024 Y73.676
G1 F1050 X141.499 Y90.151 E133.94778
G1 X141.569 Y90.221
G0 F2400 X141.497 Y90.713
G1 F1050 X124.46 Y73.676 E135.14682
G1 X124.39 Y73.606
G0 F2400 X123.896 Y73.676
G1 F1050 X141.495 Y91.275 E136.38542
G1 X141.565 Y91.345
G0 F2400 X141.492 Y91.836
G1 F1050 X123.332 Y73.676 E137.66351
G1 X123.262 Y73.606
G0 F2400 X122.767 Y73.676
G1 F1050 X141.49 Y92.399 E138.98121
G1 X141.56 Y92.469
G0 F2400 X141.488 Y92.961
G1 F1050 X122.203 Y73.676 E140.33847
G1 X122.133 Y73.606
G0 F2400 X121.639 Y73.676
G1 F1050 X141.486 Y93.523 E141.73529
G1 X141.556 Y93.593
G0 F2400 X141.483 Y94.084
G1 F1050 X121.075 Y73.676 E143.17158
G1 X121.005 Y73.606
G0 F2400 X120.51 Y73.676
G1 F1050 X141.481 Y94.646 E144.64746
G1 X141.551 Y94.716
G0 F2400 X141.479 Y95.209
G1 F1050 X119.946 Y73.676 E146.16293
G1 X119.876 Y73.606
G0 F2400 X119.382 Y73.676
G1 F1050 X141.477 Y95.771 E147.71796
G1 X141.547 Y95.841
