;FLAVOR:Marlin
;TIME:9285
;Filament used: 7.63205m
;Layer height: 0.15
;Generated with Cura_SteamEngine 2.7.0
M190 S60
M104 S220
M109 S220
G21 ;metric values
G90 ;absolute positioning
M82 ;set extruder to absolute mode
M107 ;start with the fan off
G92 E0 ;zero the extruded length
G1 F200 E3 ;extrude 3mm of feed stock
G92 E0 ;zero the extruded length again
G1 F9000
M301 P31.36 I3.30 D74.51 ;set PID tuning for E0
M304 P72.25 I2.72 D479.41 ; set PID tuning for heated bed
M117 Printing...
;LAYER_COUNT:39
;LAYER:0
M107
M205 X20 Y20
G0 F2400 X40.37 Y66.898 Z0.3
;TYPE:SKIRT
G1 F1050 X40.921 Y66.616 E0.0308
G1 X41.504 Y66.408 E0.06161
G1 X42.109 Y66.276 E0.09242
G1 X42.823 Y66.223 E0.12805
G1 X140.313 Y66.214 E4.97969
G1 X140.93 Y66.254 E5.01046
G1 X141.538 Y66.373 E5.04129
G1 X142.125 Y66.569 E5.07209
G1 X142.682 Y66.84 E5.10292
G1 X143.199 Y67.18 E5.13371
G1 X143.699 Y67.613 E5.16663
G1 X148.223 Y72.122 E5.48449
G1 X148.383 Y72.289 E5.496
G1 X148.843 Y72.794 E5.53
G1 X149.229 Y73.278 E5.56081
G1 X149.55 Y73.807 E5.5916
G1 X149.8 Y74.374 E5.62244
G1 X149.975 Y74.968 E5.65326
G1 X150.072 Y75.579 E5.68404
G1 X150.093 Y76.022 E5.70611
G1 X150.104 Y110.99 E7.44631
G1 X150.064 Y111.608 E7.47713
G1 X149.945 Y112.216 E7.50796
G1 X149.749 Y112.803 E7.53876
G1 X149.479 Y113.36 E7.56957
G1 X149.139 Y113.878 E7.6004
G1 X148.735 Y114.347 E7.63121
G1 X148.275 Y114.76 E7.66197
G1 X147.764 Y115.111 E7.69282
G1 X147.213 Y115.393 E7.72363
G1 X146.72 Y115.575 E7.74978
G1 X144.16 Y116.364 E7.88309
G1 X137.691 Y118.701 E8.22539
G1 X137.096 Y118.873 E8.25621
G1 X136.484 Y118.967 E8.28703
G1 X136.061 Y118.986 E8.3081
G1 X134.578 Y118.986 E8.3819
G1 X134.191 Y118.97 E8.40118
G1 X132.114 Y118.802 E8.50488
G1 X126.674 Y118.57 E8.77585
G1 X121.264 Y118.645 E9.0451
G1 X115.805 Y118.987 E9.31731
G1 X115.44 Y118.996 E9.33548
G1 X114.494 Y118.983 E9.38256
G1 X113.877 Y118.934 E9.41336
G1 X113.463 Y118.856 E9.43433
G1 X109.53 Y117.932 E9.63538
G1 X106.872 Y117.398 E9.7703
G1 X104.291 Y116.956 E9.90062
G1 X98.911 Y116.267 E10.17054
G1 X93.521 Y115.883 E10.43946
G1 X89.422 Y115.796 E10.64349
G1 X42.64 Y115.746 E12.97162
G1 X42.022 Y115.705 E13.00244
G1 X41.415 Y115.586 E13.03323
G1 X40.828 Y115.388 E13.06406
G1 X40.271 Y115.117 E13.09488
G1 X39.754 Y114.777 E13.12568
G1 X39.285 Y114.373 E13.15648
G1 X38.872 Y113.911 E13.18732
G1 X38.522 Y113.401 E13.2181
G1 X38.142 Y112.601 E13.26218
G1 X36.956 Y109.365 E13.43369
G1 X35.065 Y104.807 E13.67927
G1 X34.865 Y104.221 E13.71009
G1 X34.743 Y103.615 E13.74085
G1 X34.699 Y102.954 E13.77382
G1 X34.704 Y101.457 E13.84832
G1 X34.721 Y101.066 E13.86779
G1 X34.909 Y98.862 E13.97787
G1 X35.156 Y93.453 E14.24734
G1 X35.096 Y88.051 E14.51619
G1 X34.784 Y83.028 E14.76664
G1 X34.775 Y82.68 E14.78396
G1 X34.788 Y81.427 E14.84632
G1 X34.835 Y80.81 E14.87712
G1 X34.96 Y80.204 E14.90791
G1 X35.065 Y79.871 E14.92529
G1 X35.925 Y77.452 E15.05305
G1 X37.547 Y72.209 E15.32617
G1 X38.187 Y69.792 E15.4506
G1 X38.383 Y69.205 E15.4814
G1 X38.654 Y68.648 E15.51222
G1 X38.994 Y68.131 E15.54302
G1 X39.398 Y67.662 E15.57382
G1 X39.859 Y67.248 E15.60466
G1 X40.37 Y66.898 E15.63548
G0 F2400 X40.705 Y67.166
G1 F1050 X41.243 Y66.916 E15.66501
G1 X41.809 Y66.741 E15.69449
G1 X42.394 Y66.643 E15.72401
G1 X42.823 Y66.622 E15.74538
G1 X140.313 Y66.613 E20.59702
G1 X140.904 Y66.653 E20.6265
G1 X141.485 Y66.772 E20.65601
G1 X142.044 Y66.968 E20.68549
G1 X142.572 Y67.238 E20.715
G1 X143.059 Y67.576 E20.7445
G1 X143.417 Y67.896 E20.7684
G1 X147.941 Y72.405 E21.08627
G1 X148.088 Y72.558 E21.09683
G1 X148.548 Y73.063 E21.13082
G1 X148.916 Y73.527 E21.16029
G1 X149.219 Y74.037 E21.18981
G1 X149.451 Y74.582 E21.21929
G1 X149.607 Y75.154 E21.2488
G1 X149.694 Y76.023 E21.29226
G1 X149.705 Y110.991 E23.03246
G1 X149.665 Y111.582 E23.06194
G1 X149.546 Y112.163 E23.09145
G1 X149.35 Y112.722 E23.12093
G1 X149.081 Y113.25 E23.15042
G1 X148.743 Y113.737 E23.17992
G1 X148.342 Y114.174 E23.20944
G1 X147.887 Y114.553 E23.23891
G1 X147.384 Y114.868 E23.26844
G1 X146.603 Y115.194 E23.31056
G1 X144.008 Y115.994 E23.4457
G1 X137.555 Y118.325 E23.78715
G1 X136.985 Y118.489 E23.81666
G1 X136.399 Y118.574 E23.84613
G1 X136.061 Y118.587 E23.86296
G1 X134.578 Y118.587 E23.93677
G1 X134.223 Y118.573 E23.95445
G1 X132.11 Y118.402 E24.05994
G1 X126.685 Y118.171 E24.33017
G1 X121.235 Y118.247 E24.60141
G1 X115.781 Y118.588 E24.87337
G1 X115.446 Y118.597 E24.89004
G1 X114.5 Y118.584 E24.93713
G1 X113.909 Y118.536 E24.96663
G1 X113.554 Y118.467 E24.98463
G1 X109.633 Y117.546 E25.18507
G1 X106.953 Y117.007 E25.32111
G1 X104.336 Y116.559 E25.45325
G1 X98.955 Y115.87 E25.72322
G1 X93.538 Y115.485 E25.99348
G1 X89.431 Y115.397 E26.19791
G1 X42.64 Y115.347 E28.52649
G1 X42.049 Y115.306 E28.55597
G1 X41.468 Y115.187 E28.58549
G1 X40.909 Y114.99 E28.61498
G1 X40.382 Y114.72 E28.64445
G1 X39.895 Y114.381 E28.67398
G1 X39.459 Y113.98 E28.70346
G1 X39.08 Y113.524 E28.73297
G1 X38.766 Y113.021 E28.76248
G1 X38.517 Y112.464 E28.79284
G1 X37.329 Y109.224 E28.96458
G1 X35.434 Y104.655 E29.21074
G1 X35.244 Y104.093 E29.24026
G1 X35.131 Y103.511 E29.26976
G1 X35.098 Y102.955 E29.29748
G1 X35.103 Y101.458 E29.37198
G1 X35.119 Y101.1 E29.38982
G1 X35.307 Y98.889 E29.50024
G1 X35.555 Y93.467 E29.77035
G1 X35.495 Y88.041 E30.0404
G1 X35.182 Y83.003 E30.2916
G1 X35.174 Y82.684 E30.30748
G1 X35.187 Y81.431 E30.36984
G1 X35.233 Y80.84 E30.39934
G1 X35.441 Y80.005 E30.44216
G1 X36.309 Y77.563 E30.57114
G1 X37.921 Y72.354 E30.8425
G1 X38.572 Y69.894 E30.96914
G1 X38.762 Y69.332 E30.99866
G1 X39.026 Y68.801 E31.02817
G1 X39.359 Y68.311 E31.05765
G1 X39.755 Y67.87 E31.08715
G1 X40.206 Y67.486 E31.11663
G1 X40.705 Y67.166 E31.14613
G0 F2400 X41.037 Y67.442
G1 F1050 X41.559 Y67.226 E31.17424
G1 X42.107 Y67.086 E31.20239
G1 X42.823 Y67.021 E31.23817
G1 X140.313 Y67.012 E36.0898
G1 X140.876 Y67.052 E36.11789
G1 X141.429 Y67.171 E36.14604
G1 X141.959 Y67.367 E36.17416
G1 X142.456 Y67.635 E36.20226
G1 X142.911 Y67.971 E36.23041
G1 X143.135 Y68.178 E36.24559
G1 X147.659 Y72.687 E36.56346
G1 X147.793 Y72.827 E36.5731
G1 X148.253 Y73.332 E36.6071
G1 X148.603 Y73.775 E36.63519
G1 X148.887 Y74.264 E36.66334
G1 X149.099 Y74.788 E36.69147
G1 X149.235 Y75.336 E36.71956
G1 X149.295 Y76.023 E36.75388
G1 X149.306 Y110.991 E38.49408
G1 X149.266 Y111.555 E38.52222
G1 X149.147 Y112.107 E38.55032
G1 X148.952 Y112.637 E38.57843
G1 X148.683 Y113.135 E38.60659
G1 X148.347 Y113.589 E38.6347
G1 X147.951 Y113.992 E38.66282
G1 X147.501 Y114.335 E38.69098
G1 X147.008 Y114.611 E38.7191
G1 X146.485 Y114.813 E38.747
G1 X143.881 Y115.616 E38.88261
G1 X137.419 Y117.95 E39.22453
G1 X136.876 Y118.104 E39.25261
G1 X136.061 Y118.188 E39.29339
G1 X134.578 Y118.188 E39.36719
G1 X134.255 Y118.175 E39.38328
G1 X132.133 Y118.003 E39.48923
G1 X126.696 Y117.771 E39.76005
G1 X121.225 Y117.848 E40.03234
G1 X115.756 Y118.19 E40.30504
G1 X115.451 Y118.198 E40.32022
G1 X114.505 Y118.185 E40.36731
G1 X113.942 Y118.137 E40.39543
G1 X113.646 Y118.079 E40.41044
G1 X109.72 Y117.157 E40.61113
G1 X107.021 Y116.614 E40.74814
G1 X104.408 Y116.167 E40.88007
G1 X98.981 Y115.471 E41.15236
G1 X93.555 Y115.086 E41.42306
G1 X89.44 Y114.998 E41.62789
G1 X42.641 Y114.948 E43.95687
G1 X42.077 Y114.907 E43.98501
G1 X41.525 Y114.788 E44.01311
G1 X40.995 Y114.591 E44.04125
G1 X40.498 Y114.322 E44.06938
G1 X40.044 Y113.986 E44.09748
G1 X39.641 Y113.589 E44.12564
G1 X39.299 Y113.139 E44.15376
G1 X39.024 Y112.645 E44.1819
G1 X38.891 Y112.326 E44.1991
G1 X37.701 Y109.081 E44.37111
G1 X35.802 Y104.502 E44.6178
G1 X35.623 Y103.966 E44.64592
G1 X35.521 Y103.41 E44.67406
G1 X35.497 Y102.957 E44.69663
G1 X35.502 Y101.46 E44.77113
G1 X35.516 Y101.134 E44.78737
G1 X35.705 Y98.915 E44.8982
G1 X35.954 Y93.463 E45.1698
G1 X35.894 Y88.011 E45.44114
G1 X35.581 Y82.978 E45.69209
G1 X35.573 Y82.689 E45.70648
G1 X35.586 Y81.436 E45.76884
G1 X35.632 Y80.872 E45.797
G1 X35.817 Y80.138 E45.83467
G1 X36.688 Y77.688 E45.96407
G1 X38.307 Y72.455 E46.23667
G1 X38.958 Y69.996 E46.36326
G1 X39.141 Y69.461 E46.3914
G1 X39.397 Y68.957 E46.41953
G1 X39.722 Y68.495 E46.44765
G1 X40.109 Y68.083 E46.47578
G1 X40.55 Y67.73 E46.50389
G1 X41.037 Y67.442 E46.53204
G0 F2400 X41.364 Y67.729
G1 F1050 X41.87 Y67.549 E46.55877
G1 X42.396 Y67.445 E46.58545
G1 X42.823 Y67.42 E46.60674
G1 X140.313 Y67.411 E51.45838
G1 X140.847 Y67.451 E51.48503
G1 X141.37 Y67.57 E51.51172
G1 X141.87 Y67.765 E51.53843
G1 X142.334 Y68.032 E51.56507
G1 X142.854 Y68.461 E51.59862
G1 X147.378 Y72.97 E51.91648
G1 X147.498 Y73.095 E51.92511
G1 X147.958 Y73.6 E51.9591
G1 X148.288 Y74.023 E51.9858
G1 X148.552 Y74.489 E52.01245
G1 X148.744 Y74.99 E52.03915
G1 X148.86 Y75.514 E52.06586
G1 X148.896 Y76.023 E52.09126
G1 X148.907 Y110.991 E53.83146
G1 X148.867 Y111.526 E53.85816
G1 X148.748 Y112.048 E53.8848
G1 X148.553 Y112.548 E53.91151
G1 X148.286 Y113.013 E53.93819
G1 X147.953 Y113.433 E53.96487
G1 X147.561 Y113.799 E53.99155
G1 X147.119 Y114.102 E54.01822
G1 X146.637 Y114.337 E54.04491
G1 X146.368 Y114.431 E54.05909
G1 X143.773 Y115.231 E54.19423
G1 X137.284 Y117.575 E54.53758
G1 X136.767 Y117.719 E54.56429
G1 X136.061 Y117.789 E54.5996
G1 X134.578 Y117.789 E54.6734
G1 X134.288 Y117.777 E54.68784
G1 X132.183 Y117.607 E54.79294
G1 X126.69 Y117.372 E55.06655
G1 X121.215 Y117.449 E55.33904
G1 X115.731 Y117.792 E55.61249
G1 X115.457 Y117.799 E55.62613
G1 X114.511 Y117.786 E55.67321
G1 X113.737 Y117.691 E55.71202
G1 X109.764 Y116.758 E55.91512
G1 X107.102 Y116.222 E56.05025
G1 X104.476 Y115.773 E56.18283
G1 X99.026 Y115.075 E56.45627
G1 X93.571 Y114.687 E56.72843
G1 X89.448 Y114.599 E56.93366
G1 X42.641 Y114.549 E59.26303
G1 X42.106 Y114.508 E59.28973
G1 X41.584 Y114.389 E59.31638
G1 X41.085 Y114.193 E59.34306
G1 X40.62 Y113.925 E59.36977
G1 X40.2 Y113.591 E59.39647
G1 X39.835 Y113.199 E59.42313
G1 X39.532 Y112.756 E59.44984
G1 X39.266 Y112.189 E59.481
G1 X38.071 Y108.931 E59.6537
G1 X36.171 Y104.349 E59.90056
G1 X36.003 Y103.84 E59.92723
G1 X35.912 Y103.311 E59.95394
G1 X35.896 Y102.958 E59.97153
G1 X35.901 Y101.461 E60.04603
G1 X35.914 Y101.168 E60.06062
G1 X36.103 Y98.942 E60.1718
G1 X36.353 Y93.477 E60.44405
G1 X36.293 Y88.002 E60.71653
G1 X35.979 Y82.953 E60.96829
G1 X35.972 Y82.693 E60.98123
G1 X35.985 Y81.44 E61.04359
G1 X36.031 Y80.905 E61.07031
G1 X36.193 Y80.272 E61.10283
G1 X37.064 Y77.821 E61.23228
G1 X38.693 Y72.556 E61.50655
G1 X39.344 Y70.098 E61.63309
G1 X39.519 Y69.591 E61.65978
G1 X39.768 Y69.116 E61.68647
G1 X40.085 Y68.684 E61.71313
G1 X40.462 Y68.303 E61.73981
G1 X40.892 Y67.982 E61.76651
G1 X41.364 Y67.729 E61.79316
G0 F2400 X41.686 Y68.028
G1 F1050 X42.172 Y67.886 E61.81836
G1 X42.823 Y67.819 E61.85093
G1 X140.313 Y67.81 E66.70257
G1 X140.817 Y67.85 E66.72773
G1 X141.308 Y67.969 E66.75287
G1 X141.775 Y68.163 E66.77803
G1 X142.205 Y68.429 E66.8032
G1 X142.572 Y68.744 E66.82727
G1 X147.096 Y73.253 E67.14513
G1 X147.203 Y73.364 E67.15281
G1 X147.663 Y73.869 E67.1868
G1 X147.973 Y74.269 E67.21199
G1 X148.216 Y74.712 E67.23713
G1 X148.386 Y75.188 E67.26228
G1 X148.479 Y75.685 E67.28745
G1 X148.497 Y76.023 E67.30429
G1 X148.508 Y110.991 E69.04449
G1 X148.468 Y111.495 E69.06965
G1 X148.35 Y111.986 E69.09478
G1 X148.155 Y112.453 E69.11997
G1 X147.889 Y112.883 E69.14513
G1 X147.559 Y113.266 E69.17029
G1 X147.173 Y113.592 E69.19543
G1 X146.74 Y113.854 E69.22062
G1 X146.25 Y114.05 E69.24688
G1 X143.646 Y114.853 E69.38249
G1 X137.148 Y117.2 E69.72632
G1 X136.661 Y117.333 E69.75144
G1 X136.061 Y117.39 E69.78143
G1 X134.578 Y117.39 E69.85524
G1 X134.32 Y117.38 E69.86809
G1 X132.18 Y117.207 E69.97493
G1 X126.702 Y116.973 E70.24779
G1 X121.205 Y117.05 E70.52138
G1 X115.706 Y117.394 E70.79558
G1 X115.462 Y117.4 E70.80772
G1 X114.516 Y117.387 E70.85481
G1 X113.828 Y117.302 E70.88931
G1 X109.873 Y116.373 E71.09148
G1 X107.176 Y115.831 E71.22839
G1 X104.524 Y115.377 E71.36228
G1 X99.068 Y114.678 E71.63602
G1 X93.588 Y114.288 E71.90943
G1 X89.458 Y114.2 E72.11501
G1 X42.642 Y114.15 E74.44483
G1 X42.138 Y114.11 E74.46999
G1 X41.646 Y113.99 E74.49519
G1 X41.18 Y113.795 E74.52033
G1 X40.75 Y113.529 E74.54549
G1 X40.368 Y113.198 E74.57065
G1 X40.042 Y112.811 E74.59583
G1 X39.781 Y112.378 E74.62099
G1 X39.641 Y112.052 E74.63865
G1 X38.449 Y108.801 E74.81097
G1 X36.539 Y104.196 E75.05907
G1 X36.383 Y103.715 E75.08423
G1 X36.304 Y103.216 E75.10937
G1 X36.295 Y102.959 E75.12217
G1 X36.3 Y101.462 E75.19667
G1 X36.312 Y101.202 E75.20962
G1 X36.5 Y98.994 E75.3199
G1 X36.752 Y93.473 E75.59494
G1 X36.692 Y87.993 E75.86767
G1 X36.377 Y82.929 E76.12017
G1 X36.371 Y82.697 E76.13172
G1 X36.384 Y81.444 E76.19408
G1 X36.429 Y80.94 E76.21926
G1 X36.569 Y80.405 E76.24679
G1 X37.443 Y77.946 E76.37666
G1 X39.08 Y72.657 E76.65219
G1 X39.73 Y70.2 E76.77867
G1 X39.897 Y69.723 E76.80382
G1 X40.138 Y69.278 E76.829
G1 X40.445 Y68.877 E76.85414
G1 X40.812 Y68.53 E76.87927
G1 X41.23 Y68.244 E76.90448
G1 X41.686 Y68.028 E76.92959
G0 F2400 X39.895 Y81.44
;TYPE:SUPPORT
G1 F1050 X41.875 Y81.449 E77.02812
G1 X41.869 Y83.018 E77.10621
G1 X39.886 Y83.01 E77.20489
G1 X39.767 Y82.89 E77.2133
G1 X39.772 Y81.561 E77.27944
G1 X39.895 Y81.44 E77.28803
G0 F2400 X39.99 Y81.601
G1 F1050 X39.99 Y82.848 E77.35008
G0 F2400 X39.927 Y82.646
G1 F1050 X41.709 Y82.646 E77.43877
G0 F2400 X41.323 Y82.855
G1 F1050 X41.323 Y81.607 E77.50087
G0 F2400 X39.811 Y101.44
G1 F1050 X41.793 Y101.449 E77.59951
G1 X41.787 Y103.018 E77.67759
G1 X39.802 Y103.01 E77.77638
G1 X39.684 Y102.891 E77.78472
G1 X39.689 Y101.56 E77.85096
G1 X39.811 Y101.44 E77.85947
G0 F2400 X39.99 Y101.601
G1 F1050 X39.99 Y102.849 E77.92158
G0 F2400 X39.845 Y102.641
G1 F1050 X41.627 Y102.641 E78.01026
G0 F2400 X41.323 Y102.855
G1 F1050 X41.323 Y101.607 E78.07237
G1 F1500 E77.07237
G0 F2400 X41.99 Y111.154
G0 X42.494 Y111.661
G0 X114.533 Y111.899
G1 F1500 E78.07237
G1 F1050 X116.103 Y111.899 E78.1505
G1 X116.103 Y113.883 E78.24924
G1 X115.985 Y114.001 E78.25754
G1 X114.651 Y114.001 E78.32393
G1 X114.533 Y113.883 E78.33223
G1 X114.533 Y111.899 E78.43097
G0 F2400 X114.694 Y113.305
G1 F1050 X115.943 Y113.305 E78.49312
G0 F2400 X134.533 Y113.883
G1 F1050 X134.533 Y111.899 E78.59186
G1 X136.103 Y111.899 E78.66999
G1 X136.103 Y113.883 E78.76873
G1 X135.985 Y114.001 E78.77703
G1 X134.651 Y114.001 E78.84342
G1 X134.533 Y113.883 E78.85172
G0 F2400 X134.694 Y113.305
G1 F1050 X135.943 Y113.305 E78.91388
G1 F1500 E77.91388
G0 F2400 X135.943 Y111.665
G0 X135.943 Y110.383
G0 X144.322 Y110.004
;TYPE:WALL-INNER
G1 F1500 E78.91388
G1 F1050 X43.853 Y110.004 E83.91377
G1 X43.653 Y110.004 E83.92372
G1 X43.653 Y109.804 E83.93016
G1 X43.809 Y71.996 E85.81171
G1 X139.906 Y71.996 E90.59403
G1 X144.322 Y76.412 E90.90482
G1 X144.322 Y110.004 E92.57654
G0 F2400 X136.188 Y83.544
G1 F1050 X136.582 Y83.354 E92.59831
G1 X136.935 Y83.105 E92.61981
G1 X137.244 Y82.794 E92.64163
G1 X137.489 Y82.436 E92.66322
G1 X137.672 Y82.041 E92.68488
G1 X137.782 Y81.616 E92.70673
G1 X137.818 Y81.182 E92.7284
G1 X137.775 Y80.751 E92.74995
G1 X137.662 Y80.331 E92.7716
G1 X137.472 Y79.936 E92.79341
G1 X137.223 Y79.583 E92.81491
G1 X136.912 Y79.274 E92.83673
G1 X136.554 Y79.029 E92.85832
G1 X136.159 Y78.846 E92.87998
G1 X135.735 Y78.736 E92.90178
G1 X135.298 Y78.7 E92.9236
G1 X134.869 Y78.743 E92.94506
G1 X134.449 Y78.856 E92.9667
G1 X134.054 Y79.046 E92.98852
G1 X133.701 Y79.296 E93.01004
G1 X133.394 Y79.606 E93.03175
G1 X133.146 Y79.965 E93.05347
G1 X132.965 Y80.36 E93.07509
G1 X132.854 Y80.783 E93.09686
G1 X132.818 Y81.218 E93.11858
G1 X132.861 Y81.65 E93.14018
G1 X132.975 Y82.069 E93.16179
G1 X133.162 Y82.464 E93.18354
G1 X133.414 Y82.817 E93.20513
G1 X133.724 Y83.126 E93.22691
G1 X134.082 Y83.371 E93.2485
G1 X134.477 Y83.554 E93.27016
G1 X134.902 Y83.664 E93.29201
G1 X135.336 Y83.7 E93.31368
G1 X135.768 Y83.657 E93.33529
G1 X136.188 Y83.544 E93.35693
G0 F2400 X117.782 Y81.616
G1 F1050 X117.818 Y81.182 E93.3786
G1 X117.775 Y80.751 E93.40016
G1 X117.662 Y80.331 E93.4218
G1 X117.472 Y79.936 E93.44362
G1 X117.223 Y79.583 E93.46511
G1 X116.912 Y79.274 E93.48693
G1 X116.554 Y79.029 E93.50852
G1 X116.159 Y78.846 E93.53018
G1 X115.735 Y78.736 E93.55198
