;FLAVOR:Marlin
;TIME:14944
;Filament used: 12.31m
;Layer height: 0.15
;Generated with Cura_SteamEngine 2.7.0
M190 S60
M104 S220
M109 S220
G21 ;metric values
G90 ;absolute positioning
M82 ;set extruder to absolute mode
M107 ;start with the fan off
G92 E0 ;zero the extruded length
G1 F200 E3 ;extrude 3mm of feed stock
G92 E0 ;zero the extruded length again
G1 F9000
M301 P31.36 I3.30 D74.51 ;set PID tuning for E0
M304 P72.25 I2.72 D479.41 ; set PID tuning for heated bed
M117 Printing...
;LAYER_COUNT:39
;LAYER:0
M107
M205 X20 Y20
G0 F2400 X39.616 Y16.641 Z0.3
;TYPE:SKIRT
G1 F1050 X40.081 Y16.232 E0.03082
G1 X40.595 Y15.887 E0.06163
G1 X41.149 Y15.611 E0.09243
G1 X41.734 Y15.408 E0.12324
G1 X42.34 Y15.283 E0.15404
G1 X43.007 Y15.236 E0.18731
G1 X50.065 Y15.236 E0.53856
G1 X50.683 Y15.276 E0.56938
G1 X51.29 Y15.395 E0.60016
G1 X51.877 Y15.592 E0.63097
G1 X52.434 Y15.862 E0.66178
G1 X52.952 Y16.202 E0.69261
G1 X53.456 Y16.641 E0.72588
G1 X170.125 Y133.303 E8.93668
G1 X170.534 Y133.768 E8.9675
G1 X170.879 Y134.282 E8.9983
G1 X171.155 Y134.836 E9.02911
G1 X171.358 Y135.421 E9.05992
G1 X171.483 Y136.027 E9.09071
G1 X171.53 Y136.644 E9.12151
G1 X171.496 Y137.262 E9.15231
G1 X171.383 Y137.871 E9.18313
G1 X171.193 Y138.46 E9.21393
G1 X170.928 Y139.02 E9.24477
G1 X170.594 Y139.541 E9.27556
G1 X170.36 Y139.833 E9.29419
G1 X168.724 Y141.723 E9.41859
G1 X164.788 Y146.707 E9.73463
G1 X164.355 Y147.186 E9.76677
G1 X162.421 Y149.053 E9.90054
G1 X162.255 Y149.206 E9.91178
G1 X159.31 Y151.792 E10.10682
G1 X155.447 Y155.551 E10.37506
G1 X149.123 Y162.426 E10.83993
G1 X148.531 Y162.969 E10.87991
G1 X145.178 Y165.568 E11.09103
G1 X141.556 Y168.628 E11.327
G1 X141.058 Y168.996 E11.35781
G1 X140.517 Y169.297 E11.38862
G1 X139.942 Y169.526 E11.41942
G1 X139.342 Y169.678 E11.45023
G1 X138.727 Y169.753 E11.48106
G1 X138.108 Y169.747 E11.51187
G1 X137.495 Y169.662 E11.54266
G1 X136.898 Y169.498 E11.57347
G1 X136.327 Y169.259 E11.60428
G1 X135.791 Y168.948 E11.63512
G1 X135.3 Y168.571 E11.66592
G1 X135.071 Y168.357 E11.68152
G1 X48.01 Y81.366 E17.80633
G1 X43.976 Y77.765 E18.07543
G1 X39.971 Y74.562 E18.33064
G1 X39.498 Y74.13 E18.36252
G1 X37.683 Y72.23 E18.49328
G1 X37.548 Y72.082 E18.50325
G1 X34.934 Y69.107 E18.70034
G1 X31.163 Y65.233 E18.96939
G1 X27.175 Y61.577 E19.23863
G1 X25.694 Y60.319 E19.33533
G1 X25.388 Y60.035 E19.35611
G1 X24.153 Y58.785 E19.44355
G1 X23.789 Y58.371 E19.47099
G1 X21.839 Y55.881 E19.62838
G1 X18.318 Y51.776 E19.89752
G1 X14.795 Y48.074 E20.15184
G1 X14.398 Y47.599 E20.18265
G1 X14.065 Y47.077 E20.21347
G1 X13.803 Y46.516 E20.24428
G1 X13.615 Y45.926 E20.27509
G1 X13.505 Y45.317 E20.30589
G1 X13.473 Y44.699 E20.33669
G1 X13.522 Y44.082 E20.36749
G1 X13.65 Y43.476 E20.39831
G1 X13.855 Y42.892 E20.42912
G1 X14.134 Y42.339 E20.45994
G1 X14.481 Y41.826 E20.49076
G1 X14.878 Y41.377 E20.52059
G1 X39.616 Y16.641 E22.26155
G0 F2400 X39.898 Y16.923
G1 F1050 X40.344 Y16.533 E22.29104
G1 X40.839 Y16.206 E22.32056
G1 X41.374 Y15.95 E22.35008
G1 X41.937 Y15.767 E22.37954
G1 X42.521 Y15.662 E22.40907
G1 X43.007 Y15.635 E22.43329
G1 X50.065 Y15.635 E22.78454
G1 X50.656 Y15.675 E22.81401
G1 X51.237 Y15.794 E22.84353
G1 X51.796 Y15.99 E22.87301
G1 X52.324 Y16.26 E22.90252
G1 X52.811 Y16.598 E22.93202
G1 X53.174 Y16.923 E22.95627
G1 X169.843 Y133.585 E31.16707
G1 X170.233 Y134.031 E31.19656
G1 X170.559 Y134.526 E31.22605
G1 X170.816 Y135.06 E31.25554
G1 X170.999 Y135.624 E31.28505
G1 X171.104 Y136.208 E31.31458
G1 X171.13 Y136.8 E31.34407
G1 X171.076 Y137.39 E31.37355
G1 X170.943 Y137.968 E31.40307
G1 X170.733 Y138.522 E31.43256
G1 X170.451 Y139.043 E31.46204
G1 X170.059 Y139.572 E31.4948
G1 X168.412 Y141.475 E31.62005
G1 X164.475 Y146.46 E31.93617
G1 X164.078 Y146.898 E31.96559
G1 X162.144 Y148.765 E32.09936
G1 X161.992 Y148.906 E32.10968
G1 X159.041 Y151.498 E32.30515
G1 X155.157 Y155.276 E32.57479
G1 X148.829 Y162.156 E33.03998
G1 X148.287 Y162.654 E33.07661
G1 X144.908 Y165.273 E33.28937
G1 X141.298 Y168.323 E33.52456
G1 X140.821 Y168.674 E33.55403
G1 X140.3 Y168.958 E33.58356
G1 X139.747 Y169.169 E33.61301
G1 X139.169 Y169.304 E33.64255
G1 X138.579 Y169.359 E33.67204
G1 X137.987 Y169.335 E33.70153
G1 X137.403 Y169.232 E33.73104
G1 X136.839 Y169.051 E33.76052
G1 X136.304 Y168.795 E33.79003
G1 X135.808 Y168.471 E33.81952
G1 X135.353 Y168.074 E33.84957
G1 X48.285 Y81.076 E39.97486
G1 X44.249 Y77.473 E40.24411
G1 X40.22 Y74.251 E40.50084
G1 X39.787 Y73.854 E40.53008
G1 X37.972 Y71.954 E40.66084
G1 X37.848 Y71.819 E40.66996
G1 X35.22 Y68.827 E40.86814
G1 X31.446 Y64.951 E41.13737
G1 X27.435 Y61.274 E41.40816
G1 X25.953 Y60.015 E41.50493
G1 X25.672 Y59.754 E41.52402
G1 X24.437 Y58.504 E41.61146
G1 X24.103 Y58.125 E41.6366
G1 X22.162 Y55.646 E41.79329
G1 X18.6 Y51.493 E42.06557
G1 X15.084 Y47.799 E42.31937
G1 X14.705 Y47.343 E42.34887
G1 X14.391 Y46.841 E42.37834
G1 X14.148 Y46.3 E42.40785
G1 X13.979 Y45.732 E42.43735
G1 X13.888 Y45.146 E42.46686
G1 X13.877 Y44.553 E42.49637
G1 X13.946 Y43.965 E42.52584
G1 X14.093 Y43.391 E42.55532
G1 X14.317 Y42.841 E42.58488
G1 X14.612 Y42.327 E42.61437
G1 X15.16 Y41.659 E42.65737
G1 X39.898 Y16.923 E44.39834
G0 F2400 X40.18 Y17.205
G1 F1050 X40.607 Y16.834 E44.42649
G1 X41.082 Y16.528 E44.4546
G1 X41.595 Y16.292 E44.48271
G1 X42.137 Y16.13 E44.51086
G1 X42.696 Y16.046 E44.53899
G1 X43.007 Y16.034 E44.55448
G1 X50.065 Y16.034 E44.90572
G1 X50.629 Y16.074 E44.93386
G1 X51.181 Y16.193 E44.96196
G1 X51.711 Y16.389 E44.99008
G1 X52.209 Y16.657 E45.01823
G1 X52.663 Y16.993 E45.04634
G1 X52.892 Y17.205 E45.06187
G1 X169.561 Y133.867 E53.27267
G1 X169.931 Y134.294 E53.30079
G1 X170.238 Y134.769 E53.32893
G1 X170.474 Y135.282 E53.35703
G1 X170.636 Y135.824 E53.38519
G1 X170.72 Y136.382 E53.41327
G1 X170.724 Y136.948 E53.44144
G1 X170.648 Y137.508 E53.46956
G1 X170.494 Y138.052 E53.4977
G1 X170.265 Y138.568 E53.52579
G1 X169.966 Y139.048 E53.55393
G1 X169.757 Y139.31 E53.57061
G1 X168.12 Y141.202 E53.69512
G1 X164.162 Y146.213 E54.0129
G1 X163.801 Y146.611 E54.03964
G1 X161.867 Y148.478 E54.17342
G1 X161.728 Y148.606 E54.18282
G1 X158.781 Y151.194 E54.37801
G1 X154.876 Y154.993 E54.64913
G1 X148.536 Y161.886 E55.1152
G1 X148.043 Y162.339 E55.14852
G1 X144.65 Y164.969 E55.36216
G1 X141.041 Y168.018 E55.59728
G1 X140.584 Y168.351 E55.62542
G1 X140.086 Y168.617 E55.65352
G1 X139.554 Y168.81 E55.68168
G1 X139.001 Y168.925 E55.70979
G1 X138.437 Y168.962 E55.73792
G1 X137.873 Y168.919 E55.76607
G1 X137.322 Y168.796 E55.79416
G1 X136.793 Y168.597 E55.82229
G1 X136.297 Y168.326 E55.85042
G1 X135.845 Y167.987 E55.87853
G1 X135.635 Y167.792 E55.8928
G1 X48.561 Y80.788 E62.01851
G1 X44.5 Y77.163 E62.28942
G1 X40.469 Y73.939 E62.54629
G1 X40.075 Y73.579 E62.57285
G1 X38.26 Y71.679 E62.70361
G1 X38.148 Y71.556 E62.71189
G1 X35.523 Y68.569 E62.90979
G1 X31.719 Y64.661 E63.18119
G1 X27.694 Y60.971 E63.45294
G1 X26.211 Y59.711 E63.54978
G1 X25.956 Y59.474 E63.5671
G1 X24.721 Y58.224 E63.65455
G1 X24.417 Y57.879 E63.67743
G1 X22.465 Y55.387 E63.83497
G1 X18.9 Y51.23 E64.1075
G1 X15.373 Y47.524 E64.3621
G1 X15.013 Y47.088 E64.39024
G1 X14.719 Y46.606 E64.41834
G1 X14.495 Y46.087 E64.44647
G1 X14.347 Y45.542 E64.47457
G1 X14.277 Y44.981 E64.50271
G1 X14.287 Y44.416 E64.53083
G1 X14.376 Y43.858 E64.55895
G1 X14.543 Y43.318 E64.58708
G1 X14.785 Y42.807 E64.61522
G1 X15.096 Y42.335 E64.64335
G1 X15.442 Y41.941 E64.66944
G1 X40.18 Y17.205 E66.41041
G0 F2400 X40.462 Y17.487
G1 F1050 X40.869 Y17.137 E66.43712
G1 X41.322 Y16.852 E66.46375
G1 X41.814 Y16.637 E66.49047
G1 X42.331 Y16.497 E66.51713
G1 X43.007 Y16.433 E66.55092
G1 X50.065 Y16.433 E66.90217
G1 X50.6 Y16.473 E66.92887
G1 X51.123 Y16.592 E66.95556
G1 X51.622 Y16.787 E66.98222
G1 X52.087 Y17.055 E67.00893
G1 X52.61 Y17.487 E67.04269
G1 X169.279 Y134.149 E75.25349
G1 X169.629 Y134.555 E75.28017
G1 X169.914 Y135.009 E75.30684
G1 X170.129 Y135.5 E75.33352
G1 X170.269 Y136.018 E75.36022
G1 X170.33 Y136.551 E75.38692
G1 X170.312 Y137.087 E75.41361
G1 X170.213 Y137.614 E75.44029
G1 X170.038 Y138.121 E75.46699
G1 X169.79 Y138.596 E75.49365
G1 X169.455 Y139.049 E75.52169
G1 X167.807 Y140.953 E75.64701
G1 X163.848 Y145.966 E75.9649
G1 X163.524 Y146.324 E75.98893
G1 X161.59 Y148.191 E76.1227
G1 X161.465 Y148.306 E76.13116
G1 X158.512 Y150.9 E76.32676
G1 X154.577 Y154.727 E76.59993
G1 X148.242 Y161.615 E77.06565
G1 X147.798 Y162.023 E77.09565
G1 X144.405 Y164.653 E77.3093
G1 X140.783 Y167.713 E77.54526
G1 X140.349 Y168.028 E77.57195
G1 X139.873 Y168.274 E77.59861
G1 X139.366 Y168.447 E77.62527
G1 X138.838 Y168.543 E77.65198
G1 X138.302 Y168.559 E77.67867
G1 X137.77 Y168.496 E77.70533
G1 X137.252 Y168.354 E77.73206
G1 X136.762 Y168.137 E77.75873
G1 X136.31 Y167.849 E77.7854
G1 X135.917 Y167.51 E77.81123
G1 X48.835 Y80.498 E83.93751
G1 X44.763 Y76.863 E84.20915
G1 X40.718 Y73.628 E84.46691
G1 X40.364 Y73.303 E84.49083
G1 X38.549 Y71.403 E84.62159
G1 X38.447 Y71.292 E84.62909
G1 X35.817 Y68.298 E84.82741
G1 X31.993 Y64.37 E85.10022
G1 X27.955 Y60.669 E85.37281
G1 X26.47 Y59.407 E85.4698
G1 X26.24 Y59.193 E85.48543
G1 X25.005 Y57.943 E85.57288
G1 X24.732 Y57.633 E85.59344
G1 X22.78 Y55.141 E85.75097
G1 X19.201 Y50.967 E86.0246
G1 X15.662 Y47.249 E86.28004
G1 X15.322 Y46.834 E86.30674
G1 X15.048 Y46.374 E86.33339
G1 X14.845 Y45.877 E86.3601
G1 X14.718 Y45.356 E86.38679
G1 X14.67 Y44.822 E86.41347
G1 X14.702 Y44.287 E86.44015
G1 X14.813 Y43.762 E86.46685
G1 X15.001 Y43.26 E86.49353
G1 X15.261 Y42.791 E86.52021
G1 X15.724 Y42.223 E86.55668
G1 X40.462 Y17.487 E88.29765
G0 F2400 X40.744 Y17.769
G1 F1050 X41.129 Y17.441 E88.32282
G1 X41.56 Y17.178 E88.34794
G1 X42.028 Y16.985 E88.37314
G1 X42.52 Y16.869 E88.39829
G1 X43.007 Y16.832 E88.4226
G1 X50.065 Y16.832 E88.77384
G1 X50.569 Y16.872 E88.799
G1 X51.06 Y16.991 E88.82415
G1 X51.527 Y17.185 E88.84931
G1 X51.957 Y17.451 E88.87448
G1 X52.328 Y17.769 E88.89879
G1 X168.997 Y134.431 E97.1096
G1 X169.325 Y134.816 E97.13477
G1 X169.588 Y135.247 E97.15989
G1 X169.781 Y135.715 E97.18509
G1 X169.897 Y136.207 E97.21024
G1 X169.934 Y136.711 E97.23539
G1 X169.891 Y137.215 E97.26056
G1 X169.77 Y137.706 E97.28573
G1 X169.573 Y138.171 E97.31086
G1 X169.154 Y138.788 E97.34798
G1 X167.486 Y140.715 E97.47481
G1 X163.535 Y145.718 E97.79207
G1 X163.247 Y146.037 E97.81345
G1 X161.313 Y147.904 E97.94723
G1 X161.202 Y148.006 E97.95473
G1 X158.232 Y150.614 E98.15143
G1 X154.296 Y154.444 E98.42474
G1 X147.948 Y161.345 E98.89137
G1 X147.554 Y161.708 E98.91803
G1 X144.161 Y164.338 E99.13167
G1 X140.526 Y167.409 E99.36849
G1 X140.115 Y167.703 E99.39363
G1 X139.663 Y167.93 E99.4188
G1 X139.181 Y168.082 E99.44396
G1 X138.681 Y168.156 E99.46911
G1 X138.175 Y168.151 E99.49429
G1 X137.677 Y168.066 E99.51943
G1 X137.198 Y167.904 E99.5446
G1 X136.751 Y167.669 E99.56973
G1 X136.199 Y167.228 E99.60489
G1 X49.101 Y80.2 E105.7323
G1 X45.024 Y76.561 E106.00426
G1 X40.967 Y73.316 E106.2628
G1 X40.652 Y73.027 E106.28407
G1 X38.837 Y71.127 E106.41483
G1 X38.747 Y71.029 E106.42146
G1 X36.102 Y68.018 E106.6209
G1 X32.276 Y64.088 E106.89386
G1 X28.228 Y60.377 E107.16715
G1 X26.728 Y59.103 E107.26509
G1 X26.524 Y58.913 E107.27896
G1 X25.289 Y57.663 E107.36641
G1 X25.046 Y57.387 E107.38471
G1 X23.084 Y54.881 E107.5431
G1 X19.501 Y50.704 E107.81697
G1 X15.951 Y46.974 E108.07323
G1 X15.632 Y46.581 E108.09842
G1 X15.38 Y46.144 E108.12352
G1 X15.199 Y45.671 E108.14872
G1 X15.095 Y45.177 E108.17385
G1 X15.07 Y44.672 E108.19901
G1 X15.126 Y44.169 E108.2242
G1 X15.259 Y43.681 E108.24937
G1 X15.468 Y43.221 E108.27451
G1 X15.746 Y42.799 E108.29966
G1 X16.006 Y42.505 E108.31919
G1 X40.744 Y17.769 E110.06016
G1 F1500 E109.06016
G0 F2400 X42.353 Y19.733
G0 X43.257 Y20.637
G0 X43.415 Y21.018
;TYPE:WALL-INNER
G1 F1500 E110.06016
G1 F1050 X49.662 Y21.018 E110.37104
G1 X165.338 Y136.694 E118.51221
G1 X138.462 Y163.57 E120.40371
G1 X19.802 Y44.91 E128.75488
G1 X19.662 Y44.77 E128.76474
G1 X19.802 Y44.63 E128.77109
G1 X43.415 Y21.018 E130.43291
G0 F2400 X45.734 Y28.36
G1 F1050 X45.327 Y28.511 E130.45452
G1 X44.947 Y28.733 E130.47642
G1 X44.618 Y29.016 E130.49802
G1 X44.342 Y29.348 E130.5195
G1 X44.125 Y29.728 E130.54128
G1 X43.978 Y30.138 E130.56295
G1 X43.906 Y30.569 E130.5847
G1 X43.908 Y31.003 E130.6063
G1 X43.987 Y31.432 E130.62801
G1 X44.138 Y31.839 E130.64961
G1 X44.36 Y32.219 E130.67151
G1 X44.643 Y32.548 E130.69311
G1 X44.975 Y32.824 E130.7146
G1 X45.355 Y33.041 E130.73637
G1 X45.765 Y33.188 E130.75805
G1 X46.196 Y33.26 E130.77979
G1 X46.63 Y33.258 E130.80139
G1 X47.059 Y33.179 E130.8231
G1 X47.466 Y33.028 E130.8447
G1 X47.846 Y32.806 E130.86661
G1 X48.174 Y32.523 E130.88817
G1 X48.452 Y32.192 E130.90968
G1 X48.667 Y31.812 E130.9314
G1 X48.816 Y31.4 E130.95321
G1 X48.887 Y30.97 E130.9749
G1 X48.885 Y30.538 E130.9964
G1 X48.807 Y30.107 E131.01819
G1 X48.654 Y29.697 E131.03997
G1 X48.433 Y29.32 E131.06172
G1 X48.15 Y28.992 E131.08328
G1 X47.82 Y28.715 E131.10472
G1 X47.438 Y28.498 E131.12658
G1 X47.027 Y28.351 E131.14831
G1 X46.597 Y28.279 E131.17
G1 X46.163 Y28.281 E131.1916
G1 X45.734 Y28.36 E131.21331
G0 F2400 X47.287 Y28.826
G0 X47.897 Y29.249
G0 X58.76 Y43.158
G1 F1050 X58.484 Y43.49 E131.23479
G1 X58.267 Y43.87 E131.25657
G1 X58.12 Y44.28 E131.27825
G1 X58.048 Y44.711 E131.29999
G1 X58.05 Y45.145 E131.32159
G1 X58.129 Y45.574 E131.3433
G1 X58.28 Y45.981 E131.3649
G1 X58.502 Y46.361 E131.38681
G1 X58.785 Y46.69 E131.4084
G1 X59.118 Y46.968 E131.42999
G1 X59.496 Y47.182 E131.45161
G1 X59.906 Y47.331 E131.47332
G1 X60.338 Y47.402 E131.4951
G1 X60.772 Y47.4 E131.5167
G1 X61.201 Y47.322 E131.5384
G1 X61.611 Y47.169 E131.56018
G1 X61.988 Y46.948 E131.58193
G1 X62.316 Y46.666 E131.60345
G1 X62.594 Y46.334 E131.625
G1 X62.81 Y45.953 E131.6468
G1 X62.958 Y45.542 E131.66854
G1 X63.029 Y45.112 E131.69023
G1 X63.027 Y44.68 E131.71173
G1 X62.949 Y44.249 E131.73352
G1 X62.796 Y43.839 E131.7553
G1 X62.575 Y43.462 E131.77705
G1 X62.292 Y43.134 E131.79861
G1 X61.962 Y42.857 E131.82005
G1 X61.58 Y42.64 E131.84191
G1 X61.17 Y42.493 E131.86359
G1 X60.74 Y42.421 E131.88529
G1 X60.305 Y42.423 E131.90693
G1 X59.877 Y42.502 E131.92859
G1 X59.469 Y42.653 E131.95024
G1 X59.089 Y42.875 E131.97215
G1 X58.76 Y43.158 E131.99374
G0 F2400 X58.408 Y44.74
G0 X58.477 Y45.478
G0 X58.796 Y46.151
G0 X59.324 Y46.67
G0 X77.234 Y62.164
G1 F1050 X69.544 Y69.854 E132.53496
G1 X69.404 Y69.994 E132.54481
G1 X69.544 Y70.134 E132.55116
G1 X74.638 Y75.226 E132.9096
G1 X75.9 Y76.187 E132.98854
G1 X77.142 Y76.889 E133.05954
G1 X78.858 Y77.303 E133.14739
G1 X80.883 Y76.782 E133.25145
G1 X82.614 Y75.61 E133.35548
G1 X83.828 Y73.843 E133.46217
G1 X84.333 Y72.105 E133.55224
G1 X84.274 Y70.283 E133.64296
G1 X83.033 Y67.961 E133.77398
G1 X77.234 Y62.164 E134.18204
G0 F2400 X90.355 Y75.285
G1 F1050 X82.665 Y82.974 E134.72322
G1 X82.525 Y83.114 E134.73307
G1 X82.665 Y83.254 E134.73942
G1 X87.758 Y88.347 E135.09786
G1 X89.02 Y89.307 E135.17677
G1 X90.263 Y90.01 E135.24784
G1 X91.98 Y90.423 E135.33572
G1 X94.004 Y89.903 E135.43972
G1 X95.736 Y88.73 E135.54382
G1 X96.948 Y86.965 E135.65037
G1 X97.454 Y85.226 E135.7405
G1 X97.395 Y83.404 E135.83122
G1 X96.153 Y81.082 E135.96227
G1 X90.355 Y75.285 E136.37029
G0 F2400 X90.355 Y75.849
G1 F1050 X83.229 Y82.974 E136.87178
G1 X83.089 Y83.114 E136.88163
G1 X83.229 Y83.254 E136.88798
G1 X88.021 Y88.046 E137.22524
G1 X89.24 Y88.973 E137.30145
G1 X90.411 Y89.635 E137.3684
G1 X91.977 Y90.012 E137.44856
G1 X93.838 Y89.534 E137.54417
G1 X95.45 Y88.442 E137.64107
G1 X96.583 Y86.792 E137.74068
G1 X97.053 Y85.176 E137.82443
G1 X96.999 Y83.51 E137.90738
G1 X95.829 Y81.322 E138.03086
G1 X90.355 Y75.849 E138.41608
G0 F2400 X90.355 Y75.749
G0 X83.553 Y73.712
G0 X83.463 Y73.67
G1 F1050 X83.932 Y72.055 E138.49977
G1 X83.878 Y70.389 E138.58273
G1 X82.709 Y68.201 E138.70618
G1 X77.234 Y62.728 E139.09143
G1 X70.108 Y69.854 E139.59295
G1 X69.968 Y69.994 E139.60281
G1 X70.108 Y70.134 E139.60916
G1 X74.901 Y74.925 E139.94642
G1 X76.12 Y75.853 E140.02266
G1 X77.29 Y76.514 E140.08953
G1 X78.855 Y76.892 E140.16966
G1 X80.717 Y76.413 E140.26534
G1 X82.328 Y75.322 E140.36216
G1 X83.463 Y73.67 E140.46191
