;FLAVOR:Marlin
;TIME:16184
;Filament used: 13.345m
;Layer height: 0.15
;Generated with Cura_SteamEngine 2.7.0
M190 S60
M104 S220
M109 S220
G21 ;metric values
G90 ;absolute positioning
M82 ;set extruder to absolute mode
M107 ;start with the fan off
G92 E0 ;zero the extruded length
G1 F200 E3 ;extrude 3mm of feed stock
G92 E0 ;zero the extruded length again
G1 F9000
M301 P31.36 I3.30 D74.51 ;set PID tuning for E0
M304 P72.25 I2.72 D479.41 ; set PID tuning for heated bed
M117 Printing...
;LAYER_COUNT:39
;LAYER:0
M107
M205 X20 Y20
G0 F2400 X38.654 Y32.8 Z0.3
;TYPE:SKIRT
G1 F1050 X40.537 Y30.638 E0.14268
G1 X40.81 Y30.35 E0.16243
G1 X41.468 Y29.71 E0.20811
G1 X41.939 Y29.308 E0.23892
G1 X42.366 Y29.023 E0.26447
G1 X44.099 Y27.996 E0.36472
G1 X48.654 Y25.062 E0.63436
G1 X53.016 Y21.891 E0.90274
G1 X57.636 Y18.1 E1.20015
G1 X58.139 Y17.739 E1.23096
G1 X58.684 Y17.445 E1.26178
G1 X59.262 Y17.225 E1.29255
G1 X59.864 Y17.081 E1.32336
G1 X60.48 Y17.015 E1.35419
G1 X61.099 Y17.03 E1.385
G1 X61.711 Y17.124 E1.41582
G1 X62.305 Y17.296 E1.44659
G1 X62.873 Y17.543 E1.47742
G1 X63.404 Y17.861 E1.50822
G1 X63.89 Y18.245 E1.53904
G1 X64.322 Y18.689 E1.56987
G1 X64.693 Y19.184 E1.60066
G1 X64.918 Y19.565 E1.62268
G1 X66.514 Y22.582 E1.79253
G1 X69.257 Y27.244 E2.06172
G1 X72.25 Y31.731 E2.33014
G1 X75.491 Y36.041 E2.5985
G1 X78.952 Y40.137 E2.86536
G1 X82.639 Y44.036 E3.13242
G1 X163.055 Y124.465 E8.79247
G1 X163.463 Y124.93 E8.82326
G1 X163.808 Y125.444 E8.85407
G1 X164.085 Y125.998 E8.88489
G1 X164.287 Y126.583 E8.91569
G1 X164.412 Y127.189 E8.94648
G1 X164.459 Y127.807 E8.97733
G1 X164.425 Y128.425 E9.00813
G1 X164.312 Y129.034 E9.03895
G1 X164.122 Y129.623 E9.06975
G1 X163.932 Y130.041 E9.0926
G1 X161.431 Y134.929 E9.36585
G1 X159.773 Y138.592 E9.56594
G1 X159.482 Y139.139 E9.59678
G1 X159.123 Y139.643 E9.62757
G1 X158.83 Y139.971 E9.64946
G1 X157.764 Y141.059 E9.72526
G1 X157.358 Y141.429 E9.7526
G1 X151.624 Y146.077 E10.11993
G1 X147.639 Y149.758 E10.3899
G1 X145.805 Y151.603 E10.51937
G1 X142.153 Y155.603 E10.78891
G1 X137.911 Y160.874 E11.12562
G1 X137.561 Y161.263 E11.15167
G1 X136.499 Y162.322 E11.2263
G1 X136.034 Y162.73 E11.25709
G1 X135.519 Y163.075 E11.28794
G1 X135.057 Y163.311 E11.31376
G1 X132.802 Y164.311 E11.43652
G1 X126.463 Y167.483 E11.78927
G1 X125.893 Y167.724 E11.82007
G1 X125.296 Y167.889 E11.85089
G1 X124.683 Y167.976 E11.8817
G1 X124.064 Y167.983 E11.91251
G1 X123.45 Y167.911 E11.94328
G1 X122.849 Y167.76 E11.97411
G1 X122.273 Y167.533 E12.00492
G1 X121.731 Y167.233 E12.03575
G1 X121.233 Y166.867 E12.06651
G1 X120.926 Y166.585 E12.08726
G1 X18.411 Y64.069 E19.3022
G1 X18.002 Y63.604 E19.33301
G1 X17.657 Y63.09 E19.36382
G1 X17.381 Y62.536 E19.39462
G1 X17.178 Y61.951 E19.42544
G1 X17.053 Y61.345 E19.45623
G1 X17.006 Y60.728 E19.48703
G1 X17.04 Y60.109 E19.51788
G1 X17.153 Y59.501 E19.54865
G1 X17.343 Y58.912 E19.57945
G1 X17.608 Y58.352 E19.61028
G1 X17.91 Y57.876 E19.63834
G1 X18.983 Y56.385 E19.72975
G1 X22.015 Y51.831 E20.00202
G1 X23.388 Y49.565 E20.13388
G1 X25.33 Y46.099 E20.33159
G1 X25.667 Y45.579 E20.36243
G1 X26.068 Y45.108 E20.39321
G1 X26.305 Y44.879 E20.40961
G1 X31.062 Y40.597 E20.72813
G1 X34.965 Y36.809 E20.9988
G1 X38.654 Y32.8 E21.26993
G0 F2400 X38.95 Y33.068
G1 F1050 X40.838 Y30.9 E21.413
G1 X41.088 Y30.636 E21.43109
G1 X41.746 Y29.996 E21.47677
G1 X42.198 Y29.612 E21.50629
G1 X42.57 Y29.366 E21.52848
G1 X44.297 Y28.342 E21.6284
G1 X48.884 Y25.389 E21.89989
G1 X53.257 Y22.209 E22.16897
G1 X57.889 Y18.408 E22.46716
G1 X58.371 Y18.064 E22.49663
G1 X58.896 Y17.787 E22.52617
G1 X59.452 Y17.584 E22.55562
G1 X60.032 Y17.458 E22.58516
G1 X60.622 Y17.41 E22.61462
G1 X61.214 Y17.443 E22.64413
G1 X61.796 Y17.555 E22.67362
G1 X62.358 Y17.744 E22.70313
G1 X62.889 Y18.007 E22.73262
G1 X63.381 Y18.339 E22.76215
G1 X63.823 Y18.734 E22.79166
G1 X64.207 Y19.184 E22.82109
G1 X64.565 Y19.751 E22.85447
G1 X66.164 Y22.775 E23.0247
G1 X68.923 Y27.463 E23.2954
G1 X71.922 Y31.959 E23.56436
G1 X75.167 Y36.274 E23.83304
G1 X78.665 Y40.414 E24.10277
G1 X82.366 Y44.328 E24.37084
G1 X162.772 Y124.747 E30.03019
G1 X163.162 Y125.194 E30.05972
G1 X163.489 Y125.688 E30.0892
G1 X163.745 Y126.223 E30.11871
G1 X163.928 Y126.787 E30.14822
G1 X164.033 Y127.37 E30.1777
G1 X164.059 Y127.962 E30.20719
G1 X164.004 Y128.552 E30.23668
G1 X163.871 Y129.13 E30.2662
G1 X163.577 Y129.859 E30.30531
G1 X161.077 Y134.744 E30.57841
G1 X159.41 Y138.428 E30.77964
G1 X159.13 Y138.95 E30.80912
G1 X158.782 Y139.43 E30.83862
G1 X158.545 Y139.692 E30.8562
G1 X157.479 Y140.78 E30.932
G1 X157.107 Y141.119 E30.95705
G1 X151.36 Y145.778 E31.32523
G1 X147.368 Y149.466 E31.5957
G1 X145.509 Y151.335 E31.72688
G1 X141.852 Y155.34 E31.99678
G1 X137.6 Y160.624 E32.33431
G1 X137.28 Y160.981 E32.35817
G1 X136.218 Y162.04 E32.43281
G1 X135.771 Y162.429 E32.4623
G1 X135.275 Y162.754 E32.49181
G1 X134.895 Y162.946 E32.51299
G1 X132.64 Y163.946 E32.63575
G1 X126.285 Y167.126 E32.9894
G1 X125.738 Y167.355 E33.01891
G1 X125.166 Y167.508 E33.04838
G1 X124.578 Y167.583 E33.07788
G1 X123.985 Y167.578 E33.10739
G1 X123.398 Y167.494 E33.1369
G1 X122.828 Y167.331 E33.1664
G1 X122.285 Y167.093 E33.19591
G1 X121.779 Y166.785 E33.22538
G1 X121.208 Y166.303 E33.26257
G1 X18.693 Y63.787 E40.47751
G1 X18.303 Y63.341 E40.507
G1 X17.977 Y62.846 E40.53649
G1 X17.72 Y62.312 E40.56598
G1 X17.537 Y61.748 E40.59549
G1 X17.432 Y61.164 E40.62502
G1 X17.406 Y60.572 E40.65451
G1 X17.46 Y59.982 E40.684
G1 X17.594 Y59.404 E40.71352
G1 X17.803 Y58.85 E40.74299
G1 X18.233 Y58.109 E40.78562
G1 X19.319 Y56.6 E40.87815
G1 X22.353 Y52.043 E41.15059
G1 X23.733 Y49.766 E41.2831
G1 X25.678 Y46.294 E41.48115
G1 X26.002 Y45.797 E41.51067
G1 X26.572 Y45.175 E41.55266
G1 X31.353 Y40.871 E41.87279
G1 X35.246 Y37.094 E42.14273
G1 X38.95 Y33.068 E42.41498
G0 F2400 X39.245 Y33.337
G1 F1050 X41.139 Y31.162 E42.55851
G1 X41.366 Y30.922 E42.57495
G1 X42.024 Y30.282 E42.62063
G1 X42.456 Y29.918 E42.64874
G1 X42.773 Y29.709 E42.66764
G1 X44.527 Y28.669 E42.76911
G1 X49.097 Y25.726 E43.03962
G1 X53.5 Y22.525 E43.31053
G1 X58.142 Y18.716 E43.60935
G1 X58.603 Y18.39 E43.63745
G1 X59.106 Y18.131 E43.66561
G1 X59.64 Y17.946 E43.69373
G1 X60.194 Y17.838 E43.72182
G1 X60.759 Y17.81 E43.74997
G1 X61.322 Y17.861 E43.77811
G1 X61.872 Y17.991 E43.80623
G1 X62.398 Y18.198 E43.83436
G1 X62.89 Y18.476 E43.86248
G1 X63.337 Y18.822 E43.89061
G1 X63.732 Y19.226 E43.91873
G1 X64.065 Y19.683 E43.94687
G1 X64.212 Y19.938 E43.96152
G1 X65.815 Y22.969 E44.13216
G1 X68.579 Y27.666 E44.40337
G1 X71.6 Y32.195 E44.6743
G1 X74.858 Y36.527 E44.94405
G1 X78.361 Y40.673 E45.21416
G1 X82.076 Y44.602 E45.48326
G1 X162.49 Y125.029 E51.14317
G1 X162.861 Y125.456 E51.17132
G1 X163.167 Y125.931 E51.19944
G1 X163.404 Y126.444 E51.22757
G1 X163.565 Y126.986 E51.2557
G1 X163.649 Y127.545 E51.28383
G1 X163.653 Y128.11 E51.31195
G1 X163.577 Y128.67 E51.34008
G1 X163.423 Y129.214 E51.36821
G1 X163.222 Y129.677 E51.39333
G1 X160.711 Y134.584 E51.66765
G1 X159.046 Y138.263 E51.86861
G1 X158.778 Y138.761 E51.89676
G1 X158.26 Y139.413 E51.9382
G1 X157.194 Y140.501 E52.014
G1 X156.855 Y140.809 E52.03679
G1 X151.094 Y145.479 E52.40586
G1 X147.108 Y149.161 E52.6759
G1 X145.214 Y151.067 E52.80962
G1 X141.56 Y155.068 E53.07927
G1 X137.29 Y160.374 E53.41822
G1 X136.998 Y160.698 E53.43992
G1 X135.936 Y161.757 E53.51456
G1 X135.509 Y162.127 E53.54268
G1 X135.033 Y162.433 E53.57084
G1 X134.733 Y162.581 E53.58748
G1 X132.469 Y163.585 E53.71074
G1 X126.106 Y166.769 E54.06483
G1 X125.584 Y166.986 E54.09296
G1 X125.037 Y167.127 E54.12107
G1 X124.475 Y167.189 E54.14921
G1 X123.91 Y167.171 E54.17734
G1 X123.353 Y167.074 E54.20548
G1 X122.816 Y166.899 E54.23358
G1 X122.308 Y166.651 E54.26172
G1 X121.841 Y166.333 E54.28983
G1 X121.49 Y166.021 E54.3132
G1 X18.975 Y63.505 E61.52814
G1 X18.605 Y63.078 E61.55626
G1 X18.298 Y62.603 E61.58441
G1 X18.062 Y62.09 E61.61251
G1 X17.9 Y61.548 E61.64066
G1 X17.816 Y60.989 E61.66879
G1 X17.812 Y60.424 E61.69691
G1 X17.888 Y59.864 E61.72503
G1 X18.042 Y59.32 E61.75317
G1 X18.271 Y58.804 E61.78126
G1 X18.557 Y58.342 E61.80831
G1 X19.644 Y56.832 E61.9009
G1 X22.695 Y52.249 E62.17489
G1 X24.073 Y49.975 E62.30721
G1 X26.026 Y46.489 E62.50607
G1 X26.337 Y46.016 E62.53424
G1 X26.839 Y45.472 E62.57107
G1 X31.615 Y41.172 E62.89089
G1 X35.536 Y37.368 E63.16276
G1 X39.245 Y33.337 E63.43537
G0 F2400 X39.54 Y33.606
G1 F1050 X41.44 Y31.424 E63.57935
G1 X41.645 Y31.208 E63.59417
G1 X42.303 Y30.568 E63.63985
G1 X42.714 Y30.224 E63.66652
G1 X42.977 Y30.052 E63.68216
G1 X44.726 Y29.015 E63.78335
G1 X49.335 Y26.047 E64.05617
G1 X53.743 Y22.843 E64.32736
G1 X58.395 Y19.025 E64.62685
G1 X58.834 Y18.717 E64.65354
G1 X59.313 Y18.477 E64.6802
G1 X59.823 Y18.311 E64.7069
G1 X60.352 Y18.223 E64.73358
G1 X60.888 Y18.214 E64.76026
G1 X61.42 Y18.285 E64.78697
G1 X61.935 Y18.435 E64.81367
G1 X62.422 Y18.659 E64.84034
G1 X62.87 Y18.953 E64.86701
G1 X63.27 Y19.31 E64.89369
G1 X63.612 Y19.723 E64.92038
G1 X63.859 Y20.124 E64.94381
G1 X65.466 Y23.162 E65.11485
G1 X68.245 Y27.885 E65.38756
G1 X71.272 Y32.423 E65.65903
G1 X74.542 Y36.771 E65.92977
G1 X78.065 Y40.941 E66.20144
G1 X81.786 Y44.876 E66.47096
G1 X162.208 Y125.311 E72.13143
G1 X162.558 Y125.718 E72.15815
G1 X162.843 Y126.172 E72.18483
G1 X163.058 Y126.663 E72.2115
G1 X163.198 Y127.18 E72.23816
G1 X163.259 Y127.713 E72.26485
G1 X163.24 Y128.249 E72.29154
G1 X163.142 Y128.776 E72.31822
G1 X162.867 Y129.496 E72.35658
G1 X160.353 Y134.409 E72.63122
G1 X158.683 Y138.099 E72.83279
G1 X158.426 Y138.57 E72.85949
G1 X157.975 Y139.134 E72.89543
G1 X156.909 Y140.222 E72.97123
G1 X156.604 Y140.499 E72.99174
G1 X150.83 Y145.179 E73.36162
G1 X146.824 Y148.881 E73.63307
G1 X144.941 Y150.774 E73.76594
G1 X141.245 Y154.823 E74.03877
G1 X136.979 Y160.123 E74.37735
G1 X136.716 Y160.415 E74.39691
G1 X135.654 Y161.474 E74.47155
G1 X135.247 Y161.824 E74.49826
G1 X134.571 Y162.216 E74.53715
G1 X132.307 Y163.22 E74.6604
G1 X125.928 Y166.412 E75.01538
G1 X125.432 Y166.616 E75.04207
G1 X124.911 Y166.744 E75.06877
G1 X124.377 Y166.793 E75.09546
G1 X123.842 Y166.761 E75.12213
G1 X123.317 Y166.651 E75.14882
G1 X122.814 Y166.464 E75.17553
G1 X122.345 Y166.205 E75.20219
G1 X121.772 Y165.739 E75.23895
G1 X19.257 Y63.223 E82.45388
G1 X18.907 Y62.817 E82.48056
G1 X18.622 Y62.363 E82.50724
G1 X18.407 Y61.871 E82.53396
G1 X18.267 Y61.354 E82.56061
G1 X18.206 Y60.821 E82.58731
G1 X18.225 Y60.285 E82.614
G1 X18.323 Y59.758 E82.64068
G1 X18.498 Y59.251 E82.66737
G1 X18.881 Y58.575 E82.70604
G1 X19.977 Y57.053 E82.79937
G1 X23.026 Y52.472 E83.07323
G1 X24.417 Y50.176 E83.20682
G1 X26.374 Y46.684 E83.40603
G1 X26.67 Y46.237 E83.43271
G1 X27.106 Y45.768 E83.46458
G1 X31.892 Y41.46 E83.78504
G1 X35.826 Y37.642 E84.05786
G1 X39.54 Y33.606 E84.33081
G0 F2400 X39.868 Y33.838
G1 F1050 X41.741 Y31.687 E84.47275
G1 X41.923 Y31.494 E84.48595
G1 X42.581 Y30.854 E84.53163
G1 X43.18 Y30.395 E84.56919
G1 X44.936 Y29.354 E84.67078
G1 X49.564 Y26.374 E84.94471
G1 X53.983 Y23.161 E85.21661
G1 X58.648 Y19.333 E85.51692
G1 X59.063 Y19.044 E85.54209
G1 X59.518 Y18.825 E85.56722
G1 X60.002 Y18.679 E85.59237
G1 X60.503 Y18.612 E85.61753
G1 X61.009 Y18.624 E85.64272
G1 X61.506 Y18.716 E85.66787
G1 X61.983 Y18.885 E85.69306
G1 X62.426 Y19.127 E85.71818
G1 X62.827 Y19.436 E85.74337
G1 X63.173 Y19.804 E85.76851
G1 X63.507 Y20.311 E85.79872
G1 X65.121 Y23.362 E85.97049
G1 X67.906 Y28.096 E86.24383
G1 X70.95 Y32.66 E86.51684
G1 X74.232 Y37.024 E86.78858
G1 X77.761 Y41.2 E87.06067
G1 X81.496 Y45.15 E87.33121
G1 X161.926 Y125.593 E92.99225
G1 X162.254 Y125.978 E93.01742
G1 X162.517 Y126.41 E93.04259
G1 X162.71 Y126.877 E93.06773
G1 X162.826 Y127.369 E93.09289
G1 X162.863 Y127.873 E93.11804
G1 X162.82 Y128.377 E93.14321
G1 X162.699 Y128.868 E93.16838
G1 X162.512 Y129.314 E93.19244
G1 X159.987 Y134.249 E93.46832
G1 X158.319 Y137.934 E93.66962
G1 X158.075 Y138.377 E93.69478
G1 X157.69 Y138.855 E93.72533
G1 X156.624 Y139.943 E93.80113
G1 X156.353 Y140.189 E93.81934
G1 X150.574 Y144.873 E94.18954
G1 X146.541 Y148.6 E94.46283
G1 X144.645 Y150.506 E94.59662
G1 X140.944 Y154.56 E94.86979
G1 X136.668 Y159.873 E95.20919
G1 X136.435 Y160.133 E95.22657
G1 X135.373 Y161.192 E95.30121
G1 X134.987 Y161.52 E95.32641
G1 X134.41 Y161.851 E95.35952
G1 X132.146 Y162.855 E95.48277
G1 X125.749 Y166.056 E95.83875
G1 X125.281 Y166.245 E95.86387
G1 X124.788 Y166.359 E95.88905
G1 X124.284 Y166.394 E95.91419
G1 X123.78 Y166.349 E95.93937
G1 X123.29 Y166.225 E95.96453
G1 X122.825 Y166.025 E95.98972
G1 X122.398 Y165.755 E96.01486
G1 X122.054 Y165.457 E96.03751
G1 X19.539 Y62.941 E103.25245
G1 X19.211 Y62.556 E103.27762
G1 X18.948 Y62.125 E103.30275
G1 X18.755 Y61.657 E103.32794
G1 X18.639 Y61.165 E103.35309
G1 X18.602 Y60.661 E103.37824
G1 X18.645 Y60.157 E103.40342
G1 X18.766 Y59.666 E103.42858
G1 X18.963 Y59.201 E103.45371
G1 X19.205 Y58.808 E103.47668
G1 X20.301 Y57.286 E103.57002
G1 X23.364 Y52.685 E103.84509
G1 X24.762 Y50.377 E103.97938
G1 X26.722 Y46.879 E104.17892
G1 X27.004 Y46.459 E104.2041
G1 X27.373 Y46.065 E104.23096
G1 X32.155 Y41.761 E104.55113
G1 X36.106 Y37.926 E104.82515
G1 X39.868 Y33.838 E105.10163
G0 F2400 X43.944 Y34.28
;TYPE:SUPPORT
G1 F1050 X44.889 Y33.338 E105.16803
G1 X45.048 Y33.338 E105.17594
G1 X46.451 Y34.74 E105.27465
G1 X45.347 Y35.845 E105.35238
G1 X43.944 Y34.439 E105.45123
G1 X43.944 Y34.28 E105.45914
G0 F2400 X44.389 Y34.658
G1 F1050 X46.142 Y34.658 E105.54638
G0 F2400 X45.322 Y33.839
G1 F1050 X45.322 Y35.592 E105.63362
G0 F2400 X30.808 Y47.578
G1 F1050 X32.211 Y48.98 E105.73233
G1 X31.107 Y50.085 E105.81006
G1 X29.704 Y48.679 E105.90891
G1 X29.704 Y48.52 E105.91682
G1 X30.649 Y47.578 E105.98322
G1 X30.808 Y47.578 E105.99113
G0 F2400 X30.659 Y47.793
G1 F1050 X30.659 Y49.408 E106.07151
G0 F2400 X30.57 Y49.321
G1 F1050 X31.642 Y49.321 E106.12485
G0 F2400 X30.991 Y47.988
G1 F1050 X30.464 Y47.988 E106.15108
G1 F1500 E105.15108
G0 F2400 X21.211 Y60.324
G0 X21.211 Y61.036
G0 X123.964 Y163.789
G0 X124.676 Y163.789
G0 X132.582 Y156.226
G1 F1500 E106.15108
G1 F1050 X133.985 Y157.63 E106.24986
G1 X133.985 Y157.791 E106.25787
G1 X133.04 Y158.733 E106.32427
G1 X132.881 Y158.733 E106.33219
G1 X131.477 Y157.33 E106.43096
G1 X132.582 Y156.226 E106.5087
G0 F2400 X131.967 Y157.067
G1 F1050 X131.967 Y157.592 E106.53482
G0 F2400 X131.741 Y157.294
G1 F1050 X133.423 Y157.294 E106.61853
G0 F2400 X133.3 Y157.172
G1 F1050 X133.3 Y158.249 E106.67213
G0 F2400 X154.094 Y137.52
G1 F1050 X152.69 Y136.117 E106.7709
G1 X153.804 Y135.004 E106.84927
G1 X155.198 Y136.402 E106.94752
G1 X155.198 Y136.573 E106.95603
G1 X154.251 Y137.52 E107.02268
G1 X154.094 Y137.52 E107.03049
G0 F2400 X154.099 Y137.299
G1 F1050 X154.244 Y137.299 E107.03771
G0 F2400 X154.628 Y136.914
G1 F1050 X154.628 Y136.058 E107.08031
G0 F2400 X154.537 Y135.966
G1 F1050 X153.069 Y135.966 E107.15336
G0 F2400 X153.295 Y135.739
G1 F1050 X153.295 Y136.495 E107.19099
G1 F1500 E106.19099
G0 F2400 X152.636 Y135.834
G0 X151.743 Y134.943
G0 X158.267 Y127.855
;TYPE:WALL-INNER
G1 F1500 E107.19099
G1 F1050 X124.46 Y161.663 E109.57032
G1 X124.32 Y161.803 E109.58018
G1 X124.18 Y161.663 E109.58653
G1 X66.364 Y103.847 E113.65556
G1 X66.308 Y103.791 E113.6595
G1 X66.027 Y103.51 E113.67928
G1 X65.732 Y103.215 E113.70004
G1 X65.428 Y102.911 E113.72144
G1 X65.121 Y102.604 E113.74304
G1 X64.821 Y102.304 E113.76416
G1 X64.541 Y102.024 E113.78386
G1 X64.466 Y101.949 E113.78914
G1 X23.197 Y60.68 E116.69361
G1 X59.344 Y24.533 E119.2376
G1 X59.684 Y24.193 E119.26153
G1 X59.684 Y24.673 E119.27438
G1 X59.684 Y24.674 E119.27443
G1 X59.684 Y29.272 E119.50325
G1 X98.411 Y67.999 E122.22882
G1 X98.467 Y68.055 E122.23276
G1 X98.746 Y68.334 E122.2524
G1 X99.043 Y68.631 E122.2733
G1 X99.351 Y68.939 E122.29498
G1 X99.656 Y69.244 E122.31644
G1 X99.956 Y69.544 E122.33756
G1 X100.236 Y69.824 E122.35726
G1 X100.31 Y69.898 E122.36247
G1 X158.267 Y127.855 E126.44143
G0 F2400 X92.939 Y108.826
G1 F1050 X93.01 Y108.399 E126.46297
G1 X93.008 Y107.966 E126.48452
G1 X92.931 Y107.538 E126.50616
G1 X92.779 Y107.127 E126.52797
G1 X92.557 Y106.748 E126.54983
