;FLAVOR:Marlin
;TIME:15992
;Filament used: 13.3244m
;Layer height: 0.15
;Generated with Cura_SteamEngine 2.7.0
M190 S60
M104 S220
M109 S220
G21 ;metric values
G90 ;absolute positioning
M82 ;set extruder to absolute mode
M107 ;start with the fan off
G92 E0 ;zero the extruded length
G1 F200 E3 ;extrude 3mm of feed stock
G92 E0 ;zero the extruded length again
G1 F9000
M301 P31.36 I3.30 D74.51 ;set PID tuning for E0
M304 P72.25 I2.72 D479.41 ; set PID tuning for heated bed
M117 Printing...
;LAYER_COUNT:39
;LAYER:0
M107
M205 X20 Y20
G0 F2400 X36.021 Y42.043 Z0.3
;TYPE:SKIRT
G1 F1050 X38.53 Y39.842 E0.1661
G1 X42.408 Y36.101 E0.43425
G1 X46.113 Y32.097 E0.70573
G1 X47.96 Y29.975 E0.84573
G1 X48.218 Y29.702 E0.86442
G1 X49.149 Y28.788 E0.92935
G1 X49.564 Y28.425 E0.95679
G1 X53.344 Y25.485 E1.1951
G1 X56.513 Y22.79 E1.40213
G1 X57.01 Y22.42 E1.43296
G1 X57.55 Y22.118 E1.46375
G1 X58.125 Y21.887 E1.49459
G1 X58.724 Y21.732 E1.52538
G1 X59.338 Y21.656 E1.55617
G1 X59.958 Y21.66 E1.58703
G1 X60.571 Y21.743 E1.61781
G1 X61.169 Y21.905 E1.64864
G1 X61.74 Y22.142 E1.67941
G1 X62.277 Y22.451 E1.71024
G1 X62.769 Y22.827 E1.74106
G1 X63.011 Y23.053 E1.75754
G1 X165.528 Y125.575 E8.97276
G1 X165.937 Y126.04 E9.00358
G1 X166.282 Y126.554 E9.03438
G1 X166.558 Y127.108 E9.06519
G1 X166.761 Y127.693 E9.096
G1 X166.886 Y128.299 E9.1268
G1 X166.933 Y128.917 E9.15764
G1 X166.899 Y129.535 E9.18844
G1 X166.786 Y130.143 E9.21922
G1 X166.596 Y130.732 E9.25002
G1 X166.405 Y131.153 E9.27302
G1 X163.916 Y136.011 E9.54467
G1 X162.232 Y139.733 E9.74797
G1 X161.941 Y140.28 E9.7788
G1 X161.582 Y140.784 E9.8096
G1 X161.251 Y141.15 E9.83416
G1 X160.18 Y142.219 E9.90946
G1 X159.804 Y142.557 E9.93462
G1 X154.411 Y146.909 E10.2795
G1 X150.446 Y150.538 E10.54699
G1 X146.687 Y154.395 E10.81501
G1 X143.148 Y158.463 E11.08335
G1 X140.25 Y162.122 E11.31563
G1 X139.894 Y162.523 E11.34232
G1 X139.488 Y162.932 E11.371
G1 X139.203 Y163.196 E11.39033
G1 X138.571 Y163.737 E11.43173
G1 X138.076 Y164.109 E11.46255
G1 X137.461 Y164.449 E11.49752
G1 X132.686 Y166.652 E11.75922
G1 X129.007 Y168.562 E11.96551
G1 X128.44 Y168.811 E11.99633
G1 X127.846 Y168.985 E12.02713
G1 X127.234 Y169.081 E12.05796
G1 X126.615 Y169.098 E12.08878
G1 X125.999 Y169.034 E12.1196
G1 X125.397 Y168.892 E12.15038
G1 X124.818 Y168.674 E12.18117
G1 X124.271 Y168.382 E12.21202
G1 X123.767 Y168.023 E12.24282
G1 X123.407 Y167.698 E12.26695
G1 X40.988 Y85.35 E18.06502
G1 X36.99 Y81.782 E18.3317
G1 X32.761 Y78.414 E18.60074
G1 X28.361 Y75.303 E18.86892
G1 X23.824 Y72.464 E19.13526
G1 X18.454 Y69.533 E19.43972
G1 X17.931 Y69.202 E19.47052
G1 X17.455 Y68.806 E19.50133
G1 X17.034 Y68.352 E19.53215
G1 X16.675 Y67.848 E19.56294
G1 X16.383 Y67.302 E19.59376
G1 X16.165 Y66.723 E19.62454
G1 X16.023 Y66.12 E19.65537
G1 X15.959 Y65.504 E19.68619
G1 X15.976 Y64.885 E19.71701
G1 X16.072 Y64.274 E19.74779
G1 X16.246 Y63.68 E19.77859
G1 X16.496 Y63.113 E19.80943
G1 X16.816 Y62.583 E19.84024
G1 X17.355 Y61.937 E19.88211
G1 X24.635 Y54.633 E20.39532
G1 X28.381 Y50.668 E20.66677
G1 X31.864 Y46.538 E20.93563
G1 X33.274 Y44.722 E21.05005
G1 X33.76 Y44.186 E21.08606
G1 X35.881 Y42.171 E21.23165
G1 X36.021 Y42.043 E21.24109
G0 F2400 X36.284 Y42.343
G1 F1050 X38.798 Y40.137 E21.40754
G1 X42.696 Y36.377 E21.67706
G1 X46.409 Y32.365 E21.94911
G1 X48.261 Y30.237 E22.0895
G1 X48.498 Y29.986 E22.10668
G1 X49.429 Y29.072 E22.1716
G1 X49.809 Y28.74 E22.19671
G1 X53.601 Y25.79 E22.43581
G1 X56.772 Y23.094 E22.64294
G1 X57.248 Y22.741 E22.67243
G1 X57.768 Y22.456 E22.70194
G1 X58.321 Y22.243 E22.73143
G1 X58.898 Y22.107 E22.76093
G1 X59.488 Y22.049 E22.79043
G1 X60.08 Y22.071 E22.81992
G1 X60.664 Y22.173 E22.84942
G1 X61.229 Y22.352 E22.87891
G1 X61.765 Y22.606 E22.90843
G1 X62.262 Y22.929 E22.93793
G1 X62.729 Y23.335 E22.96872
G1 X165.246 Y125.857 E30.18395
G1 X165.636 Y126.303 E30.21343
G1 X165.962 Y126.798 E30.24293
G1 X166.219 Y127.332 E30.27242
G1 X166.402 Y127.896 E30.30193
G1 X166.507 Y128.48 E30.33146
G1 X166.533 Y129.072 E30.36095
G1 X166.479 Y129.662 E30.39043
G1 X166.345 Y130.24 E30.41996
G1 X166.05 Y130.971 E30.45919
G1 X163.562 Y135.827 E30.73072
G1 X161.869 Y139.569 E30.93512
G1 X161.589 Y140.091 E30.96459
G1 X161.241 Y140.571 E30.9941
G1 X160.969 Y140.868 E31.01414
G1 X159.898 Y141.937 E31.08945
G1 X159.553 Y142.247 E31.11253
G1 X154.146 Y146.61 E31.45829
G1 X150.173 Y150.247 E31.72634
G1 X146.391 Y154.127 E31.99598
G1 X142.837 Y158.212 E32.26545
G1 X139.937 Y161.874 E32.49791
G1 X139.611 Y162.242 E32.52238
G1 X139.205 Y162.651 E32.55106
G1 X138.943 Y162.893 E32.56881
G1 X138.311 Y163.434 E32.61021
G1 X137.836 Y163.789 E32.63972
G1 X137.294 Y164.086 E32.67048
G1 X132.522 Y166.288 E32.93202
G1 X128.823 Y168.208 E33.13942
G1 X128.279 Y168.445 E33.16895
G1 X127.709 Y168.606 E33.19843
G1 X127.122 Y168.69 E33.22794
G1 X126.53 Y168.694 E33.2574
G1 X125.942 Y168.618 E33.28691
G1 X125.369 Y168.464 E33.31644
G1 X124.823 Y168.234 E33.34592
G1 X124.313 Y167.933 E33.37539
G1 X123.689 Y167.415 E33.41575
G1 X41.281 Y85.078 E39.21305
G1 X37.231 Y81.464 E39.48317
G1 X32.995 Y78.09 E39.75268
G1 X28.598 Y74.982 E40.02064
G1 X24.015 Y72.113 E40.28972
G1 X18.646 Y69.183 E40.59411
G1 X18.146 Y68.864 E40.62363
G1 X17.693 Y68.481 E40.65315
G1 X17.296 Y68.041 E40.68264
G1 X16.962 Y67.552 E40.71211
G1 X16.696 Y67.022 E40.74162
G1 X16.505 Y66.461 E40.77111
G1 X16.39 Y65.879 E40.80064
G1 X16.355 Y65.287 E40.83015
G1 X16.4 Y64.696 E40.85965
G1 X16.524 Y64.117 E40.88911
G1 X16.724 Y63.559 E40.91861
G1 X16.998 Y63.033 E40.94813
G1 X17.34 Y62.549 E40.97762
G1 X17.638 Y62.219 E40.99975
G1 X24.907 Y54.926 E41.51218
G1 X28.677 Y50.935 E41.7854
G1 X32.19 Y46.77 E42.05655
G1 X33.59 Y44.967 E42.17015
G1 X34.035 Y44.475 E42.20317
G1 X36.156 Y42.46 E42.34876
G1 X36.284 Y42.343 E42.35739
G0 F2400 X36.548 Y42.643
G1 F1050 X39.057 Y40.442 E42.52349
G1 X42.984 Y36.653 E42.79505
G1 X46.705 Y32.633 E43.06766
G1 X48.562 Y30.499 E43.20844
G1 X48.777 Y30.271 E43.22403
G1 X49.708 Y29.357 E43.28896
G1 X50.054 Y29.054 E43.31185
G1 X53.861 Y26.092 E43.55189
G1 X57.03 Y23.398 E43.75889
G1 X57.486 Y23.063 E43.78704
G1 X57.984 Y22.796 E43.81516
G1 X58.515 Y22.602 E43.8433
G1 X59.067 Y22.484 E43.87139
G1 X59.631 Y22.446 E43.89952
G1 X60.195 Y22.488 E43.92767
G1 X60.747 Y22.608 E43.95578
G1 X61.277 Y22.805 E43.98392
G1 X61.773 Y23.075 E44.01202
G1 X62.227 Y23.413 E44.04019
G1 X62.447 Y23.617 E44.05512
G1 X164.964 Y126.139 E51.27034
G1 X165.334 Y126.566 E51.29846
G1 X165.641 Y127.041 E51.3266
G1 X165.877 Y127.554 E51.35471
G1 X166.039 Y128.096 E51.38286
G1 X166.123 Y128.655 E51.41099
G1 X166.127 Y129.22 E51.43911
G1 X166.051 Y129.78 E51.46723
G1 X165.897 Y130.324 E51.49537
G1 X165.695 Y130.789 E51.5206
G1 X163.196 Y135.667 E51.79336
G1 X161.505 Y139.404 E51.99748
G1 X161.237 Y139.901 E52.02558
G1 X160.9 Y140.356 E52.05376
G1 X160.687 Y140.586 E52.06936
G1 X159.616 Y141.655 E52.14467
G1 X159.303 Y141.936 E52.1656
G1 X153.884 Y146.309 E52.51214
G1 X149.9 Y149.956 E52.78093
G1 X146.095 Y153.859 E53.05219
G1 X142.526 Y157.962 E53.32282
G1 X139.624 Y161.626 E53.55542
G1 X139.327 Y161.961 E53.5777
G1 X138.921 Y162.37 E53.60638
G1 X138.684 Y162.59 E53.62248
G1 X138.052 Y163.131 E53.66388
G1 X137.598 Y163.467 E53.69199
G1 X137.127 Y163.724 E53.71869
G1 X132.323 Y165.94 E53.98197
G1 X128.639 Y167.853 E54.18855
G1 X128.12 Y168.078 E54.2167
G1 X127.575 Y168.227 E54.24482
G1 X127.014 Y168.297 E54.27295
G1 X126.449 Y168.288 E54.30107
G1 X125.891 Y168.199 E54.3292
G1 X125.351 Y168.032 E54.35732
G1 X124.84 Y167.791 E54.38544
G1 X124.368 Y167.48 E54.41357
G1 X123.971 Y167.133 E54.43981
G1 X41.547 Y84.78 E60.23823
G1 X37.49 Y81.16 E60.50882
G1 X33.251 Y77.784 E60.7785
G1 X28.807 Y74.642 E61.04935
G1 X24.208 Y71.763 E61.31937
G1 X18.837 Y68.832 E61.62387
G1 X18.361 Y68.527 E61.65201
G1 X17.933 Y68.158 E61.68013
G1 X17.561 Y67.732 E61.70827
G1 X17.254 Y67.258 E61.73638
G1 X17.016 Y66.745 E61.76452
G1 X16.852 Y66.204 E61.79265
G1 X16.767 Y65.646 E61.82074
G1 X16.761 Y65.08 E61.84891
G1 X16.835 Y64.52 E61.87702
G1 X16.988 Y63.976 E61.90515
G1 X17.215 Y63.459 E61.93325
G1 X17.514 Y62.978 E61.96143
G1 X17.92 Y62.501 E61.9926
G1 X25.198 Y55.199 E62.50567
G1 X28.974 Y51.203 E62.77927
G1 X32.504 Y47.017 E63.05177
G1 X33.905 Y45.212 E63.16548
G1 X34.309 Y44.764 E63.1955
G1 X36.43 Y42.749 E63.34109
G1 X36.548 Y42.643 E63.34899
G0 F2400 X36.811 Y42.942
G1 F1050 X39.337 Y40.726 E63.51621
G1 X43.272 Y36.929 E63.78834
G1 X47.001 Y32.901 E64.06151
G1 X48.863 Y30.761 E64.20268
G1 X49.057 Y30.556 E64.21672
G1 X49.988 Y29.642 E64.28165
G1 X50.299 Y29.369 E64.30224
G1 X54.118 Y26.398 E64.54304
G1 X57.289 Y23.702 E64.75017
G1 X57.722 Y23.386 E64.77685
G1 X58.197 Y23.138 E64.80351
G1 X58.704 Y22.963 E64.8302
G1 X59.232 Y22.866 E64.85692
G1 X59.768 Y22.848 E64.88361
G1 X60.3 Y22.91 E64.91026
G1 X60.818 Y23.05 E64.93697
G1 X61.309 Y23.266 E64.96366
G1 X61.762 Y23.552 E64.99032
G1 X62.165 Y23.899 E65.01679
G1 X164.682 Y126.421 E72.23201
G1 X165.032 Y126.828 E72.25872
G1 X165.317 Y127.281 E72.28536
G1 X165.532 Y127.773 E72.31208
G1 X165.672 Y128.29 E72.33873
G1 X165.733 Y128.823 E72.36543
G1 X165.714 Y129.359 E72.39212
G1 X165.616 Y129.886 E72.4188
G1 X165.34 Y130.607 E72.45722
G1 X162.842 Y135.482 E72.72982
G1 X161.142 Y139.24 E72.93509
G1 X160.885 Y139.71 E72.96174
G1 X160.405 Y140.303 E72.99971
G1 X159.334 Y141.372 E73.07502
G1 X159.052 Y141.626 E73.0939
G1 X153.629 Y146.002 E73.44069
G1 X149.609 Y149.682 E73.71191
G1 X145.807 Y153.582 E73.98296
G1 X142.215 Y157.712 E74.25536
G1 X139.311 Y161.378 E74.4881
G1 X139.044 Y161.679 E74.50812
G1 X138.638 Y162.088 E74.5368
G1 X138.424 Y162.287 E74.55135
G1 X137.792 Y162.828 E74.59275
G1 X137.36 Y163.145 E74.61941
G1 X136.96 Y163.362 E74.64206
G1 X132.142 Y165.585 E74.90612
G1 X128.455 Y167.499 E75.11286
G1 X127.962 Y167.71 E75.13954
G1 X127.443 Y167.845 E75.16623
G1 X126.91 Y167.902 E75.19291
G1 X126.374 Y167.879 E75.21961
G1 X125.848 Y167.777 E75.24627
G1 X125.343 Y167.597 E75.27295
G1 X124.87 Y167.345 E75.29962
G1 X124.253 Y166.851 E75.33896
G1 X41.813 Y84.482 E81.13851
G1 X37.752 Y80.857 E81.40941
G1 X33.494 Y77.467 E81.68026
G1 X29.028 Y74.309 E81.95247
G1 X24.413 Y71.421 E82.2234
G1 X19.028 Y68.482 E82.5287
G1 X18.578 Y68.191 E82.55537
G1 X18.176 Y67.836 E82.58206
G1 X17.831 Y67.425 E82.60876
G1 X17.551 Y66.968 E82.63544
G1 X17.342 Y66.474 E82.66213
G1 X17.209 Y65.955 E82.68879
G1 X17.154 Y65.421 E82.71551
G1 X17.18 Y64.886 E82.74216
G1 X17.284 Y64.36 E82.76885
G1 X17.466 Y63.855 E82.79556
G1 X17.72 Y63.383 E82.82224
G1 X18.203 Y62.782 E82.86061
G1 X25.488 Y55.473 E83.37416
G1 X29.278 Y51.462 E83.64879
G1 X32.798 Y47.288 E83.92051
G1 X34.22 Y45.456 E84.03592
G1 X34.584 Y45.054 E84.06291
G1 X36.705 Y43.039 E84.2085
G1 X36.811 Y42.942 E84.21565
G0 F2400 X37.074 Y43.242
G1 F1050 X39.606 Y41.021 E84.38327
G1 X43.56 Y37.206 E84.6567
G1 X47.297 Y33.169 E84.93046
G1 X49.164 Y31.023 E85.07202
G1 X49.336 Y30.841 E85.08448
G1 X50.267 Y29.927 E85.14941
G1 X50.544 Y29.684 E85.16775
G1 X54.364 Y26.712 E85.40861
G1 X57.547 Y24.006 E85.61652
G1 X57.957 Y23.71 E85.64169
G1 X58.408 Y23.482 E85.66684
G1 X58.89 Y23.328 E85.69202
G1 X59.39 Y23.252 E85.71719
G1 X59.895 Y23.256 E85.74232
G1 X60.394 Y23.339 E85.76749
G1 X60.873 Y23.5 E85.79264
G1 X61.321 Y23.734 E85.81779
G1 X61.883 Y24.181 E85.85353
G1 X164.4 Y126.703 E93.06875
G1 X164.728 Y127.088 E93.09392
G1 X164.991 Y127.519 E93.11905
G1 X165.184 Y127.987 E93.14424
G1 X165.3 Y128.479 E93.1694
G1 X165.337 Y128.983 E93.19455
G1 X165.294 Y129.487 E93.21972
G1 X165.173 Y129.978 E93.24488
G1 X164.985 Y130.425 E93.26902
G1 X162.476 Y135.322 E93.54284
G1 X160.778 Y139.075 E93.74784
G1 X160.534 Y139.518 E93.77301
G1 X160.124 Y140.021 E93.8053
G1 X159.053 Y141.09 E93.88061
G1 X158.802 Y141.315 E93.89738
G1 X153.366 Y145.702 E94.24502
G1 X149.336 Y149.391 E94.51691
G1 X145.511 Y153.315 E94.78961
G1 X141.923 Y157.438 E95.06161
G1 X138.999 Y161.131 E95.29603
G1 X138.761 Y161.398 E95.31383
G1 X138.355 Y161.807 E95.34251
G1 X138.165 Y161.984 E95.35543
G1 X137.533 Y162.525 E95.39683
G1 X137.124 Y162.822 E95.42199
G1 X136.793 Y163 E95.44069
G1 X131.961 Y165.23 E95.70553
G1 X128.271 Y167.145 E95.91242
G1 X127.806 Y167.342 E95.93755
G1 X127.315 Y167.463 E95.96272
G1 X126.811 Y167.505 E95.98789
G1 X126.307 Y167.467 E96.01304
G1 X125.815 Y167.351 E96.0382
G1 X125.347 Y167.158 E96.06339
G1 X124.916 Y166.894 E96.08854
G1 X124.535 Y166.569 E96.11346
G1 X42.087 Y84.192 E101.91358
G1 X38.012 Y80.555 E102.18539
G1 X33.72 Y77.137 E102.45844
G1 X29.265 Y73.988 E102.72994
G1 X24.61 Y71.074 E103.00325
G1 X19.219 Y68.132 E103.30888
G1 X18.796 Y67.855 E103.33404
G1 X18.421 Y67.516 E103.3592
G1 X18.105 Y67.121 E103.38438
G1 X17.855 Y66.682 E103.40952
G1 X17.677 Y66.209 E103.43467
G1 X17.576 Y65.713 E103.45986
G1 X17.554 Y65.208 E103.48501
G1 X17.612 Y64.706 E103.51016
G1 X17.748 Y64.219 E103.53532
G1 X17.96 Y63.76 E103.56049
G1 X18.241 Y63.34 E103.58563
G1 X18.486 Y63.064 E103.604
G1 X25.761 Y55.766 E104.11682
G1 X29.574 Y51.73 E104.39313
G1 X33.112 Y47.535 E104.66623
G1 X34.535 Y45.701 E104.78175
G1 X34.859 Y45.343 E104.80578
G1 X36.98 Y43.328 E104.95137
G1 X37.074 Y43.242 E104.95771
G1 F1500 E103.95771
G0 F2400 X20.199 Y64.922
G0 X20.638 Y65.98
G0 X126.439 Y164.895
G0 X127.151 Y164.895
G0 X135.055 Y157.328
;TYPE:SUPPORT
G1 F1500 E104.95771
G1 F1050 X136.459 Y158.732 E105.05653
G1 X136.459 Y158.897 E105.06474
G1 X135.516 Y159.84 E105.13111
G1 X135.351 Y159.84 E105.13932
G1 X133.947 Y158.436 E105.23813
G1 X135.055 Y157.328 E105.31611
G0 F2400 X134.633 Y157.977
G1 F1050 X134.633 Y158.895 E105.36179
G0 F2400 X134.365 Y158.627
G1 F1050 X136.127 Y158.627 E105.44948
G0 F2400 X135.966 Y158.466
G1 F1050 X135.966 Y159.164 E105.48422
G0 F2400 X156.565 Y138.626
G1 F1050 X155.161 Y137.222 E105.58303
G1 X156.269 Y136.114 E105.66101
G1 X157.673 Y137.518 E105.75982
G1 X157.673 Y137.679 E105.76783
G1 X156.726 Y138.626 E105.83448
G1 X156.565 Y138.626 E105.84249
G0 F2400 X155.961 Y137.795
G1 F1050 X155.961 Y136.649 E105.89953
G0 F2400 X155.465 Y137.299
G1 F1050 X157.227 Y137.299 E105.98721
G0 F2400 X157.294 Y137.366
G1 F1050 X157.294 Y137.832 E106.0104
G1 F1500 E105.0104
G0 F2400 X155.757 Y136.294
G0 X154.851 Y135.389
G0 X160.742 Y128.962
;TYPE:WALL-INNER
G1 F1500 E106.0104
G1 F1050 X126.795 Y162.909 E108.39956
G1 X28.212 Y64.326 E115.33773
G1 X23.614 Y64.326 E115.56655
G1 X23.613 Y64.326 E115.5666
G1 X23.133 Y64.326 E115.59049
G1 X23.473 Y63.986 E115.60337
G1 X59.48 Y27.979 E118.1375
G1 X59.62 Y27.839 E118.14736
G1 X59.76 Y27.979 E118.15371
G1 X160.742 Y128.962 E125.26076
G0 F2400 X125.019 Y139.586
G1 F1050 X124.791 Y139.115 E125.2868
G1 X124.484 Y138.688 E125.31297
G1 X124.11 Y138.318 E125.33915
G1 X123.679 Y138.017 E125.36531
G1 X123.202 Y137.793 E125.39154
G1 X122.699 Y137.654 E125.41751
G1 X122.174 Y137.602 E125.44376
G1 X121.649 Y137.638 E125.46995
G1 X121.14 Y137.762 E125.49602
G1 X120.657 Y137.972 E125.52223
G1 X120.216 Y138.261 E125.54847
G1 X119.832 Y138.619 E125.5746
G1 X119.513 Y139.037 E125.60077
G1 X119.271 Y139.503 E125.6269
G1 X119.109 Y140.001 E125.65296
G1 X119.034 Y140.524 E125.67925
G1 X119.05 Y141.048 E125.70534
G1 X119.151 Y141.561 E125.73136
G1 X119.341 Y142.054 E125.75766
G1 X119.61 Y142.504 E125.78375
G1 X119.951 Y142.905 E125.80994
G1 X120.355 Y143.24 E125.83606
G1 X120.809 Y143.504 E125.8622
G1 X121.303 Y143.687 E125.88841
G1 X121.82 Y143.784 E125.91459
G1 X122.344 Y143.789 E125.94067
G1 X122.863 Y143.71 E125.9668
G1 X123.362 Y143.541 E125.99301
G1 X123.827 Y143.292 E126.01926
G1 X124.238 Y142.967 E126.04534
G1 X124.59 Y142.58 E126.07137
G1 X124.873 Y142.137 E126.09753
G1 X125.076 Y141.652 E126.1237
G1 X125.195 Y141.14 E126.14986
G1 X125.225 Y140.614 E126.17608
G1 X125.167 Y140.091 E126.20226
G1 X125.019 Y139.586 E126.22845
G0 F2400 X124.645 Y139.73
G1 F1050 X124.447 Y139.32 E126.25111
G1 X124.18 Y138.948 E126.2739
G1 X123.854 Y138.626 E126.2967
G1 X123.479 Y138.364 E126.31947
G1 X123.063 Y138.169 E126.34233
G1 X122.625 Y138.048 E126.36495
G1 X122.168 Y138.002 E126.3878
G1 X121.711 Y138.034 E126.4106
G1 X121.267 Y138.142 E126.43334
