;FLAVOR:Marlin
;TIME:10074
;Filament used: 7.91986m
;Layer height: 0.15
;Generated with Cura_SteamEngine 2.7.0
M190 S60
M104 S220
M109 S220
G21 ;metric values
G90 ;absolute positioning
M82 ;set extruder to absolute mode
M107 ;start with the fan off
G92 E0 ;zero the extruded length
G1 F200 E3 ;extrude 3mm of feed stock
G92 E0 ;zero the extruded length again
G1 F9000
M301 P31.36 I3.30 D74.51 ;set PID tuning for E0
M304 P72.25 I2.72 D479.41 ; set PID tuning for heated bed
M117 Printing...
;LAYER_COUNT:39
;LAYER:0
M107
M205 X20 Y20
G0 F2400 X41.525 Y80.155 Z0.3
;TYPE:SKIRT
G1 F1050 X42.189 Y79.82 E0.03701
G1 X48.74 Y77.135 E0.38935
G1 X53.557 Y74.793 E0.6559
G1 X58.261 Y72.168 E0.92398
G1 X62.804 Y69.285 E1.19174
G1 X68.186 Y65.379 E1.52269
G1 X68.709 Y65.048 E1.55349
G1 X69.271 Y64.788 E1.5843
G1 X69.861 Y64.602 E1.61509
G1 X70.471 Y64.494 E1.64592
G1 X71 Y64.464 E1.67229
G1 X88.972 Y64.454 E2.56667
G1 X94.417 Y64.3 E2.83775
G1 X99.829 Y63.84 E3.10806
G1 X102.183 Y63.545 E3.22612
G1 X102.746 Y63.508 E3.2542
G1 X104.5 Y63.496 E3.34149
G1 X104.762 Y63.501 E3.35453
G1 X112.503 Y63.871 E3.7402
G1 X117.894 Y63.803 E4.00851
G1 X122.444 Y63.518 E4.23539
G1 X122.708 Y63.509 E4.24853
G1 X124.498 Y63.496 E4.33762
G1 X124.992 Y63.518 E4.36222
G1 X132.206 Y64.211 E4.72289
G1 X137.65 Y64.444 E4.99406
G1 X144.006 Y64.464 E5.31037
G1 X144.624 Y64.506 E5.34119
G1 X145.231 Y64.627 E5.372
G1 X145.817 Y64.825 E5.40278
G1 X146.373 Y65.097 E5.43358
G1 X146.89 Y65.439 E5.46443
G1 X147.358 Y65.844 E5.49523
G1 X147.77 Y66.306 E5.52604
G1 X148.119 Y66.818 E5.55687
G1 X148.399 Y67.37 E5.58767
G1 X148.606 Y67.953 E5.61846
G1 X148.735 Y68.559 E5.6493
G1 X148.787 Y69.26 E5.68428
G1 X148.786 Y110.745 E7.7488
G1 X148.746 Y111.363 E7.77962
G1 X148.627 Y111.97 E7.8104
G1 X148.43 Y112.558 E7.84126
G1 X148.16 Y113.114 E7.87202
G1 X147.82 Y113.632 E7.90286
G1 X147.382 Y114.136 E7.93609
G1 X142.397 Y119.123 E8.287
G1 X141.932 Y119.531 E8.31778
G1 X141.418 Y119.877 E8.34862
G1 X140.864 Y120.153 E8.37942
G1 X140.279 Y120.356 E8.41023
G1 X139.673 Y120.481 E8.44103
G1 X139.009 Y120.528 E8.47415
G1 X119.711 Y120.546 E9.43453
G1 X119.499 Y120.541 E9.44508
G1 X112.403 Y120.233 E9.79855
G1 X106.968 Y120.309 E10.06905
G1 X103.127 Y120.533 E10.26053
G1 X102.847 Y120.541 E10.27447
G1 X44.008 Y120.536 E13.20262
G1 X43.39 Y120.496 E13.23344
G1 X42.782 Y120.377 E13.26427
G1 X42.195 Y120.18 E13.29508
G1 X41.638 Y119.91 E13.32589
G1 X41.121 Y119.57 E13.35668
G1 X40.652 Y119.166 E13.38749
G1 X40.238 Y118.705 E13.41832
G1 X39.888 Y118.195 E13.4491
G1 X39.606 Y117.644 E13.47991
G1 X39.425 Y117.153 E13.50595
G1 X38.645 Y114.623 E13.6377
G1 X36.299 Y108.128 E13.98137
G1 X36.127 Y107.534 E14.01214
G1 X36.033 Y106.922 E14.04296
G1 X36.014 Y106.446 E14.06666
G1 X36.092 Y99.352 E14.41972
G1 X36.016 Y95.088 E14.63196
G1 X36.045 Y94.47 E14.66274
G1 X36.153 Y93.86 E14.69357
G1 X36.281 Y93.428 E14.716
G1 X36.893 Y91.666 E14.80882
G1 X38.5 Y86.421 E15.08182
G1 X39.363 Y83.064 E15.25431
G1 X39.555 Y82.476 E15.2851
G1 X39.822 Y81.917 E15.31592
G1 X40.158 Y81.397 E15.34674
G1 X40.559 Y80.925 E15.37756
G1 X41.017 Y80.509 E15.40835
G1 X41.525 Y80.155 E15.43916
G0 F2400 X42.34 Y80.19
G1 F1050 X48.887 Y77.506 E15.79129
G1 X53.74 Y75.147 E16.05983
G1 X58.468 Y72.508 E16.32929
G1 X63.031 Y69.614 E16.59819
G1 X68.42 Y65.702 E16.92959
G1 X68.922 Y65.387 E16.95908
G1 X69.462 Y65.142 E16.98859
G1 X70.03 Y64.972 E17.0181
G1 X70.615 Y64.88 E17.04757
G1 X71.001 Y64.863 E17.06679
G1 X88.985 Y64.853 E17.96178
G1 X94.444 Y64.699 E18.23355
G1 X99.86 Y64.238 E18.50406
G1 X102.232 Y63.941 E18.62302
G1 X102.749 Y63.907 E18.64881
G1 X104.503 Y63.895 E18.7361
G1 X104.743 Y63.9 E18.74805
G1 X112.489 Y64.27 E19.13397
G1 X117.924 Y64.201 E19.40447
G1 X122.469 Y63.917 E19.63109
G1 X122.711 Y63.908 E19.64314
G1 X124.501 Y63.895 E19.73223
G1 X124.954 Y63.915 E19.75479
G1 X132.189 Y64.61 E20.1165
G1 X137.632 Y64.843 E20.38762
G1 X144.005 Y64.863 E20.70478
G1 X144.596 Y64.905 E20.73427
G1 X145.176 Y65.026 E20.76375
G1 X145.735 Y65.224 E20.79326
G1 X146.262 Y65.495 E20.82275
G1 X146.748 Y65.835 E20.85227
G1 X147.183 Y66.236 E20.88171
G1 X147.561 Y66.693 E20.91123
G1 X147.874 Y67.197 E20.94075
G1 X148.116 Y67.738 E20.97025
G1 X148.283 Y68.307 E20.99976
G1 X148.373 Y68.893 E21.02926
G1 X148.388 Y69.26 E21.04754
G1 X148.387 Y110.745 E23.11206
G1 X148.347 Y111.337 E23.14159
G1 X148.228 Y111.917 E23.17106
G1 X148.032 Y112.477 E23.20058
G1 X147.762 Y113.004 E23.23005
G1 X147.424 Y113.491 E23.25955
G1 X147.1 Y113.854 E23.28377
G1 X142.115 Y118.841 E23.63468
G1 X141.668 Y119.231 E23.6642
G1 X141.174 Y119.557 E23.69365
G1 X140.639 Y119.814 E23.72319
G1 X140.076 Y119.997 E23.75265
G1 X139.492 Y120.102 E23.78218
G1 X139.009 Y120.129 E23.80625
G1 X119.711 Y120.147 E24.76663
G1 X119.516 Y120.143 E24.77634
G1 X112.397 Y119.834 E25.13095
G1 X106.961 Y119.91 E25.4015
G1 X103.103 Y120.135 E25.59382
G1 X102.847 Y120.142 E25.60657
G1 X44.008 Y120.137 E28.53472
G1 X43.416 Y120.097 E28.56425
G1 X42.836 Y119.978 E28.59371
G1 X42.276 Y119.782 E28.62324
G1 X41.748 Y119.512 E28.65275
G1 X41.262 Y119.174 E28.68221
G1 X40.825 Y118.773 E28.71173
G1 X40.446 Y118.317 E28.74123
G1 X40.131 Y117.815 E28.77073
G1 X39.806 Y117.035 E28.81278
G1 X39.019 Y114.483 E28.94568
G1 X36.675 Y107.993 E29.28908
G1 X36.511 Y107.423 E29.3186
G1 X36.426 Y106.836 E29.34811
G1 X36.413 Y106.45 E29.36733
G1 X36.492 Y99.35 E29.72069
G1 X36.415 Y95.081 E29.93318
G1 X36.444 Y94.489 E29.96267
G1 X36.553 Y93.906 E29.99219
G1 X36.658 Y93.559 E30.01023
G1 X37.276 Y91.779 E30.104
G1 X38.88 Y86.545 E30.37643
G1 X39.749 Y83.164 E30.55015
G1 X39.935 Y82.601 E30.57966
G1 X40.195 Y82.068 E30.60917
G1 X40.524 Y81.575 E30.63867
G1 X40.917 Y81.131 E30.66818
G1 X41.366 Y80.744 E30.69768
G1 X41.862 Y80.42 E30.72716
G1 X42.34 Y80.19 E30.75356
G0 F2400 X42.492 Y80.559
G1 F1050 X49.048 Y77.872 E31.10616
G1 X53.938 Y75.495 E31.37674
G1 X58.664 Y72.857 E31.64609
G1 X63.251 Y69.947 E31.91643
G1 X68.654 Y66.025 E32.24868
G1 X69.134 Y65.726 E32.27683
G1 X69.651 Y65.497 E32.30497
G1 X70.195 Y65.344 E32.33309
G1 X71.001 Y65.262 E32.37341
G1 X88.996 Y65.252 E33.26894
G1 X94.453 Y65.098 E33.54061
G1 X99.921 Y64.633 E33.81371
G1 X102.282 Y64.337 E33.93213
G1 X102.752 Y64.306 E33.95557
G1 X104.506 Y64.294 E34.04286
G1 X104.724 Y64.299 E34.05371
G1 X112.476 Y64.67 E34.43994
G1 X117.934 Y64.6 E34.71158
G1 X122.494 Y64.315 E34.93895
G1 X122.714 Y64.307 E34.94991
G1 X124.504 Y64.294 E35.03899
G1 X124.915 Y64.312 E35.05946
G1 X132.17 Y65.009 E35.42218
G1 X137.614 Y65.242 E35.69335
G1 X144.003 Y65.262 E36.0113
G1 X144.567 Y65.304 E36.03945
G1 X145.119 Y65.424 E36.06756
G1 X145.649 Y65.622 E36.09571
G1 X146.145 Y65.892 E36.12382
G1 X146.599 Y66.229 E36.15196
G1 X147 Y66.627 E36.18007
G1 X147.341 Y67.078 E36.20821
G1 X147.615 Y67.572 E36.23632
G1 X147.817 Y68.1 E36.26446
G1 X147.942 Y68.651 E36.29257
G1 X147.989 Y69.26 E36.32297
G1 X147.988 Y110.745 E38.38749
G1 X147.948 Y111.309 E38.41563
G1 X147.829 Y111.861 E38.44373
G1 X147.633 Y112.392 E38.4719
G1 X147.365 Y112.889 E38.5
G1 X147.029 Y113.343 E38.52811
G1 X146.818 Y113.571 E38.54357
G1 X141.833 Y118.558 E38.89448
G1 X141.406 Y118.929 E38.92263
G1 X140.931 Y119.236 E38.95077
G1 X140.418 Y119.472 E38.97888
G1 X139.876 Y119.634 E39.00703
G1 X139.317 Y119.718 E39.03516
G1 X139.009 Y119.73 E39.0505
G1 X119.711 Y119.748 E40.01087
G1 X119.533 Y119.744 E40.01973
G1 X112.409 Y119.434 E40.3746
G1 X106.932 Y119.511 E40.64719
G1 X103.08 Y119.736 E40.83921
G1 X102.847 Y119.743 E40.85081
G1 X44.008 Y119.738 E43.77896
G1 X43.444 Y119.698 E43.8071
G1 X42.891 Y119.579 E43.83525
G1 X42.361 Y119.383 E43.86337
G1 X41.864 Y119.114 E43.8915
G1 X41.41 Y118.778 E43.91961
G1 X41.007 Y118.382 E43.94772
G1 X40.664 Y117.932 E43.97588
G1 X40.389 Y117.439 E44.00398
G1 X40.187 Y116.918 E44.03178
G1 X39.395 Y114.35 E44.16552
G1 X37.05 Y107.857 E44.50908
G1 X36.896 Y107.313 E44.53721
G1 X36.82 Y106.753 E44.56534
G1 X36.812 Y106.455 E44.58017
G1 X36.891 Y99.347 E44.93393
G1 X36.814 Y95.074 E45.14661
G1 X36.843 Y94.509 E45.17476
G1 X37.034 Y93.69 E45.21662
G1 X37.658 Y91.893 E45.31128
G1 X39.27 Y86.634 E45.58502
G1 X40.136 Y83.263 E45.75823
G1 X40.315 Y82.727 E45.78635
G1 X40.568 Y82.221 E45.8145
G1 X40.889 Y81.757 E45.84258
G1 X41.273 Y81.342 E45.87072
G1 X41.712 Y80.985 E45.89888
G1 X42.196 Y80.694 E45.92698
G1 X42.492 Y80.559 E45.94317
G0 F2400 X42.643 Y80.928
G1 F1050 X49.221 Y78.232 E46.29696
G1 X54.108 Y75.856 E46.56738
G1 X58.88 Y73.193 E46.83934
G1 X63.467 Y70.283 E47.10967
G1 X68.889 Y66.347 E47.4431
G1 X69.345 Y66.066 E47.46976
G1 X69.838 Y65.855 E47.49644
G1 X70.357 Y65.719 E47.52314
G1 X71.001 Y65.661 E47.55532
G1 X88.971 Y65.651 E48.44961
G1 X94.498 Y65.495 E48.72477
G1 X99.955 Y65.031 E48.99732
G1 X102.332 Y64.733 E49.11654
G1 X102.754 Y64.705 E49.13759
G1 X104.508 Y64.693 E49.22488
G1 X104.705 Y64.697 E49.23469
G1 X112.478 Y65.069 E49.62195
G1 X117.943 Y64.999 E49.89395
G1 X122.518 Y64.713 E50.12207
G1 X122.717 Y64.706 E50.13198
G1 X124.507 Y64.693 E50.22106
G1 X124.877 Y64.709 E50.23949
G1 X132.134 Y65.406 E50.6023
G1 X137.621 Y65.641 E50.87561
G1 X144.002 Y65.661 E51.19317
G1 X144.537 Y65.703 E51.21987
G1 X145.059 Y65.823 E51.24653
G1 X145.558 Y66.02 E51.27323
G1 X146.022 Y66.289 E51.29992
G1 X146.441 Y66.624 E51.32662
G1 X146.805 Y67.017 E51.35327
G1 X147.107 Y67.46 E51.37996
G1 X147.34 Y67.943 E51.40664
G1 X147.499 Y68.455 E51.43332
G1 X147.579 Y68.985 E51.46
G1 X147.59 Y69.26 E51.47369
G1 X147.589 Y110.745 E53.53821
G1 X147.549 Y111.28 E53.56491
G1 X147.43 Y111.803 E53.59161
G1 X147.235 Y112.302 E53.61827
G1 X146.967 Y112.767 E53.64498
G1 X146.535 Y113.289 E53.6787
G1 X141.55 Y118.276 E54.02961
G1 X141.144 Y118.626 E54.05628
G1 X140.69 Y118.912 E54.08299
G1 X140.199 Y119.127 E54.10966
G1 X139.681 Y119.267 E54.13636
G1 X139.008 Y119.331 E54.17001
G1 X119.71 Y119.349 E55.13038
G1 X119.551 Y119.346 E55.1383
G1 X112.403 Y119.035 E55.49436
G1 X106.926 Y119.112 E55.76695
G1 X103.057 Y119.338 E55.95982
G1 X102.847 Y119.344 E55.97027
G1 X44.008 Y119.339 E58.89843
G1 X43.473 Y119.299 E58.92512
G1 X42.95 Y119.18 E58.95182
G1 X42.451 Y118.985 E58.97848
G1 X41.986 Y118.717 E59.00519
G1 X41.566 Y118.384 E59.03186
G1 X41.2 Y117.992 E59.05855
G1 X40.897 Y117.55 E59.08522
G1 X40.663 Y117.067 E59.11193
G1 X40.569 Y116.8 E59.12602
G1 X39.782 Y114.248 E59.25892
G1 X37.425 Y107.722 E59.60422
G1 X37.281 Y107.205 E59.63093
G1 X37.211 Y106.459 E59.66822
G1 X37.29 Y99.344 E60.02232
G1 X37.213 Y95.066 E60.23525
G1 X37.243 Y94.531 E60.26192
G1 X37.411 Y93.821 E60.29823
G1 X38.041 Y92.007 E60.39379
G1 X39.648 Y86.764 E60.66669
G1 X40.522 Y83.362 E60.84149
G1 X40.694 Y82.854 E60.86818
G1 X40.939 Y82.377 E60.89487
G1 X41.253 Y81.942 E60.92157
G1 X41.627 Y81.559 E60.94821
G1 X42.055 Y81.235 E60.97492
G1 X42.643 Y80.928 E61.00793
G0 F2400 X42.794 Y81.297
G1 F1050 X49.387 Y78.594 E61.36254
G1 X54.306 Y76.204 E61.6347
G1 X59.076 Y73.541 E61.90657
G1 X63.687 Y70.616 E62.17832
G1 X69.123 Y66.67 E62.5126
G1 X69.554 Y66.407 E62.53773
G1 X70.022 Y66.214 E62.56292
G1 X70.514 Y66.098 E62.58808
G1 X71.001 Y66.06 E62.61239
G1 X88.982 Y66.05 E63.50722
G1 X94.509 Y65.894 E63.78238
G1 X100.011 Y65.426 E64.05718
G1 X102.381 Y65.129 E64.17605
G1 X102.757 Y65.104 E64.1948
G1 X104.511 Y65.092 E64.28209
G1 X104.686 Y65.096 E64.2908
G1 X112.464 Y65.468 E64.67832
G1 X117.953 Y65.398 E64.95151
G1 X122.543 Y65.111 E65.18038
G1 X122.72 Y65.105 E65.18919
G1 X124.51 Y65.092 E65.27827
G1 X124.839 Y65.107 E65.29466
G1 X132.098 Y65.804 E65.65757
G1 X137.602 Y66.04 E65.93173
G1 X144.001 Y66.06 E66.25018
G1 X144.505 Y66.102 E66.27535
G1 X144.996 Y66.222 E66.30051
G1 X145.462 Y66.418 E66.32566
G1 X145.891 Y66.685 E66.35081
G1 X146.273 Y67.017 E66.376
G1 X146.598 Y67.404 E66.40115
G1 X146.857 Y67.838 E66.4263
G1 X147.046 Y68.307 E66.45146
G1 X147.158 Y68.8 E66.47662
G1 X147.191 Y69.26 E66.49957
G1 X147.19 Y110.745 E68.56409
G1 X147.15 Y111.249 E68.58926
G1 X147.031 Y111.74 E68.6144
G1 X146.836 Y112.207 E68.63958
G1 X146.571 Y112.637 E68.66472
G1 X146.253 Y113.007 E68.689
G1 X141.268 Y117.994 E69.03991
G1 X140.884 Y118.322 E69.06504
G1 X140.452 Y118.586 E69.09024
G1 X139.985 Y118.778 E69.11536
G1 X139.493 Y118.895 E69.14053
G1 X139.008 Y118.932 E69.16474
G1 X119.71 Y118.95 E70.12511
G1 X119.568 Y118.947 E70.13218
G1 X112.415 Y118.636 E70.48849
G1 X106.92 Y118.713 E70.76198
G1 X103.034 Y118.94 E70.9557
G1 X102.847 Y118.945 E70.96501
G1 X44.008 Y118.94 E73.89316
G1 X43.504 Y118.9 E73.91832
G1 X43.012 Y118.781 E73.94351
G1 X42.546 Y118.586 E73.96865
G1 X42.116 Y118.321 E73.99378
G1 X41.733 Y117.99 E74.01898
G1 X41.407 Y117.604 E74.04412
G1 X41.146 Y117.171 E74.06928
G1 X40.95 Y116.683 E74.09545
G1 X40.158 Y114.115 E74.22919
G1 X37.8 Y107.586 E74.57465
G1 X37.667 Y107.099 E74.59977
G1 X37.61 Y106.464 E74.6315
G1 X37.689 Y99.341 E74.986
G1 X37.612 Y95.059 E75.19913
G1 X37.642 Y94.555 E75.22426
G1 X37.788 Y93.952 E75.25513
G1 X38.416 Y92.145 E75.35033
G1 X40.039 Y86.848 E75.62604
G1 X40.909 Y83.462 E75.80002
G1 X41.073 Y82.983 E75.82521
G1 X41.31 Y82.537 E75.85035
G1 X41.615 Y82.134 E75.8755
G1 X41.979 Y81.783 E75.90067
G1 X42.394 Y81.495 E75.9258
G1 X42.794 Y81.297 E75.94802
G0 F2400 X41.117 Y94.969
;TYPE:SUPPORT
G1 F1050 X43.101 Y94.969 E76.04675
G1 X43.101 Y96.541 E76.12498
G1 X41.117 Y96.541 E76.22372
G1 X40.999 Y96.423 E76.23202
G1 X40.999 Y95.087 E76.29851
G1 X41.117 Y94.969 E76.30681
G0 F2400 X41.323 Y95.129
G1 F1050 X41.323 Y96.379 E76.36902
G0 F2400 X41.159 Y95.976
G1 F1050 X42.94 Y95.976 E76.45765
G0 F2400 X42.656 Y96.38
G1 F1050 X42.656 Y95.129 E76.51991
G0 F2400 X41.117 Y104.969
G1 F1050 X43.101 Y104.969 E76.61864
G1 X43.101 Y106.541 E76.69687
G1 X41.117 Y106.541 E76.79561
G1 X40.999 Y106.423 E76.80391
G1 X40.999 Y105.087 E76.8704
G1 X41.117 Y104.969 E76.8787
G0 F2400 X41.323 Y105.129
G1 F1050 X41.323 Y106.379 E76.94091
G0 F2400 X41.16 Y105.307
G1 F1050 X42.94 Y105.307 E77.02949
G0 F2400 X42.656 Y105.129
G1 F1050 X42.656 Y106.38 E77.09175
G1 F1500 E76.09175
G0 F2400 X43.335 Y106.38
G0 X44.617 Y106.38
G0 X44.996 Y114.754
;TYPE:WALL-INNER
G1 F1500 E77.09175
G1 F1050 X44.996 Y85.246 E78.56023
G1 X51.412 Y85.246 E78.87953
G1 X56.412 Y80.246 E79.23142
G1 X61.412 Y80.246 E79.48025
G1 X71.412 Y70.246 E80.18404
G1 X143.004 Y70.246 E83.74685
G1 X143.004 Y110.338 E85.74205
G1 X138.588 Y114.754 E86.05284
G1 X119.412 Y114.754 E87.00714
G1 X116.245 Y111.587 E87.23003
G1 X116.154 Y111.496 E87.23644
G1 X115.881 Y111.223 E87.25565
G1 X115.593 Y110.935 E87.27592
G1 X115.969 Y111.134 E87.2798
G1 X116.377 Y111.274 E87.29235
G1 X116.505 Y111.294 E87.29815
G1 X116.803 Y111.341 E87.31316
G1 X117.232 Y111.339 E87.33451
G1 X117.654 Y111.264 E87.35584
G1 X118.06 Y111.123 E87.37723
G1 X118.434 Y110.917 E87.39848
G1 X118.772 Y110.651 E87.41988
G1 X119.06 Y110.334 E87.4412
G1 X119.294 Y109.972 E87.46265
G1 X119.461 Y109.578 E87.48394
G1 X119.565 Y109.163 E87.50524
G1 X119.598 Y108.735 E87.5266
G1 X119.561 Y108.305 E87.54808
G1 X119.452 Y107.891 E87.56938
G1 X119.278 Y107.5 E87.59068
G1 X119.041 Y107.141 E87.61209
G1 X118.747 Y106.826 E87.63353
G1 X118.407 Y106.565 E87.65486
G1 X118.031 Y106.366 E87.67603
G1 X117.623 Y106.226 E87.6975
G1 X117.197 Y106.159 E87.71896
G1 X116.768 Y106.161 E87.74031
G1 X116.346 Y106.236 E87.76164
G1 X115.94 Y106.377 E87.78303
G1 X115.566 Y106.583 E87.80428
G1 X115.228 Y106.849 E87.82568
G1 X114.94 Y107.166 E87.847
G1 X114.706 Y107.528 E87.86845
G1 X114.539 Y107.922 E87.88974
G1 X114.435 Y108.337 E87.91103
G1 X114.402 Y108.765 E87.9324
G1 X114.439 Y109.195 E87.95388
G1 X114.548 Y109.609 E87.97518
G1 X114.722 Y110 E87.99648
G1 X114.958 Y110.357 E88.01778
G1 X114.959 Y110.359 E88.01789
G1 X115.253 Y110.674 E88.03933
G1 X115.357 Y110.754 E88.04586
G1 X115.253 Y110.754
G1 X114.959 Y110.754 E88.04807
G1 X114.956 Y110.754 E88.04822
G1 X107.106 Y110.754 E88.43887
G1 X106.772 Y110.754 E88.4555
G1 X106.641 Y110.754 E88.46202
G1 X106.772 Y110.651
G1 X106.996 Y110.404 E88.47297
G1 X107.06 Y110.334 E88.47769
G1 X107.294 Y109.972 E88.49914
G1 X107.461 Y109.578 E88.52044
G1 X107.565 Y109.163 E88.54173
