;FLAVOR:Marlin
;TIME:1946
;Filament used: 1.22424m
;Layer height: 0.15
;Generated with Cura_SteamEngine 2.7.0
M190 S60
M104 S220
M109 S220
G21 ;metric values
G90 ;absolute positioning
M82 ;set extruder to absolute mode
M107 ;start with the fan off
G92 E0 ;zero the extruded length
G1 F200 E3 ;extrude 3mm of feed stock
G92 E0 ;zero the extruded length again
G1 F9000
M301 P31.36 I3.30 D74.51 ;set PID tuning for E0
M304 P72.25 I2.72 D479.41 ; set PID tuning for heated bed
M117 Printing...
;LAYER_COUNT:60
;LAYER:0
M107
M205 X20 Y20
G0 F2400 X62.185 Y56.403 Z0.3
;TYPE:SKIRT
G1 F1050 X62.645 Y55.99 E0.03076
G1 X63.156 Y55.639 E0.06162
G1 X63.707 Y55.357 E0.09242
G1 X64.29 Y55.149 E0.12322
G1 X64.895 Y55.017 E0.15404
G1 X65.611 Y54.963 E0.18977
G1 X119.389 Y54.964 E2.86606
G1 X120.007 Y55.004 E2.89688
G1 X120.614 Y55.123 E2.92766
G1 X121.201 Y55.32 E2.95848
G1 X121.758 Y55.59 E2.98928
G1 X122.276 Y55.93 E3.02012
G1 X122.745 Y56.334 E3.05092
G1 X123.158 Y56.795 E3.08172
G1 X123.509 Y57.305 E3.11254
G1 X123.791 Y57.856 E3.14334
G1 X124 Y58.439 E3.17416
G1 X124.131 Y59.044 E3.20497
G1 X124.185 Y59.76 E3.2407
G1 X124.183 Y79.259 E4.21108
G1 X124.151 Y79.812 E4.23864
G1 X123.776 Y83.037 E4.40022
G1 X123.394 Y88.428 E4.66918
G1 X123.317 Y93.825 E4.93779
G1 X123.544 Y99.193 E5.20517
G1 X124.16 Y105.266 E5.50894
G1 X124.184 Y105.75 E5.53306
G1 X124.185 Y125.241 E6.50304
G1 X124.145 Y125.859 E6.53386
G1 X124.026 Y126.466 E6.56464
G1 X123.829 Y127.053 E6.59545
G1 X123.559 Y127.61 E6.62626
G1 X123.219 Y128.128 E6.65709
G1 X122.815 Y128.597 E6.6879
G1 X122.355 Y129.01 E6.71866
G1 X121.844 Y129.361 E6.74952
G1 X121.293 Y129.643 E6.78032
G1 X120.71 Y129.851 E6.81112
G1 X120.105 Y129.983 E6.84194
G1 X119.389 Y130.037 E6.87767
G1 X65.611 Y130.037 E9.55396
G1 X64.993 Y129.997 E9.58478
G1 X64.386 Y129.878 E9.61556
G1 X63.799 Y129.681 E9.64638
G1 X63.242 Y129.411 E9.67718
G1 X62.724 Y129.071 E9.70802
G1 X62.255 Y128.667 E9.73882
G1 X61.842 Y128.206 E9.76962
G1 X61.491 Y127.696 E9.80043
G1 X61.209 Y127.145 E9.83124
G1 X61.001 Y126.562 E9.86204
G1 X60.869 Y125.957 E9.89286
G1 X60.815 Y125.241 E9.92859
G1 X60.817 Y105.741 E10.89902
G1 X60.849 Y105.188 E10.92659
G1 X61.224 Y101.963 E11.08816
G1 X61.606 Y96.572 E11.35712
G1 X61.683 Y91.175 E11.62573
G1 X61.456 Y85.807 E11.89311
G1 X60.84 Y79.732 E12.19699
G1 X60.816 Y79.248 E12.2211
G1 X60.815 Y59.759 E13.19098
G1 X60.855 Y59.141 E13.2218
G1 X60.974 Y58.534 E13.25258
G1 X61.171 Y57.947 E13.2834
G1 X61.441 Y57.39 E13.3142
G1 X61.781 Y56.872 E13.34504
G1 X62.185 Y56.403 E13.37584
G0 F2400 X62.577 Y56.576
G1 F1050 X63.033 Y56.197 E13.40535
G1 X63.536 Y55.883 E13.43486
G1 X64.076 Y55.639 E13.46435
G1 X64.644 Y55.47 E13.49384
G1 X65.23 Y55.379 E13.52335
G1 X65.611 Y55.362 E13.54233
G1 X119.389 Y55.363 E16.21862
G1 X119.98 Y55.403 E16.2481
G1 X120.561 Y55.522 E16.27761
G1 X121.121 Y55.718 E16.30714
G1 X121.648 Y55.988 E16.33661
G1 X122.135 Y56.326 E16.36611
G1 X122.572 Y56.727 E16.39562
G1 X122.951 Y57.182 E16.42509
G1 X123.266 Y57.685 E16.45463
G1 X123.509 Y58.225 E16.4841
G1 X123.678 Y58.793 E16.51359
G1 X123.769 Y59.379 E16.5431
G1 X123.786 Y59.76 E16.56208
G1 X123.784 Y79.259 E17.53246
G1 X123.755 Y79.766 E17.55773
G1 X123.379 Y83.007 E17.7201
G1 X122.995 Y88.412 E17.98976
G1 X122.918 Y93.837 E18.25977
G1 X123.145 Y99.216 E18.52769
G1 X123.763 Y105.306 E18.83232
G1 X123.785 Y105.75 E18.85445
G1 X123.786 Y125.241 E19.82442
G1 X123.746 Y125.832 E19.8539
G1 X123.627 Y126.413 E19.88342
G1 X123.431 Y126.972 E19.9129
G1 X123.161 Y127.5 E19.94241
G1 X122.823 Y127.987 E19.97191
G1 X122.423 Y128.424 E20.00139
G1 X121.967 Y128.803 E20.0309
G1 X121.464 Y129.117 E20.06041
G1 X120.924 Y129.361 E20.0899
G1 X120.356 Y129.53 E20.11939
G1 X119.77 Y129.621 E20.1489
G1 X119.389 Y129.638 E20.16788
G1 X65.611 Y129.638 E22.84417
G1 X65.02 Y129.598 E22.87365
G1 X64.439 Y129.479 E22.90316
G1 X63.88 Y129.283 E22.93264
G1 X63.352 Y129.013 E22.96215
G1 X62.865 Y128.675 E22.99165
G1 X62.428 Y128.274 E23.02117
G1 X62.049 Y127.819 E23.05064
G1 X61.734 Y127.316 E23.08018
G1 X61.491 Y126.776 E23.10964
G1 X61.322 Y126.208 E23.13914
G1 X61.231 Y125.622 E23.16865
G1 X61.214 Y125.241 E23.18763
G1 X61.216 Y105.741 E24.15805
G1 X61.245 Y105.234 E24.18333
G1 X61.621 Y101.993 E24.3457
G1 X62.005 Y96.588 E24.61536
G1 X62.082 Y91.163 E24.88536
G1 X61.855 Y85.784 E25.15329
G1 X61.237 Y79.692 E25.45802
G1 X61.215 Y79.248 E25.48014
G1 X61.214 Y59.759 E26.45002
G1 X61.254 Y59.168 E26.4795
G1 X61.373 Y58.587 E26.50901
G1 X61.569 Y58.028 E26.53849
G1 X61.839 Y57.5 E26.568
G1 X62.177 Y57.013 E26.59751
G1 X62.577 Y56.576 E26.62699
G0 F2400 X62.969 Y56.758
G1 F1050 X63.419 Y56.416 E26.65512
G1 X63.912 Y56.14 E26.68323
G1 X64.439 Y55.937 E26.71134
G1 X64.99 Y55.81 E26.73948
G1 X65.611 Y55.761 E26.77048
G1 X119.389 Y55.762 E29.44677
G1 X119.953 Y55.802 E29.4749
G1 X120.505 Y55.921 E29.50301
G1 X121.036 Y56.117 E29.53117
G1 X121.533 Y56.385 E29.55927
G1 X121.987 Y56.721 E29.58738
G1 X122.39 Y57.118 E29.61554
G1 X122.732 Y57.568 E29.64366
G1 X123.008 Y58.061 E29.67178
G1 X123.211 Y58.588 E29.69989
G1 X123.339 Y59.139 E29.72804
G1 X123.387 Y59.76 E29.75903
G1 X123.385 Y79.259 E30.72941
G1 X123.358 Y79.72 E30.75239
G1 X122.982 Y82.955 E30.91447
G1 X122.596 Y88.396 E31.18592
G1 X122.518 Y93.848 E31.45727
G1 X122.746 Y99.238 E31.72575
G1 X123.366 Y105.346 E32.03128
G1 X123.386 Y105.75 E32.05141
G1 X123.387 Y125.241 E33.02138
G1 X123.347 Y125.805 E33.04952
G1 X123.228 Y126.357 E33.07762
G1 X123.032 Y126.887 E33.10575
G1 X122.764 Y127.385 E33.13389
G1 X122.428 Y127.839 E33.162
G1 X122.031 Y128.242 E33.19015
G1 X121.581 Y128.584 E33.21828
G1 X121.088 Y128.86 E33.2464
G1 X120.561 Y129.063 E33.2745
G1 X120.01 Y129.19 E33.30264
G1 X119.389 Y129.239 E33.33364
G1 X65.611 Y129.239 E36.00993
G1 X65.047 Y129.199 E36.03807
G1 X64.495 Y129.08 E36.06617
G1 X63.965 Y128.884 E36.09429
G1 X63.467 Y128.616 E36.12243
G1 X63.013 Y128.28 E36.15054
G1 X62.61 Y127.883 E36.17869
G1 X62.268 Y127.433 E36.20682
G1 X61.992 Y126.94 E36.23494
G1 X61.789 Y126.413 E36.26304
G1 X61.662 Y125.862 E36.29118
G1 X61.613 Y125.241 E36.32218
G1 X61.615 Y105.741 E37.29261
G1 X61.642 Y105.28 E37.31559
G1 X62.018 Y102.045 E37.47767
G1 X62.404 Y96.604 E37.74912
G1 X62.482 Y91.152 E38.02047
G1 X62.254 Y85.76 E38.28905
G1 X61.634 Y79.651 E38.59463
G1 X61.614 Y79.248 E38.61471
G1 X61.613 Y59.759 E39.58459
G1 X61.653 Y59.195 E39.61272
G1 X61.772 Y58.643 E39.64083
G1 X61.968 Y58.113 E39.66895
G1 X62.236 Y57.615 E39.69709
G1 X62.572 Y57.161 E39.7252
G1 X62.969 Y56.758 E39.75335
G0 F2400 X63.359 Y56.952
G1 F1050 X63.801 Y56.648 E39.78005
G1 X64.283 Y56.414 E39.80671
G1 X64.795 Y56.254 E39.83341
G1 X65.325 Y56.171 E39.8601
G1 X65.611 Y56.16 E39.87435
G1 X119.389 Y56.161 E42.55064
G1 X119.924 Y56.201 E42.57733
G1 X120.447 Y56.32 E42.60403
G1 X120.946 Y56.515 E42.63069
G1 X121.411 Y56.783 E42.6574
G1 X121.831 Y57.116 E42.68407
G1 X122.196 Y57.508 E42.71073
G1 X122.5 Y57.95 E42.73742
G1 X122.734 Y58.433 E42.76413
G1 X122.894 Y58.944 E42.79078
G1 X122.977 Y59.474 E42.81748
G1 X122.988 Y59.76 E42.83172
G1 X122.986 Y79.259 E43.8021
G1 X122.962 Y79.674 E43.82279
G1 X122.584 Y82.925 E43.98566
G1 X122.198 Y88.38 E44.25781
G1 X122.119 Y93.842 E44.52966
G1 X122.349 Y99.28 E44.80053
G1 X122.969 Y105.387 E45.10601
G1 X122.987 Y105.75 E45.12409
G1 X122.988 Y125.241 E46.09407
G1 X122.948 Y125.776 E46.12077
G1 X122.829 Y126.298 E46.14742
G1 X122.634 Y126.798 E46.17412
G1 X122.367 Y127.263 E46.20081
G1 X122.033 Y127.683 E46.22751
G1 X121.641 Y128.048 E46.25417
G1 X121.199 Y128.352 E46.28087
G1 X120.717 Y128.586 E46.30753
G1 X120.205 Y128.746 E46.33422
G1 X119.675 Y128.829 E46.36092
G1 X119.389 Y128.84 E46.37517
G1 X65.611 Y128.84 E49.05145
G1 X65.076 Y128.8 E49.07815
G1 X64.553 Y128.681 E49.10484
G1 X64.054 Y128.486 E49.13151
G1 X63.589 Y128.218 E49.15822
G1 X63.169 Y127.885 E49.18489
G1 X62.804 Y127.493 E49.21154
G1 X62.5 Y127.051 E49.23824
G1 X62.266 Y126.569 E49.26491
G1 X62.106 Y126.057 E49.2916
G1 X62.023 Y125.527 E49.3183
G1 X62.012 Y125.241 E49.33254
G1 X62.014 Y105.741 E50.30297
G1 X62.038 Y105.326 E50.32366
G1 X62.416 Y102.075 E50.48653
G1 X62.802 Y96.62 E50.75868
G1 X62.881 Y91.158 E51.03053
G1 X62.651 Y85.72 E51.3014
G1 X62.031 Y79.611 E51.60698
G1 X62.013 Y79.248 E51.62506
G1 X62.012 Y59.759 E52.59494
G1 X62.052 Y59.224 E52.62164
G1 X62.171 Y58.702 E52.64829
G1 X62.366 Y58.202 E52.67499
G1 X62.633 Y57.737 E52.70168
G1 X62.967 Y57.317 E52.72838
G1 X63.359 Y56.952 E52.75504
G0 F2400 X63.747 Y57.158
G1 F1050 X64.18 Y56.897 E52.7802
G1 X64.648 Y56.707 E52.80533
G1 X65.141 Y56.594 E52.83051
G1 X65.611 Y56.559 E52.85396
G1 X119.389 Y56.56 E55.53025
G1 X119.893 Y56.6 E55.55541
G1 X120.384 Y56.719 E55.58055
G1 X120.851 Y56.914 E55.60574
G1 X121.281 Y57.179 E55.63087
G1 X121.664 Y57.51 E55.65606
G1 X121.99 Y57.896 E55.68121
G1 X122.251 Y58.329 E55.70637
G1 X122.441 Y58.797 E55.7315
G1 X122.554 Y59.29 E55.75668
G1 X122.589 Y59.76 E55.78013
G1 X122.587 Y79.259 E56.75051
G1 X122.566 Y79.628 E56.7689
G1 X122.186 Y82.897 E56.93268
G1 X121.799 Y88.363 E57.20538
G1 X121.72 Y93.853 E57.47862
G1 X121.951 Y99.302 E57.75003
G1 X122.572 Y105.427 E58.05641
G1 X122.588 Y105.75 E58.0725
G1 X122.589 Y125.241 E59.04248
G1 X122.549 Y125.745 E59.06764
G1 X122.43 Y126.236 E59.09279
G1 X122.236 Y126.703 E59.11795
G1 X121.97 Y127.133 E59.14311
G1 X121.64 Y127.516 E59.16827
G1 X121.253 Y127.842 E59.19346
G1 X120.82 Y128.103 E59.21862
G1 X120.352 Y128.293 E59.24375
G1 X119.859 Y128.406 E59.26892
G1 X119.389 Y128.441 E59.29238
G1 X65.611 Y128.441 E61.96867
G1 X65.107 Y128.401 E61.99383
G1 X64.616 Y128.282 E62.01897
G1 X64.149 Y128.088 E62.04413
G1 X63.719 Y127.822 E62.0693
G1 X63.336 Y127.492 E62.09446
G1 X63.01 Y127.105 E62.11964
G1 X62.749 Y126.672 E62.1448
G1 X62.559 Y126.204 E62.16994
G1 X62.446 Y125.711 E62.19511
G1 X62.411 Y125.241 E62.21856
G1 X62.413 Y105.741 E63.18899
G1 X62.434 Y105.372 E63.20738
G1 X62.814 Y102.103 E63.37116
G1 X63.201 Y96.637 E63.64386
G1 X63.28 Y91.147 E63.9171
G1 X63.049 Y85.698 E64.18851
G1 X62.428 Y79.571 E64.49499
G1 X62.412 Y79.248 E64.51108
G1 X62.411 Y59.759 E65.48096
G1 X62.451 Y59.255 E65.50612
G1 X62.57 Y58.764 E65.53127
G1 X62.764 Y58.297 E65.55643
G1 X63.03 Y57.867 E65.58159
G1 X63.36 Y57.484 E65.60675
G1 X63.747 Y57.158 E65.63194
G1 F1500 E64.63194
G0 F2400 X64.941 Y79.407
G0 X65.445 Y79.911
G0 X82.706 Y80.591
;TYPE:SUPPORT
G1 F1500 E65.63194
G1 F1050 X102.501 Y80.59 E66.61704
G1 X102.501 Y81.097 E66.64227
G1 X102.383 Y81.215 E66.65058
G1 X82.617 Y81.215 E67.63424
G1 X82.499 Y81.097 E67.64255
G1 X82.5 Y80.578 E67.66838
G1 X82.706 Y80.591 E67.67865
G0 F2400 X83.979 Y80.75
G1 F1050 X83.979 Y81.055 E67.69383
G0 F2400 X85.312 Y81.055
G1 F1050 X85.312 Y80.75 E67.70901
G0 F2400 X86.645 Y80.75
G1 F1050 X86.645 Y81.055 E67.72418
G0 F2400 X87.978 Y81.055
G1 F1050 X87.978 Y80.75 E67.73936
G0 F2400 X89.311 Y80.75
G1 F1050 X89.311 Y81.055 E67.75454
G0 F2400 X90.644 Y81.055
G1 F1050 X90.644 Y80.75 E67.76972
G0 F2400 X91.977 Y80.75
G1 F1050 X91.977 Y81.055 E67.7849
G0 F2400 X93.31 Y81.054
G1 F1050 X93.31 Y80.75 E67.80003
G0 F2400 X94.643 Y80.75
G1 F1050 X94.643 Y81.054 E67.81516
G0 F2400 X95.976 Y81.054
G1 F1050 X95.976 Y80.75 E67.83028
G0 F2400 X97.309 Y80.75
G1 F1050 X97.309 Y81.054 E67.84541
G0 F2400 X98.642 Y81.054
G1 F1050 X98.642 Y80.75 E67.86054
G0 F2400 X99.975 Y80.75
G1 F1050 X99.975 Y81.054 E67.87567
G0 F2400 X101.308 Y81.054
G1 F1050 X101.308 Y80.75 E67.8908
G0 F2400 X102.383 Y103.785
G1 F1050 X102.501 Y103.903 E67.8991
G1 X102.501 Y104.421 E67.92488
G1 X102.324 Y104.409 E67.93371
G1 X82.499 Y104.41 E68.92031
G1 X82.499 Y103.903 E68.94554
G1 X82.617 Y103.785 E68.95385
G1 X102.383 Y103.785 E69.93751
G0 F2400 X102.341 Y103.974
G1 F1050 X82.661 Y103.974 E70.9169
G0 F2400 X83.979 Y103.946
G1 F1050 X83.979 Y104.25 E70.93203
G0 F2400 X85.312 Y104.25
G1 F1050 X85.312 Y103.946 E70.94715
G0 F2400 X86.645 Y103.946
G1 F1050 X86.645 Y104.25 E70.96228
G0 F2400 X87.978 Y104.25
G1 F1050 X87.978 Y103.946 E70.97741
G0 F2400 X89.311 Y103.946
G1 F1050 X89.311 Y104.25 E70.99254
G0 F2400 X90.644 Y104.25
G1 F1050 X90.644 Y103.946 E71.00767
G0 F2400 X91.977 Y103.946
G1 F1050 X91.977 Y104.25 E71.0228
G0 F2400 X93.31 Y104.25
G1 F1050 X93.31 Y103.947 E71.03788
G0 F2400 X94.643 Y103.947
G1 F1050 X94.643 Y104.25 E71.05296
G0 F2400 X95.976 Y104.25
G1 F1050 X95.976 Y103.947 E71.06803
G0 F2400 X97.309 Y103.947
G1 F1050 X97.309 Y104.25 E71.08311
G0 F2400 X98.642 Y104.25
G1 F1050 X98.642 Y103.947 E71.09819
G0 F2400 X99.975 Y103.947
G1 F1050 X99.975 Y104.25 E71.11327
G0 F2400 X101.308 Y104.25
G1 F1050 X101.308 Y103.947 E71.12835
G1 F1500 E70.12835
G0 F2400 X101.308 Y79.915
G0 X101.308 Y78.633
G0 X98.648 Y77.244
;TYPE:WALL-INNER
G1 F1500 E71.12835
G1 F1050 X98.94 Y77.214 E71.14296
G1 X99.226 Y77.158 E71.15746
G1 X99.51 Y77.072 E71.17223
G1 X99.782 Y76.959 E71.18689
G1 X100.043 Y76.819 E71.20163
G1 X100.283 Y76.657 E71.21604
G1 X100.511 Y76.473 E71.23062
G1 X100.723 Y76.261 E71.24554
G1 X100.907 Y76.033 E71.26012
G1 X101.069 Y75.793 E71.27453
G1 X101.209 Y75.532 E71.28927
G1 X101.292 Y75.334 E71.29995
G1 X101.322 Y75.26 E71.30392
G1 X101.387 Y75.044 E71.31515
G1 X101.408 Y74.976 E71.31869
G1 X101.44 Y74.81 E71.32711
G1 X101.464 Y74.69 E71.3332
G1 X101.479 Y74.54 E71.3407
G1 X101.494 Y74.398 E71.3478
G1 X101.494 Y74.275 E71.35392
G1 X101.496 Y64.703 E71.83028
G1 X101.491 Y64.624 E71.83422
G1 X101.476 Y64.418 E71.8445
G1 X101.471 Y64.35 E71.84789
G1 X101.434 Y64.133 E71.85885
G1 X101.427 Y64.105 E71.86028
G1 X101.379 Y63.933 E71.86917
G1 X101.331 Y63.764 E71.87791
G1 X101.294 Y63.672 E71.88285
G1 X101.217 Y63.484 E71.89296
G1 X101.08 Y63.224 E71.90758
G1 X100.923 Y62.988 E71.92169
G1 X100.795 Y62.823 E71.93208
G1 X100.533 Y62.547 E71.95102
G1 X100.298 Y62.353 E71.96618
G1 X100.057 Y62.191 E71.98064
G1 X99.811 Y62.056 E71.9946
G1 X99.625 Y61.972 E72.00476
G1 X99.384 Y61.887 E72.01747
G1 X99.108 Y61.815 E72.03167
G1 X98.912 Y61.783 E72.04155
G1 X98.66 Y61.758 E72.05415
G1 X86.355 Y61.755 E72.66652
G1 X85.945 Y61.804 E72.68707
G1 X85.652 Y61.875 E72.70207
G1 X85.455 Y61.942 E72.71243
G1 X85.113 Y62.092 E72.73101
G1 X84.851 Y62.247 E72.74616
G1 X84.612 Y62.421 E72.76087
G1 X84.399 Y62.613 E72.77514
G1 X84.255 Y62.764 E72.78553
G1 X84.023 Y63.063 E72.80436
G1 X83.867 Y63.319 E72.81928
G1 X83.738 Y63.586 E72.83404
G1 X83.639 Y63.859 E72.84849
G1 X83.616 Y63.945 E72.85292
G1 X83.585 Y64.06 E72.85885
G1 X83.563 Y64.188 E72.86531
G1 X83.523 Y64.416 E72.87683
G1 X83.52 Y64.46 E72.87902
G1 X83.506 Y64.623 E72.88717
G1 X83.506 Y64.725 E72.89224
G1 X83.504 Y74.275 E73.3675
G1 X83.509 Y74.397 E73.37358
G1 X83.517 Y74.543 E73.38086
G1 X83.537 Y74.678 E73.38765
G1 X83.56 Y74.833 E73.39545
G1 X83.584 Y74.932 E73.40052
G1 X83.632 Y75.121 E73.41022
G1 X83.64 Y75.145 E73.41148
G1 X83.666 Y75.218 E73.41533
G1 X83.731 Y75.397 E73.42481
G1 X83.856 Y75.662 E73.43939
G1 X84.008 Y75.915 E73.45408
G1 X84.183 Y76.152 E73.46874
G1 X84.381 Y76.369 E73.48336
G1 X84.598 Y76.567 E73.49798
G1 X84.835 Y76.742 E73.51264
G1 X85.088 Y76.894 E73.52733
G1 X85.353 Y77.019 E73.54191
G1 X85.629 Y77.118 E73.5565
G1 X85.917 Y77.19 E73.57128
G1 X86.207 Y77.233 E73.58587
G1 X86.475 Y77.246 E73.59922
G1 X98.648 Y77.244 E74.20502
G0 F2400 X101.808 Y75.566
G1 F1050 X101.992 Y75.891 E74.2236
G1 X102.17 Y76.137 E74.23871
G1 X102.369 Y76.358 E74.25351
G1 X102.581 Y76.551 E74.26778
G1 X102.745 Y76.678 E74.2781
G1 X103.059 Y76.878 E74.29663
G1 X103.335 Y77.012 E74.3119
G1 X103.613 Y77.113 E74.32662
G1 X103.893 Y77.185 E74.341
G1 X104.088 Y77.217 E74.35084
G1 X104.34 Y77.242 E74.36344
G1 X114.77 Y77.245 E74.8825
G1 X115.182 Y77.196 E74.90314
G1 X115.472 Y77.126 E74.91799
G1 X115.67 Y77.06 E74.92838
G1 X116.014 Y76.907 E74.94711
G1 X116.275 Y76.753 E74.96219
G1 X116.514 Y76.579 E74.97691
G1 X116.727 Y76.387 E74.99118
G1 X116.871 Y76.236 E75.00156
G1 X117.103 Y75.937 E75.02039
G1 X117.259 Y75.681 E75.03531
G1 X117.388 Y75.414 E75.05007
G1 X117.487 Y75.141 E75.06452
G1 X117.541 Y74.941 E75.07483
G1 X117.605 Y74.58 E75.09308
G1 X117.619 Y74.372 E75.10345
