;FLAVOR:Marlin
;TIME:3736
;Filament used: 2.62272m
;Layer height: 0.15
;Generated with Cura_SteamEngine 2.7.0
M190 S60
M104 S220
M109 S220
G21 ;metric values
G90 ;absolute positioning
M82 ;set extruder to absolute mode
M107 ;start with the fan off
G92 E0 ;zero the extruded length
G1 F200 E3 ;extrude 3mm of feed stock
G92 E0 ;zero the extruded length again
G1 F9000
M301 P31.36 I3.30 D74.51 ;set PID tuning for E0
M304 P72.25 I2.72 D479.41 ; set PID tuning for heated bed
M117 Printing...
;LAYER_COUNT:56
;LAYER:0
M107
M205 X20 Y20
G0 F2400 X72.96 Y65.027 Z0.3
;TYPE:SKIRT
G1 F1050 X73.42 Y64.614 E0.03076
G1 X73.931 Y64.264 E0.06159
G1 X74.482 Y63.982 E0.09239
G1 X75.065 Y63.773 E0.12321
G1 X75.67 Y63.642 E0.15402
G1 X76.385 Y63.588 E0.1897
G1 X108.543 Y63.588 E1.79006
G1 X109.161 Y63.628 E1.82088
G1 X109.768 Y63.747 E1.85166
G1 X110.355 Y63.944 E1.88248
G1 X110.912 Y64.214 E1.91328
G1 X111.43 Y64.554 E1.94412
G1 X111.899 Y64.958 E1.97492
G1 X112.312 Y65.419 E2.00572
G1 X112.663 Y65.929 E2.03653
G1 X112.945 Y66.48 E2.06734
G1 X113.153 Y67.063 E2.09814
G1 X113.285 Y67.668 E2.12896
G1 X113.339 Y68.384 E2.16469
G1 X113.34 Y92.917 E3.38559
G1 X113.313 Y93.429 E3.4111
G1 X112.529 Y100.726 E3.77633
G1 X112.382 Y103.317 E3.90548
G1 X112.296 Y107.427 E4.11006
G1 X112.286 Y114.498 E4.46195
G1 X112.245 Y115.115 E4.49273
G1 X112.125 Y115.723 E4.52357
G1 X111.928 Y116.31 E4.55438
G1 X111.657 Y116.866 E4.58516
G1 X111.316 Y117.383 E4.61598
G1 X110.883 Y117.881 E4.64883
G1 X106.888 Y121.88 E4.93013
G1 X106.423 Y122.288 E4.96092
G1 X105.909 Y122.634 E4.99175
G1 X105.355 Y122.91 E5.02255
G1 X104.771 Y123.113 E5.05332
G1 X104.164 Y123.239 E5.08417
G1 X103.495 Y123.286 E5.11755
G1 X81.509 Y123.286 E6.21169
G1 X80.891 Y123.246 E6.24251
G1 X80.284 Y123.127 E6.2733
G1 X79.697 Y122.93 E6.30411
G1 X79.14 Y122.66 E6.33491
G1 X78.622 Y122.32 E6.36575
G1 X78.12 Y121.883 E6.39887
G1 X74.121 Y117.889 E6.68014
G1 X73.712 Y117.425 E6.71092
G1 X73.366 Y116.911 E6.74176
G1 X73.09 Y116.357 E6.77256
G1 X72.887 Y115.772 E6.80337
G1 X72.761 Y115.166 E6.83418
G1 X72.714 Y114.503 E6.86725
G1 X72.704 Y107.793 E7.20118
G1 X72.55 Y102.345 E7.47241
G1 X72.09 Y96.935 E7.74261
G1 X71.623 Y93.291 E7.92544
G1 X71.584 Y92.68 E7.95591
G1 X71.589 Y68.383 E9.16506
G1 X71.629 Y67.765 E9.19588
G1 X71.748 Y67.158 E9.22667
G1 X71.945 Y66.571 E9.25748
G1 X72.216 Y66.014 E9.28831
G1 X72.556 Y65.496 E9.31914
G1 X72.96 Y65.027 E9.34995
G0 F2400 X73.352 Y65.2
G1 F1050 X73.808 Y64.821 E9.37945
G1 X74.311 Y64.507 E9.40896
G1 X74.851 Y64.263 E9.43845
G1 X75.419 Y64.094 E9.46794
G1 X76.005 Y64.003 E9.49746
G1 X76.385 Y63.987 E9.51638
G1 X108.543 Y63.987 E11.11674
G1 X109.134 Y64.027 E11.14622
G1 X109.715 Y64.146 E11.17574
G1 X110.274 Y64.342 E11.20521
G1 X110.802 Y64.612 E11.23473
G1 X111.289 Y64.95 E11.26423
G1 X111.726 Y65.351 E11.29374
G1 X112.105 Y65.806 E11.32321
G1 X112.42 Y66.309 E11.35275
G1 X112.663 Y66.849 E11.38222
G1 X112.832 Y67.417 E11.41171
G1 X112.923 Y68.003 E11.44122
G1 X112.94 Y68.384 E11.4602
G1 X112.941 Y92.917 E12.6811
G1 X112.916 Y93.387 E12.70452
G1 X112.133 Y100.681 E13.0696
G1 X111.983 Y103.315 E13.20089
G1 X111.897 Y107.418 E13.40512
G1 X111.887 Y114.497 E13.75741
G1 X111.846 Y115.089 E13.78694
G1 X111.726 Y115.669 E13.81642
G1 X111.529 Y116.228 E13.84592
G1 X111.259 Y116.756 E13.87543
G1 X110.92 Y117.242 E13.90492
G1 X110.601 Y117.599 E13.92874
G1 X106.606 Y121.598 E14.21005
G1 X106.159 Y121.988 E14.23957
G1 X105.665 Y122.314 E14.26902
G1 X105.131 Y122.571 E14.29852
G1 X104.567 Y122.754 E14.32802
G1 X103.984 Y122.86 E14.35751
G1 X103.495 Y122.887 E14.38189
G1 X81.509 Y122.887 E15.47603
G1 X80.918 Y122.847 E15.50551
G1 X80.337 Y122.728 E15.53502
G1 X79.778 Y122.532 E15.5645
G1 X79.25 Y122.262 E15.59401
G1 X78.763 Y121.924 E15.62351
G1 X78.402 Y121.601 E15.64762
G1 X74.403 Y117.607 E15.92889
G1 X74.013 Y117.161 E15.95838
G1 X73.686 Y116.666 E15.9879
G1 X73.429 Y116.132 E16.01739
G1 X73.246 Y115.568 E16.0469
G1 X73.14 Y114.985 E16.07639
G1 X73.113 Y114.502 E16.10046
G1 X73.103 Y107.78 E16.43499
G1 X72.949 Y102.318 E16.70691
G1 X72.488 Y96.897 E16.97767
G1 X72.019 Y93.24 E17.16115
G1 X71.983 Y92.68 E17.18908
G1 X71.988 Y68.383 E18.39823
G1 X72.028 Y67.792 E18.42771
G1 X72.147 Y67.211 E18.45722
G1 X72.344 Y66.652 E18.48672
G1 X72.613 Y66.124 E18.51621
G1 X72.952 Y65.637 E18.54574
G1 X73.352 Y65.2 E18.57522
G0 F2400 X73.744 Y65.383
G1 F1050 X74.193 Y65.04 E18.60334
G1 X74.687 Y64.765 E18.63147
G1 X75.214 Y64.561 E18.6596
G1 X75.765 Y64.434 E18.68774
G1 X76.385 Y64.386 E18.71868
G1 X108.543 Y64.386 E20.31904
G1 X109.107 Y64.426 E20.34718
G1 X109.659 Y64.545 E20.37528
G1 X110.189 Y64.741 E20.4034
G1 X110.687 Y65.009 E20.43155
G1 X111.141 Y65.345 E20.45965
G1 X111.544 Y65.742 E20.48781
G1 X111.886 Y66.192 E20.51593
G1 X112.162 Y66.685 E20.54405
G1 X112.365 Y67.212 E20.57216
G1 X112.492 Y67.763 E20.6003
G1 X112.541 Y68.384 E20.6313
G1 X112.542 Y92.917 E21.85219
G1 X112.519 Y93.344 E21.87347
G1 X111.736 Y100.635 E22.2384
G1 X111.584 Y103.312 E22.37184
G1 X111.498 Y107.409 E22.57577
G1 X111.488 Y114.497 E22.92851
G1 X111.447 Y115.06 E22.9566
G1 X111.327 Y115.613 E22.98476
G1 X111.131 Y116.143 E23.01288
G1 X110.862 Y116.64 E23.04101
G1 X110.525 Y117.093 E23.06911
G1 X110.318 Y117.317 E23.08428
G1 X106.323 Y121.316 E23.36559
G1 X105.897 Y121.686 E23.39367
G1 X105.422 Y121.993 E23.42181
G1 X104.909 Y122.23 E23.44994
G1 X104.367 Y122.392 E23.47809
G1 X103.808 Y122.476 E23.50622
G1 X103.495 Y122.488 E23.52181
G1 X81.509 Y122.488 E24.61595
G1 X80.945 Y122.448 E24.64409
G1 X80.393 Y122.329 E24.67219
G1 X79.863 Y122.133 E24.70031
G1 X79.365 Y121.865 E24.72846
G1 X78.911 Y121.529 E24.75657
G1 X78.684 Y121.319 E24.77196
G1 X74.685 Y117.325 E25.05323
G1 X74.314 Y116.898 E25.08138
G1 X74.007 Y116.423 E25.10952
G1 X73.77 Y115.91 E25.13764
G1 X73.608 Y115.369 E25.16575
G1 X73.524 Y114.81 E25.19388
G1 X73.512 Y114.502 E25.20922
G1 X73.502 Y107.768 E25.54434
G1 X73.348 Y102.309 E25.81612
G1 X72.884 Y96.857 E26.08842
G1 X72.414 Y93.189 E26.27245
G1 X72.382 Y92.68 E26.29783
G1 X72.387 Y68.383 E27.50698
G1 X72.427 Y67.819 E27.53512
G1 X72.546 Y67.267 E27.56322
G1 X72.742 Y66.737 E27.59135
G1 X73.011 Y66.24 E27.61947
G1 X73.347 Y65.785 E27.64762
G1 X73.744 Y65.383 E27.67573
G0 F2400 X74.134 Y65.576
G1 F1050 X74.576 Y65.273 E27.7024
G1 X75.058 Y65.039 E27.72907
G1 X75.57 Y64.879 E27.75576
G1 X76.1 Y64.796 E27.78246
G1 X76.385 Y64.785 E27.79665
G1 X108.543 Y64.785 E29.39701
G1 X109.078 Y64.825 E29.42371
G1 X109.601 Y64.944 E29.4504
G1 X110.1 Y65.139 E29.47707
G1 X110.565 Y65.407 E29.50377
G1 X110.985 Y65.74 E29.53045
G1 X111.35 Y66.132 E29.5571
G1 X111.654 Y66.574 E29.5838
G1 X111.888 Y67.056 E29.61046
G1 X112.048 Y67.568 E29.63716
G1 X112.131 Y68.098 E29.66386
G1 X112.142 Y68.384 E29.6781
G1 X112.143 Y92.917 E30.899
G1 X112.122 Y93.301 E30.91814
G1 X111.337 Y100.608 E31.28386
G1 X111.186 Y103.281 E31.4171
G1 X111.099 Y107.375 E31.62089
G1 X111.089 Y114.496 E31.97527
G1 X111.048 Y115.031 E32.00197
G1 X110.929 Y115.553 E32.02861
G1 X110.733 Y116.052 E32.05529
G1 X110.465 Y116.517 E32.082
G1 X110.036 Y117.035 E32.11547
G1 X106.041 Y121.034 E32.39678
G1 X105.635 Y121.384 E32.42345
G1 X105.181 Y121.669 E32.45013
G1 X104.69 Y121.885 E32.47682
G1 X104.173 Y122.025 E32.50348
G1 X103.495 Y122.089 E32.53737
G1 X81.509 Y122.089 E33.63152
G1 X80.974 Y122.049 E33.65821
G1 X80.451 Y121.93 E33.68491
G1 X79.952 Y121.735 E33.71157
G1 X79.487 Y121.467 E33.73828
G1 X78.966 Y121.036 E33.77193
G1 X74.967 Y117.042 E34.0532
G1 X74.617 Y116.636 E34.07987
G1 X74.331 Y116.183 E34.10653
G1 X74.115 Y115.692 E34.13323
G1 X73.975 Y115.174 E34.15993
G1 X73.911 Y114.501 E34.19358
G1 X73.901 Y107.794 E34.52735
G1 X73.745 Y102.264 E34.80267
G1 X73.282 Y96.822 E35.07447
G1 X72.81 Y93.139 E35.25925
G1 X72.781 Y92.68 E35.28214
G1 X72.786 Y68.383 E36.49129
G1 X72.826 Y67.849 E36.51794
G1 X72.945 Y67.326 E36.54463
G1 X73.141 Y66.826 E36.57136
G1 X73.408 Y66.362 E36.598
G1 X73.741 Y65.942 E36.62468
G1 X74.134 Y65.576 E36.6514
G0 F2400 X74.521 Y65.783
G1 F1050 X74.954 Y65.522 E36.67656
G1 X75.423 Y65.332 E36.70174
G1 X75.916 Y65.219 E36.72692
G1 X76.385 Y65.184 E36.75032
G1 X108.543 Y65.184 E38.35068
G1 X109.047 Y65.224 E38.37584
G1 X109.538 Y65.343 E38.40098
G1 X110.005 Y65.537 E38.42615
G1 X110.435 Y65.803 E38.45131
G1 X110.818 Y66.133 E38.47647
G1 X111.144 Y66.52 E38.50165
G1 X111.405 Y66.953 E38.52681
G1 X111.595 Y67.421 E38.55195
G1 X111.708 Y67.914 E38.57712
G1 X111.743 Y68.384 E38.60057
G1 X111.744 Y92.917 E39.82147
G1 X111.726 Y93.259 E39.83851
G1 X110.939 Y100.585 E40.20519
G1 X110.787 Y103.278 E40.33942
G1 X110.7 Y107.374 E40.54331
G1 X110.69 Y114.495 E40.89769
G1 X110.649 Y114.999 E40.92285
G1 X110.53 Y115.491 E40.94804
G1 X110.334 Y115.957 E40.9732
G1 X110.068 Y116.387 E40.99837
G1 X109.754 Y116.753 E41.02236
G1 X105.759 Y120.752 E41.30367
G1 X105.374 Y121.08 E41.32884
G1 X104.943 Y121.344 E41.35399
G1 X104.476 Y121.536 E41.37912
G1 X103.984 Y121.652 E41.40428
G1 X103.495 Y121.69 E41.42869
G1 X81.509 Y121.69 E42.52283
G1 X81.005 Y121.65 E42.54799
G1 X80.514 Y121.531 E42.57313
G1 X80.047 Y121.337 E42.5983
G1 X79.617 Y121.071 E42.62346
G1 X79.248 Y120.754 E42.64767
G1 X75.249 Y116.76 E42.92894
G1 X74.92 Y116.376 E42.9541
G1 X74.657 Y115.944 E42.97927
G1 X74.464 Y115.477 E43.00442
G1 X74.348 Y114.985 E43.02958
G1 X74.31 Y114.501 E43.05374
G1 X74.3 Y107.782 E43.38811
G1 X74.144 Y102.253 E43.66337
G1 X73.677 Y96.76 E43.93772
G1 X73.206 Y93.088 E44.12196
G1 X73.18 Y92.68 E44.1423
G1 X73.185 Y68.383 E45.35146
G1 X73.225 Y67.879 E45.37662
G1 X73.344 Y67.388 E45.40176
G1 X73.539 Y66.921 E45.42694
G1 X73.805 Y66.491 E45.45211
G1 X74.135 Y66.109 E45.47723
G1 X74.521 Y65.783 E45.50237
G1 F1500 E44.50237
G0 F2400 X78.281 Y67.73
G0 X78.352 Y67.766
G0 X89.976 Y73.786
G0 X90.047 Y73.823
G0 X90.388 Y74
;TYPE:SUPPORT
G1 F1500 E45.50237
G1 F1050 X91.444 Y72.171 E45.60747
G1 X93.556 Y72.171 E45.71258
G1 X94.612 Y74 E45.81768
G1 X93.556 Y75.829 E45.92279
G1 X91.444 Y75.829 E46.02789
G1 X90.388 Y74 E46.13299
G0 F2400 X90.644 Y74.123
G1 F1050 X90.644 Y73.876 E46.14528
G0 F2400 X90.969 Y73.315
G1 F1050 X94.032 Y73.315 E46.29772
G0 F2400 X93.31 Y72.331
G1 F1050 X93.31 Y75.669 E46.46383
G0 F2400 X94.053 Y74.648
G1 F1050 X90.946 Y74.648 E46.61845
G0 F2400 X91.977 Y75.669
G1 F1050 X91.977 Y72.331 E46.78457
G1 F1500 E45.78457
G0 F2400 X90.605 Y75.155
G0 X90.57 Y75.227
G0 X83.779 Y89.21
G0 X83.744 Y89.282
G0 X83.556 Y89.671
G1 F1500 E46.78457
G1 F1050 X84.612 Y91.5 E46.88967
G1 X83.556 Y93.329 E46.99478
G1 X81.444 Y93.329 E47.09988
G1 X80.388 Y91.5 E47.20498
G1 X81.444 Y89.671 E47.31009
G1 X83.556 Y89.671 E47.41519
G0 F2400 X82.646 Y89.831
G1 F1050 X82.646 Y93.169 E47.58131
G0 F2400 X81.313 Y92.782
G1 F1050 X81.313 Y90.217 E47.70896
G0 F2400 X81.067 Y90.644
G1 F1050 X83.934 Y90.644 E47.85164
G0 F2400 X83.979 Y90.724
G1 F1050 X83.979 Y92.277 E47.92892
G0 F2400 X84.151 Y91.977
G1 F1050 X80.848 Y91.977 E48.0933
G1 F1500 E47.0933
G0 F2400 X80.918 Y93.23
G0 X80.923 Y93.31
G0 X81.217 Y98.521
G0 X81.221 Y98.601
G0 X81.376 Y101.334
G0 X81.38 Y101.414
G0 X81.803 Y108.91
G0 X81.808 Y108.99
G0 X81.832 Y109.407
G1 F1500 E48.0933
G1 F1050 X81.948 Y109.377 E48.09926
G1 X82.244 Y109.574 E48.11695
G1 X82.761 Y109.574 E48.14268
G1 X83.056 Y109.378 E48.16031
G1 X83.185 Y109.412 E48.16695
G1 X83.411 Y109.501 E48.17904
G1 X83.672 Y109.641 E48.19377
G1 X83.903 Y109.81 E48.20802
G1 X84.11 Y110.003 E48.2221
G1 X84.273 Y110.202 E48.2349
G1 X84.429 Y110.446 E48.24932
G1 X84.539 Y110.68 E48.26218
G1 X84.628 Y110.95 E48.27633
G1 X84.681 Y111.231 E48.29056
G1 X84.695 Y111.499 E48.30392
G1 X84.682 Y111.774 E48.31762
G1 X84.632 Y112.04 E48.33109
G1 X84.539 Y112.323 E48.34591
G1 X84.433 Y112.548 E48.35829
G1 X84.275 Y112.795 E48.37288
G1 X84.099 Y113.006 E48.38656
G1 X83.904 Y113.19 E48.3999
G1 X83.677 Y113.356 E48.41389
G1 X83.433 Y113.489 E48.42772
G1 X83.18 Y113.59 E48.44128
G1 X83.057 Y113.622 E48.44761
G1 X82.759 Y113.424 E48.46541
G1 X82.241 Y113.424 E48.49119
G1 X81.945 Y113.622 E48.50891
G1 X81.818 Y113.59 E48.51543
G1 X81.574 Y113.493 E48.5285
G1 X81.326 Y113.357 E48.54257
G1 X81.102 Y113.195 E48.55633
G1 X80.89 Y112.994 E48.57087
G1 X80.727 Y112.8 E48.58348
G1 X80.565 Y112.541 E48.59868
G1 X80.456 Y112.31 E48.61139
G1 X80.37 Y112.049 E48.62507
G1 X80.319 Y111.767 E48.63933
G1 X80.303 Y111.479 E48.65368
G1 X80.321 Y111.207 E48.66725
G1 X80.368 Y110.959 E48.67981
G1 X80.456 Y110.692 E48.6938
G1 X80.565 Y110.46 E48.70656
G1 X80.731 Y110.199 E48.72195
G1 X80.9 Y109.994 E48.73517
G1 X81.088 Y109.816 E48.74806
G1 X81.344 Y109.632 E48.76375
G1 X81.563 Y109.513 E48.77615
G1 X81.832 Y109.407 E48.79054
G0 F2400 X81.313 Y109.852
G1 F1050 X81.313 Y113.149 E48.95462
G0 F2400 X81.564 Y113.305
G1 F1050 X82.131 Y113.305 E48.98283
G0 F2400 X82.646 Y113.264
G1 F1050 X82.646 Y109.734 E49.1585
G0 F2400 X83.979 Y110.102
G1 F1050 X83.979 Y112.898 E49.29765
G0 F2400 X83.435 Y113.305
G1 F1050 X82.868 Y113.305 E49.32587
G0 F2400 X84.482 Y111.972
G1 F1050 X80.518 Y111.972 E49.52314
G0 F2400 X80.659 Y110.639
G1 F1050 X84.343 Y110.639 E49.70647
G1 F1500 E48.70647
G0 F2400 X84.965 Y110.671
G0 X85.045 Y110.675
G0 X99.816 Y111.453
G0 X99.895 Y111.457
G0 X100.303 Y111.479
G1 F1500 E49.70647
G1 F1050 X100.321 Y111.207 E49.72004
G1 X100.368 Y110.959 E49.7326
G1 X100.456 Y110.692 E49.74659
G1 X100.565 Y110.46 E49.75935
G1 X100.731 Y110.199 E49.77474
G1 X100.9 Y109.994 E49.78796
G1 X101.088 Y109.816 E49.80085
G1 X101.344 Y109.632 E49.81654
G1 X101.563 Y109.513 E49.82894
G1 X101.832 Y109.407 E49.84333
G1 X101.948 Y109.377 E49.84929
G1 X102.244 Y109.574 E49.86698
G1 X102.761 Y109.574 E49.89271
G1 X103.056 Y109.378 E49.91034
G1 X103.185 Y109.412 E49.91698
G1 X103.411 Y109.501 E49.92907
G1 X103.672 Y109.641 E49.94381
G1 X103.903 Y109.81 E49.95805
G1 X104.11 Y110.003 E49.97213
G1 X104.273 Y110.202 E49.98494
G1 X104.429 Y110.446 E49.99935
G1 X104.539 Y110.68 E50.01222
G1 X104.628 Y110.95 E50.02636
G1 X104.681 Y111.231 E50.04059
G1 X104.695 Y111.499 E50.05395
G1 X104.682 Y111.774 E50.06765
G1 X104.632 Y112.04 E50.08112
G1 X104.539 Y112.323 E50.09594
G1 X104.433 Y112.548 E50.10832
G1 X104.275 Y112.795 E50.12291
G1 X104.099 Y113.006 E50.13659
G1 X103.904 Y113.19 E50.14993
G1 X103.677 Y113.356 E50.16392
G1 X103.433 Y113.489 E50.17775
G1 X103.18 Y113.59 E50.19131
G1 X103.057 Y113.622 E50.19764
G1 X102.759 Y113.424 E50.21544
G1 X102.241 Y113.424 E50.24122
G1 X101.945 Y113.622 E50.25894
G1 X101.818 Y113.59 E50.26546
G1 X101.574 Y113.493 E50.27853
G1 X101.326 Y113.357 E50.2926
G1 X101.102 Y113.195 E50.30636
G1 X100.89 Y112.994 E50.3209
G1 X100.727 Y112.8 E50.33351
G1 X100.565 Y112.541 E50.34871
G1 X100.456 Y112.31 E50.36142
G1 X100.37 Y112.049 E50.3751
G1 X100.319 Y111.767 E50.38936
G1 X100.303 Y111.479 E50.40371
G0 F2400 X100.518 Y111.972
G1 F1050 X104.482 Y111.972 E50.60098
G0 F2400 X103.974 Y112.903
G1 F1050 X103.974 Y110.097 E50.74063
G0 F2400 X104.343 Y110.639
G1 F1050 X100.659 Y110.639 E50.92396
G0 F2400 X101.308 Y109.855
G1 F1050 X101.308 Y113.146 E51.08774
G0 F2400 X101.564 Y113.305
G1 F1050 X102.131 Y113.305 E51.11596
G0 F2400 X102.641 Y113.264
G1 F1050 X102.641 Y109.734 E51.29163
G0 F2400 X102.868 Y113.305
G1 F1050 X103.435 Y113.305 E51.31985
G1 F1500 E50.31985
G0 F2400 X103.46 Y109.078
G0 X103.46 Y108.998
G0 X103.506 Y101.414
G0 X103.507 Y101.334
G0 X103.522 Y98.873
G0 X103.522 Y98.793
G0 X103.552 Y93.791
G0 X103.553 Y93.711
G0 X103.556 Y93.329
G1 F1500 E51.31985
G1 F1050 X101.444 Y93.329 E51.42495
G1 X100.388 Y91.5 E51.53005
G1 X101.444 Y89.671 E51.63516
G1 X103.556 Y89.671 E51.74026
G1 X104.612 Y91.5 E51.84536
G1 X103.556 Y93.329 E51.95047
G0 F2400 X102.641 Y93.169
G1 F1050 X102.641 Y89.831 E52.11658
G0 F2400 X101.308 Y90.226
G1 F1050 X101.308 Y92.773 E52.24334
G0 F2400 X100.848 Y91.977
G1 F1050 X104.151 Y91.977 E52.40771
G0 F2400 X103.974 Y92.286
G1 F1050 X103.974 Y90.715 E52.48589
G0 F2400 X103.934 Y90.644
G1 F1050 X101.067 Y90.644 E52.62857
G1 F1500 E51.62857
G0 F2400 X100.597 Y90.37
G0 X99.504 Y89.74
G0 X99.491 Y89.775
G0 X99.518 Y89.699
G0 X100.264 Y87.627
;TYPE:WALL-INNER
