;FLAVOR:Marlin
;TIME:2234
;Filament used: 1.7712m
;Layer height: 0.2
;Generated with Cura_SteamEngine 2.7.0
M190 S60
M104 S220
M109 S220
G21 ;metric values
G90 ;absolute positioning
M82 ;set extruder to absolute mode
M107 ;start with the fan off
G92 E0 ;zero the extruded length
G1 F200 E3 ;extrude 3mm of feed stock
G92 E0 ;zero the extruded length again
G1 F9000
M301 P26.92 I2.54 D71.46 ;set PID tuning for E0
M117 Printing...
;LAYER_COUNT:63
;LAYER:0
M107
M204 S5000
G0 F2400 X74.269 Y82.257 Z0.3
M204 S200
;TYPE:SKIRT
G1 F1200 X74.777 Y81.903 E0.03081
G1 X75.078 Y81.735 E0.04797
G1 X76.942 Y80.784 E0.15211
G1 X81.709 Y78.115 E0.42399
G1 X86.106 Y75.365 E0.68208
G1 X86.635 Y75.078 E0.71203
G1 X87.56 Y74.65 E0.76276
G1 X88.323 Y74.373 E0.80315
G1 X89.696 Y74.002 E0.87393
G1 X90.461 Y73.861 E0.91264
G1 X91.649 Y73.74 E0.97207
G1 X92.268 Y73.717 E1.00289
G1 X92.643 Y73.742 E1.0216
G1 X94.445 Y73.934 E1.11178
G1 X95.313 Y74.109 E1.15585
G1 X96.238 Y74.386 E1.2039
G1 X96.838 Y74.61 E1.23577
G1 X97.789 Y75.04 E1.28771
G1 X98.282 Y75.298 E1.3154
G1 X103.391 Y78.365 E1.61195
G1 X108.194 Y80.904 E1.88232
G1 X109.821 Y81.687 E1.97217
G1 X110.36 Y81.99 E2.00295
G1 X110.856 Y82.361 E2.03377
G1 X111.3 Y82.793 E2.0646
G1 X111.684 Y83.278 E2.09539
G1 X112.003 Y83.809 E2.12621
G1 X112.251 Y84.376 E2.15701
G1 X112.424 Y84.971 E2.18785
G1 X112.518 Y85.583 E2.21866
G1 X112.537 Y86.008 E2.23983
G1 X112.536 Y97.493 E2.81139
G1 X112.496 Y98.111 E2.84221
G1 X112.377 Y98.719 E2.87304
G1 X112.18 Y99.306 E2.90385
G1 X111.91 Y99.863 E2.93466
G1 X111.57 Y100.38 E2.96545
G1 X111.166 Y100.849 E2.99626
G1 X110.468 Y101.437 E3.04168
G1 X107.291 Y103.634 E3.2339
G1 X102.831 Y107.035 E3.51303
G1 X102.513 Y107.257 E3.53233
G1 X101.871 Y107.669 E3.57029
G1 X101.115 Y108.064 E3.61274
G1 X99.134 Y108.884 E3.71944
G1 X98.548 Y109.084 E3.75025
G1 X97.941 Y109.206 E3.78106
G1 X97.152 Y109.247 E3.82038
G1 X93.693 Y109.14 E3.9926
G1 X87.293 Y109.258 E4.31115
G1 X86.675 Y109.23 E4.34194
G1 X86.065 Y109.122 E4.37277
G1 X85.33 Y108.877 E4.41133
G1 X83.042 Y107.905 E4.53504
G1 X82.489 Y107.627 E4.56584
G1 X81.858 Y107.185 E4.60418
G1 X78.914 Y104.747 E4.7944
G1 X74.38 Y101.33 E5.07694
G1 X73.911 Y100.926 E5.10775
G1 X73.498 Y100.465 E5.13855
G1 X73.147 Y99.955 E5.16936
G1 X72.865 Y99.404 E5.20017
G1 X72.702 Y98.972 E5.22314
G1 X71.261 Y94.503 E5.45682
G1 X71.11 Y93.903 E5.48761
G1 X71.037 Y93.288 E5.51843
G1 X71.032 Y92.879 E5.53879
G1 X71.085 Y91.211 E5.62184
G1 X71.145 Y90.594 E5.65269
G1 X71.234 Y90.167 E5.6744
G1 X72.613 Y84.811 E5.94963
G1 X72.806 Y84.223 E5.98043
G1 X73.073 Y83.664 E6.01126
G1 X73.41 Y83.145 E6.04205
G1 X73.811 Y82.673 E6.07288
G1 X74.269 Y82.257 E6.10367
M204 S5000
G0 F2400 X74.617 Y82.491
M204 S200
G1 F1200 X75.26 Y82.09 E6.14138
G1 X77.13 Y81.136 E6.24585
G1 X81.904 Y78.463 E6.51814
G1 X86.317 Y75.703 E6.77717
G1 X86.803 Y75.44 E6.80467
G1 X87.728 Y75.012 E6.85539
G1 X88.427 Y74.758 E6.8924
G1 X89.8 Y74.387 E6.96318
G1 X90.501 Y74.258 E6.99865
G1 X91.689 Y74.137 E7.05808
G1 X92.282 Y74.116 E7.08761
G1 X92.601 Y74.139 E7.10352
G1 X94.403 Y74.331 E7.19371
G1 X95.198 Y74.491 E7.23407
G1 X96.123 Y74.768 E7.28212
G1 X96.674 Y74.974 E7.31139
G1 X97.625 Y75.404 E7.36333
G1 X98.076 Y75.64 E7.38867
G1 X103.191 Y78.711 E7.68557
G1 X108.002 Y81.254 E7.95638
G1 X109.648 Y82.046 E8.04728
G1 X110.164 Y82.339 E8.07681
G1 X110.635 Y82.698 E8.10629
G1 X111.054 Y83.117 E8.13578
G1 X111.413 Y83.589 E8.16529
G1 X111.705 Y84.105 E8.19479
G1 X111.925 Y84.655 E8.22427
G1 X112.069 Y85.23 E8.25377
G1 X112.138 Y86.008 E8.29264
G1 X112.137 Y97.493 E8.8642
G1 X112.097 Y98.085 E8.89373
G1 X111.978 Y98.665 E8.92319
G1 X111.782 Y99.225 E8.95272
G1 X111.512 Y99.753 E8.98223
G1 X111.174 Y100.239 E9.01169
G1 X110.773 Y100.676 E9.04121
G1 X110.241 Y101.109 E9.07534
G1 X107.058 Y103.311 E9.26796
G1 X102.589 Y106.718 E9.54762
G1 X102.298 Y106.922 E9.5653
G1 X101.656 Y107.334 E9.60326
G1 X100.963 Y107.696 E9.64217
G1 X98.982 Y108.516 E9.74887
G1 X98.42 Y108.705 E9.77838
G1 X97.838 Y108.817 E9.80787
G1 X97.164 Y108.848 E9.84145
G1 X93.698 Y108.741 E10.01402
G1 X87.286 Y108.859 E10.33317
G1 X86.694 Y108.83 E10.36267
G1 X86.111 Y108.722 E10.39217
G1 X85.486 Y108.51 E10.42502
G1 X83.198 Y107.538 E10.54873
G1 X82.669 Y107.27 E10.57824
G1 X82.113 Y106.878 E10.6121
G1 X79.149 Y104.424 E10.8036
G1 X74.621 Y101.011 E11.08578
G1 X74.172 Y100.624 E11.11528
G1 X73.78 Y100.179 E11.14479
G1 X73.452 Y99.686 E11.17426
G1 X73.192 Y99.153 E11.20377
G1 X73.082 Y98.849 E11.21986
G1 X71.641 Y94.38 E11.45354
G1 X71.498 Y93.805 E11.48302
G1 X71.433 Y93.216 E11.51251
G1 X71.431 Y92.891 E11.52869
G1 X71.484 Y91.223 E11.61174
G1 X71.543 Y90.634 E11.6412
G1 X71.621 Y90.267 E11.65987
G1 X73 Y84.911 E11.93511
G1 X73.186 Y84.348 E11.96461
G1 X73.446 Y83.815 E11.99413
G1 X73.776 Y83.322 E12.02365
G1 X74.168 Y82.879 E12.05309
G1 X74.617 Y82.491 E12.08262
M204 S5000
G0 F2400 X75.441 Y82.446
M204 S200
G1 F1200 X77.328 Y81.483 E12.18805
G1 X82.094 Y78.815 E12.45986
G1 X86.529 Y76.041 E12.72019
G1 X86.97 Y75.803 E12.74513
G1 X87.895 Y75.375 E12.79585
G1 X88.531 Y75.143 E12.82954
G1 X89.904 Y74.772 E12.90032
G1 X90.542 Y74.655 E12.9326
G1 X91.73 Y74.534 E12.99203
G1 X92.559 Y74.536 E13.03329
G1 X94.361 Y74.728 E13.12347
G1 X95.084 Y74.873 E13.16017
G1 X96.009 Y75.15 E13.20822
G1 X96.509 Y75.337 E13.23479
G1 X97.46 Y75.767 E13.28673
G1 X97.871 Y75.982 E13.30981
G1 X102.992 Y79.057 E13.60707
G1 X107.842 Y81.62 E13.88007
G1 X109.475 Y82.406 E13.97026
G1 X109.966 Y82.686 E13.99838
G1 X110.412 Y83.033 E14.02651
G1 X110.805 Y83.439 E14.05463
G1 X111.136 Y83.897 E14.08275
G1 X111.4 Y84.397 E14.11089
G1 X111.591 Y84.929 E14.13902
G1 X111.704 Y85.483 E14.16715
G1 X111.739 Y86.008 E14.19334
G1 X111.738 Y97.493 E14.7649
G1 X111.698 Y98.057 E14.79303
G1 X111.579 Y98.61 E14.82118
G1 X111.383 Y99.14 E14.84931
G1 X111.114 Y99.637 E14.87743
G1 X110.778 Y100.091 E14.90554
G1 X110.382 Y100.494 E14.93366
G1 X110.014 Y100.781 E14.95688
G1 X106.811 Y102.997 E15.15071
G1 X102.347 Y106.4 E15.43005
G1 X102.082 Y106.586 E15.44616
G1 X101.44 Y106.998 E15.48413
G1 X100.81 Y107.327 E15.5195
G1 X98.829 Y108.147 E15.62619
G1 X98.293 Y108.326 E15.65432
G1 X97.737 Y108.427 E15.68244
G1 X97.177 Y108.449 E15.71033
G1 X93.704 Y108.342 E15.88325
G1 X87.278 Y108.46 E16.20309
G1 X86.714 Y108.431 E16.2312
G1 X86.159 Y108.322 E16.25935
G1 X85.642 Y108.143 E16.28657
G1 X83.354 Y107.171 E16.41028
G1 X82.85 Y106.914 E16.43844
G1 X82.367 Y106.57 E16.46795
G1 X79.411 Y104.122 E16.65895
G1 X74.861 Y100.693 E16.94249
G1 X74.435 Y100.322 E16.9706
G1 X74.065 Y99.894 E16.99875
G1 X73.759 Y99.418 E17.02691
G1 X73.462 Y98.727 E17.06434
G1 X72.021 Y94.258 E17.29802
G1 X71.886 Y93.709 E17.32616
G1 X71.83 Y92.904 E17.36632
G1 X71.883 Y91.236 E17.44937
G1 X71.941 Y90.674 E17.47748
G1 X72.007 Y90.366 E17.49316
G1 X73.386 Y85.01 E17.7684
G1 X73.566 Y84.474 E17.79653
G1 X73.819 Y83.969 E17.82464
G1 X74.14 Y83.504 E17.85276
G1 X74.524 Y83.09 E17.88086
G1 X74.963 Y82.733 E17.90902
G1 X75.441 Y82.446 E17.93677
M204 S5000
G0 F2400 X75.622 Y82.801
M204 S200
G1 F1200 X77.526 Y81.83 E18.04313
G1 X82.314 Y79.149 E18.31622
G1 X86.741 Y76.38 E18.57608
G1 X87.138 Y76.165 E18.59855
G1 X88.063 Y75.737 E18.64927
G1 X88.635 Y75.529 E18.67956
G1 X90.008 Y75.158 E18.75034
G1 X90.582 Y75.052 E18.77939
G1 X91.77 Y74.931 E18.83881
G1 X92.516 Y74.932 E18.87594
G1 X94.318 Y75.124 E18.96612
G1 X94.969 Y75.255 E18.99917
G1 X95.894 Y75.532 E19.04722
G1 X96.345 Y75.701 E19.07119
G1 X97.296 Y76.131 E19.12313
G1 X97.666 Y76.324 E19.1439
G1 X102.801 Y79.407 E19.44196
G1 X107.651 Y81.97 E19.71496
G1 X109.302 Y82.765 E19.80615
G1 X109.766 Y83.033 E19.83281
G1 X110.186 Y83.367 E19.85952
G1 X110.551 Y83.76 E19.88621
G1 X110.854 Y84.202 E19.91288
G1 X111.088 Y84.685 E19.93959
G1 X111.247 Y85.196 E19.96622
G1 X111.329 Y85.726 E19.99291
G1 X111.34 Y86.008 E20.00696
G1 X111.339 Y97.493 E20.57851
G1 X111.299 Y98.028 E20.60521
G1 X111.18 Y98.551 E20.6319
G1 X110.985 Y99.05 E20.65857
G1 X110.717 Y99.515 E20.68527
G1 X110.384 Y99.935 E20.71195
G1 X109.787 Y100.453 E20.75128
G1 X106.578 Y102.673 E20.94547
G1 X102.105 Y106.083 E21.22538
G1 X101.867 Y106.25 E21.23985
G1 X101.225 Y106.662 E21.27781
G1 X100.657 Y106.958 E21.30969
G1 X98.676 Y107.778 E21.41638
G1 X98.167 Y107.946 E21.44306
G1 X97.639 Y108.036 E21.46971
G1 X97.189 Y108.05 E21.49212
G1 X93.708 Y107.943 E21.66544
G1 X87.271 Y108.061 E21.98583
G1 X86.736 Y108.031 E22.0125
G1 X86.211 Y107.922 E22.03918
G1 X85.798 Y107.775 E22.061
G1 X83.51 Y106.803 E22.18471
G1 X83.033 Y106.558 E22.21139
G1 X82.622 Y106.263 E22.23657
G1 X79.656 Y103.807 E22.42821
G1 X75.101 Y100.374 E22.71206
G1 X74.698 Y100.02 E22.73876
G1 X74.352 Y99.611 E22.76542
G1 X74.071 Y99.154 E22.79212
G1 X73.842 Y98.604 E22.82177
G1 X72.401 Y94.135 E23.05544
G1 X72.275 Y93.614 E23.08212
G1 X72.229 Y92.917 E23.11688
G1 X72.282 Y91.249 E23.19993
G1 X72.394 Y90.466 E23.23929
G1 X73.773 Y85.11 E23.51453
G1 X73.945 Y84.602 E23.54122
G1 X74.19 Y84.125 E23.56791
G1 X74.504 Y83.69 E23.59461
G1 X74.879 Y83.307 E23.62128
G1 X75.306 Y82.983 E23.64796
G1 X75.622 Y82.801 E23.6661
M204 S5000
G0 F2400 X75.804 Y83.157
M204 S200
G1 F1200 X77.693 Y82.193 E23.77164
G1 X82.509 Y79.497 E24.04631
G1 X86.952 Y76.718 E24.30711
G1 X87.305 Y76.527 E24.32708
G1 X88.23 Y76.099 E24.37781
G1 X88.739 Y75.914 E24.40476
G1 X90.112 Y75.543 E24.47554
G1 X90.623 Y75.448 E24.5014
G1 X91.811 Y75.327 E24.56083
G1 X92.474 Y75.329 E24.59382
G1 X94.276 Y75.521 E24.68401
G1 X94.855 Y75.638 E24.71341
G1 X95.78 Y75.915 E24.76146
G1 X96.18 Y76.064 E24.7827
G1 X97.131 Y76.494 E24.83464
G1 X97.46 Y76.667 E24.85314
G1 X102.594 Y79.75 E25.15116
G1 X107.469 Y82.326 E25.42556
G1 X109.129 Y83.125 E25.51724
G1 X109.566 Y83.379 E25.54239
G1 X109.957 Y83.699 E25.56754
G1 X110.293 Y84.077 E25.59271
G1 X110.565 Y84.503 E25.61786
G1 X110.767 Y84.967 E25.64304
G1 X110.893 Y85.456 E25.66817
G1 X110.941 Y86.008 E25.69575
G1 X110.94 Y97.493 E26.26731
G1 X110.9 Y97.997 E26.29247
G1 X110.781 Y98.489 E26.31766
G1 X110.586 Y98.955 E26.3428
G1 X110.321 Y99.385 E26.36793
G1 X109.99 Y99.768 E26.39312
G1 X109.56 Y100.125 E26.42094
G1 X106.344 Y102.349 E26.61552
G1 X101.863 Y105.766 E26.89596
G1 X101.651 Y105.914 E26.90883
G1 X101.009 Y106.326 E26.94679
G1 X100.505 Y106.59 E26.97511
G1 X98.524 Y107.41 E27.0818
G1 X98.043 Y107.566 E27.10697
G1 X97.543 Y107.644 E27.13215
G1 X97.201 Y107.651 E27.14918
G1 X93.713 Y107.543 E27.32284
G1 X87.264 Y107.662 E27.64383
G1 X86.759 Y107.632 E27.66901
G1 X86.266 Y107.522 E27.69415
G1 X85.954 Y107.408 E27.71068
G1 X83.666 Y106.436 E27.83439
G1 X83.218 Y106.202 E27.85954
G1 X82.876 Y105.956 E27.88051
G1 X79.891 Y103.484 E28.07338
G1 X75.341 Y100.055 E28.35692
G1 X74.963 Y99.72 E28.38205
G1 X74.642 Y99.33 E28.40719
G1 X74.386 Y98.893 E28.4324
G1 X74.221 Y98.482 E28.45444
G1 X72.78 Y94.013 E28.68811
G1 X72.664 Y93.521 E28.71327
G1 X72.628 Y92.929 E28.74278
G1 X72.681 Y91.261 E28.82584
G1 X72.78 Y90.565 E28.86082
G1 X74.159 Y85.209 E29.13606
G1 X74.323 Y84.731 E29.16121
G1 X74.561 Y84.285 E29.18636
G1 X74.866 Y83.881 E29.21156
G1 X75.231 Y83.531 E29.23672
G1 X75.804 Y83.157 E29.27077
M204 S5000
G0 F2400 X76.063 Y91.502
M204 S200
;TYPE:SUPPORT
G1 F1200 X76.351 Y91.387 E29.28621
G1 X76.351 Y93.042 E29.36857
G1 X76.018 Y92.901 E29.38657
G1 X76.063 Y91.502 E29.45622
M204 S5000
G1 F1500 E27.45622
G0 F2400 X76.589 Y97.657
G0 X77.093 Y98.161
G0 X81.243 Y98.399
M204 S200
G1 F1500 E29.45622
G1 F1200 X83.402 Y98.399 E29.56367
G1 X83.457 Y98.676 E29.57772
G1 X83.677 Y98.896 E29.5932
G1 X81.451 Y98.896 E29.70398
G1 X81.243 Y98.399 E29.73079
M204 S5000
G0 F2400 X81.6 Y98.598
M204 S200
G1 F1200 X81.6 Y98.697 E29.73572
M204 S5000
G0 F2400 X82.4 Y98.697
M204 S200
G1 F1200 X82.4 Y98.598 E29.74065
M204 S5000
G0 F2400 X83.2 Y98.598
M204 S200
G1 F1200 X83.2 Y98.697 E29.74558
M204 S5000
G0 F2400 X85.609 Y100.42
M204 S200
G1 F1200 X86.351 Y100.109 E29.78561
G1 X86.351 Y101.435 E29.8516
G1 X86.749 Y101.833 E29.87961
G1 X87.002 Y101.833 E29.8922
G1 X87.002 Y103.223 E29.96138
G1 X87.166 Y103.764 E29.98951
G1 X87.002 Y103.929 E30.00109
G1 X87.002 Y104.172 E30.01318
G1 X85.11 Y103.368 E30.11549
G1 X85.11 Y100.321 E30.26712
G1 X85.609 Y100.42 E30.29244
M204 S5000
G0 F2400 X85.6 Y100.622
M204 S200
G1 F1200 X85.6 Y103.359 E30.42865
M204 S5000
G0 F2400 X85.309 Y103.2
M204 S200
G1 F1200 X86.803 Y103.2 E30.503
M204 S5000
G0 F2400 X86.4 Y103.699
M204 S200
G1 F1200 X86.4 Y101.765 E30.59924
M204 S5000
G0 F2400 X86.235 Y101.6
M204 S200
G1 F1200 X85.309 Y101.6 E30.64533
M204 S5000
G0 F2400 X85.309 Y100.8
M204 S200
G1 F1200 X86.152 Y100.8 E30.68728
M204 S5000
G0 F2400 X86.803 Y102.4
M204 S200
G1 F1200 X85.309 Y102.4 E30.76163
M204 S5000
G0 F2400 X97.498 Y103.963
M204 S200
G1 F1200 X97.304 Y103.765 E30.77542
G1 X97.498 Y103.299 E30.80054
G1 X97.498 Y101.834 E30.87345
G1 X97.751 Y101.834 E30.88604
G1 X98.149 Y101.436 E30.91405
G1 X98.149 Y100.106 E30.98024
G1 X98.883 Y100.417 E31.01991
G1 X99.39 Y100.318 E31.04562
G1 X99.39 Y103.372 E31.1976
G1 X97.498 Y104.164 E31.29967
G1 X97.498 Y103.963 E31.30968
M204 S5000
G0 F2400 X97.6 Y103.783
M204 S200
G1 F1200 X97.6 Y103.571 E31.32023
M204 S5000
G0 F2400 X97.697 Y103.2
M204 S200
G1 F1200 X99.191 Y103.2 E31.39458
M204 S5000
G0 F2400 X99.191 Y102.4
M204 S200
G1 F1200 X97.697 Y102.4 E31.46893
M204 S5000
G0 F2400 X98.266 Y101.6
M204 S200
G1 F1200 X99.191 Y101.6 E31.51496
M204 S5000
G0 F2400 X99.191 Y100.8
M204 S200
G1 F1200 X98.348 Y100.8 E31.55691
M204 S5000
G0 F2400 X98.4 Y100.429
M204 S200
G1 F1200 X98.4 Y103.571 E31.71328
M204 S5000
G0 F2400 X101.042 Y98.672
M204 S200
G1 F1200 X101.097 Y98.399 E31.72713
G1 X103.258 Y98.399 E31.83468
G1 X103.05 Y98.896 E31.86149
G1 X100.817 Y98.896 E31.97262
G1 X101.042 Y98.672 E31.98842
M204 S5000
G0 F2400 X101.6 Y98.697
M204 S200
G1 F1200 X101.6 Y98.598 E31.99334
M204 S5000
G0 F2400 X102.4 Y98.598
M204 S200
G1 F1200 X102.4 Y98.697 E31.99827
M204 S5000
G1 F1500 E29.99827
G0 F2400 X102.4 Y98.165
G0 X102.4 Y96.883
G0 X96.583 Y96.833
G0 X96.653 Y96.903
M204 S200
;TYPE:WALL-INNER
G1 F1500 E31.99827
G1 F1200 X96.653 Y99.922 E32.14851
G1 X96.653 Y100.121 E32.15842
G1 X96.454 Y100.121 E32.16482
G1 X87.847 Y100.12 E32.59315
G1 X87.847 Y96.903 E32.75325
G1 X77.847 Y96.903 E33.2509
G1 X77.847 Y86.796 E33.75388
G1 X77.847 Y86.597 E33.76379
G1 X78.046 Y86.597 E33.77019
G1 X83.674 Y86.598 E34.05027
G1 X83.7 Y86.899 E34.06531
G1 X83.737 Y87.2 E34.0804
G1 X83.84 Y87.787 E34.11006
G1 X83.986 Y88.369 E34.13992
G1 X84.171 Y88.942 E34.16989
G1 X84.396 Y89.497 E34.19969
G1 X84.656 Y90.032 E34.22929
G1 X84.808 Y90.304 E34.2448
G1 X85.123 Y90.808 E34.27438
G1 X85.472 Y91.289 E34.30395
G1 X85.665 Y91.526 E34.31916
G1 X85.861 Y91.752 E34.33405
G1 X86.066 Y91.972 E34.34901
G1 X86.278 Y92.184 E34.36393
G1 X86.501 Y92.392 E34.37911
G1 X86.957 Y92.775 E34.40874
G1 X87.443 Y93.127 E34.43861
G1 X87.946 Y93.442 E34.46814
G1 X88.218 Y93.594 E34.48365
G1 X88.753 Y93.854 E34.51325
G1 X89.31 Y94.079 E34.54315
G1 X89.88 Y94.264 E34.57297
G1 X90.463 Y94.41 E34.60288
G1 X91.053 Y94.513 E34.63269
G1 X91.65 Y94.577 E34.66257
G1 X92.248 Y94.597 E34.69234
G1 X92.85 Y94.577 E34.72232
G1 X93.447 Y94.513 E34.7522
G1 X94.037 Y94.41 E34.782
G1 X94.619 Y94.264 E34.81186
G1 X95.192 Y94.079 E34.84183
G1 X95.747 Y93.854 E34.87163
G1 X96.282 Y93.594 E34.90123
G1 X96.554 Y93.442 E34.91674
G1 X97.058 Y93.127 E34.94632
G1 X97.539 Y92.778 E34.97589
G1 X97.776 Y92.585 E34.9911
G1 X98.002 Y92.389 E35.00599
G1 X98.222 Y92.184 E35.02096
G1 X98.434 Y91.972 E35.03588
G1 X98.642 Y91.749 E35.05105
G1 X99.025 Y91.293 E35.08069
G1 X99.377 Y90.807 E35.11055
G1 X99.692 Y90.304 E35.14009
G1 X99.844 Y90.032 E35.15559
G1 X100.104 Y89.497 E35.1852
G1 X100.329 Y88.94 E35.21509
G1 X100.514 Y88.37 E35.24491
G1 X100.66 Y87.787 E35.27482
G1 X100.763 Y87.197 E35.30463
G1 X100.827 Y86.597 E35.33466
G1 X107.153 Y86.597 E35.64947
G1 X107.153 Y96.903 E36.16236
G1 X96.653 Y96.903 E36.68489
M204 S5000
G0 F2400 X97.051 Y97.301
M204 S200
;TYPE:WALL-OUTER
G1 F1200 X97.051 Y100.32 E36.83514
G1 X97.051 Y100.519 E36.84504
G1 X96.852 Y100.519 E36.85145
