;FLAVOR:Marlin
;TIME:2135
;Filament used: 1.2372m
;Layer height: 0.15
;Generated with Cura_SteamEngine 2.7.0
M190 S60
M104 S220
M109 S220
G21 ;metric values
G90 ;absolute positioning
M82 ;set extruder to absolute mode
M107 ;start with the fan off
G92 E0 ;zero the extruded length
G1 F200 E3 ;extrude 3mm of feed stock
G92 E0 ;zero the extruded length again
G1 F9000
M301 P31.36 I3.30 D74.51 ;set PID tuning for E0
M304 P72.25 I2.72 D479.41 ; set PID tuning for heated bed
M117 Printing...
;LAYER_COUNT:134
;LAYER:0
M107
M205 X20 Y20
G0 F2400 X67.207 Y79.432 Z0.3
G0 X66.784 Y79.885
;TYPE:SKIRT
G1 F1050 X67.207 Y79.432 E0.03084
G1 X67.684 Y79.038 E0.06163
G1 X68.201 Y78.712 E0.09205
G1 X68.64 Y78.473 E0.11692
G1 X69.201 Y78.212 E0.14772
G1 X69.902 Y78.001 E0.18415
G1 X70.379 Y77.896 E0.20845
G1 X70.991 Y77.802 E0.23927
G1 X71.61 Y77.788 E0.27008
G1 X72.225 Y77.854 E0.30086
G1 X72.827 Y77.998 E0.33167
G1 X73.406 Y78.219 E0.36251
G1 X74.001 Y78.544 E0.39625
G1 X76.946 Y80.434 E0.57039
G1 X81.632 Y83.163 E0.84026
G1 X86.422 Y85.601 E1.10773
G1 X91.393 Y87.786 E1.37796
G1 X93.902 Y88.765 E1.51199
G1 X96.376 Y89.648 E1.64272
G1 X101.545 Y91.253 E1.91207
G1 X106.797 Y92.563 E2.18145
G1 X109.397 Y93.096 E2.31353
G1 X113.758 Y93.83 E2.53361
G1 X114.36 Y93.972 E2.56439
G1 X114.94 Y94.191 E2.59524
G1 X115.486 Y94.482 E2.62603
G1 X116.106 Y94.938 E2.66433
G1 X118.634 Y97.132 E2.83091
G1 X119.074 Y97.567 E2.86171
G1 X119.455 Y98.055 E2.89252
G1 X119.769 Y98.588 E2.9233
G1 X120.013 Y99.158 E2.95416
G1 X120.181 Y99.754 E2.98497
G1 X120.281 Y100.538 E3.02431
G1 X120.351 Y102.093 E3.10177
G1 X120.339 Y102.712 E3.13258
G1 X120.247 Y103.325 E3.16343
G1 X120.077 Y103.92 E3.19422
G1 X119.832 Y104.488 E3.22501
G1 X119.516 Y105.021 E3.25584
G1 X119.015 Y105.635 E3.29528
G1 X118.912 Y105.742 E3.30267
G1 X118.455 Y106.159 E3.33346
G1 X117.948 Y106.514 E3.36426
G1 X117.399 Y106.801 E3.39509
G1 X116.818 Y107.015 E3.4259
G1 X116.214 Y107.152 E3.45673
G1 X115.507 Y107.212 E3.49204
G1 X110.816 Y107.261 E3.7255
G1 X105.428 Y107.566 E3.99406
G1 X100.085 Y108.173 E4.26167
G1 X94.744 Y109.089 E4.53135
G1 X90.819 Y109.952 E4.73135
G1 X90.207 Y110.046 E4.76216
G1 X89.783 Y110.064 E4.78328
G1 X85.122 Y110.058 E5.01524
G1 X84.504 Y110.017 E5.04606
G1 X83.975 Y109.917 E5.07285
G1 X77.926 Y108.418 E5.38299
G1 X75.383 Y107.911 E5.51203
G1 X70.224 Y107.066 E5.77219
G1 X69.621 Y106.927 E5.80299
G1 X68.912 Y106.65 E5.84087
G1 X68.451 Y106.427 E5.86635
G1 X67.912 Y106.122 E5.89717
G1 X67.417 Y105.751 E5.92796
G1 X66.908 Y105.243 E5.96375
G1 X66.386 Y104.638 E6.00351
G1 X66.012 Y104.144 E6.03435
G1 X65.706 Y103.606 E6.06515
G1 X65.552 Y103.255 E6.08422
G1 X65.436 Y102.959 E6.10005
G1 X65.247 Y102.369 E6.13088
G1 X65.114 Y101.506 E6.17433
G1 X65.039 Y100.296 E6.23466
G1 X65.03 Y99.992 E6.2498
G1 X65.054 Y84.026 E7.04436
G1 X65.095 Y83.408 E7.07518
G1 X65.28 Y82.579 E7.11745
G1 X65.448 Y82.051 E7.14502
G1 X65.673 Y81.474 E7.17584
G1 X65.971 Y80.931 E7.20667
G1 X66.308 Y80.466 E7.23525
G1 X66.784 Y79.885 E7.27263
G0 F2400 X67.093 Y80.137
G1 F1050 X67.498 Y79.705 E7.30209
G1 X67.959 Y79.332 E7.33161
G1 X68.392 Y79.062 E7.357
G1 X68.831 Y78.823 E7.38187
G1 X69.369 Y78.576 E7.41134
G1 X69.988 Y78.391 E7.44349
G1 X70.465 Y78.286 E7.46779
G1 X71.051 Y78.198 E7.49728
G1 X71.644 Y78.189 E7.5268
G1 X72.232 Y78.261 E7.55628
G1 X72.806 Y78.41 E7.58579
G1 X73.354 Y78.636 E7.61529
G1 X73.785 Y78.88 E7.63994
G1 X76.735 Y80.773 E7.81437
G1 X81.428 Y83.506 E8.08464
G1 X86.273 Y85.972 E8.35519
G1 X91.227 Y88.15 E8.6245
G1 X93.759 Y89.138 E8.75976
G1 X96.242 Y90.024 E8.89096
G1 X101.439 Y91.638 E9.16177
G1 X106.717 Y92.954 E9.43248
G1 X109.329 Y93.49 E9.56517
G1 X113.692 Y94.224 E9.78535
G1 X114.268 Y94.361 E9.81482
G1 X114.821 Y94.575 E9.84432
G1 X115.34 Y94.862 E9.87384
G1 X115.844 Y95.239 E9.90516
G1 X118.372 Y97.433 E10.07174
G1 X118.792 Y97.851 E10.10123
G1 X119.153 Y98.322 E10.13076
G1 X119.447 Y98.836 E10.16023
G1 X119.669 Y99.386 E10.18975
G1 X119.815 Y99.961 E10.21927
G1 X119.883 Y100.556 E10.24907
G1 X119.953 Y102.111 E10.32654
G1 X119.939 Y102.704 E10.35606
G1 X119.846 Y103.289 E10.38554
G1 X119.676 Y103.857 E10.41504
G1 X119.43 Y104.396 E10.44453
G1 X119.114 Y104.898 E10.47405
G1 X118.728 Y105.358 E10.50393
G1 X118.625 Y105.465 E10.51132
G1 X118.186 Y105.864 E10.54084
G1 X117.697 Y106.199 E10.57034
G1 X117.168 Y106.466 E10.59983
G1 X116.608 Y106.66 E10.62932
G1 X116.027 Y106.776 E10.65881
G1 X115.503 Y106.813 E10.68495
G1 X110.811 Y106.862 E10.91846
G1 X105.395 Y107.169 E11.18843
G1 X100.024 Y107.779 E11.45743
G1 X94.66 Y108.698 E11.72827
G1 X90.734 Y109.562 E11.92832
G1 X90.147 Y109.65 E11.95786
G1 X89.783 Y109.665 E11.97599
G1 X85.122 Y109.659 E12.20795
G1 X84.531 Y109.618 E12.23743
G1 X84.071 Y109.53 E12.26074
G1 X78.014 Y108.029 E12.57128
G1 X75.437 Y107.516 E12.70204
G1 X70.289 Y106.672 E12.96166
G1 X69.712 Y106.537 E12.99115
G1 X69.085 Y106.291 E13.02467
G1 X68.624 Y106.068 E13.05015
G1 X68.109 Y105.775 E13.07964
G1 X67.638 Y105.415 E13.10914
G1 X67.21 Y104.982 E13.13944
G1 X66.688 Y104.377 E13.17921
G1 X66.332 Y103.904 E13.20867
G1 X66.043 Y103.386 E13.23819
G1 X65.923 Y103.109 E13.25321
G1 X65.807 Y102.813 E13.26903
G1 X65.629 Y102.248 E13.29851
G1 X65.512 Y101.481 E13.33712
G1 X65.437 Y100.271 E13.39745
G1 X65.429 Y99.992 E13.41134
G1 X65.453 Y84.026 E14.2059
G1 X65.494 Y83.435 E14.23538
G1 X65.66 Y82.7 E14.27288
G1 X65.828 Y82.172 E14.30046
G1 X66.045 Y81.62 E14.32997
G1 X66.335 Y81.103 E14.35947
G1 X66.617 Y80.718 E14.38322
G1 X67.093 Y80.137 E14.4206
G0 F2400 X67.401 Y80.39
G1 F1050 X67.79 Y79.98 E14.44873
G1 X68.232 Y79.628 E14.47685
G1 X68.582 Y79.413 E14.49729
G1 X69.021 Y79.174 E14.52216
G1 X69.536 Y78.939 E14.55033
G1 X70.074 Y78.78 E14.57825
G1 X70.551 Y78.675 E14.60256
G1 X71.11 Y78.593 E14.63068
G1 X71.675 Y78.591 E14.65879
G1 X72.235 Y78.668 E14.68692
G1 X72.778 Y78.823 E14.71503
G1 X73.294 Y79.054 E14.74316
G1 X73.57 Y79.215 E14.75906
G1 X76.541 Y81.122 E14.93475
G1 X81.246 Y83.862 E15.20571
G1 X86.089 Y86.327 E15.47615
G1 X91.09 Y88.525 E15.748
G1 X93.616 Y89.511 E15.88295
G1 X96.116 Y90.403 E16.01504
G1 X101.324 Y92.02 E16.28643
G1 X106.637 Y93.345 E16.55893
G1 X109.243 Y93.88 E16.69132
G1 X113.625 Y94.617 E16.91246
G1 X114.175 Y94.75 E16.94062
G1 X114.7 Y94.959 E16.96874
G1 X115.19 Y95.24 E16.99685
G1 X115.583 Y95.541 E17.02148
G1 X118.111 Y97.735 E17.18806
G1 X118.51 Y98.134 E17.21614
G1 X118.849 Y98.586 E17.24426
G1 X119.121 Y99.082 E17.27241
G1 X119.321 Y99.611 E17.30056
G1 X119.444 Y100.162 E17.32865
G1 X119.484 Y100.574 E17.34925
G1 X119.554 Y102.129 E17.42672
G1 X119.539 Y102.694 E17.45484
G1 X119.445 Y103.252 E17.48301
G1 X119.274 Y103.79 E17.5111
G1 X119.028 Y104.299 E17.53923
G1 X118.712 Y104.768 E17.56738
G1 X118.44 Y105.082 E17.58805
G1 X118.337 Y105.189 E17.59544
G1 X117.918 Y105.567 E17.62352
G1 X117.449 Y105.883 E17.65167
G1 X116.94 Y106.129 E17.6798
G1 X116.402 Y106.301 E17.70791
G1 X115.844 Y106.395 E17.73607
G1 X115.499 Y106.414 E17.75327
G1 X110.806 Y106.463 E17.98683
G1 X105.345 Y106.772 E18.25903
G1 X99.966 Y107.383 E18.52844
G1 X94.61 Y108.301 E18.79887
G1 X90.648 Y109.173 E19.00076
G1 X90.089 Y109.255 E19.02888
G1 X89.784 Y109.266 E19.04407
G1 X85.123 Y109.26 E19.27602
G1 X84.559 Y109.219 E19.30417
G1 X84.167 Y109.143 E19.32404
G1 X78.101 Y107.64 E19.63504
G1 X75.49 Y107.12 E19.76753
G1 X70.354 Y106.278 E20.02654
G1 X69.804 Y106.148 E20.05467
G1 X69.259 Y105.932 E20.08384
G1 X68.798 Y105.709 E20.10933
G1 X68.308 Y105.428 E20.13744
G1 X67.862 Y105.08 E20.16559
G1 X67.512 Y104.722 E20.1905
G1 X66.99 Y104.117 E20.23027
G1 X66.652 Y103.664 E20.2584
G1 X66.295 Y102.964 E20.2975
G1 X66.179 Y102.668 E20.31332
G1 X66.01 Y102.128 E20.34148
G1 X65.911 Y101.456 E20.37529
G1 X65.836 Y100.246 E20.43562
G1 X65.828 Y99.993 E20.44821
G1 X65.852 Y84.027 E21.24277
G1 X65.893 Y83.463 E21.27091
G1 X66.04 Y82.821 E21.30369
G1 X66.208 Y82.293 E21.33126
G1 X66.417 Y81.768 E21.35938
G1 X66.698 Y81.277 E21.38754
G1 X66.925 Y80.971 E21.4065
G1 X67.401 Y80.39 E21.44388
G0 F2400 X67.71 Y80.643
G1 F1050 X68.08 Y80.255 E21.47056
G1 X68.503 Y79.926 E21.49723
G1 X68.773 Y79.763 E21.51292
G1 X69.212 Y79.524 E21.5378
G1 X69.701 Y79.303 E21.5645
G1 X70.159 Y79.17 E21.58824
G1 X70.636 Y79.065 E21.61254
G1 X71.167 Y78.989 E21.63924
G1 X71.703 Y78.993 E21.66591
G1 X72.233 Y79.076 E21.69261
G1 X72.744 Y79.238 E21.71929
G1 X73.354 Y79.551 E21.75341
G1 X76.329 Y81.461 E21.92935
G1 X81.057 Y84.213 E22.20159
G1 X85.911 Y86.684 E22.47265
G1 X90.924 Y88.888 E22.74517
G1 X93.473 Y89.883 E22.88135
G1 X96.004 Y90.786 E23.01508
G1 X101.219 Y92.405 E23.28683
G1 X106.529 Y93.729 E23.55917
G1 X109.208 Y94.279 E23.69528
G1 X113.559 Y95.011 E23.91485
G1 X114.08 Y95.139 E23.94155
G1 X114.576 Y95.343 E23.96824
G1 X115.036 Y95.618 E23.99491
G1 X115.321 Y95.842 E24.01295
G1 X117.849 Y98.036 E24.17953
G1 X118.227 Y98.417 E24.20624
G1 X118.544 Y98.849 E24.2329
G1 X118.793 Y99.324 E24.25959
G1 X118.968 Y99.83 E24.28624
G1 X119.085 Y100.592 E24.3246
G1 X119.155 Y102.147 E24.40207
G1 X119.14 Y102.683 E24.42875
G1 X119.044 Y103.211 E24.45546
G1 X118.872 Y103.718 E24.4821
G1 X118.625 Y104.195 E24.50883
G1 X118.153 Y104.805 E24.54722
G1 X118.05 Y104.912 E24.55461
G1 X117.65 Y105.269 E24.58129
G1 X117.202 Y105.564 E24.60798
G1 X116.715 Y105.788 E24.63466
G1 X116.2 Y105.937 E24.66134
G1 X115.495 Y106.015 E24.69664
G1 X110.78 Y106.064 E24.9313
G1 X105.33 Y106.373 E25.20295
G1 X99.904 Y106.989 E25.47472
G1 X94.523 Y107.912 E25.74641
G1 X90.562 Y108.783 E25.94824
G1 X89.784 Y108.867 E25.98719
G1 X85.123 Y108.861 E26.21914
G1 X84.589 Y108.82 E26.2458
G1 X84.262 Y108.755 E26.26239
G1 X78.204 Y107.254 E26.57298
G1 X75.577 Y106.73 E26.70629
G1 X70.418 Y105.885 E26.96645
G1 X69.897 Y105.759 E26.99313
G1 X69.433 Y105.573 E27.01801
G1 X68.972 Y105.35 E27.04349
G1 X68.508 Y105.081 E27.07018
G1 X68.089 Y104.746 E27.09688
G1 X67.814 Y104.461 E27.11659
G1 X67.292 Y103.856 E27.15636
G1 X66.973 Y103.425 E27.18304
G1 X66.666 Y102.818 E27.21689
G1 X66.55 Y102.522 E27.23271
G1 X66.392 Y102.01 E27.25938
G1 X66.309 Y101.432 E27.28844
G1 X66.234 Y100.222 E27.34877
G1 X66.227 Y99.994 E27.36012
G1 X66.251 Y84.028 E28.15468
G1 X66.292 Y83.493 E28.18138
G1 X66.42 Y82.942 E28.20953
G1 X66.588 Y82.414 E28.23711
G1 X66.789 Y81.916 E28.26383
G1 X67.06 Y81.454 E28.29049
G1 X67.234 Y81.224 E28.30484
G1 X67.71 Y80.643 E28.34222
G0 F2400 X68.019 Y80.896
G1 F1050 X68.369 Y80.531 E28.36738
G1 X68.964 Y80.114 E28.40354
G1 X69.403 Y79.875 E28.42842
G1 X69.865 Y79.669 E28.45359
G1 X70.245 Y79.56 E28.47326
G1 X70.722 Y79.455 E28.49757
G1 X71.223 Y79.385 E28.52275
G1 X71.728 Y79.396 E28.54788
G1 X72.226 Y79.486 E28.57307
G1 X72.703 Y79.653 E28.59822
G1 X73.138 Y79.887 E28.6228
G1 X76.118 Y81.8 E28.79903
G1 X80.853 Y84.557 E29.0717
G1 X85.755 Y87.052 E29.34543
G1 X90.767 Y89.255 E29.61789
G1 X93.33 Y90.255 E29.7548
G1 X95.871 Y91.162 E29.88907
G1 X101.109 Y92.789 E30.16203
G1 X106.449 Y94.121 E30.43592
G1 X109.118 Y94.668 E30.5715
G1 X113.493 Y95.404 E30.79229
G1 X113.983 Y95.527 E30.81743
G1 X114.448 Y95.726 E30.8426
G1 X115.059 Y96.143 E30.87941
G1 X117.587 Y98.337 E31.04599
G1 X117.942 Y98.698 E31.07119
G1 X118.235 Y99.11 E31.09635
G1 X118.46 Y99.562 E31.12148
G1 X118.61 Y100.045 E31.14664
G1 X118.687 Y100.61 E31.17502
G1 X118.757 Y102.165 E31.25249
G1 X118.74 Y102.67 E31.27763
G1 X118.643 Y103.167 E31.30283
G1 X118.469 Y103.641 E31.32796
G1 X118.223 Y104.083 E31.35313
G1 X117.865 Y104.528 E31.38156
G1 X117.762 Y104.635 E31.38895
G1 X117.384 Y104.971 E31.41412
G1 X116.958 Y105.242 E31.43924
G1 X116.494 Y105.443 E31.46441
G1 X116.004 Y105.569 E31.48958
G1 X115.49 Y105.616 E31.51527
G1 X110.774 Y105.665 E31.74998
G1 X105.299 Y105.976 E32.02288
G1 X99.846 Y106.594 E32.29599
G1 X94.431 Y107.523 E32.56941
G1 X90.476 Y108.393 E32.77094
G1 X89.785 Y108.468 E32.80553
G1 X85.124 Y108.462 E33.03748
G1 X84.62 Y108.421 E33.06265
G1 X84.358 Y108.368 E33.07595
G1 X78.271 Y106.86 E33.38803
G1 X75.658 Y106.339 E33.52063
G1 X70.483 Y105.491 E33.7816
G1 X69.992 Y105.37 E33.80676
G1 X69.607 Y105.214 E33.82744
G1 X69.146 Y104.991 E33.85292
G1 X68.709 Y104.735 E33.87813
G1 X68.319 Y104.414 E33.90326
G1 X68.116 Y104.2 E33.91794
G1 X67.594 Y103.595 E33.95771
G1 X67.295 Y103.188 E33.98284
G1 X67.038 Y102.673 E34.01149
G1 X66.922 Y102.377 E34.02731
G1 X66.775 Y101.893 E34.05248
G1 X66.707 Y101.407 E34.0769
G1 X66.632 Y100.197 E34.13723
G1 X66.626 Y99.994 E34.14734
G1 X66.65 Y84.028 E34.9419
G1 X66.691 Y83.524 E34.96706
G1 X66.801 Y83.063 E34.99065
G1 X66.969 Y82.535 E35.01822
G1 X67.16 Y82.067 E35.04338
G1 X67.543 Y81.477 E35.07838
G1 X68.019 Y80.896 E35.11576
G1 F1500 E34.11576
G0 F2400 X115.657 Y100.089
G0 X116.161 Y100.593
G0 X116.161 Y101.779
G0 X115.657 Y102.283
G0 X85.342 Y102.624
;TYPE:SUPPORT
G1 F1500 E35.11576
G1 F1050 X85.237 Y102.519 E35.12315
G1 X89.705 Y102.519 E35.3455
G1 X89.6 Y102.624 E35.35289
G1 X89.6 Y105.078 E35.47502
G1 X85.342 Y105.078 E35.68692
G1 X85.342 Y102.624 E35.80904
G0 F2400 X86.645 Y102.679
G1 F1050 X86.645 Y104.918 E35.92047
G0 F2400 X87.978 Y104.918
G1 F1050 X87.978 Y102.679 E36.03189
G0 F2400 X89.311 Y102.679
G1 F1050 X89.311 Y104.918 E36.14332
G0 F2400 X89.44 Y103.974
G1 F1050 X85.502 Y103.974 E36.33929
G1 F1500 E35.33929
G0 F2400 X115.657 Y102.283
G0 X116.161 Y101.779
G0 X116.161 Y100.593
G0 X115.657 Y100.089
G0 X72.399 Y99.851
G1 F1500 E36.33929
G1 F1050 X72.399 Y98.748 E36.39419
G1 X112.883 Y98.749 E38.40889
G1 X113.001 Y98.867 E38.4172
G1 X113.001 Y99.851 E38.46616
G1 X72.399 Y99.851 E40.48674
G0 F2400 X73.315 Y99.691
G1 F1050 X73.315 Y98.909 E40.52566
G0 F2400 X74.648 Y98.909
G1 F1050 X74.648 Y99.691 E40.56458
G0 F2400 X75.981 Y99.691
G1 F1050 X75.981 Y98.909 E40.60349
G0 F2400 X77.314 Y98.909
G1 F1050 X77.314 Y99.691 E40.64241
G0 F2400 X78.647 Y99.691
G1 F1050 X78.647 Y98.909 E40.68133
G0 F2400 X79.98 Y98.909
G1 F1050 X79.98 Y99.691 E40.72024
G0 F2400 X81.313 Y99.691
G1 F1050 X81.313 Y98.909 E40.75916
G0 F2400 X82.646 Y98.909
G1 F1050 X82.646 Y99.691 E40.79808
G0 F2400 X83.979 Y99.691
G1 F1050 X83.979 Y98.909 E40.83699
G0 F2400 X85.312 Y98.909
G1 F1050 X85.312 Y99.691 E40.87591
G0 F2400 X86.645 Y99.691
G1 F1050 X86.645 Y98.909 E40.91483
G0 F2400 X87.978 Y98.909
G1 F1050 X87.978 Y99.691 E40.95374
G0 F2400 X89.311 Y99.691
G1 F1050 X89.311 Y98.909 E40.99266
G0 F2400 X90.644 Y98.909
G1 F1050 X90.644 Y99.691 E41.03157
G0 F2400 X91.977 Y99.691
G1 F1050 X91.977 Y98.909 E41.07049
G0 F2400 X93.31 Y98.909
G1 F1050 X93.31 Y99.691 E41.10941
G0 F2400 X94.643 Y99.691
G1 F1050 X94.643 Y98.909 E41.14832
G0 F2400 X95.976 Y98.909
G1 F1050 X95.976 Y99.691 E41.18724
G0 F2400 X97.309 Y99.691
G1 F1050 X97.309 Y98.909 E41.22616
G0 F2400 X98.642 Y98.909
G1 F1050 X98.642 Y99.691 E41.26507
G0 F2400 X99.975 Y99.691
G1 F1050 X99.975 Y98.909 E41.30399
G0 F2400 X101.308 Y98.909
G1 F1050 X101.308 Y99.691 E41.34291
G0 F2400 X102.641 Y99.691
G1 F1050 X102.641 Y98.909 E41.38182
G0 F2400 X103.974 Y98.909
G1 F1050 X103.974 Y99.691 E41.42074
G0 F2400 X105.307 Y99.691
G1 F1050 X105.307 Y98.909 E41.45966
G0 F2400 X106.64 Y98.909
G1 F1050 X106.64 Y99.691 E41.49857
G0 F2400 X107.973 Y99.691
G1 F1050 X107.973 Y98.909 E41.53749
G0 F2400 X109.306 Y98.909
G1 F1050 X109.306 Y99.691 E41.57641
G0 F2400 X110.639 Y99.691
G1 F1050 X110.639 Y98.909 E41.61532
G0 F2400 X111.972 Y98.909
G1 F1050 X111.972 Y99.691 E41.65424
G1 F1500 E40.65424
G0 F2400 X111.972 Y100.085
G0 X111.972 Y100.969
G0 X71.273 Y100.977
G0 X71.201 Y100.936
G0 X71.301 Y100.936
;TYPE:WALL-OUTER
G1 F1500 E41.65424
G1 F1050 X71.301 Y100.949 E41.65489
G1 X71.313 Y100.949 E41.65548
G1 X115.301 Y100.949 E43.84457
G1 X115.301 Y101.224 E43.85825
G1 X115.301 Y101.423 E43.86816
G1 X115.102 Y101.423 E43.87456
G1 X71.455 Y101.42 E46.04668
G1 X71.354 Y101.404 E46.05177
G1 X71.265 Y101.379 E46.05637
G1 X71.173 Y101.336 E46.06142
G1 X71.085 Y101.275 E46.06675
G1 X71.076 Y101.269 E46.06728
G1 X71.034 Y101.229 E46.07013
G1 X70.988 Y101.185 E46.07326
G1 X70.974 Y101.164 E46.0745
G1 X70.967 Y101.154 E46.07511
G1 X70.901 Y101.052 E46.08116
G1 X70.845 Y100.891 E46.08964
