;FLAVOR:Marlin
;TIME:2086
;Filament used: 1.7288m
;Layer height: 0.2
;Generated with Cura_SteamEngine 2.7.0
M190 S60
M104 S220
M109 S220
G21 ;metric values
G90 ;absolute positioning
M82 ;set extruder to absolute mode
M107 ;start with the fan off
G92 E0 ;zero the extruded length
G1 F200 E3 ;extrude 3mm of feed stock
G92 E0 ;zero the extruded length again
G1 F9000
M301 P26.92 I2.54 D71.46 ;set PID tuning for E0
M117 Printing...
;LAYER_COUNT:72
;LAYER:0
M107
M204 S5000
G0 F2400 X77.481 Y70.474 Z0.3
G0 X77.761 Y70.211
M204 S200
;TYPE:SKIRT
G1 F1200 X78.663 Y69.431 E0.05934
G1 X79.156 Y69.057 E0.09014
G1 X79.504 Y68.848 E0.11034
G1 X80.124 Y68.51 E0.14548
G1 X80.686 Y68.249 E0.17632
G1 X81.122 Y68.104 E0.19919
G1 X82.434 Y67.735 E0.26701
G1 X83.039 Y67.606 E0.2978
G1 X83.618 Y67.557 E0.32671
G1 X84.334 Y67.54 E0.36236
G1 X84.953 Y67.566 E0.39319
G1 X85.261 Y67.608 E0.40866
G1 X86.43 Y67.809 E0.46769
G1 X87.032 Y67.953 E0.49849
G1 X87.354 Y68.066 E0.51547
G1 X87.884 Y68.272 E0.54377
G1 X88.589 Y68.614 E0.58277
G1 X89.233 Y68.995 E0.62
G1 X89.782 Y69.374 E0.6532
G1 X90.375 Y69.847 E0.69095
G1 X90.833 Y70.263 E0.72174
G1 X91.099 Y70.562 E0.74166
G1 X91.745 Y71.353 E0.79248
G1 X92.178 Y71.98 E0.8304
G1 X93.365 Y74.025 E0.94808
G1 X96.291 Y78.62 E1.21917
G1 X97.971 Y81.048 E1.36611
G1 X98.29 Y81.579 E1.39694
G1 X98.519 Y82.096 E1.42508
G1 X100.358 Y87.009 E1.68614
G1 X102.514 Y91.917 E1.95292
G1 X104.961 Y96.734 E2.2218
G1 X107.692 Y101.424 E2.49188
G1 X108.836 Y103.225 E2.59806
G1 X109.134 Y103.768 E2.62889
G1 X109.359 Y104.345 E2.65971
G1 X109.508 Y104.946 E2.69052
G1 X109.584 Y105.789 E2.73265
G1 X109.595 Y112.105 E3.04697
G1 X109.556 Y112.723 E3.07778
G1 X109.438 Y113.33 E3.10855
G1 X109.243 Y113.918 E3.13938
G1 X108.973 Y114.475 E3.17019
G1 X108.634 Y114.993 E3.201
G1 X108.07 Y115.62 E3.24297
G1 X107.847 Y115.828 E3.25814
G1 X107.368 Y116.22 E3.28894
G1 X106.843 Y116.548 E3.31975
G1 X106.279 Y116.804 E3.35057
G1 X105.688 Y116.986 E3.38135
G1 X105.077 Y117.091 E3.4122
G1 X104.57 Y117.117 E3.43747
G1 X101.095 Y117.113 E3.6104
G1 X100.552 Y117.081 E3.63747
G1 X99.788 Y116.993 E3.67574
G1 X99.367 Y116.926 E3.69696
G1 X91.34 Y115.268 E4.10486
G1 X90.743 Y115.104 E4.13567
G1 X90.172 Y114.864 E4.16649
G1 X89.637 Y114.553 E4.19729
G1 X89.146 Y114.175 E4.22813
G1 X88.708 Y113.738 E4.25892
G1 X88.366 Y113.299 E4.28661
G1 X88.09 Y112.9 E4.31075
G1 X87.771 Y112.37 E4.34154
G1 X87.524 Y111.802 E4.37236
G1 X87.367 Y111.277 E4.39963
G1 X85.843 Y104.841 E4.72878
G1 X85.115 Y102.27 E4.86176
G1 X83.978 Y98.717 E5.04741
G1 X82.052 Y93.355 E5.33094
G1 X81.067 Y90.946 E5.46046
G1 X78.809 Y86.032 E5.72959
G1 X75.689 Y80.209 E6.05835
G1 X75.433 Y79.645 E6.08918
G1 X75.268 Y79.123 E6.11642
G1 X75.181 Y78.78 E6.13403
G1 X75.053 Y78.027 E6.17204
G1 X74.982 Y77.23 E6.21186
G1 X74.967 Y76.611 E6.24267
G1 X75.03 Y76.006 E6.27295
G1 X75.268 Y74.596 E6.34411
G1 X75.41 Y73.993 E6.37494
G1 X75.631 Y73.409 E6.40601
G1 X76.047 Y72.494 E6.45603
G1 X76.339 Y71.948 E6.48685
G1 X76.591 Y71.582 E6.50896
G1 X77.076 Y70.942 E6.54892
G1 X77.481 Y70.474 E6.57972
G1 X77.761 Y70.211 E6.59884
M204 S5000
G0 F2400 X78.022 Y70.513
M204 S200
G1 F1200 X78.924 Y69.733 E6.65818
G1 X79.397 Y69.376 E6.68767
G1 X79.695 Y69.198 E6.70495
G1 X80.315 Y68.86 E6.74009
G1 X80.854 Y68.612 E6.76962
G1 X81.23 Y68.488 E6.78932
G1 X82.542 Y68.119 E6.85715
G1 X83.122 Y67.998 E6.88663
G1 X83.628 Y67.956 E6.9119
G1 X84.344 Y67.939 E6.94754
G1 X85.193 Y68.002 E6.98991
G1 X86.362 Y68.203 E7.04894
G1 X87.21 Y68.438 E7.09273
G1 X87.74 Y68.644 E7.12103
G1 X88.386 Y68.958 E7.15677
G1 X89.03 Y69.339 E7.19401
G1 X89.533 Y69.686 E7.22442
G1 X90.126 Y70.159 E7.26217
G1 X90.563 Y70.559 E7.29165
G1 X90.79 Y70.815 E7.30868
G1 X91.436 Y71.606 E7.3595
G1 X91.833 Y72.18 E7.39424
G1 X93.019 Y74.224 E7.51184
G1 X95.966 Y78.852 E7.78488
G1 X97.643 Y81.275 E7.93153
G1 X97.946 Y81.784 E7.96101
G1 X98.145 Y82.236 E7.98559
G1 X99.983 Y87.145 E8.24645
G1 X102.159 Y92.102 E8.51586
G1 X104.61 Y96.924 E8.78505
G1 X107.35 Y101.63 E9.05605
G1 X108.499 Y103.439 E9.1627
G1 X108.783 Y103.96 E9.19223
G1 X108.994 Y104.514 E9.22173
G1 X109.128 Y105.091 E9.25121
G1 X109.185 Y105.789 E9.28606
G1 X109.196 Y112.105 E9.60038
G1 X109.157 Y112.697 E9.6299
G1 X109.039 Y113.278 E9.65941
G1 X108.844 Y113.837 E9.68887
G1 X108.575 Y114.366 E9.71841
G1 X108.238 Y114.853 E9.74788
G1 X107.798 Y115.328 E9.7801
G1 X107.575 Y115.536 E9.79528
G1 X107.115 Y115.911 E9.82481
G1 X106.61 Y116.22 E9.85427
G1 X106.067 Y116.458 E9.88378
G1 X105.497 Y116.621 E9.91328
G1 X104.91 Y116.705 E9.94279
G1 X104.571 Y116.718 E9.95967
G1 X101.096 Y116.714 E10.13261
G1 X100.598 Y116.685 E10.15744
G1 X99.834 Y116.597 E10.19571
G1 X99.448 Y116.535 E10.21516
G1 X91.421 Y114.877 E10.62306
G1 X90.849 Y114.718 E10.65261
G1 X90.305 Y114.484 E10.68208
G1 X89.797 Y114.179 E10.71157
G1 X89.334 Y113.808 E10.74109
G1 X88.926 Y113.378 E10.77059
G1 X88.694 Y113.072 E10.7897
G1 X88.418 Y112.673 E10.81385
G1 X88.114 Y112.164 E10.84335
G1 X87.882 Y111.619 E10.87283
G1 X87.755 Y111.185 E10.89533
G1 X86.228 Y104.737 E11.22509
G1 X85.496 Y102.149 E11.35894
G1 X84.353 Y98.578 E11.54553
G1 X82.432 Y93.229 E11.82838
G1 X81.425 Y90.768 E11.9607
G1 X79.167 Y85.855 E12.22979
G1 X76.041 Y80.02 E12.55922
G1 X75.797 Y79.48 E12.58871
G1 X75.655 Y79.025 E12.61243
G1 X75.568 Y78.682 E12.63004
G1 X75.45 Y77.991 E12.66492
G1 X75.379 Y77.194 E12.70474
G1 X75.367 Y76.602 E12.73421
G1 X75.423 Y76.072 E12.76073
G1 X75.661 Y74.662 E12.83189
G1 X75.799 Y74.086 E12.86137
G1 X75.994 Y73.574 E12.88864
G1 X76.41 Y72.659 E12.93866
G1 X76.691 Y72.137 E12.96816
G1 X76.909 Y71.823 E12.98718
G1 X77.394 Y71.183 E13.02714
G1 X77.783 Y70.736 E13.05663
G1 X78.022 Y70.513 E13.0729
M204 S5000
G0 F2400 X78.283 Y70.815
M204 S200
G1 F1200 X79.185 Y70.035 E13.13224
G1 X79.637 Y69.696 E13.16036
G1 X79.886 Y69.549 E13.17475
G1 X80.506 Y69.211 E13.20989
G1 X81.02 Y68.976 E13.23802
G1 X81.338 Y68.872 E13.25467
G1 X82.65 Y68.503 E13.3225
G1 X83.203 Y68.389 E13.35059
G1 X83.637 Y68.355 E13.37226
G1 X84.353 Y68.338 E13.4079
G1 X85.125 Y68.395 E13.44642
G1 X86.294 Y68.596 E13.50545
G1 X87.065 Y68.81 E13.54527
G1 X87.595 Y69.016 E13.57357
G1 X88.183 Y69.301 E13.60609
G1 X88.827 Y69.682 E13.64333
G1 X89.284 Y69.997 E13.67095
G1 X89.877 Y70.47 E13.7087
G1 X90.293 Y70.853 E13.73684
G1 X90.481 Y71.067 E13.75101
G1 X91.127 Y71.858 E13.80184
G1 X91.488 Y72.381 E13.83346
G1 X92.677 Y74.43 E13.95136
G1 X95.629 Y79.066 E14.22487
G1 X97.315 Y81.502 E14.37231
G1 X97.603 Y81.988 E14.40042
G1 X97.771 Y82.375 E14.42142
G1 X99.61 Y87.288 E14.68248
G1 X101.805 Y92.286 E14.95414
G1 X104.254 Y97.106 E15.22319
G1 X107.004 Y101.828 E15.49513
G1 X108.163 Y103.653 E15.60272
G1 X108.431 Y104.15 E15.63082
G1 X108.627 Y104.68 E15.65894
G1 X108.746 Y105.233 E15.68709
G1 X108.786 Y105.79 E15.71488
G1 X108.797 Y112.106 E16.0292
G1 X108.758 Y112.67 E16.05734
G1 X108.64 Y113.223 E16.08548
G1 X108.445 Y113.753 E16.11358
G1 X108.177 Y114.251 E16.14173
G1 X107.842 Y114.706 E16.16985
G1 X107.526 Y115.037 E16.19262
G1 X107.303 Y115.245 E16.20779
G1 X106.863 Y115.6 E16.23593
G1 X106.378 Y115.89 E16.26405
G1 X105.857 Y116.108 E16.29216
G1 X105.31 Y116.251 E16.32029
G1 X104.571 Y116.319 E16.35723
G1 X101.096 Y116.315 E16.53016
G1 X100.644 Y116.289 E16.55269
G1 X99.88 Y116.201 E16.59096
G1 X99.528 Y116.144 E16.60871
G1 X91.501 Y114.486 E17.01661
G1 X90.957 Y114.333 E17.04473
G1 X90.44 Y114.105 E17.07285
G1 X89.961 Y113.806 E17.10095
G1 X89.528 Y113.442 E17.1291
G1 X89.022 Y112.845 E17.16805
G1 X88.746 Y112.446 E17.19219
G1 X88.458 Y111.96 E17.22031
G1 X88.242 Y111.438 E17.24842
G1 X88.144 Y111.093 E17.26627
G1 X86.618 Y104.649 E17.59583
G1 X85.881 Y102.044 E17.73056
G1 X84.733 Y98.457 E17.91798
G1 X82.795 Y93.063 E18.20322
G1 X81.804 Y90.639 E18.33354
G1 X79.518 Y85.665 E18.60597
G1 X76.393 Y79.832 E18.93528
G1 X76.162 Y79.316 E18.96342
G1 X76.042 Y78.927 E18.98368
G1 X75.955 Y78.584 E19.00129
G1 X75.848 Y77.956 E19.03299
G1 X75.777 Y77.159 E19.07281
G1 X75.767 Y76.594 E19.10093
G1 X75.817 Y76.139 E19.12371
G1 X76.055 Y74.729 E19.19487
G1 X76.188 Y74.179 E19.22303
G1 X76.357 Y73.739 E19.24649
G1 X76.773 Y72.824 E19.29651
G1 X77.043 Y72.328 E19.32461
G1 X77.227 Y72.064 E19.34063
G1 X77.712 Y71.424 E19.38059
G1 X78.283 Y70.815 E19.42214
M204 S5000
G0 F2400 X78.544 Y71.117
M204 S200
G1 F1200 X79.446 Y70.337 E19.48148
G1 X80.077 Y69.899 E19.51971
G1 X80.697 Y69.561 E19.55485
G1 X81.186 Y69.34 E19.58155
G1 X81.446 Y69.256 E19.59515
G1 X82.758 Y68.887 E19.66298
G1 X83.283 Y68.781 E19.68963
G1 X83.647 Y68.754 E19.70779
G1 X84.363 Y68.737 E19.74344
G1 X85.058 Y68.788 E19.77812
G1 X86.227 Y68.989 E19.83715
G1 X86.921 Y69.181 E19.87298
G1 X87.451 Y69.387 E19.90128
G1 X87.98 Y69.644 E19.93055
G1 X88.624 Y70.025 E19.96778
G1 X89.035 Y70.309 E19.99265
G1 X89.628 Y70.782 E20.0304
G1 X90.172 Y71.319 E20.06844
G1 X90.818 Y72.11 E20.11926
G1 X91.143 Y72.581 E20.14774
G1 X92.337 Y74.64 E20.26619
G1 X95.297 Y79.286 E20.54034
G1 X96.987 Y81.729 E20.68817
G1 X97.258 Y82.192 E20.71487
G1 X97.398 Y82.515 E20.73239
G1 X99.25 Y87.462 E20.99526
G1 X101.434 Y92.435 E21.26556
G1 X103.91 Y97.309 E21.53762
G1 X106.661 Y102.034 E21.80971
G1 X107.826 Y103.867 E21.9178
G1 X108.079 Y104.34 E21.94449
G1 X108.259 Y104.845 E21.97117
G1 X108.362 Y105.371 E21.99785
G1 X108.387 Y105.791 E22.01879
G1 X108.398 Y112.107 E22.33311
G1 X108.359 Y112.642 E22.3598
G1 X108.241 Y113.165 E22.38648
G1 X108.047 Y113.664 E22.41313
G1 X107.78 Y114.13 E22.43985
G1 X107.447 Y114.55 E22.46653
G1 X107.254 Y114.745 E22.48018
G1 X107.031 Y114.953 E22.49536
G1 X106.613 Y115.288 E22.52202
G1 X106.149 Y115.558 E22.54873
G1 X105.651 Y115.756 E22.5754
G1 X105.128 Y115.877 E22.60212
G1 X104.572 Y115.92 E22.62987
G1 X101.097 Y115.916 E22.8028
G1 X100.689 Y115.892 E22.82314
G1 X99.925 Y115.804 E22.86142
G1 X99.609 Y115.754 E22.87734
G1 X91.582 Y114.096 E23.28524
G1 X91.066 Y113.948 E23.31195
G1 X90.578 Y113.726 E23.33863
G1 X90.129 Y113.434 E23.36529
G1 X89.728 Y113.078 E23.39197
G1 X89.35 Y112.618 E23.4216
G1 X89.074 Y112.219 E23.44575
G1 X88.803 Y111.757 E23.4724
G1 X88.532 Y111.001 E23.51237
G1 X87.002 Y104.54 E23.84279
G1 X86.264 Y101.931 E23.97773
G1 X85.11 Y98.327 E24.16605
G1 X83.172 Y92.93 E24.45143
G1 X82.162 Y90.461 E24.58418
G1 X79.88 Y85.495 E24.85616
G1 X76.745 Y79.644 E25.1865
G1 X76.527 Y79.153 E25.21324
G1 X76.428 Y78.829 E25.2301
G1 X76.341 Y78.486 E25.24771
G1 X76.245 Y77.92 E25.27628
G1 X76.174 Y77.123 E25.3161
G1 X76.167 Y76.587 E25.34277
G1 X76.21 Y76.205 E25.3619
G1 X76.448 Y74.795 E25.43307
G1 X76.577 Y74.274 E25.45978
G1 X76.721 Y73.904 E25.47953
G1 X77.137 Y72.989 E25.52956
G1 X77.545 Y72.305 E25.56919
G1 X78.03 Y71.665 E25.60915
G1 X78.544 Y71.117 E25.64654
M204 S5000
G0 F2400 X78.805 Y71.418
M204 S200
G1 F1200 X79.707 Y70.638 E25.70589
G1 X80.268 Y70.249 E25.73986
G1 X80.888 Y69.911 E25.775
G1 X81.554 Y69.641 E25.81077
G1 X82.866 Y69.272 E25.87859
G1 X83.362 Y69.174 E25.90375
G1 X83.656 Y69.153 E25.91842
G1 X84.372 Y69.136 E25.95406
G1 X84.99 Y69.181 E25.9849
G1 X86.159 Y69.382 E26.04393
G1 X86.776 Y69.553 E26.07579
G1 X87.306 Y69.759 E26.10409
G1 X87.776 Y69.988 E26.13011
G1 X88.42 Y70.369 E26.16735
G1 X88.786 Y70.621 E26.18946
G1 X89.379 Y71.094 E26.22721
G1 X89.862 Y71.572 E26.26103
G1 X90.508 Y72.363 E26.31185
G1 X90.798 Y72.781 E26.33717
G1 X92.002 Y74.856 E26.45656
G1 X94.971 Y79.518 E26.73162
G1 X96.658 Y81.956 E26.87916
G1 X96.912 Y82.393 E26.90431
G1 X97.024 Y82.655 E26.91849
G1 X98.874 Y87.599 E27.1812
G1 X101.076 Y92.612 E27.45368
G1 X103.563 Y97.505 E27.72683
G1 X106.319 Y102.24 E27.99948
G1 X107.489 Y104.081 E28.10803
G1 X107.726 Y104.528 E28.13321
G1 X107.889 Y105.006 E28.15834
G1 X107.975 Y105.504 E28.18349
G1 X107.988 Y105.791 E28.19779
G1 X107.999 Y112.107 E28.51211
G1 X107.96 Y112.611 E28.53727
G1 X107.842 Y113.103 E28.56245
G1 X107.648 Y113.57 E28.58761
G1 X107.383 Y114.001 E28.61279
G1 X106.982 Y114.453 E28.64286
G1 X106.759 Y114.661 E28.65804
G1 X106.363 Y114.976 E28.68322
G1 X105.922 Y115.224 E28.7084
G1 X105.448 Y115.4 E28.73356
G1 X104.953 Y115.499 E28.75868
G1 X104.572 Y115.521 E28.77767
G1 X101.097 Y115.517 E28.95061
G1 X100.735 Y115.496 E28.96865
G1 X99.971 Y115.408 E29.00693
G1 X99.69 Y115.363 E29.02109
G1 X91.663 Y113.705 E29.42899
G1 X91.177 Y113.564 E29.45417
G1 X90.72 Y113.348 E29.47933
G1 X90.302 Y113.063 E29.5045
G1 X89.935 Y112.716 E29.52964
G1 X89.678 Y112.391 E29.55026
G1 X89.402 Y111.992 E29.5744
G1 X89.148 Y111.555 E29.59956
G1 X88.92 Y110.909 E29.63365
G1 X87.387 Y104.436 E29.96469
G1 X86.644 Y101.81 E30.10051
G1 X85.493 Y98.213 E30.28845
G1 X83.543 Y92.784 E30.57553
G1 X82.528 Y90.303 E30.70893
G1 X80.237 Y85.318 E30.98196
G1 X77.096 Y79.455 E31.31296
G1 X76.893 Y78.992 E31.33812
G1 X76.815 Y78.731 E31.35168
G1 X76.728 Y78.388 E31.36929
G1 X76.643 Y77.885 E31.39468
G1 X76.572 Y77.088 E31.4345
G1 X76.567 Y76.582 E31.45968
G1 X76.604 Y76.271 E31.47527
G1 X76.842 Y74.861 E31.54643
G1 X76.965 Y74.371 E31.57157
G1 X77.084 Y74.07 E31.58768
G1 X77.5 Y73.155 E31.6377
G1 X77.863 Y72.546 E31.67298
G1 X78.348 Y71.906 E31.71294
G1 X78.805 Y71.418 E31.74621
M204 S5000
G1 F1500 E29.74621
G0 F2400 X79.133 Y77.519
G0 X79.331 Y78.278
G0 X92.308 Y109.275
M204 S200
;TYPE:SUPPORT
G1 F1500 E31.74621
G1 F1200 X92.492 Y109.526 E31.7617
G1 X92.675 Y109.72 E31.77497
G1 X92.917 Y109.943 E31.79135
G1 X93.198 Y110.137 E31.80834
G1 X93.397 Y110.261 E31.82001
G1 X93.581 Y110.363 E31.83048
G1 X93.581 Y110.511 E31.83785
G1 X93.094 Y110.476 E31.86215
G1 X92.531 Y110.469 E31.89017
G1 X92.481 Y110.454 E31.89276
G1 X92.383 Y110.386 E31.8987
G1 X92.286 Y110.264 E31.90646
G1 X92.19 Y110.048 E31.91822
G1 X92.149 Y109.877 E31.92697
G1 X92.143 Y109.828 E31.92943
G1 X92.206 Y109.754 E31.93426
G1 X92.174 Y109.041 E31.96978
G1 X92.308 Y109.275 E31.9832
M204 S5000
G0 F2400 X92.8 Y110.105
M204 S200
G1 F1200 X92.8 Y110.272 E31.99151
M204 S5000
G1 F1500 E29.99151
G0 F2400 X94.544 Y108.734
G0 X95.489 Y107.898
G0 X95.32 Y107.557
G0 X95.245 Y107.622
M204 S200
;TYPE:WALL-INNER
G1 F1500 E31.99151
G1 F1200 X94.713 Y106.989 E32.03266
G1 X94.204 Y106.353 E32.0732
G1 X93.715 Y105.706 E32.11356
G1 X93.23 Y105.035 E32.15476
G1 X92.77 Y104.361 E32.19537
G1 X92.328 Y103.678 E32.23586
G1 X91.897 Y102.977 E32.27681
G1 X91.491 Y102.277 E32.31708
G1 X91.093 Y101.552 E32.35824
G1 X90.719 Y100.827 E32.39884
G1 X90.361 Y100.09 E32.43961
G1 X90.022 Y99.346 E32.4803
G1 X89.701 Y98.594 E32.52099
G1 X89.399 Y97.834 E32.56169
G1 X89.116 Y97.068 E32.60233
G1 X88.853 Y96.303 E32.64259
G1 X88.607 Y95.514 E32.68372
G1 X88.381 Y94.733 E32.72418
G1 X88.174 Y93.938 E32.76506
G1 X87.878 Y92.676 E32.82957
G1 X87.666 Y91.837 E32.87264
G1 X87.435 Y91.003 E32.9157
G1 X87.185 Y90.171 E32.95894
G1 X86.915 Y89.349 E33.00199
G1 X86.628 Y88.533 E33.04504
G1 X86.321 Y87.721 E33.08824
G1 X85.996 Y86.918 E33.13135
G1 X85.652 Y86.123 E33.17446
G1 X85.29 Y85.335 E33.21762
G1 X84.91 Y84.556 E33.26075
G1 X84.513 Y83.787 E33.30382
G1 X84.097 Y83.026 E33.34698
G1 X83.665 Y82.276 E33.39005
G1 X83.216 Y81.534 E33.43321
G1 X82.748 Y80.805 E33.47632
G1 X82.418 Y80.311 E33.50589
G1 X82.314 Y80.156 E33.51518
G1 X82.266 Y80.085 E33.51944
G1 X82.188 Y79.975 E33.52615
G1 X82.052 Y79.782 E33.5379
G1 X81.914 Y79.587 E33.54979
G1 X81.837 Y79.478 E33.55643
G1 X81.938 Y79.569
G1 X82.136 Y79.723
G1 X82.344 Y79.864
G1 X82.38 Y79.884
G1 X82.562 Y79.989 E33.56049
G1 X82.73 Y80.071 E33.56865
G1 X82.786 Y80.099 E33.57177
G1 X83.02 Y80.193 E33.58432
G1 X83.258 Y80.27 E33.59677
G1 X83.502 Y80.332 E33.6093
G1 X83.749 Y80.374 E33.62177
G1 X83.999 Y80.401 E33.63428
G1 X84.25 Y80.41 E33.64678
G1 X84.501 Y80.401 E33.65928
G1 X84.751 Y80.374 E33.67179
G1 X84.998 Y80.332 E33.68426
G1 X85.242 Y80.27 E33.69679
G1 X85.48 Y80.193 E33.70924
G1 X85.714 Y80.099 E33.72179
G1 X85.938 Y79.989 E33.73421
G1 X86.156 Y79.864 E33.74671
G1 X86.364 Y79.723 E33.75922
G1 X86.562 Y79.569 E33.7717
G1 X86.749 Y79.4 E33.78424
G1 X86.923 Y79.219 E33.79674
G1 X87.085 Y79.028 E33.8092
G1 X87.232 Y78.825 E33.82168
G1 X87.322 Y78.682 E33.83008
G1 X87.365 Y78.612 E33.83417
