;FLAVOR:Marlin
;TIME:4301
;Filament used: 3.25434m
;Layer height: 0.15
;Generated with Cura_SteamEngine 2.7.0
M190 S50
M104 S210
M109 S210
G21 ;metric values
G90 ;absolute positioning
M82 ;set extruder to absolute mode
M107 ;start with the fan off
G92 E0 ;zero the extruded length
G1 F200 E3 ;extrude 3mm of feed stock
G92 E0 ;zero the extruded length again
G1 F9000
M301 P31.36 I3.30 D74.51 ;set PID tuning for E0
M304 P72.25 I2.72 D479.41 ; set PID tuning for heated bed
M117 Printing...
;LAYER_COUNT:132
;LAYER:0
M107
G0 F2400 X79.74 Y42.438 Z0.3
;TYPE:SKIRT
G1 F1050 X80.079 Y41.92 E0.03081
G1 X80.483 Y41.451 E0.06161
G1 X80.944 Y41.037 E0.09245
G1 X81.53 Y40.642 E0.12762
G1 X85.592 Y38.32 E0.36046
G1 X86.148 Y38.048 E0.39127
G1 X86.735 Y37.85 E0.4221
G1 X87.342 Y37.73 E0.45289
G1 X88.005 Y37.688 E0.48595
G1 X93.005 Y37.722 E0.73478
G1 X93.622 Y37.766 E0.76556
G1 X94.229 Y37.89 E0.7964
G1 X94.815 Y38.09 E0.82721
G1 X95.139 Y38.24 E0.84498
G1 X99.658 Y40.529 E1.09707
G1 X100.191 Y40.843 E1.12786
G1 X100.679 Y41.224 E1.15867
G1 X101.114 Y41.665 E1.1895
G1 X101.489 Y42.158 E1.22032
G1 X101.797 Y42.695 E1.25113
G1 X102.033 Y43.267 E1.28192
G1 X102.194 Y43.865 E1.31274
G1 X102.276 Y44.479 E1.34357
G1 X102.287 Y44.808 E1.35995
G1 X102.283 Y62.869 E2.25877
G1 X102.243 Y63.487 E2.28959
G1 X102.074 Y64.269 E2.3294
G1 X100.339 Y69.95 E2.62501
G1 X99.028 Y75.221 E2.89531
G1 X98.51 Y77.771 E3.02481
G1 X97.652 Y83.134 E3.29509
G1 X97.103 Y88.487 E3.56289
G1 X96.858 Y93.859 E3.8305
G1 X96.918 Y99.256 E4.09911
G1 X97.281 Y104.622 E4.36676
G1 X97.948 Y109.962 E4.63457
G1 X98.921 Y115.291 E4.90415
G1 X99.497 Y117.836 E5.03401
G1 X100.928 Y123.094 E5.3052
G1 X102.619 Y128.163 E5.57112
G1 X105.5 Y135.245 E5.95161
G1 X105.695 Y135.832 E5.98239
G1 X105.814 Y136.44 E6.01322
G1 X105.852 Y137.142 E6.04821
G1 X105.838 Y137.891 E6.08549
G1 X105.787 Y138.508 E6.1163
G1 X105.656 Y139.113 E6.14711
G1 X105.36 Y139.891 E6.18853
G1 X105.237 Y140.145 E6.20258
G1 X104.931 Y140.684 E6.23342
G1 X104.559 Y141.179 E6.26424
G1 X104.281 Y141.477 E6.28452
G1 X104.001 Y141.752 E6.30405
G1 X103.532 Y142.156 E6.33485
G1 X103.015 Y142.497 E6.36567
G1 X102.458 Y142.768 E6.3965
G1 X101.644 Y143.02 E6.43891
G1 X93.489 Y144.766 E6.85394
G1 X93.056 Y144.838 E6.87579
G1 X92.138 Y144.948 E6.9218
G1 X91.53 Y144.982 E6.9521
G1 X89.576 Y144.967 E7.04935
G1 X88.959 Y144.922 E7.08013
G1 X88.522 Y144.841 E7.10225
G1 X86.715 Y144.419 E7.1946
G1 X86.123 Y144.24 E7.22538
G1 X85.576 Y143.995 E7.2552
G1 X84.43 Y143.393 E7.31962
G1 X83.901 Y143.07 E7.35047
G1 X83.583 Y142.826 E7.37042
G1 X82.569 Y141.978 E7.4362
G1 X81.972 Y141.381 E7.47822
G1 X81.42 Y140.723 E7.52096
G1 X81.048 Y140.216 E7.55225
G1 X80.626 Y139.553 E7.59136
G1 X80.251 Y138.837 E7.63159
G1 X79.749 Y137.643 E7.69605
G1 X79.546 Y137.058 E7.72686
G1 X79.458 Y136.677 E7.74632
G1 X79.22 Y135.421 E7.80994
G1 X79.136 Y134.529 E7.85453
G1 X79.114 Y44.807 E12.31958
G1 X79.154 Y44.189 E12.3504
G1 X79.273 Y43.582 E12.38119
G1 X79.469 Y42.995 E12.41198
G1 X79.74 Y42.438 E12.44281
G0 F2400 X80.137 Y42.548
G1 F1050 X80.475 Y42.061 E12.47231
G1 X80.876 Y41.624 E12.50183
G1 X81.331 Y41.244 E12.53133
G1 X81.728 Y40.989 E12.55481
G1 X85.79 Y38.667 E12.78765
G1 X86.323 Y38.408 E12.81715
G1 X86.886 Y38.223 E12.84664
G1 X87.469 Y38.116 E12.87614
G1 X88.002 Y38.087 E12.9027
G1 X93.002 Y38.121 E13.15153
G1 X93.593 Y38.165 E13.18103
G1 X94.173 Y38.288 E13.21053
G1 X94.959 Y38.595 E13.25252
G1 X99.478 Y40.884 E13.50462
G1 X99.987 Y41.187 E13.5341
G1 X100.452 Y41.556 E13.56364
G1 X100.862 Y41.984 E13.59314
G1 X101.211 Y42.463 E13.62263
G1 X101.493 Y42.984 E13.65211
G1 X101.701 Y43.539 E13.68161
G1 X101.834 Y44.117 E13.71112
G1 X101.888 Y44.808 E13.74562
G1 X101.884 Y62.869 E14.64443
G1 X101.844 Y63.46 E14.67391
G1 X101.692 Y64.152 E14.70917
G1 X99.958 Y69.829 E15.00457
G1 X98.637 Y75.141 E15.27698
G1 X98.118 Y77.698 E15.40682
G1 X97.256 Y83.082 E15.67817
G1 X96.704 Y88.464 E15.94742
G1 X96.459 Y93.845 E16.21548
G1 X96.519 Y99.269 E16.48543
G1 X96.884 Y104.662 E16.75442
G1 X97.554 Y110.032 E17.02374
G1 X98.53 Y115.377 E17.29413
G1 X99.104 Y117.91 E17.42338
G1 X100.545 Y123.204 E17.69643
G1 X102.249 Y128.313 E17.96445
G1 X105.13 Y135.395 E18.34493
G1 X105.316 Y135.958 E18.37444
G1 X105.424 Y136.541 E18.40395
G1 X105.453 Y137.134 E18.43349
G1 X105.439 Y137.883 E18.47078
G1 X105.388 Y138.474 E18.5003
G1 X105.258 Y139.052 E18.52978
G1 X105 Y139.717 E18.56528
G1 X104.877 Y139.971 E18.57932
G1 X104.584 Y140.486 E18.60881
G1 X104.223 Y140.957 E18.63834
G1 X104.001 Y141.192 E18.65443
G1 X103.721 Y141.467 E18.67396
G1 X103.271 Y141.853 E18.70346
G1 X102.773 Y142.175 E18.73298
G1 X102.237 Y142.427 E18.76245
G1 X101.561 Y142.63 E18.79758
G1 X93.406 Y144.376 E19.21261
G1 X93.008 Y144.442 E19.23269
G1 X92.09 Y144.552 E19.2787
G1 X91.533 Y144.583 E19.30646
G1 X89.579 Y144.568 E19.40371
G1 X88.988 Y144.523 E19.4332
G1 X88.613 Y144.453 E19.45219
G1 X86.806 Y144.031 E19.54453
G1 X86.239 Y143.857 E19.57405
G1 X85.761 Y143.642 E19.60013
G1 X84.615 Y143.04 E19.66456
G1 X84.11 Y142.729 E19.69407
G1 X83.839 Y142.52 E19.7111
G1 X82.825 Y141.672 E19.77688
G1 X82.277 Y141.125 E19.81542
G1 X81.725 Y140.467 E19.85816
G1 X81.385 Y140.002 E19.88683
G1 X80.963 Y139.339 E19.92594
G1 X80.619 Y138.682 E19.96284
G1 X80.117 Y137.488 E20.0273
G1 X79.924 Y136.927 E20.05683
G1 X79.85 Y136.603 E20.07337
G1 X79.612 Y135.347 E20.13698
G1 X79.535 Y134.529 E20.17787
G1 X79.513 Y44.807 E24.64293
G1 X79.553 Y44.216 E24.67241
G1 X79.672 Y43.635 E24.70192
G1 X79.868 Y43.076 E24.7314
G1 X80.137 Y42.548 E24.76089
G0 F2400 X80.535 Y42.663
G1 F1050 X80.871 Y42.209 E24.789
G1 X81.267 Y41.806 E24.81712
G1 X81.926 Y41.335 E24.85743
G1 X85.988 Y39.013 E25.09027
G1 X86.497 Y38.768 E25.11838
G1 X87.036 Y38.597 E25.14653
G1 X87.593 Y38.504 E25.17463
G1 X87.999 Y38.486 E25.19485
G1 X92.999 Y38.52 E25.44369
G1 X93.563 Y38.564 E25.47184
G1 X94.114 Y38.687 E25.49994
G1 X94.779 Y38.951 E25.53554
G1 X99.298 Y41.24 E25.78764
G1 X99.782 Y41.531 E25.81574
G1 X100.222 Y41.887 E25.84391
G1 X100.606 Y42.301 E25.87201
G1 X100.928 Y42.765 E25.90012
G1 X101.182 Y43.27 E25.92825
G1 X101.362 Y43.806 E25.95639
G1 X101.464 Y44.362 E25.98452
G1 X101.489 Y44.808 E26.00675
G1 X101.485 Y62.869 E26.90556
G1 X101.445 Y63.433 E26.9337
G1 X101.311 Y64.036 E26.96444
G1 X99.572 Y69.731 E27.26077
G1 X98.247 Y75.057 E27.5339
G1 X97.725 Y77.629 E27.66451
G1 X96.86 Y83.032 E27.93682
G1 X96.307 Y88.422 E28.20646
G1 X96.06 Y93.849 E28.47682
G1 X96.12 Y99.283 E28.74726
G1 X96.487 Y104.704 E29.01766
G1 X97.158 Y110.083 E29.28742
G1 X98.141 Y115.463 E29.55959
G1 X98.718 Y118.012 E29.68965
G1 X100.166 Y123.331 E29.96399
G1 X101.874 Y128.451 E30.23259
G1 X104.76 Y135.546 E30.61377
G1 X104.936 Y136.083 E30.64189
G1 X105.034 Y136.64 E30.67004
G1 X105.054 Y137.127 E30.69429
G1 X105.04 Y137.876 E30.73157
G1 X104.99 Y138.439 E30.7597
G1 X104.86 Y138.989 E30.78783
G1 X104.641 Y139.543 E30.81747
G1 X104.518 Y139.797 E30.83152
G1 X104.237 Y140.287 E30.85963
G1 X103.721 Y140.907 E30.89977
G1 X103.441 Y141.182 E30.9193
G1 X103.011 Y141.549 E30.94744
G1 X102.534 Y141.851 E30.97553
G1 X102.018 Y142.083 E31.00369
G1 X101.477 Y142.239 E31.03171
G1 X93.322 Y143.985 E31.44674
G1 X92.961 Y144.046 E31.46496
G1 X92.043 Y144.156 E31.51097
G1 X91.536 Y144.184 E31.53624
G1 X89.582 Y144.169 E31.63349
G1 X89.019 Y144.125 E31.66159
G1 X88.704 Y144.064 E31.67756
G1 X86.897 Y143.642 E31.7699
G1 X86.357 Y143.475 E31.79803
G1 X85.947 Y143.288 E31.82046
G1 X84.801 Y142.686 E31.88488
G1 X84.32 Y142.389 E31.91301
G1 X84.095 Y142.214 E31.9272
G1 X83.081 Y141.366 E31.99298
G1 X82.583 Y140.869 E32.02799
G1 X82.031 Y140.211 E32.07074
G1 X81.721 Y139.788 E32.09684
G1 X81.299 Y139.125 E32.13595
G1 X80.986 Y138.528 E32.16949
G1 X80.484 Y137.334 E32.23395
G1 X80.242 Y136.528 E32.27583
G1 X80.004 Y135.272 E32.33945
G1 X79.934 Y134.529 E32.37659
G1 X79.912 Y44.807 E36.84165
G1 X79.952 Y44.243 E36.86978
G1 X80.071 Y43.691 E36.89789
G1 X80.266 Y43.16 E36.92604
G1 X80.535 Y42.663 E36.95416
G0 F2400 X80.932 Y42.785
G1 F1050 X81.265 Y42.365 E36.98083
G1 X81.657 Y41.999 E37.00752
G1 X82.124 Y41.681 E37.03564
G1 X86.186 Y39.359 E37.26848
G1 X86.67 Y39.129 E37.29515
G1 X87.183 Y38.973 E37.32184
G1 X87.713 Y38.894 E37.3485
G1 X87.996 Y38.885 E37.36259
G1 X92.996 Y38.919 E37.61143
G1 X93.531 Y38.963 E37.63814
G1 X94.053 Y39.085 E37.66482
G1 X94.598 Y39.307 E37.69411
G1 X99.117 Y41.596 E37.9462
G1 X99.576 Y41.874 E37.97291
G1 X99.989 Y42.216 E37.99959
G1 X100.346 Y42.616 E38.02627
G1 X100.64 Y43.064 E38.05294
G1 X100.864 Y43.552 E38.07966
G1 X101.013 Y44.067 E38.10634
G1 X101.09 Y44.808 E38.14342
G1 X101.086 Y62.869 E39.04223
G1 X101.046 Y63.404 E39.06893
G1 X100.929 Y63.919 E39.09521
G1 X99.191 Y69.61 E39.39134
G1 X97.856 Y74.978 E39.66662
G1 X97.332 Y77.555 E39.79749
G1 X96.464 Y82.982 E40.071
G1 X95.908 Y88.398 E40.34194
G1 X95.661 Y93.836 E40.61285
G1 X95.721 Y99.297 E40.88463
G1 X96.09 Y104.744 E41.15633
G1 X96.765 Y110.152 E41.42755
G1 X97.746 Y115.527 E41.69946
G1 X98.332 Y118.113 E41.83141
G1 X99.781 Y123.436 E42.10595
G1 X101.499 Y128.587 E42.37618
G1 X104.391 Y135.696 E42.75811
G1 X104.555 Y136.206 E42.78477
G1 X104.642 Y136.735 E42.81145
G1 X104.655 Y137.119 E42.83058
G1 X104.641 Y137.868 E42.86786
G1 X104.591 Y138.402 E42.89455
G1 X104.463 Y138.923 E42.92125
G1 X104.282 Y139.37 E42.94525
G1 X104.159 Y139.624 E42.95929
G1 X103.89 Y140.087 E42.98594
G1 X103.442 Y140.623 E43.0207
G1 X103.162 Y140.898 E43.04023
G1 X102.752 Y141.244 E43.06693
G1 X102.296 Y141.525 E43.09359
G1 X101.803 Y141.736 E43.12027
G1 X101.393 Y141.849 E43.14144
G1 X93.238 Y143.595 E43.55647
G1 X92.913 Y143.649 E43.57287
G1 X91.995 Y143.759 E43.61888
G1 X91.539 Y143.785 E43.64161
G1 X89.585 Y143.77 E43.73886
G1 X88.795 Y143.676 E43.77845
G1 X86.988 Y143.254 E43.87079
G1 X86.476 Y143.093 E43.8975
G1 X86.132 Y142.935 E43.91634
G1 X84.986 Y142.333 E43.98076
G1 X84.351 Y141.908 E44.01879
G1 X83.337 Y141.06 E44.08457
G1 X82.889 Y140.612 E44.1161
G1 X82.337 Y139.954 E44.15884
G1 X82.058 Y139.574 E44.18231
G1 X81.636 Y138.911 E44.22142
G1 X81.354 Y138.373 E44.25165
G1 X80.852 Y137.179 E44.3161
G1 X80.634 Y136.454 E44.35378
G1 X80.396 Y135.198 E44.4174
G1 X80.333 Y134.529 E44.45084
G1 X80.311 Y44.807 E48.9159
G1 X80.351 Y44.272 E48.94259
G1 X80.47 Y43.749 E48.96929
G1 X80.665 Y43.25 E48.99595
G1 X80.932 Y42.785 E49.02263
G0 F2400 X81.329 Y42.915
G1 F1050 X81.659 Y42.532 E49.04779
G1 X82.045 Y42.206 E49.07294
G1 X82.322 Y42.028 E49.08932
G1 X86.384 Y39.706 E49.32217
G1 X86.841 Y39.49 E49.34732
G1 X87.327 Y39.35 E49.37249
G1 X87.994 Y39.284 E49.40585
G1 X92.994 Y39.318 E49.65468
G1 X93.497 Y39.361 E49.6798
G1 X93.988 Y39.484 E49.70499
G1 X94.418 Y39.663 E49.72817
G1 X98.937 Y41.952 E49.98027
G1 X99.369 Y42.216 E50.00546
G1 X99.753 Y42.544 E50.0306
G1 X100.081 Y42.928 E50.05573
G1 X100.345 Y43.36 E50.08092
G1 X100.537 Y43.827 E50.10605
G1 X100.654 Y44.319 E50.13122
G1 X100.691 Y44.808 E50.15562
G1 X100.687 Y62.869 E51.05444
G1 X100.647 Y63.373 E51.0796
G1 X100.547 Y63.803 E51.10157
G1 X98.802 Y69.516 E51.39885
G1 X97.472 Y74.866 E51.67319
G1 X96.939 Y77.487 E51.8063
G1 X96.068 Y82.932 E52.08072
G1 X95.511 Y88.357 E52.35211
G1 X95.262 Y93.839 E52.62521
G1 X95.322 Y99.31 E52.89749
G1 X95.693 Y104.784 E53.17053
G1 X96.369 Y110.202 E53.44225
G1 X97.358 Y115.617 E53.71619
G1 X97.946 Y118.215 E53.84875
G1 X99.396 Y123.541 E54.12345
G1 X101.129 Y128.737 E54.39604
G1 X104.021 Y135.846 E54.77797
G1 X104.174 Y136.328 E54.80314
G1 X104.249 Y136.828 E54.8283
G1 X104.256 Y137.112 E54.84244
G1 X104.242 Y137.861 E54.87972
G1 X104.193 Y138.364 E54.90487
G1 X104.065 Y138.853 E54.93002
G1 X103.923 Y139.196 E54.9485
G1 X103.8 Y139.45 E54.96254
G1 X103.544 Y139.886 E54.9877
G1 X103.162 Y140.338 E55.01716
G1 X102.882 Y140.613 E55.03669
G1 X102.495 Y140.938 E55.06184
G1 X102.061 Y141.197 E55.08699
G1 X101.592 Y141.385 E55.11213
G1 X101.31 Y141.459 E55.12664
G1 X93.155 Y143.205 E55.54168
G1 X92.866 Y143.253 E55.55626
G1 X91.948 Y143.363 E55.60227
G1 X91.542 Y143.386 E55.62251
G1 X89.588 Y143.371 E55.71975
G1 X88.885 Y143.287 E55.75498
G1 X87.078 Y142.865 E55.84733
G1 X86.597 Y142.712 E55.87245
G1 X86.318 Y142.582 E55.88777
G1 X85.172 Y141.98 E55.95219
G1 X84.607 Y141.602 E55.98602
G1 X83.593 Y140.754 E56.0518
G1 X83.194 Y140.356 E56.07985
G1 X82.642 Y139.698 E56.12259
G1 X82.394 Y139.359 E56.14349
G1 X81.972 Y138.696 E56.1826
G1 X81.722 Y138.218 E56.20945
G1 X81.22 Y137.024 E56.27391
G1 X81.026 Y136.38 E56.30738
G1 X80.788 Y135.124 E56.371
G1 X80.732 Y134.529 E56.40074
G1 X80.71 Y44.807 E60.8658
G1 X80.75 Y44.303 E60.89096
G1 X80.869 Y43.811 E60.91615
G1 X81.063 Y43.345 E60.94127
G1 X81.329 Y42.915 E60.96643
G0 F2400 X88.16 Y42.661
;TYPE:SUPPORT
G1 F1050 X90.167 Y42.66 E61.06631
G1 X92.84 Y42.704 E61.19935
G1 X93.345 Y43.901 E61.264
G1 X87.982 Y43.901 E61.5309
G1 X88.16 Y42.661 E61.59324
G0 F2400 X89.311 Y42.859
G1 F1050 X89.311 Y43.702 E61.63519
G0 F2400 X90.644 Y43.702
G1 F1050 X90.644 Y42.867 E61.67674
G0 F2400 X91.977 Y42.889
G1 F1050 X91.977 Y43.702 E61.7172
G1 F1500 E60.7172
G0 F2400 X91.977 Y44.135
G0 X91.977 Y45.417
G0 X96.504 Y45.796
;TYPE:WALL-INNER
G1 F1500 E61.7172
G1 F1050 X96.502 Y59.629 E62.40561
G1 X96.502 Y59.818 E62.41501
G1 X96.501 Y60.15 E62.43154
G1 X96.5 Y60.489 E62.44841
G1 X96.499 Y60.828 E62.46528
G1 X96.498 Y62.758 E62.56133
G1 X96.497 Y62.8 E62.56342
G1 X96.345 Y62.804 E62.57098
G1 X96.301 Y62.798 E62.57319
G1 X96.296 Y62.758
G1 X96.294 Y60.828 E62.62218
G1 X96.27 Y60.489 E62.62958
G1 X96.223 Y60.15 E62.64046
G1 X96.154 Y59.818 E62.65376
G1 X96.105 Y59.636 E62.66254
G1 X96.064 Y59.489 E62.67014
G1 X95.947 Y59.166 E62.68724
G1 X95.813 Y58.855 E62.70409
G1 X95.656 Y58.552 E62.72107
G1 X95.478 Y58.259 E62.73813
G1 X95.282 Y57.982 E62.75502
G1 X95.066 Y57.716 E62.77207
G1 X94.833 Y57.467 E62.78904
G1 X94.584 Y57.234 E62.80601
G1 X94.318 Y57.018 E62.82307
G1 X94.041 Y56.822 E62.83995
G1 X93.748 Y56.644 E62.85701
G1 X93.445 Y56.487 E62.874
G1 X93.134 Y56.353 E62.89085
G1 X92.811 Y56.236 E62.90795
G1 X92.482 Y56.146 E62.92492
G1 X92.15 Y56.077 E62.94179
G1 X91.811 Y56.03 E62.95883
G1 X91.472 Y56.006 E62.97574
G1 X90.085 Y56.004 E63.04476
G1 X89.76 Y56.015 E63.06095
G1 X89.418 Y56.051 E63.07806
G1 X89.084 Y56.108 E63.09492
G1 X88.752 Y56.187 E63.11191
G1 X88.426 Y56.292 E63.12895
G1 X88.109 Y56.417 E63.14591
G1 X87.8 Y56.564 E63.16294
G1 X87.505 Y56.731 E63.17981
G1 X87.218 Y56.918 E63.19685
G1 X86.945 Y57.126 E63.21393
G1 X86.689 Y57.349 E63.23083
G1 X86.449 Y57.589 E63.24772
G1 X86.226 Y57.845 E63.26462
G1 X86.018 Y58.118 E63.2817
G1 X85.831 Y58.405 E63.29874
G1 X85.664 Y58.7 E63.31561
G1 X85.517 Y59.009 E63.33264
G1 X85.392 Y59.326 E63.3496
G1 X85.295 Y59.626 E63.36529
G1 X85.287 Y59.652 E63.36665
G1 X85.208 Y59.984 E63.38363
G1 X85.151 Y60.318 E63.40049
G1 X85.115 Y60.66 E63.4176
G1 X85.104 Y60.984 E63.43374
G1 X85.105 Y134.156 E67.07518
G1 X85.106 Y134.171 E67.07593
G1 X85.12 Y134.379 E67.0863
G1 X85.13 Y134.511 E67.09289
G1 X85.154 Y134.696 E67.10217
G1 X85.175 Y134.845 E67.10966
G1 X85.188 Y134.91 E67.11296
G1 X85.244 Y135.178 E67.12658
G1 X85.251 Y135.205 E67.12797
G1 X85.324 Y135.467 E67.14151
G1 X85.335 Y135.506 E67.14352
G1 X85.408 Y135.713 E67.15445
G1 X85.449 Y135.828 E67.16052
G1 X85.509 Y135.968 E67.1681
G1 X85.584 Y136.14 E67.17744
G1 X85.615 Y136.201 E67.18085
G1 X85.741 Y136.441 E67.19434
G1 X85.754 Y136.463 E67.19561
G1 X85.888 Y136.687 E67.2086
G1 X85.915 Y136.732 E67.21121
G1 X86.031 Y136.897 E67.22125
G1 X86.113 Y137.012 E67.22828
G1 X86.198 Y137.117 E67.235
G1 X86.328 Y137.277 E67.24526
G1 X86.38 Y137.333 E67.24906
G1 X86.561 Y137.528 E67.2623
G1 X86.774 Y137.727 E67.27681
G1 X86.811 Y137.762 E67.27934
G1 X86.976 Y137.896 E67.28992
G1 X87.076 Y137.977 E67.29632
G1 X87.18 Y138.051 E67.30268
G1 X87.356 Y138.175 E67.31339
G1 X87.411 Y138.208 E67.31658
G1 X87.634 Y138.344 E67.32958
G1 X87.645 Y138.351 E67.33023
G1 X87.891 Y138.479 E67.34403
G1 X87.949 Y138.51 E67.3473
G1 X88.145 Y138.594 E67.35792
G1 X88.264 Y138.646 E67.36438
G1 X88.363 Y138.682 E67.36962
