;FLAVOR:Marlin
;TIME:5271
;Filament used: 3.67773m
;Layer height: 0.15
;Generated with Cura_SteamEngine 2.7.0
M190 S60
M104 S220
M109 S220
G21 ;metric values
G90 ;absolute positioning
M82 ;set extruder to absolute mode
M107 ;start with the fan off
G92 E0 ;zero the extruded length
G1 F200 E3 ;extrude 3mm of feed stock
G92 E0 ;zero the extruded length again
G1 F9000
M301 P31.36 I3.30 D74.51 ;set PID tuning for E0
M304 P72.25 I2.72 D479.41 ; set PID tuning for heated bed
M117 Printing...
;LAYER_COUNT:202
;LAYER:0
M107
M205 X20 Y20
G0 F2400 X78.888 Y67.643 Z0.3
G0 X79.312 Y67.155
;TYPE:SKIRT
G1 F1050 X79.541 Y66.925 E0.01615
G1 X80.006 Y66.516 E0.04697
G1 X80.296 Y66.307 E0.06476
G1 X83.458 Y64.218 E0.25336
G1 X83.996 Y63.911 E0.28418
G1 X84.568 Y63.676 E0.31496
G1 X85.167 Y63.516 E0.34581
G1 X85.78 Y63.435 E0.37659
G1 X86.455 Y63.437 E0.41018
G1 X90.023 Y63.7 E0.58822
G1 X95.466 Y63.853 E0.8592
G1 X98.572 Y63.803 E1.01379
G1 X99.19 Y63.833 E1.04459
G1 X99.799 Y63.942 E1.07537
G1 X100.562 Y64.2 E1.11546
G1 X104.042 Y65.714 E1.30432
G1 X104.593 Y65.997 E1.33515
G1 X105.102 Y66.349 E1.36595
G1 X105.562 Y66.763 E1.39674
G1 X105.965 Y67.234 E1.42759
G1 X106.304 Y67.752 E1.4584
G1 X106.573 Y68.309 E1.48918
G1 X106.768 Y68.897 E1.52001
G1 X106.886 Y69.504 E1.55079
G1 X106.925 Y70.109 E1.58096
G1 X106.946 Y106.915 E3.41262
G1 X107.083 Y112.424 E3.68687
G1 X107.058 Y113.042 E3.71765
G1 X106.969 Y113.587 E3.74513
G1 X106.827 Y114.224 E3.77761
G1 X106.654 Y114.818 E3.8084
G1 X106.405 Y115.385 E3.83921
G1 X105.997 Y116.038 E3.87753
G1 X105.548 Y116.643 E3.91503
G1 X105.148 Y117.116 E3.94585
G1 X104.69 Y117.532 E3.97665
G1 X104.183 Y117.887 E4.00745
G1 X103.881 Y118.055 E4.02464
G1 X103.181 Y118.413 E4.06377
G1 X102.613 Y118.659 E4.09458
G1 X102.017 Y118.829 E4.12542
G1 X101.367 Y118.925 E4.15812
G1 X94.872 Y119.427 E4.48231
G1 X94.521 Y119.441 E4.49979
G1 X83.111 Y119.486 E5.06762
G1 X82.493 Y119.448 E5.09843
G1 X81.885 Y119.332 E5.12923
G1 X81.297 Y119.137 E5.16006
G1 X80.739 Y118.869 E5.19087
G1 X80.22 Y118.531 E5.22169
G1 X79.746 Y118.126 E5.25272
G1 X79.515 Y117.901 E5.26877
G1 X79.1 Y117.441 E5.2996
G1 X78.748 Y116.932 E5.3304
G1 X78.464 Y116.381 E5.36125
G1 X78.254 Y115.799 E5.39204
G1 X78.091 Y114.962 E5.43447
G1 X77.953 Y113.637 E5.50077
G1 X77.927 Y113.155 E5.52479
G1 X77.905 Y106.226 E5.86962
G1 X77.751 Y100.782 E6.14065
G1 X77.084 Y93.593 E6.49995
G1 X77.063 Y93.15 E6.52202
G1 X77.063 Y90.162 E6.67072
G1 X77.087 Y89.683 E6.69459
G1 X77.665 Y83.93 E6.98233
G1 X77.895 Y78.499 E7.25285
G1 X77.915 Y70.527 E7.64958
G1 X77.957 Y69.909 E7.68041
G1 X78.077 Y69.302 E7.7112
G1 X78.275 Y68.716 E7.74198
G1 X78.547 Y68.159 E7.77283
G1 X78.888 Y67.643 E7.80361
G1 X79.312 Y67.155 E7.83578
G0 F2400 X79.595 Y67.437
G1 F1050 X79.824 Y67.207 E7.85193
G1 X80.27 Y66.816 E7.88145
G1 X80.516 Y66.64 E7.8965
G1 X83.678 Y64.551 E8.0851
G1 X84.194 Y64.259 E8.11461
G1 X84.744 Y64.038 E8.1441
G1 X85.319 Y63.893 E8.17361
G1 X85.908 Y63.827 E8.20311
G1 X86.425 Y63.835 E8.22884
G1 X90.003 Y64.099 E8.40739
G1 X95.461 Y64.252 E8.67911
G1 X98.578 Y64.202 E8.83425
G1 X99.17 Y64.232 E8.86375
G1 X99.752 Y64.342 E8.89323
G1 X100.403 Y64.566 E8.92749
G1 X103.883 Y66.08 E9.11635
G1 X104.409 Y66.353 E9.14585
G1 X104.894 Y66.694 E9.17535
G1 X105.329 Y67.097 E9.20486
G1 X105.706 Y67.554 E9.23434
G1 X106.017 Y68.059 E9.26386
G1 X106.258 Y68.6 E9.29333
G1 X106.424 Y69.169 E9.32283
G1 X106.512 Y69.756 E9.35237
G1 X106.526 Y70.109 E9.36995
G1 X106.547 Y106.926 E11.20216
G1 X106.684 Y112.434 E11.47636
G1 X106.658 Y113.026 E11.50585
G1 X106.58 Y113.5 E11.52975
G1 X106.438 Y114.137 E11.56223
G1 X106.27 Y114.705 E11.59171
G1 X106.027 Y115.246 E11.62122
G1 X105.677 Y115.8 E11.65383
G1 X105.228 Y116.405 E11.69133
G1 X104.843 Y116.857 E11.72088
G1 X104.402 Y117.252 E11.75034
G1 X103.699 Y117.7 E11.79182
G1 X102.999 Y118.058 E11.83095
G1 X102.454 Y118.291 E11.86045
G1 X101.883 Y118.45 E11.88995
G1 X101.336 Y118.527 E11.91744
G1 X94.841 Y119.029 E12.24163
G1 X94.519 Y119.042 E12.25766
G1 X83.109 Y119.087 E12.82549
G1 X82.518 Y119.049 E12.85496
G1 X81.937 Y118.932 E12.88446
G1 X81.377 Y118.739 E12.91394
G1 X80.848 Y118.471 E12.94345
G1 X80.359 Y118.135 E12.97297
G1 X80.024 Y117.84 E12.99519
G1 X79.793 Y117.615 E13.01124
G1 X79.397 Y117.174 E13.04073
G1 X79.064 Y116.683 E13.07026
G1 X78.801 Y116.152 E13.09975
G1 X78.611 Y115.591 E13.12922
G1 X78.488 Y114.92 E13.16317
G1 X78.35 Y113.595 E13.22947
G1 X78.326 Y113.154 E13.25145
G1 X78.304 Y106.212 E13.59692
G1 X78.15 Y100.765 E13.8681
G1 X77.481 Y93.556 E14.2284
G1 X77.462 Y93.15 E14.24863
G1 X77.462 Y90.162 E14.39733
G1 X77.484 Y89.723 E14.4192
G1 X78.063 Y83.952 E14.70784
G1 X78.294 Y78.517 E14.97856
G1 X78.314 Y70.528 E15.37614
G1 X78.355 Y69.937 E15.40562
G1 X78.476 Y69.356 E15.43515
G1 X78.674 Y68.798 E15.46462
G1 X78.944 Y68.27 E15.49413
G1 X79.284 Y67.784 E15.52365
G1 X79.595 Y67.437 E15.54684
G0 F2400 X79.878 Y67.718
G1 F1050 X80.107 Y67.488 E15.56299
G1 X80.736 Y66.973 E15.60345
G1 X83.898 Y64.884 E15.79204
G1 X84.391 Y64.607 E15.82019
G1 X84.917 Y64.402 E15.84828
G1 X85.468 Y64.273 E15.87644
G1 X86.03 Y64.223 E15.90452
G1 X86.396 Y64.233 E15.92274
G1 X89.986 Y64.498 E16.10189
G1 X95.456 Y64.652 E16.37421
G1 X98.584 Y64.601 E16.5299
G1 X99.149 Y64.631 E16.55806
G1 X99.703 Y64.741 E16.58616
G1 X100.244 Y64.932 E16.61472
G1 X103.724 Y66.446 E16.80358
G1 X104.225 Y66.707 E16.83169
G1 X104.684 Y67.037 E16.85983
G1 X105.092 Y67.428 E16.88795
G1 X105.441 Y67.873 E16.91609
G1 X105.724 Y68.362 E16.94421
G1 X105.935 Y68.887 E16.97237
G1 X106.069 Y69.435 E17.00044
G1 X106.127 Y70.11 E17.03416
G1 X106.148 Y106.936 E18.86682
G1 X106.285 Y112.444 E19.14102
G1 X106.259 Y113.008 E19.16911
G1 X106.19 Y113.413 E19.18956
G1 X106.048 Y114.05 E19.22204
G1 X105.887 Y114.591 E19.25013
G1 X105.65 Y115.105 E19.27829
G1 X105.356 Y115.563 E19.30538
G1 X104.907 Y116.168 E19.34287
G1 X104.539 Y116.597 E19.371
G1 X104.115 Y116.969 E19.39907
G1 X103.517 Y117.344 E19.4342
G1 X102.817 Y117.702 E19.47333
G1 X102.297 Y117.924 E19.50146
G1 X101.751 Y118.069 E19.52958
G1 X101.305 Y118.129 E19.55197
G1 X94.81 Y118.631 E19.87616
G1 X94.518 Y118.643 E19.89071
G1 X83.108 Y118.688 E20.45854
G1 X82.544 Y118.65 E20.48667
G1 X81.991 Y118.533 E20.5148
G1 X81.46 Y118.34 E20.54291
G1 X80.962 Y118.073 E20.57103
G1 X80.302 Y117.554 E20.61282
G1 X80.071 Y117.329 E20.62887
G1 X79.695 Y116.907 E20.65699
G1 X79.383 Y116.436 E20.68511
G1 X79.14 Y115.926 E20.71322
G1 X78.971 Y115.387 E20.74133
G1 X78.885 Y114.879 E20.76698
G1 X78.747 Y113.554 E20.83327
G1 X78.725 Y113.153 E20.85326
G1 X78.703 Y106.2 E21.19928
G1 X78.549 Y100.748 E21.47071
G1 X77.878 Y93.519 E21.83201
G1 X77.861 Y93.15 E21.85039
G1 X77.861 Y90.162 E21.99909
G1 X77.881 Y89.763 E22.01897
G1 X78.462 Y83.974 E22.30851
G1 X78.693 Y78.535 E22.57943
G1 X78.713 Y70.529 E22.97785
G1 X78.754 Y69.965 E23.006
G1 X78.875 Y69.413 E23.03412
G1 X79.072 Y68.883 E23.06226
G1 X79.342 Y68.387 E23.09036
G1 X79.679 Y67.933 E23.1185
G1 X79.878 Y67.718 E23.13308
G0 F2400 X80.161 Y68
G1 F1050 X80.39 Y67.77 E23.14923
G1 X80.956 Y67.306 E23.18565
G1 X84.118 Y65.217 E23.37425
G1 X84.586 Y64.956 E23.40092
G1 X85.088 Y64.767 E23.42761
G1 X85.612 Y64.654 E23.45429
G1 X86.367 Y64.631 E23.49188
G1 X89.946 Y64.895 E23.67047
G1 X95.451 Y65.05 E23.94454
G1 X98.591 Y64.999 E24.10083
G1 X99.126 Y65.031 E24.1275
G1 X99.651 Y65.141 E24.15419
G1 X100.085 Y65.298 E24.17716
G1 X103.565 Y66.812 E24.36602
G1 X104.039 Y67.062 E24.39269
G1 X104.471 Y67.379 E24.41936
G1 X104.851 Y67.758 E24.44607
G1 X105.171 Y68.188 E24.47274
G1 X105.423 Y68.662 E24.49946
G1 X105.602 Y69.167 E24.52612
G1 X105.704 Y69.693 E24.55279
G1 X105.728 Y70.11 E24.57357
G1 X105.749 Y106.945 E26.40668
G1 X105.886 Y112.453 E26.68088
G1 X105.859 Y112.989 E26.70758
G1 X105.801 Y113.326 E26.7246
G1 X105.659 Y113.963 E26.75708
G1 X105.503 Y114.476 E26.78376
G1 X105.274 Y114.961 E26.81046
G1 X105.036 Y115.325 E26.8321
G1 X104.587 Y115.93 E26.86959
G1 X104.236 Y116.335 E26.89626
G1 X103.829 Y116.684 E26.92295
G1 X103.336 Y116.989 E26.9518
G1 X102.636 Y117.347 E26.99092
G1 X102.141 Y117.555 E27.01764
G1 X101.622 Y117.687 E27.04429
G1 X101.274 Y117.731 E27.06175
G1 X94.779 Y118.233 E27.38594
G1 X94.516 Y118.244 E27.39904
G1 X83.106 Y118.289 E27.96687
G1 X82.571 Y118.251 E27.99356
G1 X82.048 Y118.134 E28.02023
G1 X81.548 Y117.941 E28.0469
G1 X81.082 Y117.675 E28.07361
G1 X80.581 Y117.268 E28.10573
G1 X80.35 Y117.043 E28.12178
G1 X79.995 Y116.641 E28.14847
G1 X79.703 Y116.191 E28.17516
G1 X79.482 Y115.703 E28.20182
G1 X79.335 Y115.187 E28.22852
G1 X79.281 Y114.838 E28.2461
G1 X79.143 Y113.513 E28.31239
G1 X79.124 Y113.151 E28.33043
G1 X79.102 Y106.228 E28.67496
G1 X78.946 Y100.716 E28.94938
G1 X78.275 Y93.483 E29.31088
G1 X78.26 Y93.15 E29.32747
G1 X78.26 Y90.162 E29.47617
G1 X78.278 Y89.803 E29.49405
G1 X78.859 Y84.014 E29.78359
G1 X79.092 Y78.528 E30.05685
G1 X79.112 Y70.53 E30.45488
G1 X79.153 Y69.995 E30.48158
G1 X79.274 Y69.473 E30.50825
G1 X79.47 Y68.974 E30.53493
G1 X79.739 Y68.51 E30.56162
G1 X80.161 Y68 E30.59456
G0 F2400 X80.443 Y68.281
G1 F1050 X80.672 Y68.051 E30.61071
G1 X81.176 Y67.639 E30.64311
G1 X84.338 Y65.55 E30.83171
G1 X84.781 Y65.306 E30.85688
G1 X85.256 Y65.134 E30.88202
G1 X85.753 Y65.039 E30.9072
G1 X86.337 Y65.029 E30.93627
G1 X89.926 Y65.294 E31.11536
G1 X95.447 Y65.449 E31.39022
G1 X98.597 Y65.398 E31.54701
G1 X99.102 Y65.43 E31.57219
G1 X99.595 Y65.541 E31.59734
G1 X99.926 Y65.664 E31.61491
G1 X103.406 Y67.178 E31.80377
G1 X103.852 Y67.415 E31.82891
G1 X104.255 Y67.72 E31.85406
G1 X104.605 Y68.085 E31.87923
G1 X104.894 Y68.5 E31.90439
G1 X105.113 Y68.956 E31.92957
G1 X105.258 Y69.44 E31.95471
G1 X105.329 Y70.11 E31.98824
G1 X105.35 Y106.955 E33.82185
G1 X105.487 Y112.463 E34.09604
G1 X105.46 Y112.968 E34.12121
G1 X105.411 Y113.239 E34.13492
G1 X105.269 Y113.876 E34.16739
G1 X105.121 Y114.359 E34.19253
G1 X104.898 Y114.813 E34.21771
G1 X104.716 Y115.087 E34.23408
G1 X104.267 Y115.692 E34.27157
G1 X103.934 Y116.073 E34.29675
G1 X103.546 Y116.397 E34.32191
G1 X103.154 Y116.634 E34.3447
G1 X102.454 Y116.992 E34.38383
G1 X101.987 Y117.186 E34.409
G1 X101.496 Y117.304 E34.43413
G1 X101.244 Y117.333 E34.44675
G1 X94.749 Y117.835 E34.77094
G1 X94.515 Y117.845 E34.7826
G1 X83.105 Y117.89 E35.35043
G1 X82.6 Y117.852 E35.37563
G1 X82.109 Y117.735 E35.40075
G1 X81.641 Y117.542 E35.42594
G1 X81.21 Y117.278 E35.45109
G1 X80.859 Y116.982 E35.47394
G1 X80.628 Y116.757 E35.48999
G1 X80.295 Y116.377 E35.51514
G1 X80.026 Y115.949 E35.54029
G1 X79.828 Y115.484 E35.56544
G1 X79.678 Y114.796 E35.60049
G1 X79.54 Y113.471 E35.66678
G1 X79.523 Y113.15 E35.68278
G1 X79.501 Y106.215 E36.02791
G1 X79.345 Y100.683 E36.30332
G1 X78.673 Y93.446 E36.66502
G1 X78.659 Y93.15 E36.67977
G1 X78.659 Y90.162 E36.82847
G1 X78.675 Y89.842 E36.84441
G1 X79.258 Y84.035 E37.13485
G1 X79.491 Y78.546 E37.40826
G1 X79.511 Y70.531 E37.80713
G1 X79.552 Y70.027 E37.8323
G1 X79.672 Y69.536 E37.85745
G1 X79.868 Y69.07 E37.88261
G1 X80.135 Y68.641 E37.90776
G1 X80.443 Y68.281 E37.93133
G0 F2400 X83.931 Y70.499
;TYPE:SUPPORT
G1 F1050 X86.096 Y68.484 E38.07852
G1 X88.169 Y70.499 E38.22239
G1 X96.803 Y70.499 E38.65207
G1 X98.693 Y68.823 E38.77778
G1 X99.545 Y69.232 E38.82481
G1 X101.951 Y70.243 E38.95469
G1 X101.951 Y111.915 E41.02851
G1 X102.099 Y112.287 E41.04844
G1 X102.098 Y112.57 E41.06252
G1 X102.079 Y112.78 E41.07301
G1 X102 Y113.034 E41.08625
G1 X101.953 Y113.152 E41.09257
G1 X101.9 Y113.256 E41.09838
G1 X101.711 Y113.507 E41.11402
G1 X101.608 Y113.613 E41.12137
G1 X101.523 Y113.681 E41.12679
G1 X101.343 Y113.807 E41.13773
G1 X101.136 Y113.901 E41.14904
G1 X100.957 Y113.959 E41.1584
G1 X100.686 Y113.999 E41.17204
G1 X96.72 Y114.003 E41.36941
G1 X96.295 Y114.347 E41.39662
G1 X96.228 Y114.371 E41.40016
G1 X94.705 Y114.377 E41.47595
G1 X94.321 Y114.461 E41.49551
G1 X91.273 Y114.46 E41.6472
G1 X90.883 Y114.499 E41.6667
G1 X83.166 Y114.501 E42.05074
G1 X83.048 Y114.383 E42.05905
G1 X83.048 Y113.339 E42.111
G1 X82.9 Y112.966 E42.13097
G1 X82.9 Y93.351 E43.10712
G1 X82.502 Y92.953 E43.13513
G1 X82.048 Y92.953 E43.15773
G1 X82.048 Y90.351 E43.28722
G1 X82.502 Y90.351 E43.30981
G1 X82.9 Y89.953 E43.33782
G1 X82.9 Y70.617 E44.30009
G1 X83.018 Y70.499 E44.30839
G1 X83.931 Y70.499 E44.35383
G0 F2400 X88.639 Y95.125
G1 F1050 X88.236 Y95.291 E44.37552
G1 X87.956 Y95.571 E44.39522
G1 X87.876 Y95.684 E44.40211
G1 X87.757 Y95.885 E44.41374
G1 X87.707 Y96.004 E44.42016
G1 X87.578 Y96.441 E44.44284
G1 X87.525 Y96.771 E44.45947
G1 X87.484 Y97.236 E44.4827
G1 X87.587 Y97.497 E44.49667
G1 X87.481 Y97.735 E44.50963
G1 X87.527 Y98.251 E44.53541
G1 X87.597 Y98.647 E44.55542
G1 X87.726 Y99.043 E44.57615
G1 X87.787 Y99.171 E44.58321
G1 X87.938 Y99.405 E44.59707
G1 X88.032 Y99.515 E44.60427
G1 X88.267 Y99.726 E44.61998
G1 X88.645 Y99.874 E44.64019
G1 X91.255 Y99.876 E44.77007
G1 X91.899 Y99.232 E44.8154
G1 X91.899 Y95.762 E44.98808
G1 X91.253 Y95.122 E45.03334
G1 X88.639 Y95.125 E45.16343
G1 F1500 E44.16343
G0 F2400 X91.155 Y95.36
G0 X93.101 Y95.766
G1 F1500 E45.16343
G1 F1050 X93.101 Y99.233 E45.33596
G1 X93.745 Y99.877 E45.38129
G1 X96.36 Y99.875 E45.51142
G1 X96.764 Y99.709 E45.53316
G1 X97.044 Y99.429 E45.55287
G1 X97.124 Y99.316 E45.55976
G1 X97.243 Y99.115 E45.57138
G1 X97.293 Y98.996 E45.5778
G1 X97.422 Y98.559 E45.60048
G1 X97.476 Y98.222 E45.61746
G1 X97.516 Y97.76 E45.64054
G1 X97.414 Y97.503 E45.6543
G1 X97.519 Y97.265 E45.66725
G1 X97.473 Y96.749 E45.69303
G1 X97.403 Y96.353 E45.71304
G1 X97.274 Y95.957 E45.73377
G1 X97.213 Y95.828 E45.74087
G1 X97.058 Y95.591 E45.75496
G1 X96.954 Y95.47 E45.7629
G1 X96.71 Y95.262 E45.77886
G1 X96.344 Y95.124 E45.79832
G1 X93.745 Y95.122 E45.92766
G1 X93.101 Y95.766 E45.97299
G0 F2400 X92.941 Y95.976
G1 F1050 X92.059 Y95.976 E46.01688
G0 F2400 X91.977 Y95.613
G1 F1050 X91.977 Y70.659 E47.25873
G0 F2400 X93.31 Y70.659
G1 F1050 X93.31 Y95.332 E48.48659
G0 F2400 X94.643 Y94.962
G1 F1050 X94.643 Y70.659 E49.69604
G0 F2400 X95.976 Y70.659
G1 F1050 X95.976 Y94.963 E50.90554
G0 F2400 X97.309 Y95.683
G1 F1050 X97.309 Y70.264 E52.17053
G0 F2400 X96.876 Y70.649
G1 F1050 X101.791 Y70.649 E52.41513
G0 F2400 X101.308 Y70.147
G1 F1050 X101.308 Y113.636 E54.57938
G0 F2400 X101.662 Y113.305
G1 F1050 X83.207 Y113.305 E55.4978
G0 F2400 X83.979 Y114.339
G1 F1050 X83.979 Y70.659 E57.67156
G0 F2400 X84.004 Y70.649
G1 F1050 X88.094 Y70.649 E57.8751
G0 F2400 X87.978 Y70.537
G1 F1050 X87.978 Y95.323 E59.10859
G0 F2400 X87.547 Y95.976
G1 F1050 X83.06 Y95.976 E59.33188
G0 F2400 X83.06 Y94.643
G1 F1050 X101.791 Y94.643 E60.26404
G0 F2400 X101.791 Y93.31
G1 F1050 X83.06 Y93.31 E61.1962
G0 F2400 X82.646 Y92.872
G1 F1050 X82.646 Y90.432 E61.31763
G0 F2400 X82.208 Y90.644
G1 F1050 X101.791 Y90.644 E62.29218
G0 F2400 X101.791 Y89.311
G1 F1050 X83.061 Y89.311 E63.22429
G0 F2400 X83.061 Y87.978
G1 F1050 X101.791 Y87.978 E64.1564
G0 F2400 X101.791 Y86.645
G1 F1050 X83.061 Y86.645 E65.08851
G0 F2400 X83.061 Y85.312
G1 F1050 X101.791 Y85.312 E66.02061
G0 F2400 X101.791 Y83.979
G1 F1050 X83.061 Y83.979 E66.95272
G0 F2400 X83.061 Y82.646
G1 F1050 X101.791 Y82.646 E67.88483
G0 F2400 X101.791 Y81.313
G1 F1050 X83.061 Y81.313 E68.81694
G0 F2400 X83.062 Y79.98
G1 F1050 X101.791 Y79.98 E69.74899
G0 F2400 X101.791 Y78.647
G1 F1050 X83.062 Y78.647 E70.68105
G0 F2400 X83.062 Y77.314
G1 F1050 X101.791 Y77.314 E71.61311
G0 F2400 X101.791 Y75.981
G1 F1050 X83.062 Y75.981 E72.54517
G0 F2400 X83.062 Y74.648
G1 F1050 X101.791 Y74.648 E73.47722
G0 F2400 X101.791 Y73.315
G1 F1050 X83.062 Y73.315 E74.40928
G0 F2400 X83.062 Y71.982
G1 F1050 X101.791 Y71.982 E75.34134
G0 F2400 X99.975 Y69.587
G1 F1050 X99.975 Y113.84 E77.54361
G0 F2400 X98.642 Y113.842
G1 F1050 X98.642 Y69.082 E79.77111
G0 F2400 X98.379 Y69.316
G1 F1050 X99.35 Y69.316 E79.81944
G0 F2400 X90.644 Y70.659
G1 F1050 X90.644 Y94.963 E81.02894
G0 F2400 X89.311 Y94.965
G1 F1050 X89.311 Y70.659 E82.23854
G0 F2400 X86.723 Y69.316
G1 F1050 X85.438 Y69.316 E82.30248
G0 F2400 X85.312 Y69.432
G1 F1050 X85.312 Y114.339 E84.5373
G0 F2400 X86.645 Y114.339
