;FLAVOR:Marlin
;TIME:2300
;Filament used: 1.99512m
;Layer height: 0.2
;Generated with Cura_SteamEngine 2.7.0
M190 S50
M104 S210
M109 S210
G21 ;metric values
G90 ;absolute positioning
M82 ;set extruder to absolute mode
M107 ;start with the fan off
G92 E0 ;zero the extruded length
G1 F200 E3 ;extrude 3mm of feed stock
G92 E0 ;zero the extruded length again
G1 F9000
M301 P31.36 I3.30 D74.51 ;set PID tuning for E0
M304 P72.25 I2.72 D479.41 ; set PID tuning for heated bed
M117 Printing...
;LAYER_COUNT:75
;LAYER:0
M107
G0 F2400 X67.333 Y62.589 Z0.3
G0 X67.609 Y62.332
;TYPE:SKIRT
G1 F1050 X68.046 Y61.956 E0.02869
G1 X68.54 Y61.584 E0.05946
G1 X69.183 Y61.229 E0.09602
G1 X69.457 Y61.104 E0.111
G1 X70.036 Y60.884 E0.14183
G1 X70.788 Y60.717 E0.18016
G1 X71.371 Y60.636 E0.20946
G1 X72.036 Y60.59 E0.24263
G1 X113.38 Y60.631 E2.30013
G1 X113.998 Y60.672 E2.33096
G1 X114.605 Y60.791 E2.36174
G1 X115.374 Y61.067 E2.4024
G1 X116.013 Y61.36 E2.43738
G1 X116.558 Y61.654 E2.4682
G1 X117.06 Y62.016 E2.499
G1 X117.512 Y62.439 E2.52981
G1 X117.752 Y62.715 E2.54801
G1 X118.195 Y63.266 E2.58319
G1 X118.551 Y63.772 E2.61398
G1 X118.838 Y64.321 E2.64481
G1 X119.053 Y64.901 E2.6756
G1 X119.138 Y65.225 E2.69227
G1 X119.292 Y65.914 E2.7274
G1 X119.387 Y66.525 E2.75817
G1 X119.407 Y66.961 E2.77989
G1 X119.399 Y113.148 E5.07841
G1 X119.359 Y113.766 E5.10923
G1 X119.265 Y114.271 E5.13479
G1 X119.142 Y114.781 E5.1609
G1 X118.959 Y115.373 E5.19174
G1 X118.658 Y116.013 E5.22693
G1 X118.455 Y116.373 E5.2475
G1 X118.116 Y116.891 E5.27831
G1 X117.714 Y117.362 E5.30913
G1 X117.419 Y117.641 E5.32933
G1 X116.968 Y118.032 E5.35904
G1 X116.475 Y118.406 E5.38983
G1 X115.938 Y118.714 E5.42064
G1 X115.265 Y118.983 E5.45671
G1 X109.692 Y120.736 E5.74745
G1 X104.613 Y122.608 E6.01683
G1 X99.654 Y124.765 E6.28595
G1 X96.558 Y126.24 E6.45662
G1 X95.983 Y126.469 E6.48742
G1 X95.449 Y126.61 E6.5149
G1 X94.981 Y126.705 E6.53867
G1 X94.368 Y126.789 E6.56946
G1 X94.017 Y126.801 E6.58694
G1 X90.769 Y126.794 E6.74858
G1 X90.151 Y126.753 E6.7794
G1 X89.544 Y126.632 E6.8102
G1 X88.78 Y126.358 E6.85059
G1 X82.632 Y123.54 E7.18716
G1 X77.596 Y121.534 E7.45693
G1 X72.249 Y119.76 E7.73729
G1 X70.481 Y119.242 E7.82897
G1 X69.949 Y119.051 E7.8571
G1 X69.103 Y118.69 E7.90288
G1 X68.55 Y118.411 E7.9337
G1 X68.038 Y118.063 E7.96451
G1 X67.575 Y117.652 E7.99532
G1 X67.236 Y117.27 E8.02074
G1 X66.79 Y116.711 E8.05633
G1 X66.436 Y116.203 E8.08714
G1 X66.15 Y115.654 E8.11795
G1 X65.938 Y115.073 E8.14872
G1 X65.855 Y114.75 E8.16532
G1 X65.705 Y114.068 E8.20007
G1 X65.611 Y113.456 E8.23089
G1 X65.593 Y113.037 E8.25176
G1 X65.602 Y66.843 E10.55062
G1 X65.642 Y66.225 E10.58144
G1 X65.739 Y65.707 E10.60767
G1 X65.861 Y65.207 E10.63328
G1 X66.046 Y64.616 E10.6641
G1 X66.366 Y63.947 E10.70101
G1 X66.583 Y63.571 E10.72261
G1 X66.927 Y63.056 E10.75343
G1 X67.333 Y62.589 E10.78423
G1 X67.609 Y62.332 E10.803
G0 F2400 X67.869 Y62.635
G1 F1050 X68.306 Y62.259 E10.83169
G1 X68.781 Y61.903 E10.86123
G1 X69.349 Y61.592 E10.89345
G1 X69.623 Y61.467 E10.90844
G1 X70.178 Y61.258 E10.93795
G1 X70.843 Y61.112 E10.97184
G1 X71.426 Y61.031 E11.00113
G1 X72.035 Y60.989 E11.03151
G1 X113.379 Y61.03 E13.08901
G1 X113.971 Y61.071 E13.11854
G1 X114.551 Y61.19 E13.14801
G1 X115.208 Y61.43 E13.18282
G1 X115.847 Y61.723 E13.2178
G1 X116.368 Y62.006 E13.24731
G1 X116.846 Y62.356 E13.27679
G1 X117.441 Y62.965 E13.31916
G1 X117.884 Y63.516 E13.35435
G1 X118.223 Y64.002 E13.38383
G1 X118.494 Y64.529 E13.41333
G1 X118.748 Y65.312 E13.45429
G1 X118.902 Y66.001 E13.48942
G1 X118.992 Y66.587 E13.51893
G1 X119.008 Y66.961 E13.53756
G1 X119 Y113.148 E15.83608
G1 X118.96 Y113.739 E15.86556
G1 X118.877 Y114.178 E15.88779
G1 X118.754 Y114.688 E15.9139
G1 X118.577 Y115.253 E15.94336
G1 X118.31 Y115.817 E15.97442
G1 X118.107 Y116.177 E15.99498
G1 X117.782 Y116.672 E16.02445
G1 X117.393 Y117.12 E16.05398
G1 X117.157 Y117.339 E16.07
G1 X116.706 Y117.73 E16.09971
G1 X116.233 Y118.087 E16.1292
G1 X115.716 Y118.378 E16.15872
G1 X115.145 Y118.603 E16.18927
G1 X109.542 Y120.365 E16.48156
G1 X104.473 Y122.234 E16.75043
G1 X99.466 Y124.411 E17.02214
G1 X96.386 Y125.879 E17.19193
G1 X95.835 Y126.098 E17.22144
G1 X95.37 Y126.219 E17.24535
G1 X94.902 Y126.314 E17.26912
G1 X94.314 Y126.393 E17.29864
G1 X94.018 Y126.402 E17.31338
G1 X90.77 Y126.395 E17.47502
G1 X90.178 Y126.354 E17.50455
G1 X89.598 Y126.233 E17.53404
G1 X88.947 Y125.995 E17.56853
G1 X82.792 Y123.173 E17.9055
G1 X77.738 Y121.161 E18.17621
G1 X72.361 Y119.377 E18.45814
G1 X70.594 Y118.859 E18.54978
G1 X70.105 Y118.684 E18.57562
G1 X69.259 Y118.323 E18.6214
G1 X68.731 Y118.054 E18.65089
G1 X68.244 Y117.717 E18.68036
G1 X67.806 Y117.317 E18.70988
G1 X67.548 Y117.021 E18.72942
G1 X67.102 Y116.462 E18.76501
G1 X66.764 Y115.975 E18.79451
G1 X66.495 Y115.447 E18.824
G1 X66.245 Y114.665 E18.86486
G1 X66.095 Y113.983 E18.89961
G1 X66.007 Y113.396 E18.92915
G1 X65.992 Y113.037 E18.94703
G1 X66.001 Y66.843 E21.2459
G1 X66.041 Y66.252 E21.27537
G1 X66.126 Y65.802 E21.29816
G1 X66.248 Y65.302 E21.32378
G1 X66.427 Y64.737 E21.35327
G1 X66.712 Y64.146 E21.38592
G1 X66.929 Y63.77 E21.40753
G1 X67.259 Y63.278 E21.43701
G1 X67.869 Y62.635 E21.48112
G0 F2400 X68.129 Y62.937
G1 F1050 X68.566 Y62.561 E21.50981
G1 X69.02 Y62.224 E21.53795
G1 X69.515 Y61.955 E21.56598
G1 X69.789 Y61.83 E21.58097
G1 X70.318 Y61.632 E21.60908
G1 X70.898 Y61.507 E21.63861
G1 X71.481 Y61.426 E21.6679
G1 X72.035 Y61.388 E21.69553
G1 X113.379 Y61.429 E23.75304
G1 X113.943 Y61.47 E23.78118
G1 X114.495 Y61.589 E23.80928
G1 X115.041 Y61.793 E23.83829
G1 X115.68 Y62.086 E23.87327
G1 X116.176 Y62.357 E23.9014
G1 X116.629 Y62.696 E23.92956
G1 X117.13 Y63.215 E23.96546
G1 X117.573 Y63.766 E24.00064
G1 X117.895 Y64.23 E24.02875
G1 X118.148 Y64.735 E24.05686
G1 X118.359 Y65.399 E24.09153
G1 X118.513 Y66.088 E24.12666
G1 X118.597 Y66.647 E24.15479
G1 X118.609 Y66.961 E24.17043
G1 X118.601 Y113.148 E26.46895
G1 X118.561 Y113.711 E26.49704
G1 X118.49 Y114.084 E26.51593
G1 X118.367 Y114.594 E26.54204
G1 X118.196 Y115.133 E26.57018
G1 X117.962 Y115.621 E26.59712
G1 X117.759 Y115.981 E26.61768
G1 X117.448 Y116.452 E26.64577
G1 X116.896 Y117.038 E26.68584
G1 X116.445 Y117.429 E26.71554
G1 X115.993 Y117.768 E26.74366
G1 X115.497 Y118.04 E26.77181
G1 X115.025 Y118.222 E26.79699
G1 X109.428 Y119.982 E27.08897
G1 X104.318 Y121.866 E27.36
G1 X99.314 Y124.042 E27.63156
G1 X96.215 Y125.519 E27.8024
G1 X95.689 Y125.726 E27.83053
G1 X95.29 Y125.828 E27.85103
G1 X94.822 Y125.923 E27.87479
G1 X94.018 Y126.003 E27.915
G1 X90.77 Y125.996 E28.07664
G1 X90.207 Y125.955 E28.10473
G1 X89.654 Y125.835 E28.13289
G1 X89.113 Y125.632 E28.16165
G1 X82.951 Y122.807 E28.49899
G1 X77.885 Y120.79 E28.77035
G1 X72.464 Y118.992 E29.05458
G1 X70.706 Y118.476 E29.14576
G1 X70.262 Y118.317 E29.16923
G1 X69.416 Y117.956 E29.21501
G1 X68.913 Y117.698 E29.24314
G1 X68.452 Y117.372 E29.27124
G1 X67.86 Y116.772 E29.31318
G1 X67.414 Y116.213 E29.34877
G1 X67.093 Y115.748 E29.37689
G1 X66.842 Y115.242 E29.405
G1 X66.634 Y114.579 E29.43958
G1 X66.484 Y113.897 E29.47433
G1 X66.402 Y113.338 E29.50245
G1 X66.391 Y113.037 E29.51744
G1 X66.4 Y66.843 E31.81631
G1 X66.44 Y66.279 E31.84444
G1 X66.514 Y65.896 E31.86386
G1 X66.636 Y65.396 E31.88947
G1 X66.808 Y64.858 E31.91758
G1 X67.057 Y64.346 E31.94591
G1 X67.274 Y63.97 E31.96752
G1 X67.591 Y63.501 E31.99569
G1 X68.129 Y62.937 E32.03448
G0 F2400 X68.39 Y63.24
G1 F1050 X68.827 Y62.864 E32.06317
G1 X69.258 Y62.545 E32.08985
G1 X69.68 Y62.318 E32.1137
G1 X69.954 Y62.193 E32.12869
G1 X70.457 Y62.007 E32.15537
G1 X70.953 Y61.902 E32.1806
G1 X71.536 Y61.821 E32.2099
G1 X72.035 Y61.787 E32.23479
G1 X113.379 Y61.828 E34.29229
G1 X113.913 Y61.868 E34.31894
G1 X114.436 Y61.988 E34.34564
G1 X114.875 Y62.156 E34.36904
G1 X115.514 Y62.449 E34.40402
G1 X115.983 Y62.708 E34.43068
G1 X116.409 Y63.034 E34.45738
G1 X116.819 Y63.465 E34.48698
G1 X117.262 Y64.016 E34.52217
G1 X117.566 Y64.458 E34.54886
G1 X117.801 Y64.94 E34.57555
G1 X117.969 Y65.486 E34.60398
G1 X118.123 Y66.175 E34.63911
G1 X118.21 Y66.961 E34.67847
G1 X118.202 Y113.148 E36.97699
G1 X118.162 Y113.682 E37.00363
G1 X118.102 Y113.991 E37.0193
G1 X117.979 Y114.501 E37.04541
G1 X117.814 Y115.011 E37.07208
G1 X117.615 Y115.425 E37.09494
G1 X117.412 Y115.785 E37.11551
G1 X117.115 Y116.231 E37.14218
G1 X116.635 Y116.736 E37.17685
G1 X116.184 Y117.127 E37.20655
G1 X115.753 Y117.447 E37.23327
G1 X115.28 Y117.7 E37.25996
G1 X114.906 Y117.841 E37.27985
G1 X109.309 Y119.601 E37.57184
G1 X104.163 Y121.499 E37.8448
G1 X99.15 Y123.678 E38.11682
G1 X96.043 Y125.159 E38.28811
G1 X95.543 Y125.353 E38.3148
G1 X95.211 Y125.437 E38.33184
G1 X94.743 Y125.532 E38.3556
G1 X94.019 Y125.604 E38.39181
G1 X90.771 Y125.597 E38.55345
G1 X90.237 Y125.556 E38.5801
G1 X89.714 Y125.436 E38.60681
G1 X89.279 Y125.27 E38.62998
G1 X83.103 Y122.439 E38.96808
G1 X78.007 Y120.41 E39.24105
G1 X72.619 Y118.622 E39.52356
G1 X70.818 Y118.094 E39.61696
G1 X70.418 Y117.95 E39.63812
G1 X69.572 Y117.589 E39.6839
G1 X69.096 Y117.343 E39.71056
G1 X68.662 Y117.028 E39.73725
G1 X68.172 Y116.524 E39.77223
G1 X67.726 Y115.965 E39.80782
G1 X67.423 Y115.522 E39.83453
G1 X67.19 Y115.039 E39.86122
G1 X67.024 Y114.493 E39.88962
G1 X66.874 Y113.811 E39.92437
G1 X66.79 Y113.037 E39.96311
G1 X66.799 Y66.843 E42.26198
G1 X66.839 Y66.309 E42.28863
G1 X66.902 Y65.991 E42.30476
G1 X67.024 Y65.491 E42.33037
G1 X67.189 Y64.981 E42.35705
G1 X67.403 Y64.545 E42.38122
G1 X67.62 Y64.169 E42.40282
G1 X67.922 Y63.726 E42.4295
G1 X68.39 Y63.24 E42.46308
G0 F2400 X68.65 Y63.542
G1 F1050 X69.087 Y63.166 E42.49177
G1 X69.495 Y62.868 E42.51691
G1 X69.846 Y62.681 E42.53671
G1 X70.12 Y62.556 E42.55169
G1 X70.595 Y62.383 E42.57685
G1 X71.008 Y62.297 E42.59785
G1 X71.591 Y62.216 E42.62714
G1 X72.034 Y62.186 E42.64923
G1 X113.378 Y62.227 E44.70674
G1 X113.882 Y62.267 E44.7319
G1 X114.373 Y62.387 E44.75705
G1 X114.709 Y62.518 E44.775
G1 X115.348 Y62.811 E44.80998
G1 X115.789 Y63.058 E44.83514
G1 X116.186 Y63.37 E44.86027
G1 X116.508 Y63.715 E44.88375
G1 X116.951 Y64.266 E44.91894
G1 X117.236 Y64.684 E44.94411
G1 X117.451 Y65.141 E44.96925
G1 X117.58 Y65.573 E44.99168
G1 X117.734 Y66.262 E45.02682
G1 X117.811 Y66.961 E45.06182
G1 X117.803 Y113.148 E47.36033
G1 X117.714 Y113.897 E47.39787
G1 X117.591 Y114.407 E47.42398
G1 X117.434 Y114.888 E47.44916
G1 X117.267 Y115.229 E47.46805
G1 X117.064 Y115.589 E47.48862
G1 X116.782 Y116.008 E47.51376
G1 X116.373 Y116.435 E47.54318
G1 X115.922 Y116.826 E47.57289
G1 X115.515 Y117.126 E47.59805
G1 X115.066 Y117.358 E47.6232
G1 X114.786 Y117.461 E47.63805
G1 X109.159 Y119.23 E47.93159
G1 X104.038 Y121.119 E48.20322
G1 X98.974 Y123.321 E48.47803
G1 X95.872 Y124.799 E48.64903
G1 X95.399 Y124.98 E48.67423
G1 X95.132 Y125.046 E48.68792
G1 X94.664 Y125.141 E48.71169
G1 X94.02 Y125.205 E48.74389
G1 X90.772 Y125.198 E48.90553
G1 X90.268 Y125.157 E48.9307
G1 X89.777 Y125.037 E48.95585
G1 X89.445 Y124.907 E48.97359
G1 X83.262 Y122.073 E49.31208
G1 X78.143 Y120.035 E49.58627
G1 X72.739 Y118.242 E49.86962
G1 X70.93 Y117.711 E49.96345
G1 X70.575 Y117.583 E49.98223
G1 X69.729 Y117.222 E50.028
G1 X69.281 Y116.988 E50.05315
G1 X68.876 Y116.686 E50.0783
G1 X68.484 Y116.275 E50.10656
G1 X68.038 Y115.716 E50.14215
G1 X67.754 Y115.297 E50.16734
G1 X67.541 Y114.839 E50.19248
G1 X67.414 Y114.407 E50.21488
G1 X67.264 Y113.725 E50.24964
G1 X67.189 Y113.037 E50.28408
G1 X67.198 Y66.843 E52.58294
G1 X67.238 Y66.339 E52.6081
G1 X67.289 Y66.085 E52.621
G1 X67.411 Y65.585 E52.64661
G1 X67.569 Y65.105 E52.67176
G1 X67.748 Y64.744 E52.69181
G1 X67.965 Y64.368 E52.71342
G1 X68.252 Y63.952 E52.73857
G1 X68.65 Y63.542 E52.767
G1 F1500 E51.767
G0 F2400 X70.441 Y65.299
G0 X70.498 Y65.355
G0 X72.275 Y67.097
G0 X72.332 Y67.153
G0 X74.95 Y69.718
G0 X75.733 Y70.733
G0 X76.065 Y70.996
;TYPE:WALL-INNER
G1 F1500 E52.767
G1 F1050 X77.207 Y70.996 E52.82383
G1 X77.216 Y70.978 E52.82484
G1 X77.23 Y70.996 E52.82507
G1 X107.77 Y70.996 E54.3449
G1 X107.784 Y70.978 E54.34604
G1 X107.793 Y70.996 E54.34704
G1 X108.935 Y70.996 E54.40387
G1 X108.996 Y71.004 E54.40694
G1 X109.004 Y71.065 E54.41
G1 X109.004 Y72.529 E54.48285
G1 X109.072 Y72.557 E54.48651
G1 X109.142 Y72.586 E54.49028
G1 X109.102 Y72.626
G1 X109.004 Y72.724 E54.494
G1 X109.004 Y76.625 E54.68813
G1 X109.022 Y76.634 E54.68913
G1 X109.004 Y76.648 E54.68936
G1 X109.004 Y103.352 E56.0183
G1 X109.022 Y103.366 E56.01944
G1 X109.004 Y103.375 E56.02044
G1 X109.004 Y107.276 E56.21457
G1 X109.101 Y107.373 E56.2214
G1 X109.142 Y107.414 E56.22428
G1 X109.073 Y107.442
G1 X109.004 Y107.471 E56.22597
G1 X109.004 Y108.935 E56.29883
G1 X108.996 Y108.996 E56.30189
G1 X108.935 Y109.004 E56.30495
G1 X107.793 Y109.004 E56.36178
G1 X107.784 Y109.022 E56.36279
G1 X107.77 Y109.004 E56.36302
G1 X77.23 Y109.004 E57.88285
G1 X77.216 Y109.022 E57.88399
G1 X77.207 Y109.004 E57.88499
G1 X76.065 Y109.004 E57.94182
G1 X76.004 Y108.996 E57.94488
G1 X75.996 Y108.935 E57.94795
G1 X75.996 Y107.471 E58.0208
G1 X75.928 Y107.443 E58.02446
G1 X75.858 Y107.414 E58.02823
G1 X75.898 Y107.374
G1 X75.996 Y107.276 E58.03195
G1 X75.996 Y103.375 E58.22608
G1 X75.978 Y103.366 E58.22708
G1 X75.996 Y103.352 E58.22731
G1 X75.996 Y76.648 E59.55625
G1 X75.978 Y76.634 E59.55738
G1 X75.996 Y76.625 E59.55839
G1 X75.996 Y72.724 E59.75252
G1 X75.899 Y72.627 E59.75935
G1 X75.858 Y72.586 E59.76223
G1 X75.927 Y72.558
G1 X75.996 Y72.529 E59.76392
G1 X75.996 Y71.065 E59.83678
G1 X76.004 Y71.004 E59.83984
G1 X76.065 Y70.996 E59.8429
G1 F1500 E58.8429
G0 F2400 X89.929 Y109.383
G0 X90.895 Y110.655
G0 X90.603 Y112.849
G0 X89.929 Y114.117
G0 X89.929 Y114.496
G1 F1500 E59.8429
G1 F1050 X90.045 Y114.496 E59.84868
G1 X94.922 Y114.496 E60.09138
G1 X95.078 Y114.496 E60.09914
G1 X95.118 Y114.496 E60.10114
G1 X95.078 Y114.601
G1 X95.069 Y114.757 E60.10683
G1 X95.057 Y114.951 E60.1165
G1 X95.056 Y115.995 E60.16846
G1 X94.426 Y115.996 E60.19981
G1 X94.111 Y116.21 E60.21876
G1 X94 Y116.286 E60.22545
G1 X93.976 Y116.012 E60.22922
G1 X91.025 Y116.012 E60.37608
G1 X91.001 Y116.289 E60.38992
G1 X90.887 Y116.209
G1 X90.585 Y115.995 E60.40834
G1 X89.944 Y115.994 E60.44024
G1 X89.943 Y114.965 E60.49144
G1 X89.934 Y114.789 E60.50021
G1 X89.929 Y114.673 E60.50484
G1 X89.875 Y114.496 E60.51404
G1 X89.929 Y114.496
G0 F2400 X91.323 Y116.338
G0 X91.39 Y116.411
G1 F1050 X91.368 Y116.652 E60.52609
G1 X91.34 Y116.978 E60.54237
G1 X91.064 Y116.803 E60.55166
G1 X91.063 Y116.802 E60.55173
G1 X90.774 Y116.618 E60.56878
G1 X90.458 Y116.394 E60.58806
G1 X89.545 Y116.393 E60.6335
G1 X89.544 Y114.975 E60.70406
G1 X89.533 Y114.742 E60.71567
G1 X89.455 Y114.487 E60.72894
G1 X89.451 Y114.473 E60.72967
G1 X89.217 Y114.162 E60.74903
G1 X89.032 Y114.097 E60.75879
G1 X89.217 Y114.097
G1 X89.451 Y114.097
G1 X89.466 Y114.097 E60.75952
G1 X95.488 Y114.097 E61.05921
G1 X95.656 Y114.097 E61.06757
G1 X95.935 Y114.097 E61.08146
G1 X95.656 Y114.299 E61.08196
G1 X95.574 Y114.446 E61.08856
G1 X95.542 Y114.502 E61.09176
G1 X95.473 Y114.685 E61.1015
G1 X95.456 Y114.963 E61.11536
G1 X95.455 Y116.394 E61.18657
G1 X94.549 Y116.395 E61.23166
G1 X94.037 Y116.744 E61.2625
G1 X94.028 Y116.75 E61.26303
G1 X93.658 Y116.959 E61.28418
G1 X93.643 Y116.785
G1 X93.643 Y116.775 E61.28468
G1 X93.61 Y116.411 E61.30287
G1 X91.39 Y116.411 E61.41335
G1 F1500 E60.41335
G0 F2400 X91.323 Y116.338
G0 X89.563 Y114.975
G0 X88.294 Y115.28
G0 X79.048 Y115.29
G0 X79.05 Y114.018
G0 X78.912 Y113.959
G0 X78.998 Y113.91
G1 F1500 E61.41335
G1 F1050 X79.067 Y114.028 E61.42015
G1 X78.932 Y114.028
G1 X78.798 Y114.027 E61.42365
G1 X78.865 Y113.911
G1 X78.932 Y113.795 E61.424
G1 X78.998 Y113.91
G1 F1500 E60.424
G0 F2400 X78.912 Y113.959
G0 X78.815 Y114.018
G0 X78.034 Y112.841
G0 X78.021 Y112.85
G0 X77.958 Y112.898
G0 X74.917 Y115.225
G0 X74.853 Y115.274
G0 X74.832 Y115.291
G0 X74.613 Y114.019
G0 X74.465 Y113.921
G0 X74.554 Y113.877
G1 F1500 E61.424
G1 F1050 X74.629 Y114.029 E61.43244
G1 X74.48 Y114.029
G1 X74.248 Y114.028 E61.44069
G1 X74.388 Y113.845
G1 X74.48 Y113.725 E61.4426
G1 X74.554 Y113.877
G1 F1500 E60.4426
G0 F2400 X74.465 Y113.921
