;FLAVOR:Marlin
;TIME:1730
;Filament used: 1.42074m
;Layer height: 0.2
;Generated with Cura_SteamEngine 2.7.0
M190 S50
M104 S210
M109 S210
G21 ;metric values
G90 ;absolute positioning
M82 ;set extruder to absolute mode
M107 ;start with the fan off
G92 E0 ;zero the extruded length
G1 F200 E3 ;extrude 3mm of feed stock
G92 E0 ;zero the extruded length again
G1 F9000
M301 P31.36 I3.30 D74.51 ;set PID tuning for E0
M304 P72.25 I2.72 D479.41 ; set PID tuning for heated bed
M117 Printing...
;LAYER_COUNT:40
;LAYER:0
M107
G0 F2400 X67.234 Y52.181 Z0.3
G0 X67.438 Y51.924
;TYPE:SKIRT
G1 F1050 X69.95 Y48.972 E0.1929
G1 X72.385 Y46.039 E0.38261
G1 X72.811 Y45.589 E0.41344
G1 X73.29 Y45.198 E0.44421
G1 X73.817 Y44.872 E0.47505
G1 X74.381 Y44.616 E0.50588
G1 X74.973 Y44.435 E0.53668
G1 X75.652 Y44.326 E0.57091
G1 X76.431 Y44.257 E0.60983
G1 X77.05 Y44.242 E0.64064
G1 X77.552 Y44.289 E0.66573
G1 X77.953 Y44.348 E0.6859
G1 X78.559 Y44.478 E0.71675
G1 X79.142 Y44.684 E0.74752
G1 X79.694 Y44.964 E0.77832
G1 X80.206 Y45.312 E0.80913
G1 X80.668 Y45.724 E0.83994
G1 X80.911 Y45.988 E0.85779
G1 X85.808 Y51.754 E1.23426
G1 X86.177 Y52.251 E1.26507
G1 X86.525 Y52.889 E1.30123
G1 X86.807 Y53.515 E1.3354
G1 X87.024 Y54.095 E1.36622
G1 X87.165 Y54.698 E1.39704
G1 X87.227 Y55.33 E1.42864
G1 X87.356 Y59.32 E1.62731
G1 X87.716 Y64.739 E1.89758
G1 X88.377 Y70.095 E2.16615
G1 X89.338 Y75.394 E2.43416
G1 X90.595 Y80.622 E2.70175
G1 X92.15 Y85.781 E2.96989
G1 X93.995 Y90.854 E3.23853
G1 X95.002 Y93.293 E3.36985
G1 X97.284 Y98.217 E3.63993
G1 X99.822 Y102.97 E3.90808
G1 X102.622 Y107.567 E4.17594
G1 X105.681 Y112.003 E4.4441
G1 X108.974 Y116.244 E4.71131
G1 X112.523 Y120.316 E4.98012
G1 X116.303 Y124.188 E5.24941
G1 X119.014 Y126.72 E5.43402
G1 X119.439 Y127.171 E5.46486
G1 X119.801 Y127.672 E5.49562
G1 X120.096 Y128.217 E5.52646
G1 X120.319 Y128.795 E5.55729
G1 X120.465 Y129.396 E5.58807
G1 X120.537 Y130.224 E5.62943
G1 X120.538 Y133.926 E5.81366
G1 X120.498 Y134.544 E5.84448
G1 X120.379 Y135.151 E5.87526
G1 X120.183 Y135.738 E5.90606
G1 X119.913 Y136.295 E5.93686
G1 X119.573 Y136.813 E5.9677
G1 X119.169 Y137.282 E5.99851
G1 X118.708 Y137.696 E6.02934
G1 X118.198 Y138.046 E6.06012
G1 X117.647 Y138.328 E6.09093
G1 X117.064 Y138.537 E6.12175
G1 X116.459 Y138.669 E6.15256
G1 X115.719 Y138.723 E6.18949
G1 X109.473 Y138.693 E6.50033
G1 X109.115 Y138.678 E6.51816
G1 X106.644 Y138.481 E6.64152
G1 X106.214 Y138.427 E6.66309
G1 X103.249 Y137.918 E6.8128
G1 X102.849 Y137.831 E6.83317
G1 X100.562 Y137.234 E6.9508
G1 X100.203 Y137.126 E6.96946
G1 X97.834 Y136.305 E7.09423
G1 X97.432 Y136.145 E7.11576
G1 X94.709 Y134.917 E7.26442
G1 X94.342 Y134.732 E7.28487
G1 X92.248 Y133.562 E7.40424
G1 X91.929 Y133.367 E7.42285
G1 X89.883 Y132.005 E7.54516
G1 X89.535 Y131.75 E7.56663
G1 X87.198 Y129.87 E7.7159
G1 X86.891 Y129.601 E7.73621
G1 X85.176 Y127.963 E7.85423
G1 X84.91 Y127.687 E7.87331
G1 X79.224 Y121.311 E8.29846
G1 X75.368 Y117.466 E8.56945
G1 X73.442 Y115.702 E8.69943
G1 X69.283 Y112.205 E8.96984
G1 X66.491 Y110.037 E9.14576
G1 X66.028 Y109.626 E9.17657
G1 X65.621 Y109.16 E9.20736
G1 X65.278 Y108.644 E9.23819
G1 X65.004 Y108.089 E9.269
G1 X64.845 Y107.648 E9.29233
G1 X64.776 Y107.422 E9.30409
G1 X64.634 Y106.82 E9.33487
G1 X64.567 Y106.022 E9.37472
G1 X64.568 Y90.442 E10.15007
G1 X64.628 Y89.684 E10.18791
G1 X65.638 Y83.373 E10.50597
G1 X66.177 Y78.015 E10.77396
G1 X66.411 Y72.66 E11.04071
G1 X66.341 Y67.239 E11.31051
G1 X66.086 Y63.129 E11.51544
G1 X66.077 Y62.801 E11.53177
G1 X66.123 Y55.435 E11.89835
G1 X66.167 Y54.818 E11.92913
G1 X66.29 Y54.211 E11.95995
G1 X66.462 Y53.694 E11.98707
G1 X66.634 Y53.261 E12.01026
G1 X66.899 Y52.702 E12.04104
G1 X67.234 Y52.181 E12.07187
G1 X67.438 Y51.924 E12.0882
G0 F2400 X67.742 Y52.182
G1 F1050 X70.254 Y49.23 E12.28109
G1 X72.692 Y46.294 E12.47101
G1 X73.101 Y45.865 E12.50051
G1 X73.563 Y45.494 E12.53
G1 X74.072 Y45.189 E12.55953
G1 X74.616 Y44.955 E12.589
G1 X75.187 Y44.797 E12.61848
G1 X75.687 Y44.723 E12.64364
G1 X76.466 Y44.654 E12.68256
G1 X77.059 Y44.642 E12.71207
G1 X77.494 Y44.684 E12.73382
G1 X77.895 Y44.743 E12.75399
G1 X78.474 Y44.868 E12.78347
G1 X79.031 Y45.071 E12.81297
G1 X79.556 Y45.346 E12.84247
G1 X80.039 Y45.69 E12.87198
G1 X80.606 Y46.247 E12.91153
G1 X85.503 Y52.013 E13.288
G1 X85.856 Y52.489 E13.31749
G1 X86.161 Y53.053 E13.3494
G1 X86.443 Y53.679 E13.38357
G1 X86.649 Y54.235 E13.41308
G1 X86.779 Y54.813 E13.44256
G1 X86.829 Y55.343 E13.46905
G1 X86.959 Y59.358 E13.66897
G1 X87.319 Y64.778 E13.93929
G1 X87.984 Y70.166 E14.20946
G1 X88.945 Y75.467 E14.47757
G1 X90.21 Y80.726 E14.74675
G1 X91.773 Y85.912 E15.0163
G1 X93.625 Y91.003 E15.2859
G1 X94.629 Y93.435 E15.41684
G1 X96.93 Y98.401 E15.68921
G1 X99.474 Y103.166 E15.95802
G1 X102.287 Y107.784 E16.22712
G1 X105.355 Y112.233 E16.49607
G1 X108.673 Y116.506 E16.7653
G1 X112.227 Y120.584 E17.0345
G1 X116.016 Y124.465 E17.30442
G1 X118.742 Y127.011 E17.49005
G1 X119.147 Y127.444 E17.51955
G1 X119.49 Y127.928 E17.54907
G1 X119.765 Y128.453 E17.57857
G1 X119.967 Y129.01 E17.60805
G1 X120.092 Y129.59 E17.63758
G1 X120.138 Y130.224 E17.66921
G1 X120.139 Y133.926 E17.85345
G1 X120.099 Y134.517 E17.88292
G1 X119.98 Y135.098 E17.91244
G1 X119.784 Y135.657 E17.94192
G1 X119.515 Y136.185 E17.97141
G1 X119.177 Y136.672 E18.00091
G1 X118.776 Y137.109 E18.03042
G1 X118.321 Y137.488 E18.05989
G1 X117.818 Y137.803 E18.08943
G1 X117.278 Y138.047 E18.11892
G1 X116.71 Y138.216 E18.14841
G1 X116.124 Y138.307 E18.17792
G1 X115.721 Y138.324 E18.198
G1 X109.475 Y138.294 E18.50883
G1 X109.147 Y138.28 E18.52517
G1 X106.676 Y138.083 E18.64853
G1 X106.281 Y138.034 E18.66834
G1 X103.316 Y137.525 E18.81805
G1 X102.949 Y137.445 E18.83675
G1 X100.662 Y136.848 E18.95437
G1 X100.333 Y136.749 E18.97147
G1 X97.964 Y135.928 E19.09625
G1 X97.596 Y135.781 E19.11597
G1 X94.873 Y134.553 E19.26462
G1 X94.536 Y134.383 E19.2834
G1 X92.442 Y133.213 E19.40278
G1 X92.15 Y133.035 E19.4198
G1 X90.104 Y131.673 E19.54211
G1 X89.785 Y131.439 E19.5618
G1 X87.448 Y129.559 E19.71106
G1 X87.167 Y129.313 E19.72965
G1 X85.452 Y127.675 E19.84767
G1 X85.207 Y127.422 E19.8652
G1 X79.496 Y121.019 E20.29218
G1 X75.65 Y117.183 E20.5625
G1 X73.711 Y115.407 E20.69336
G1 X69.514 Y111.878 E20.96625
G1 X66.736 Y109.721 E21.14128
G1 X66.293 Y109.327 E21.17078
G1 X65.908 Y108.877 E21.20025
G1 X65.586 Y108.379 E21.22977
G1 X65.334 Y107.842 E21.25929
G1 X65.227 Y107.532 E21.27561
G1 X65.158 Y107.306 E21.28737
G1 X65.023 Y106.729 E21.31686
G1 X64.966 Y106.022 E21.35216
G1 X64.967 Y90.442 E22.1275
G1 X65.022 Y89.747 E22.1622
G1 X66.034 Y83.425 E22.48082
G1 X66.574 Y78.055 E22.74941
G1 X66.81 Y72.654 E23.01845
G1 X66.74 Y67.229 E23.28845
G1 X66.484 Y63.104 E23.49413
G1 X66.476 Y62.804 E23.50906
G1 X66.522 Y55.438 E23.87564
G1 X66.566 Y54.846 E23.90518
G1 X66.688 Y54.266 E23.93468
G1 X66.833 Y53.842 E23.95698
G1 X67.005 Y53.409 E23.98016
G1 X67.26 Y52.874 E24.00966
G1 X67.742 Y52.182 E24.05163
G0 F2400 X68.046 Y52.441
G1 F1050 X70.558 Y49.489 E24.24452
G1 X72.999 Y46.549 E24.43469
G1 X73.39 Y46.141 E24.46281
G1 X73.835 Y45.792 E24.49096
G1 X74.324 Y45.509 E24.51908
G1 X74.848 Y45.298 E24.54719
G1 X75.397 Y45.163 E24.57532
G1 X75.722 Y45.121 E24.59163
G1 X76.501 Y45.052 E24.63055
G1 X77.066 Y45.042 E24.65867
G1 X77.436 Y45.079 E24.67718
G1 X77.837 Y45.138 E24.69735
G1 X78.389 Y45.259 E24.72547
G1 X78.918 Y45.457 E24.75358
G1 X79.414 Y45.728 E24.78171
G1 X79.867 Y46.066 E24.80984
G1 X80.302 Y46.505 E24.84059
G1 X85.199 Y52.271 E25.21706
G1 X85.534 Y52.727 E25.24522
G1 X85.797 Y53.217 E25.2729
G1 X86.079 Y53.843 E25.30706
G1 X86.274 Y54.373 E25.33517
G1 X86.393 Y54.926 E25.36332
G1 X86.43 Y55.355 E25.38475
G1 X86.56 Y59.37 E25.58466
G1 X86.922 Y64.817 E25.85633
G1 X87.588 Y70.215 E26.127
G1 X88.557 Y75.56 E26.39733
G1 X89.826 Y80.834 E26.66729
G1 X91.392 Y86.032 E26.93745
G1 X93.247 Y91.131 E27.20748
G1 X94.28 Y93.635 E27.34228
G1 X96.564 Y98.565 E27.61267
G1 X99.13 Y103.37 E27.88376
G1 X101.949 Y107.997 E28.15339
G1 X105.032 Y112.467 E28.42362
G1 X108.365 Y116.759 E28.69406
G1 X111.931 Y120.852 E28.96421
G1 X115.741 Y124.754 E29.23561
G1 X118.47 Y127.303 E29.42145
G1 X118.855 Y127.717 E29.44958
G1 X119.177 Y128.181 E29.47769
G1 X119.431 Y128.686 E29.50582
G1 X119.611 Y129.222 E29.53396
G1 X119.714 Y129.778 E29.5621
G1 X119.739 Y130.224 E29.58433
G1 X119.74 Y133.926 E29.76856
G1 X119.7 Y134.49 E29.7967
G1 X119.581 Y135.042 E29.8248
G1 X119.386 Y135.573 E29.85295
G1 X119.117 Y136.07 E29.88108
G1 X118.781 Y136.524 E29.90918
G1 X118.385 Y136.927 E29.9373
G1 X117.935 Y137.27 E29.96546
G1 X117.442 Y137.546 E29.99358
G1 X116.915 Y137.749 E30.02168
G1 X116.364 Y137.876 E30.04982
G1 X115.723 Y137.925 E30.08182
G1 X109.477 Y137.895 E30.39265
G1 X109.178 Y137.882 E30.40755
G1 X106.707 Y137.685 E30.53091
G1 X106.349 Y137.64 E30.54886
G1 X103.384 Y137.131 E30.69858
G1 X103.05 Y137.059 E30.71558
G1 X100.763 Y136.462 E30.83321
G1 X100.464 Y136.372 E30.84875
G1 X98.095 Y135.551 E30.97352
G1 X97.76 Y135.418 E30.99146
G1 X95.037 Y134.19 E31.14011
G1 X94.731 Y134.035 E31.15718
G1 X92.637 Y132.865 E31.27656
G1 X92.372 Y132.703 E31.29201
G1 X90.326 Y131.341 E31.41433
G1 X90.035 Y131.128 E31.43228
G1 X87.698 Y129.248 E31.58154
G1 X87.443 Y129.024 E31.59843
G1 X85.728 Y127.386 E31.71645
G1 X85.505 Y127.156 E31.73239
G1 X79.794 Y120.752 E32.15941
G1 X75.931 Y116.9 E32.4309
G1 X73.968 Y115.102 E32.56338
G1 X69.761 Y111.564 E32.83693
G1 X66.981 Y109.406 E33.01207
G1 X66.56 Y109.029 E33.0402
G1 X66.196 Y108.596 E33.06835
G1 X65.897 Y108.116 E33.09649
G1 X65.608 Y107.415 E33.13422
G1 X65.539 Y107.189 E33.14598
G1 X65.413 Y106.639 E33.17406
G1 X65.365 Y106.022 E33.20486
G1 X65.366 Y90.442 E33.98021
G1 X65.416 Y89.81 E34.01176
G1 X66.43 Y83.476 E34.33099
G1 X66.973 Y78.077 E34.60102
G1 X67.21 Y72.666 E34.87056
G1 X67.139 Y67.199 E35.14265
G1 X66.883 Y63.079 E35.34808
G1 X66.875 Y62.806 E35.36168
G1 X66.921 Y55.44 E35.72826
G1 X66.965 Y54.877 E35.75636
G1 X67.087 Y54.325 E35.78449
G1 X67.203 Y53.989 E35.80218
G1 X67.375 Y53.556 E35.82537
G1 X67.621 Y53.047 E35.8535
G1 X68.046 Y52.441 E35.89034
G0 F2400 X68.35 Y52.7
G1 F1050 X70.837 Y49.777 E36.08133
G1 X73.306 Y46.804 E36.27365
G1 X73.678 Y46.418 E36.30033
G1 X74.104 Y46.092 E36.32702
G1 X74.573 Y45.832 E36.35371
G1 X75.076 Y45.645 E36.38042
G1 X75.757 Y45.518 E36.41489
G1 X76.536 Y45.449 E36.45381
G1 X77.073 Y45.442 E36.48054
G1 X77.378 Y45.473 E36.49579
G1 X77.779 Y45.532 E36.51596
G1 X78.302 Y45.65 E36.54265
G1 X78.802 Y45.843 E36.56932
G1 X79.268 Y46.109 E36.59602
G1 X79.689 Y46.442 E36.62273
G1 X79.998 Y46.763 E36.64491
G1 X84.895 Y52.529 E37.02138
G1 X85.211 Y52.963 E37.04809
G1 X85.433 Y53.381 E37.07165
G1 X85.715 Y54.007 E37.10582
G1 X85.899 Y54.511 E37.13252
G1 X86.005 Y55.036 E37.15917
G1 X86.031 Y55.368 E37.17574
G1 X86.161 Y59.379 E37.37546
G1 X86.525 Y64.858 E37.64872
G1 X87.194 Y70.281 E37.92065
G1 X88.166 Y75.64 E38.19169
G1 X89.439 Y80.933 E38.46261
G1 X91.015 Y86.163 E38.73445
G1 X92.873 Y91.272 E39.00499
G1 X93.915 Y93.795 E39.14083
G1 X96.207 Y98.742 E39.41216
G1 X98.78 Y103.56 E39.68398
G1 X101.618 Y108.219 E39.95547
G1 X104.712 Y112.706 E40.22671
G1 X108.056 Y117.013 E40.49807
G1 X111.643 Y121.129 E40.76977
G1 X115.464 Y125.043 E41.04198
G1 X118.197 Y127.595 E41.22807
G1 X118.561 Y127.989 E41.25476
G1 X118.862 Y128.433 E41.28145
G1 X119.094 Y128.916 E41.30812
G1 X119.251 Y129.429 E41.33482
G1 X119.34 Y130.224 E41.37463
G1 X119.341 Y133.926 E41.55886
G1 X119.301 Y134.461 E41.58556
G1 X119.182 Y134.984 E41.61225
G1 X118.987 Y135.483 E41.63891
G1 X118.72 Y135.948 E41.6656
G1 X118.387 Y136.368 E41.69227
G1 X117.995 Y136.734 E41.71896
G1 X117.553 Y137.037 E41.74563
G1 X117.07 Y137.272 E41.77236
G1 X116.559 Y137.432 E41.79901
G1 X116.029 Y137.515 E41.82571
G1 X115.725 Y137.526 E41.84085
G1 X109.479 Y137.496 E42.15168
G1 X109.21 Y137.485 E42.16508
G1 X106.739 Y137.288 E42.28844
G1 X106.416 Y137.247 E42.30465
G1 X103.451 Y136.738 E42.45436
G1 X103.151 Y136.673 E42.46964
G1 X100.864 Y136.076 E42.58726
G1 X100.594 Y135.995 E42.60129
G1 X98.225 Y135.174 E42.72606
G1 X97.924 Y135.054 E42.74219
G1 X95.201 Y133.826 E42.89084
G1 X94.926 Y133.687 E42.90618
G1 X92.832 Y132.517 E43.02555
G1 X92.593 Y132.371 E43.03949
G1 X90.547 Y131.009 E43.16181
G1 X90.285 Y130.817 E43.17797
G1 X87.948 Y128.937 E43.32723
G1 X87.718 Y128.736 E43.34243
G1 X86.003 Y127.098 E43.46046
G1 X85.803 Y126.89 E43.47482
G1 X80.084 Y120.477 E43.90243
G1 X76.212 Y116.615 E44.17459
G1 X74.236 Y114.807 E44.30788
G1 X70.022 Y111.262 E44.58193
G1 X67.225 Y109.091 E44.75813
G1 X66.827 Y108.732 E44.7848
G1 X66.487 Y108.317 E44.8115
G1 X66.212 Y107.857 E44.83817
G1 X65.99 Y107.299 E44.86806
G1 X65.921 Y107.073 E44.87982
G1 X65.803 Y106.55 E44.9065
G1 X65.764 Y106.022 E44.93285
G1 X65.765 Y90.442 E45.70819
G1 X65.81 Y89.873 E45.7366
G1 X66.826 Y83.527 E46.05643
G1 X67.37 Y78.117 E46.32702
G1 X67.609 Y72.661 E46.5988
G1 X67.538 Y67.189 E46.87114
G1 X67.281 Y63.054 E47.07732
G1 X67.274 Y62.809 E47.08952
G1 X67.32 Y55.443 E47.4561
G1 X67.363 Y54.908 E47.48281
G1 X67.574 Y54.136 E47.52264
G1 X67.746 Y53.703 E47.54582
G1 X67.981 Y53.221 E47.57251
G1 X68.35 Y52.7 E47.60428
G0 F2400 X68.654 Y52.958
G1 F1050 X71.166 Y50.006 E47.79718
G1 X73.613 Y47.059 E47.9878
G1 X73.966 Y46.696 E48.013
G1 X74.371 Y46.394 E48.03814
G1 X74.819 Y46.16 E48.0633
G1 X75.298 Y45.999 E48.08844
G1 X75.793 Y45.915 E48.11343
G1 X76.572 Y45.846 E48.15235
G1 X77.32 Y45.868 E48.18959
G1 X77.721 Y45.927 E48.20976
G1 X78.214 Y46.04 E48.23493
G1 X78.682 Y46.229 E48.26005
G1 X79.116 Y46.49 E48.28525
G1 X79.503 Y46.815 E48.3104
G1 X79.694 Y47.022 E48.32442
G1 X84.591 Y52.788 E48.70089
G1 X84.887 Y53.198 E48.72605
G1 X85.07 Y53.545 E48.74558
G1 X85.352 Y54.171 E48.77975
G1 X85.522 Y54.647 E48.8049
G1 X85.632 Y55.381 E48.84184
G1 X85.762 Y59.39 E49.04145
G1 X86.128 Y64.897 E49.31611
G1 X86.798 Y70.33 E49.58854
G1 X87.778 Y75.733 E49.86181
G1 X89.053 Y81.037 E50.13328
G1 X90.636 Y86.289 E50.40626
G1 X92.503 Y91.42 E50.67799
G1 X93.549 Y93.955 E50.81446
G1 X95.849 Y98.92 E51.08677
G1 X98.432 Y103.756 E51.35962
G1 X101.282 Y108.435 E51.63226
G1 X104.389 Y112.94 E51.90461
G1 X107.755 Y117.276 E52.17778
G1 X111.339 Y121.388 E52.44923
G1 X115.178 Y125.32 E52.72271
G1 X117.925 Y127.886 E52.90978
G1 X118.266 Y128.259 E52.93493
G1 X118.544 Y128.682 E52.96012
G1 X118.752 Y129.142 E52.98524
G1 X118.885 Y129.63 E53.01041
G1 X118.941 Y130.224 E53.04011
G1 X118.942 Y133.926 E53.22434
G1 X118.902 Y134.43 E53.2495
G1 X118.784 Y134.922 E53.27468
G1 X118.589 Y135.388 E53.29982
G1 X118.323 Y135.818 E53.32498
G1 X117.993 Y136.201 E53.35014
G1 X117.607 Y136.527 E53.37528
G1 X117.174 Y136.789 E53.40047
G1 X116.705 Y136.979 E53.42565
G1 X116.213 Y137.092 E53.45077
G1 X115.727 Y137.127 E53.47502
G1 X109.481 Y137.097 E53.78586
G1 X109.242 Y137.087 E53.79777
G1 X106.771 Y136.89 E53.92113
G1 X106.484 Y136.854 E53.93552
G1 X103.519 Y136.345 E54.08523
G1 X103.252 Y136.287 E54.09883
G1 X100.965 Y135.69 E54.21646
G1 X100.725 Y135.618 E54.22893
G1 X98.356 Y134.797 E54.3537
G1 X98.088 Y134.69 E54.36806
G1 X95.365 Y133.462 E54.51672
G1 X95.12 Y133.339 E54.53036
G1 X93.026 Y132.169 E54.64973
G1 X92.814 Y132.039 E54.66211
G1 X90.768 Y130.677 E54.78443
G1 X90.535 Y130.506 E54.79881
G1 X88.198 Y128.626 E54.94807
G1 X87.994 Y128.447 E54.96158
G1 X86.279 Y126.809 E55.0796
G1 X86.101 Y126.625 E55.09234
G1 X80.381 Y120.211 E55.52003
G1 X76.469 Y116.31 E55.79496
G1 X74.505 Y114.512 E55.92747
G1 X70.268 Y110.948 E56.20301
G1 X67.47 Y108.776 E56.37928
G1 X67.096 Y108.435 E56.40447
G1 X66.781 Y108.04 E56.42961
G1 X66.532 Y107.6 E56.45477
G1 X66.371 Y107.182 E56.47706
G1 X66.302 Y106.956 E56.48882
G1 X66.193 Y106.463 E56.51395
G1 X66.163 Y106.022 E56.53595
G1 X66.164 Y90.442 E57.31129
G1 X66.204 Y89.936 E57.33655
G1 X67.222 Y83.579 E57.65694
G1 X67.769 Y78.139 E57.92903
G1 X68.008 Y72.673 E58.20131
G1 X67.937 Y67.181 E58.47464
G1 X67.679 Y63.03 E58.68162
G1 X67.673 Y62.811 E58.69252
G1 X67.719 Y55.445 E59.0591
G1 X67.762 Y54.941 E59.08427
G1 X67.945 Y54.284 E59.11822
G1 X68.117 Y53.851 E59.1414
