;FLAVOR:Marlin
;TIME:6431
;Filament used: 4.24776m
;Layer height: 0.15
;Generated with Cura_SteamEngine 2.7.0
M190 S60
M104 S220
M109 S220
G21 ;metric values
G90 ;absolute positioning
M82 ;set extruder to absolute mode
M107 ;start with the fan off
G92 E0 ;zero the extruded length
G1 F200 E3 ;extrude 3mm of feed stock
G92 E0 ;zero the extruded length again
G1 F9000
M301 P31.36 I3.30 D74.51 ;set PID tuning for E0
M304 P72.25 I2.72 D479.41 ; set PID tuning for heated bed
M117 Printing...
;LAYER_COUNT:216
;LAYER:0
M107
M205 X20 Y20
G0 F2400 X76.954 Y74.958 Z0.3
;TYPE:SKIRT
G1 F1050 X77.429 Y74.561 E0.03081
G1 X77.951 Y74.228 E0.06162
G1 X78.74 Y73.883 E0.10448
G1 X80.203 Y73.394 E0.18124
G1 X80.86 Y73.225 E0.215
G1 X87.719 Y71.97 E0.56201
G1 X88.549 Y71.892 E0.6035
G1 X95.72 Y71.843 E0.96037
G1 X96.338 Y71.879 E0.99118
G1 X97.169 Y72.057 E1.03347
G1 X102.429 Y73.682 E1.30745
G1 X103.007 Y73.902 E1.33823
G1 X103.552 Y74.195 E1.36902
G1 X104.055 Y74.556 E1.39983
G1 X104.508 Y74.979 E1.43067
G1 X104.902 Y75.457 E1.4615
G1 X105.302 Y76.118 E1.49995
G1 X106.864 Y79.24 E1.67368
G1 X107.16 Y79.98 E1.71334
G1 X108.925 Y85.739 E2.0131
G1 X110.281 Y89.617 E2.21755
G1 X110.448 Y90.214 E2.2484
G1 X110.535 Y90.827 E2.27921
G1 X110.55 Y91.203 E2.29794
G1 X110.548 Y94.059 E2.44007
G1 X110.508 Y94.677 E2.47089
G1 X110.388 Y95.285 E2.50173
G1 X110.295 Y95.592 E2.51769
G1 X108.475 Y100.976 E2.80052
G1 X107.381 Y104.85 E3.00086
G1 X107.06 Y105.682 E3.04524
G1 X106.764 Y106.277 E3.07831
G1 X106.453 Y106.813 E3.10915
G1 X106.076 Y107.303 E3.13991
G1 X105.638 Y107.741 E3.17074
G1 X105.047 Y108.186 E3.20756
G1 X101.681 Y110.33 E3.40616
G1 X98.57 Y112.472 E3.59413
G1 X98.039 Y112.789 E3.62491
G1 X97.471 Y113.035 E3.65571
G1 X96.876 Y113.206 E3.68652
G1 X96.264 Y113.299 E3.71733
G1 X95.852 Y113.317 E3.73785
G1 X88.744 Y113.318 E4.09158
G1 X88.485 Y113.311 E4.10448
G1 X81.491 Y112.934 E4.45304
G1 X80.876 Y112.861 E4.48386
G1 X80.276 Y112.709 E4.51466
G1 X79.556 Y112.411 E4.55344
G1 X77.272 Y111.237 E4.68124
G1 X76.741 Y110.919 E4.71205
G1 X76.255 Y110.535 E4.74287
G1 X75.823 Y110.092 E4.77366
G1 X75.451 Y109.597 E4.80448
G1 X75.147 Y109.058 E4.83527
G1 X74.914 Y108.484 E4.8661
G1 X74.757 Y107.885 E4.89692
G1 X74.678 Y107.271 E4.92773
G1 X74.67 Y106.887 E4.94684
G1 X74.72 Y104.033 E5.08889
G1 X74.739 Y103.675 E5.10674
G1 X75.048 Y100.336 E5.27361
G1 X75.393 Y94.925 E5.54344
G1 X75.432 Y89.482 E5.81432
G1 X75.274 Y84.029 E6.08581
G1 X75.275 Y83.721 E6.10113
G1 X75.467 Y78.263 E6.37292
G1 X75.529 Y77.647 E6.40373
G1 X75.669 Y77.044 E6.43454
G1 X75.886 Y76.465 E6.46531
G1 X76.176 Y75.918 E6.49612
G1 X76.534 Y75.412 E6.52697
G1 X76.954 Y74.958 E6.55775
G0 F2400 X77.34 Y75.144
G1 F1050 X77.809 Y74.781 E6.58726
G1 X78.322 Y74.485 E6.61674
G1 X78.866 Y74.262 E6.64599
G1 X80.329 Y73.773 E6.72276
G1 X80.932 Y73.618 E6.75374
G1 X87.791 Y72.363 E7.10075
G1 X88.552 Y72.291 E7.13879
G1 X95.723 Y72.242 E7.49567
G1 X96.315 Y72.278 E7.52519
G1 X97.051 Y72.438 E7.56267
G1 X102.311 Y74.063 E7.83664
G1 X102.864 Y74.276 E7.86613
G1 X103.384 Y74.561 E7.89564
G1 X103.86 Y74.913 E7.9251
G1 X104.285 Y75.327 E7.95463
G1 X104.65 Y75.794 E7.98413
G1 X104.945 Y76.297 E8.01315
G1 X106.507 Y79.419 E8.18688
G1 X106.779 Y80.097 E8.22323
G1 X108.546 Y85.862 E8.5233
G1 X109.905 Y89.749 E8.72822
G1 X110.062 Y90.321 E8.75774
G1 X110.151 Y91.203 E8.80186
G1 X110.149 Y94.059 E8.94399
G1 X110.109 Y94.65 E8.97347
G1 X109.917 Y95.464 E9.01509
G1 X108.094 Y100.859 E9.29849
G1 X106.997 Y104.741 E9.49924
G1 X106.703 Y105.504 E9.53993
G1 X106.407 Y106.099 E9.57301
G1 X106.108 Y106.611 E9.60251
G1 X105.742 Y107.078 E9.63204
G1 X105.318 Y107.491 E9.6615
G1 X104.833 Y107.849 E9.6915
G1 X101.462 Y109.997 E9.89042
G1 X98.344 Y112.143 E10.07879
G1 X97.834 Y112.445 E10.10828
G1 X97.289 Y112.676 E10.13774
G1 X96.717 Y112.832 E10.16725
G1 X95.852 Y112.918 E10.21051
G1 X88.744 Y112.919 E10.56424
G1 X88.506 Y112.913 E10.57609
G1 X81.512 Y112.536 E10.92465
G1 X80.924 Y112.464 E10.95413
G1 X80.351 Y112.314 E10.98361
G1 X79.739 Y112.056 E11.01666
G1 X77.455 Y110.882 E11.14446
G1 X76.947 Y110.576 E11.17398
G1 X76.485 Y110.204 E11.20349
G1 X76.077 Y109.774 E11.23299
G1 X75.731 Y109.293 E11.26248
G1 X75.453 Y108.77 E11.29196
G1 X75.247 Y108.214 E11.32146
G1 X75.118 Y107.635 E11.35098
G1 X75.069 Y106.894 E11.38794
G1 X75.119 Y104.04 E11.52999
G1 X75.137 Y103.712 E11.54634
G1 X75.443 Y100.4 E11.71187
G1 X75.792 Y94.935 E11.98439
G1 X75.831 Y89.474 E12.25616
G1 X75.673 Y84.018 E12.5278
G1 X75.674 Y83.735 E12.54188
G1 X75.866 Y78.277 E12.81367
G1 X75.926 Y77.688 E12.84313
G1 X76.066 Y77.112 E12.87263
G1 X76.282 Y76.56 E12.90213
G1 X76.57 Y76.041 E12.93167
G1 X76.925 Y75.567 E12.96114
G1 X77.34 Y75.144 E12.99063
G0 F2400 X77.725 Y75.34
G1 F1050 X78.187 Y75.014 E13.01877
G1 X78.689 Y74.755 E13.04688
G1 X78.993 Y74.64 E13.06306
G1 X80.456 Y74.151 E13.13982
G1 X81.003 Y74.01 E13.16794
G1 X87.862 Y72.755 E13.51494
G1 X88.555 Y72.69 E13.54958
G1 X95.726 Y72.641 E13.90646
G1 X96.29 Y72.677 E13.93458
G1 X96.933 Y72.819 E13.96735
G1 X102.193 Y74.444 E14.24133
G1 X102.72 Y74.649 E14.26947
G1 X103.213 Y74.926 E14.29761
G1 X103.661 Y75.269 E14.32569
G1 X104.057 Y75.672 E14.35381
G1 X104.392 Y76.128 E14.38197
G1 X104.588 Y76.475 E14.4018
G1 X106.15 Y79.597 E14.57553
G1 X106.397 Y80.214 E14.6086
G1 X108.166 Y85.984 E14.90894
G1 X109.528 Y89.881 E15.11438
G1 X109.676 Y90.426 E15.14248
G1 X109.752 Y91.203 E15.18134
G1 X109.75 Y94.059 E15.32347
G1 X109.71 Y94.623 E15.35161
G1 X109.539 Y95.336 E15.38809
G1 X107.714 Y100.734 E15.67167
G1 X106.613 Y104.633 E15.87329
G1 X106.346 Y105.327 E15.91029
G1 X106.05 Y105.922 E15.94337
G1 X105.763 Y106.409 E15.9715
G1 X105.41 Y106.85 E15.99961
G1 X104.999 Y107.238 E16.02774
G1 X104.618 Y107.513 E16.05112
G1 X101.236 Y109.668 E16.25069
G1 X98.118 Y111.814 E16.43906
G1 X97.631 Y112.101 E16.46719
G1 X97.108 Y112.316 E16.49533
G1 X96.561 Y112.456 E16.52343
G1 X95.852 Y112.519 E16.55885
G1 X88.744 Y112.52 E16.91259
G1 X88.528 Y112.514 E16.92334
G1 X81.534 Y112.137 E17.27191
G1 X80.973 Y112.067 E17.30004
G1 X80.428 Y111.918 E17.32816
G1 X79.921 Y111.701 E17.3556
G1 X77.637 Y110.527 E17.4834
G1 X77.154 Y110.234 E17.51152
G1 X76.717 Y109.875 E17.53966
G1 X76.335 Y109.459 E17.56777
G1 X76.016 Y108.992 E17.59591
G1 X75.765 Y108.486 E17.62402
G1 X75.588 Y107.949 E17.65216
G1 X75.489 Y107.392 E17.68032
G1 X75.468 Y106.901 E17.70477
G1 X75.518 Y104.047 E17.84683
G1 X75.534 Y103.749 E17.86168
G1 X75.841 Y100.426 E18.02775
G1 X76.191 Y94.947 E18.30097
G1 X76.231 Y89.465 E18.57379
G1 X76.072 Y84.006 E18.84558
G1 X76.072 Y83.749 E18.85837
G1 X76.264 Y78.291 E19.13016
G1 X76.324 Y77.729 E19.15828
G1 X76.463 Y77.181 E19.18642
G1 X76.677 Y76.658 E19.21454
G1 X76.963 Y76.171 E19.24265
G1 X77.315 Y75.729 E19.27077
G1 X77.725 Y75.34 E19.29889
G0 F2400 X78.108 Y75.547
G1 F1050 X78.561 Y75.259 E19.32561
G1 X79.119 Y75.019 E19.35584
G1 X80.582 Y74.53 E19.4326
G1 X81.075 Y74.403 E19.45794
G1 X87.934 Y73.148 E19.80495
G1 X88.557 Y73.089 E19.83609
G1 X95.728 Y73.04 E20.19296
G1 X96.263 Y73.076 E20.21965
G1 X96.815 Y73.2 E20.2478
G1 X102.075 Y74.825 E20.52178
G1 X102.574 Y75.021 E20.54846
G1 X103.039 Y75.289 E20.57517
G1 X103.458 Y75.623 E20.60183
G1 X103.824 Y76.016 E20.62856
G1 X104.232 Y76.654 E20.66625
G1 X105.794 Y79.776 E20.83998
G1 X106.016 Y80.331 E20.86972
G1 X107.791 Y86.122 E21.17115
G1 X109.151 Y90.012 E21.37623
G1 X109.29 Y90.53 E21.40292
G1 X109.353 Y91.203 E21.43656
G1 X109.351 Y94.059 E21.57869
G1 X109.311 Y94.593 E21.60533
G1 X109.162 Y95.208 E21.63683
G1 X107.326 Y100.639 E21.92213
G1 X106.229 Y104.524 E22.12303
G1 X105.988 Y105.149 E22.15636
G1 X105.692 Y105.744 E22.18944
G1 X105.418 Y106.205 E22.21612
G1 X105.079 Y106.62 E22.24279
G1 X104.682 Y106.98 E22.26946
G1 X104.404 Y107.176 E22.28639
G1 X101.036 Y109.322 E22.48513
G1 X97.892 Y111.486 E22.67507
G1 X97.429 Y111.756 E22.70175
G1 X96.93 Y111.954 E22.72846
G1 X96.408 Y112.077 E22.75515
G1 X95.852 Y112.12 E22.7829
G1 X88.744 Y112.121 E23.13664
G1 X88.549 Y112.116 E23.14635
G1 X81.555 Y111.739 E23.49491
G1 X81.023 Y111.67 E23.52161
G1 X80.508 Y111.523 E23.54826
G1 X80.104 Y111.346 E23.57021
G1 X77.82 Y110.172 E23.69801
G1 X77.362 Y109.892 E23.72473
G1 X76.952 Y109.547 E23.75139
G1 X76.597 Y109.145 E23.77808
G1 X76.306 Y108.695 E23.80475
G1 X76.085 Y108.206 E23.83146
G1 X75.939 Y107.69 E23.85814
G1 X75.867 Y106.908 E23.89722
G1 X75.917 Y104.054 E24.03928
G1 X75.931 Y103.785 E24.05268
G1 X76.239 Y100.452 E24.21926
G1 X76.59 Y94.957 E24.49328
G1 X76.63 Y89.456 E24.76704
G1 X76.471 Y83.994 E25.03898
G1 X76.471 Y83.763 E25.05047
G1 X76.663 Y78.305 E25.32226
G1 X76.722 Y77.772 E25.34895
G1 X76.859 Y77.254 E25.37561
G1 X77.072 Y76.762 E25.40229
G1 X77.355 Y76.307 E25.42896
G1 X77.703 Y75.899 E25.45565
G1 X78.108 Y75.547 E25.48235
G0 F2400 X78.488 Y75.767
G1 F1050 X78.93 Y75.521 E25.50752
G1 X79.246 Y75.397 E25.52442
G1 X80.709 Y74.908 E25.60118
G1 X81.147 Y74.795 E25.62369
G1 X88.006 Y73.54 E25.9707
G1 X88.56 Y73.488 E25.99839
G1 X95.731 Y73.439 E26.35527
G1 X96.235 Y73.476 E26.38042
G1 X96.698 Y73.582 E26.40406
G1 X101.958 Y75.207 E26.67803
G1 X102.427 Y75.393 E26.70314
G1 X102.862 Y75.652 E26.72833
G1 X103.25 Y75.976 E26.75349
G1 X103.582 Y76.357 E26.77864
G1 X103.875 Y76.832 E26.80641
G1 X105.437 Y79.954 E26.98014
G1 X105.634 Y80.448 E27.00661
G1 X107.404 Y86.221 E27.3071
G1 X108.775 Y90.144 E27.51391
G1 X108.903 Y90.633 E27.53907
G1 X108.954 Y91.202 E27.5675
G1 X108.952 Y94.058 E27.70963
G1 X108.912 Y94.562 E27.73479
G1 X108.784 Y95.081 E27.76139
G1 X106.951 Y100.505 E28.04632
G1 X105.846 Y104.416 E28.24857
G1 X105.631 Y104.971 E28.27819
G1 X105.335 Y105.566 E28.31126
G1 X105.075 Y106 E28.33644
G1 X104.75 Y106.387 E28.36159
G1 X104.189 Y106.84 E28.39747
G1 X100.797 Y109.001 E28.59762
G1 X97.665 Y111.157 E28.78685
G1 X97.228 Y111.41 E28.81198
G1 X96.756 Y111.591 E28.83713
G1 X96.261 Y111.695 E28.86231
G1 X95.851 Y111.721 E28.88275
G1 X88.743 Y111.722 E29.23648
G1 X88.571 Y111.717 E29.24505
G1 X81.577 Y111.34 E29.59361
G1 X81.076 Y111.273 E29.61877
G1 X80.591 Y111.128 E29.64396
G1 X80.286 Y110.991 E29.6606
G1 X78.002 Y109.817 E29.7884
G1 X77.572 Y109.551 E29.81356
G1 X77.189 Y109.221 E29.83872
G1 X76.863 Y108.834 E29.8639
G1 X76.602 Y108.401 E29.88906
G1 X76.413 Y107.933 E29.91418
G1 X76.3 Y107.44 E29.93935
G1 X76.265 Y106.915 E29.96554
G1 X76.315 Y104.061 E30.10759
G1 X76.329 Y103.822 E30.1195
G1 X76.635 Y100.515 E30.28478
G1 X76.989 Y94.967 E30.56144
G1 X77.029 Y89.475 E30.83476
G1 X76.869 Y83.983 E31.10819
G1 X76.87 Y83.778 E31.11839
G1 X77.062 Y78.32 E31.39018
G1 X77.12 Y77.817 E31.41538
G1 X77.256 Y77.33 E31.44054
G1 X77.467 Y76.871 E31.46568
G1 X77.747 Y76.45 E31.49084
G1 X78.091 Y76.079 E31.51602
G1 X78.488 Y75.767 E31.54115
G0 F2400 X81.718 Y78.242
;TYPE:SUPPORT
G1 F1050 X82.157 Y78.458 E31.5655
G1 X87.514 Y78.458 E31.83209
G1 X87.946 Y78.187 E31.85747
G1 X88.464 Y77.117 E31.91663
G1 X88.901 Y76.82 E31.94292
G1 X91.934 Y76.847 E32.09387
G1 X91.967 Y76.855 E32.09556
G1 X92.885 Y76.847 E32.14124
G1 X93.368 Y76.852 E32.16528
G1 X95.685 Y76.826 E32.2806
G1 X96.131 Y77.142 E32.3078
G1 X96.65 Y78.189 E32.36595
G1 X97.083 Y78.458 E32.39132
G1 X100.883 Y78.458 E32.58043
G1 X100.9 Y78.512 E32.58325
G1 X100.886 Y78.956 E32.60535
G1 X100.886 Y80.662 E32.69025
G1 X101.231 Y81.077 E32.71711
G1 X102.311 Y81.278 E32.77178
G1 X102.459 Y81.584 E32.7887
G1 X102.552 Y83.952 E32.90663
G1 X102.527 Y84.405 E32.92921
G1 X102.549 Y84.463 E32.9323
G1 X102.495 Y84.943 E32.95634
G1 X102.538 Y85.048 E32.96198
G1 X102.526 Y85.446 E32.9818
G1 X102.536 Y85.482 E32.98366
G1 X102.518 Y86.055 E33.01219
G1 X102.596 Y86.334 E33.0266
G1 X102.751 Y89.415 E33.18013
G1 X103.214 Y89.768 E33.2091
G1 X103.29 Y89.751 E33.21298
G1 X103.349 Y89.973 E33.22441
G1 X103.658 Y90.344 E33.24843
G1 X105.563 Y91.246 E33.35333
G1 X105.563 Y93.926 E33.4867
G1 X103.814 Y94.68 E33.58148
G1 X103.492 Y95.045 E33.60571
G1 X102.783 Y97.491 E33.73244
G1 X102.679 Y100.548 E33.88466
G1 X102.688 Y100.648 E33.88966
G1 X102.67 Y100.701 E33.89245
G1 X102.69 Y101.331 E33.92381
G1 X102.664 Y101.403 E33.92762
G1 X102.523 Y102.444 E33.9799
G1 X102.74 Y102.802 E34.00074
G1 X102.516 Y103.722 E34.04786
G1 X102.376 Y103.952 E34.06126
G1 X102.057 Y103.996 E34.07728
G1 X101.624 Y103.593 E34.10672
G1 X101.977 Y102.776 E34.15101
G1 X101.571 Y101.558 E34.2149
G1 X98.607 Y98.006 E34.44513
G1 X98.002 Y98.069 E34.4754
G1 X95.627 Y102.563 E34.72836
G1 X95.664 Y103.072 E34.75376
G1 X95.747 Y103.187 E34.76081
G1 X95.279 Y105.334 E34.87017
G1 X95.648 Y105.791 E34.8994
G1 X97.333 Y105.797 E34.98326
G1 X96.251 Y108 E35.1054
G1 X95.783 Y108.332 E35.13395
G1 X92.379 Y108.359 E35.30336
G1 X91.67 Y108.352 E35.33865
G1 X91.293 Y108.34 E35.35742
G1 X90.482 Y108.346 E35.39778
G1 X90.473 Y108.339 E35.39835
G1 X88.797 Y108.333 E35.48175
G1 X88.316 Y107.99 E35.51115
G1 X87.955 Y107.269 E35.55128
G1 X89.248 Y107.269 E35.61563
G1 X89.646 Y106.871 E35.64364
G1 X89.646 Y104.109 E35.78109
G1 X89.399 Y103.673 E35.80603
G1 X88.864 Y103.353 E35.83705
G1 X88.82 Y103.142 E35.84778
G1 X88.892 Y103.04 E35.85399
G1 X88.925 Y102.531 E35.87938
G1 X86.429 Y97.79 E36.14601
G1 X85.817 Y97.737 E36.17658
G1 X83.65 Y100.566 E36.35393
G1 X82.967 Y101.378 E36.40673
G1 X82.967 Y101.691 E36.42231
G1 X82.296 Y103.12 E36.50087
G1 X82.521 Y103.75 E36.53416
G1 X82.46 Y103.854 E36.54017
G1 X81.186 Y105.043 E36.62689
G1 X81.128 Y105.586 E36.65406
G1 X82.292 Y107.259 E36.75549
G1 X81.704 Y107.906 E36.799
G1 X81.441 Y107.764 E36.81387
G1 X79.657 Y106.857 E36.91347
G1 X79.725 Y103.585 E37.07634
G1 X80.084 Y103.436 E37.09568
G1 X80.374 Y103.009 E37.12137
G1 X80.417 Y99.687 E37.2867
G1 X80.431 Y99.673 E37.28769
G1 X80.431 Y97.489 E37.39638
G1 X81.441 Y97.489 E37.44664
G1 X81.851 Y97.131 E37.47373
G1 X82.136 Y95.068 E37.57737
G1 X81.896 Y92.396 E37.71088
G1 X82.144 Y90.004 E37.83056
G1 X82.087 Y89.613 E37.85022
G1 X82.123 Y89.382 E37.86185
G1 X81.96 Y87.8 E37.941
G1 X81.659 Y87.395 E37.96611
G1 X80.802 Y87.035 E38.01237
G1 X80.299 Y86.169 E38.06221
G1 X80.258 Y83.942 E38.17306
G1 X80.456 Y83.597 E38.19285
G1 X80.448 Y78.555 E38.44377
G1 X81.657 Y78.162 E38.50704
G1 X81.718 Y78.242 E38.51204
G0 F2400 X91.827 Y89.817
G1 F1050 X89.382 Y92.284 E38.68489
G1 X89.382 Y93.194 E38.73018
G1 X91.833 Y95.62 E38.9018
G1 X92.737 Y95.62 E38.94679
G1 X95.187 Y93.194 E39.11838
G1 X95.187 Y92.285 E39.16361
G1 X92.743 Y89.817 E39.33647
G1 X91.827 Y89.817 E39.38205
G0 F2400 X91.977 Y89.657
G1 F1050 X91.977 Y77.014 E40.01124
G0 F2400 X93.31 Y77.012
G1 F1050 X93.31 Y90.161 E40.6656
G0 F2400 X93.787 Y90.644
G1 F1050 X103.918 Y90.644 E41.16978
G0 F2400 X103.974 Y90.671
G1 F1050 X103.974 Y94.437 E41.35719
G0 F2400 X103.632 Y94.643
G1 F1050 X93.952 Y94.643 E41.83892
G0 F2400 X93.31 Y95.277
G1 F1050 X93.31 Y108.192 E42.48164
G0 F2400 X91.977 Y108.194
G1 F1050 X91.977 Y95.78 E43.09943
G0 F2400 X90.644 Y94.669
G1 F1050 X90.644 Y108.185 E43.77206
G0 F2400 X89.311 Y108.174
G1 F1050 X89.311 Y107.429 E43.80914
G0 F2400 X88.568 Y107.973
G1 F1050 X96.013 Y107.973 E44.17964
G0 F2400 X95.976 Y108
G1 F1050 X95.976 Y105.953 E44.28151
G0 F2400 X96.741 Y106.64
G1 F1050 X89.806 Y106.64 E44.62664
G0 F2400 X89.806 Y105.307
G1 F1050 X95.12 Y105.307 E44.89109
G0 F2400 X95.411 Y103.974
G1 F1050 X89.753 Y103.974 E45.17266
G0 F2400 X89.311 Y103.434
G1 F1050 X89.311 Y93.35 E45.6745
G0 F2400 X89.272 Y93.31
G1 F1050 X82.139 Y93.31 E46.02948
G0 F2400 X82.101 Y91.977
G1 F1050 X89.46 Y91.977 E46.3957
G0 F2400 X89.311 Y92.129
G1 F1050 X89.311 Y76.985 E47.14935
G0 F2400 X88.547 Y77.314
G1 F1050 X96.039 Y77.314 E47.52219
G0 F2400 X95.976 Y77.228
G1 F1050 X95.976 Y101.559 E48.73303
G0 F2400 X96.108 Y101.308
G1 F1050 X88.461 Y101.308 E49.11359
G0 F2400 X87.978 Y100.39
G1 F1050 X87.978 Y78.355 E50.21017
G0 F2400 X86.645 Y78.618
G1 F1050 X86.645 Y97.858 E51.16766
G0 F2400 X87.057 Y98.642
G1 F1050 X97.517 Y98.642 E51.68821
G0 F2400 X97.309 Y99.037
G1 F1050 X97.309 Y78.618 E52.70437
G0 F2400 X98.642 Y78.618
G1 F1050 X98.642 Y97.842 E53.66106
G0 F2400 X99.346 Y98.642
G1 F1050 X102.583 Y98.642 E53.82215
