;FLAVOR:Marlin
;TIME:3261
;Filament used: 1.92364m
;Layer height: 0.15
;Generated with Cura_SteamEngine 2.7.0
M190 S60
M104 S220
M109 S220
G21 ;metric values
G90 ;absolute positioning
M82 ;set extruder to absolute mode
M107 ;start with the fan off
G92 E0 ;zero the extruded length
G1 F200 E3 ;extrude 3mm of feed stock
G92 E0 ;zero the extruded length again
G1 F9000
M301 P31.36 I3.30 D74.51 ;set PID tuning for E0
M304 P72.25 I2.72 D479.41 ; set PID tuning for heated bed
M117 Printing...
;LAYER_COUNT:112
;LAYER:0
M107
M205 X20 Y20
G0 F2400 X67.492 Y69.582 Z0.3
G0 X67.8 Y69.334
;TYPE:SKIRT
G1 F1050 X68.806 Y68.59 E0.06227
G1 X69.327 Y68.255 E0.09309
G1 X69.663 Y68.085 E0.11183
G1 X70.802 Y67.564 E0.17416
G1 X71.38 Y67.343 E0.20496
G1 X71.763 Y67.242 E0.22467
G1 X73.036 Y66.961 E0.28955
G1 X73.699 Y66.862 E0.32291
G1 X76.699 Y66.629 E0.47265
G1 X77.318 Y66.621 E0.50346
G1 X77.746 Y66.663 E0.52486
G1 X80.379 Y67.038 E0.65722
G1 X85.788 Y67.575 E0.92772
G1 X91.161 Y67.803 E1.19535
G1 X96.559 Y67.727 E1.46401
G1 X101.918 Y67.348 E1.73137
G1 X107.312 Y66.663 E2.00196
G1 X108.21 Y66.634 E2.04668
G1 X110.261 Y66.76 E2.14894
G1 X110.666 Y66.802 E2.1692
G1 X112.423 Y67.061 E2.25758
G1 X113.029 Y67.191 E2.28843
G1 X113.347 Y67.293 E2.30505
G1 X114.504 Y67.709 E2.36624
G1 X115.072 Y67.955 E2.39704
G1 X115.483 Y68.193 E2.42067
G1 X116.858 Y69.081 E2.50213
G1 X117.355 Y69.45 E2.53294
G1 X117.785 Y69.862 E2.56257
G1 X118.639 Y70.79 E2.62534
G1 X119.028 Y71.272 E2.65616
G1 X119.241 Y71.602 E2.67571
G1 X119.875 Y72.677 E2.73781
G1 X120.154 Y73.229 E2.76859
G1 X120.291 Y73.587 E2.78767
G1 X120.691 Y74.779 E2.85024
G1 X120.849 Y75.378 E2.88107
G1 X120.915 Y75.816 E2.90311
G1 X121.05 Y77.132 E2.96895
G1 X121.073 Y77.75 E2.99973
G1 X121.049 Y78.121 E3.01823
G1 X120.744 Y81.029 E3.16374
G1 X120.564 Y81.918 E3.20888
G1 X118.017 Y90.336 E3.64656
G1 X116.799 Y95.549 E3.91297
G1 X115.722 Y101.875 E4.23232
G1 X115.579 Y102.478 E4.26316
G1 X115.359 Y103.056 E4.29394
G1 X114.946 Y103.787 E4.33572
G1 X112.206 Y107.772 E4.57639
G1 X107.801 Y115.067 E5.00048
G1 X107.448 Y115.575 E5.03127
G1 X107.032 Y116.034 E5.0621
G1 X106.797 Y116.247 E5.07788
G1 X104.235 Y118.418 E5.245
G1 X103.737 Y118.787 E5.27585
G1 X103.197 Y119.089 E5.30664
G1 X102.622 Y119.318 E5.33744
G1 X102.022 Y119.472 E5.36826
G1 X101.408 Y119.547 E5.39905
G1 X101.045 Y119.554 E5.41712
G1 X94.025 Y119.424 E5.76653
G1 X88.44 Y119.502 E6.0445
G1 X84.226 Y119.626 E6.2543
G1 X83.608 Y119.604 E6.28507
G1 X82.997 Y119.503 E6.31589
G1 X82.404 Y119.324 E6.34672
G1 X81.84 Y119.07 E6.3775
G1 X81.372 Y118.787 E6.40472
G1 X79.572 Y117.552 E6.51335
G1 X79.085 Y117.169 E6.54419
G1 X78.742 Y116.83 E6.56819
G1 X77.823 Y115.823 E6.63603
G1 X77.437 Y115.34 E6.6668
G1 X77.212 Y114.988 E6.68759
G1 X70.356 Y103.112 E7.37002
G1 X70.082 Y102.557 E7.40082
G1 X69.882 Y101.971 E7.43164
G1 X69.808 Y101.659 E7.4476
G1 X68.731 Y96.3 E7.71962
G1 X68.106 Y93.749 E7.85033
G1 X66.574 Y88.476 E8.12359
G1 X64.494 Y82.14 E8.45546
G1 X64.34 Y81.541 E8.48624
G1 X64.283 Y81.163 E8.50527
G1 X63.953 Y78.134 E8.6569
G1 X63.926 Y77.516 E8.68768
G1 X63.959 Y77.044 E8.71123
G1 X64.132 Y75.6 E8.7836
G1 X64.245 Y74.992 E8.81438
G1 X64.342 Y74.66 E8.83159
G1 X64.66 Y73.702 E8.88183
G1 X65.036 Y72.855 E8.92794
G1 X65.647 Y71.773 E8.98978
G1 X65.985 Y71.254 E9.0206
G1 X66.224 Y70.961 E9.03942
G1 X67.053 Y70.02 E9.10183
G1 X67.492 Y69.582 E9.13269
G1 X67.8 Y69.334 E9.15237
G0 F2400 X68.037 Y69.655
G1 F1050 X69.043 Y68.911 E9.21464
G1 X69.543 Y68.591 E9.24418
G1 X69.829 Y68.447 E9.26012
G1 X70.968 Y67.926 E9.32245
G1 X71.522 Y67.717 E9.35192
G1 X71.849 Y67.631 E9.36874
G1 X73.122 Y67.35 E9.43362
G1 X73.73 Y67.26 E9.46421
G1 X76.73 Y67.027 E9.61395
G1 X77.322 Y67.021 E9.64341
G1 X77.689 Y67.058 E9.66177
G1 X80.35 Y67.437 E9.79553
G1 X85.75 Y67.973 E10.06559
G1 X91.15 Y68.202 E10.33456
G1 X96.574 Y68.126 E10.60452
G1 X101.96 Y67.745 E10.87322
G1 X107.362 Y67.059 E11.14422
G1 X108.186 Y67.032 E11.18524
G1 X110.237 Y67.158 E11.28751
G1 X110.608 Y67.197 E11.30607
G1 X112.365 Y67.456 E11.39445
G1 X113.212 Y67.668 E11.43791
G1 X114.369 Y68.084 E11.49909
G1 X114.912 Y68.322 E11.5286
G1 X115.266 Y68.528 E11.54898
G1 X116.641 Y69.416 E11.63044
G1 X117.117 Y69.771 E11.65999
G1 X117.491 Y70.133 E11.68589
G1 X118.345 Y71.061 E11.74865
G1 X118.717 Y71.523 E11.77817
G1 X118.897 Y71.804 E11.79478
G1 X119.531 Y72.879 E11.85689
G1 X119.797 Y73.409 E11.8864
G1 X119.913 Y73.714 E11.90264
G1 X120.313 Y74.906 E11.96521
G1 X120.463 Y75.48 E11.99473
G1 X120.518 Y75.856 E12.01364
G1 X120.653 Y77.172 E12.07948
G1 X120.674 Y77.765 E12.10901
G1 X120.652 Y78.08 E12.12472
G1 X120.347 Y80.988 E12.27023
G1 X120.183 Y81.803 E12.31161
G1 X117.629 Y90.241 E12.75034
G1 X116.408 Y95.472 E13.01766
G1 X115.329 Y101.808 E13.33752
G1 X115.19 Y102.384 E13.367
G1 X114.975 Y102.937 E13.39653
G1 X114.617 Y103.561 E13.43233
G1 X111.878 Y107.545 E13.67293
G1 X107.46 Y114.861 E14.09825
G1 X107.12 Y115.347 E14.12777
G1 X106.539 Y115.943 E14.16919
G1 X103.977 Y118.114 E14.33631
G1 X103.5 Y118.465 E14.36578
G1 X102.98 Y118.75 E14.39529
G1 X102.426 Y118.962 E14.42481
G1 X101.849 Y119.097 E14.4543
G1 X101.052 Y119.155 E14.49407
G1 X94.026 Y119.025 E14.84378
G1 X88.424 Y119.103 E15.1226
G1 X84.215 Y119.227 E15.33215
G1 X83.622 Y119.205 E15.36168
G1 X83.038 Y119.103 E15.39119
G1 X82.473 Y118.923 E15.4207
G1 X81.938 Y118.669 E15.45017
G1 X81.597 Y118.458 E15.47012
G1 X79.797 Y117.223 E15.57876
G1 X79.332 Y116.855 E15.60827
G1 X79.037 Y116.561 E15.629
G1 X78.118 Y115.554 E15.69684
G1 X77.749 Y115.09 E15.72635
G1 X77.558 Y114.788 E15.74413
G1 X70.702 Y102.912 E16.42656
G1 X70.441 Y102.38 E16.45605
G1 X70.199 Y101.58 E16.49764
G1 X69.123 Y96.223 E16.76956
G1 X68.484 Y93.618 E16.90304
G1 X66.961 Y88.376 E17.1747
G1 X64.873 Y82.015 E17.50788
G1 X64.727 Y81.441 E17.53735
G1 X64.68 Y81.12 E17.5535
G1 X64.35 Y78.091 E17.70513
G1 X64.326 Y77.499 E17.73461
G1 X64.355 Y77.092 E17.75492
G1 X64.528 Y75.648 E17.82729
G1 X64.721 Y74.786 E17.87125
G1 X65.039 Y73.828 E17.92149
G1 X65.383 Y73.051 E17.96378
G1 X65.994 Y71.969 E18.02561
G1 X66.32 Y71.474 E18.05511
G1 X66.524 Y71.224 E18.07117
G1 X67.353 Y70.283 E18.13358
G1 X67.774 Y69.866 E18.16307
G1 X68.037 Y69.655 E18.17985
G0 F2400 X68.275 Y69.976
G1 F1050 X69.281 Y69.232 E18.24212
G1 X69.995 Y68.81 E18.28339
G1 X71.134 Y68.289 E18.34572
G1 X71.935 Y68.021 E18.38776
G1 X73.208 Y67.74 E18.45263
G1 X73.76 Y67.658 E18.4804
G1 X76.76 Y67.425 E18.63015
G1 X77.326 Y67.421 E18.65832
G1 X77.633 Y67.453 E18.67368
G1 X80.304 Y67.833 E18.80794
G1 X85.728 Y68.372 E19.0792
G1 X91.139 Y68.602 E19.34872
G1 X96.591 Y68.524 E19.62007
G1 X102.004 Y68.142 E19.89012
G1 X107.413 Y67.455 E20.16147
G1 X108.161 Y67.431 E20.19871
G1 X110.212 Y67.557 E20.30097
G1 X110.55 Y67.592 E20.31788
G1 X112.307 Y67.851 E20.40626
G1 X113.077 Y68.044 E20.44577
G1 X114.234 Y68.46 E20.50696
G1 X114.751 Y68.688 E20.53508
G1 X115.05 Y68.863 E20.55232
G1 X116.425 Y69.751 E20.63377
G1 X116.877 Y70.091 E20.66192
G1 X117.198 Y70.403 E20.6842
G1 X118.052 Y71.331 E20.74696
G1 X118.554 Y72.007 E20.78886
G1 X119.188 Y73.082 E20.85097
G1 X119.534 Y73.841 E20.89248
G1 X119.934 Y75.033 E20.95506
G1 X120.076 Y75.58 E20.98318
G1 X120.121 Y75.897 E20.99911
G1 X120.256 Y77.213 E21.06495
G1 X120.255 Y78.038 E21.10601
G1 X119.95 Y80.946 E21.25152
G1 X119.801 Y81.687 E21.28913
G1 X117.242 Y90.142 E21.72875
G1 X116.016 Y95.396 E21.99724
G1 X114.935 Y101.741 E22.31755
G1 X114.801 Y102.29 E22.34568
G1 X114.591 Y102.815 E22.37381
G1 X114.289 Y103.335 E22.40374
G1 X111.534 Y107.342 E22.64574
G1 X107.118 Y114.655 E23.07088
G1 X106.793 Y115.117 E23.09899
G1 X106.281 Y115.638 E23.13534
G1 X103.719 Y117.809 E23.30246
G1 X103.263 Y118.143 E23.33059
G1 X102.764 Y118.41 E23.35875
G1 X102.233 Y118.603 E23.38687
G1 X101.68 Y118.72 E23.415
G1 X101.06 Y118.756 E23.44591
G1 X94.029 Y118.626 E23.79587
G1 X88.417 Y118.704 E24.07518
G1 X84.203 Y118.828 E24.28498
G1 X83.638 Y118.805 E24.31312
G1 X83.082 Y118.702 E24.34126
G1 X82.547 Y118.522 E24.36935
G1 X81.823 Y118.129 E24.41035
G1 X80.023 Y116.894 E24.51898
G1 X79.581 Y116.542 E24.5471
G1 X79.332 Y116.292 E24.56466
G1 X78.413 Y115.285 E24.63251
G1 X78.062 Y114.842 E24.66064
G1 X77.904 Y114.589 E24.67548
G1 X71.048 Y102.713 E25.35791
G1 X70.8 Y102.205 E25.38604
G1 X70.59 Y101.502 E25.42255
G1 X69.51 Y96.124 E25.69554
G1 X68.873 Y93.525 E25.82871
G1 X67.342 Y88.258 E26.10167
G1 X65.252 Y81.891 E26.43516
G1 X65.077 Y81.077 E26.4766
G1 X64.747 Y78.048 E26.62823
G1 X64.725 Y77.483 E26.65637
G1 X64.751 Y77.139 E26.67353
G1 X64.924 Y75.695 E26.74591
G1 X65.1 Y74.911 E26.7859
G1 X65.418 Y73.953 E26.83613
G1 X65.731 Y73.247 E26.87456
G1 X66.342 Y72.165 E26.9364
G1 X66.823 Y71.488 E26.97773
G1 X67.652 Y70.547 E27.04014
G1 X68.275 Y69.976 E27.0822
G0 F2400 X68.512 Y70.296
G1 F1050 X69.518 Y69.552 E27.14446
G1 X70.161 Y69.173 E27.18161
G1 X71.3 Y68.652 E27.24394
G1 X72.021 Y68.411 E27.28177
G1 X73.294 Y68.13 E27.34665
G1 X73.791 Y68.056 E27.37165
G1 X76.791 Y67.823 E27.5214
G1 X77.577 Y67.848 E27.56054
G1 X80.255 Y68.229 E27.69515
G1 X85.69 Y68.769 E27.96696
G1 X91.145 Y69.001 E28.23867
G1 X96.606 Y68.923 E28.51047
G1 X102.046 Y68.539 E28.78187
G1 X107.463 Y67.851 E29.05361
G1 X108.137 Y67.829 E29.08717
G1 X110.188 Y67.955 E29.18943
G1 X110.492 Y67.986 E29.20464
G1 X112.249 Y68.245 E29.29302
G1 X112.942 Y68.419 E29.32858
G1 X114.099 Y68.835 E29.38977
G1 X114.588 Y69.054 E29.41643
G1 X114.834 Y69.199 E29.43064
G1 X116.209 Y70.087 E29.5121
G1 X116.636 Y70.41 E29.53875
G1 X116.904 Y70.673 E29.55743
G1 X117.758 Y71.601 E29.62019
G1 X118.21 Y72.21 E29.65794
G1 X118.844 Y73.285 E29.72005
G1 X119.156 Y73.968 E29.75741
G1 X119.556 Y75.16 E29.81999
G1 X119.724 Y75.938 E29.85959
G1 X119.859 Y77.254 E29.92543
G1 X119.858 Y77.996 E29.96236
G1 X119.553 Y80.904 E30.10787
G1 X119.419 Y81.571 E30.14172
G1 X116.86 Y90.029 E30.58148
G1 X115.624 Y95.319 E30.85183
G1 X114.542 Y101.674 E31.17264
G1 X114.413 Y102.195 E31.19936
G1 X114.208 Y102.69 E31.22602
G1 X113.96 Y103.109 E31.25025
G1 X111.201 Y107.122 E31.4926
G1 X106.777 Y114.448 E31.9185
G1 X106.466 Y114.886 E31.94524
G1 X106.023 Y115.334 E31.97659
G1 X103.461 Y117.505 E32.14371
G1 X103.027 Y117.82 E32.1704
G1 X102.551 Y118.067 E32.19709
G1 X102.044 Y118.241 E32.22376
G1 X101.516 Y118.338 E32.25048
G1 X101.067 Y118.357 E32.27284
G1 X94.03 Y118.227 E32.6231
G1 X88.411 Y118.305 E32.90276
G1 X84.191 Y118.429 E33.11286
G1 X83.655 Y118.405 E33.13956
G1 X83.129 Y118.302 E33.16624
G1 X82.624 Y118.121 E33.19293
G1 X82.049 Y117.8 E33.22571
G1 X80.249 Y116.565 E33.33434
G1 X79.831 Y116.229 E33.36103
G1 X79.627 Y116.023 E33.37546
G1 X78.708 Y115.016 E33.4433
G1 X78.249 Y114.389 E33.48197
G1 X71.393 Y102.513 E34.1644
G1 X71.16 Y102.03 E34.19109
G1 X70.982 Y101.423 E34.22257
G1 X69.906 Y96.07 E34.49429
G1 X69.255 Y93.41 E34.63058
G1 X67.718 Y88.121 E34.90468
G1 X65.632 Y81.767 E35.23749
G1 X65.473 Y81.034 E35.27482
G1 X65.143 Y78.005 E35.42645
G1 X65.125 Y77.469 E35.45314
G1 X65.148 Y77.187 E35.46722
G1 X65.321 Y75.743 E35.53959
G1 X65.478 Y75.037 E35.57559
G1 X65.796 Y74.079 E35.62582
G1 X66.078 Y73.443 E35.66044
G1 X66.689 Y72.361 E35.72228
G1 X67.122 Y71.752 E35.75947
G1 X67.951 Y70.811 E35.82188
G1 X68.512 Y70.296 E35.85978
G0 F2400 X68.749 Y70.617
G1 F1050 X69.755 Y69.873 E35.92204
G1 X70.327 Y69.536 E35.95508
G1 X71.466 Y69.015 E36.01741
G1 X72.107 Y68.8 E36.05106
G1 X73.38 Y68.519 E36.11594
G1 X73.822 Y68.454 E36.13817
G1 X76.822 Y68.221 E36.28792
G1 X77.521 Y68.243 E36.32272
G1 X80.209 Y68.625 E36.45783
G1 X85.668 Y69.168 E36.73084
G1 X91.134 Y69.4 E37.00311
G1 X96.622 Y69.322 E37.27625
G1 X102.071 Y68.937 E37.54809
G1 X107.513 Y68.246 E37.82109
G1 X108.112 Y68.227 E37.85092
G1 X110.163 Y68.353 E37.95318
G1 X110.434 Y68.381 E37.96674
G1 X112.191 Y68.64 E38.05512
G1 X112.807 Y68.795 E38.08673
G1 X113.964 Y69.211 E38.14792
G1 X114.617 Y69.534 E38.18417
G1 X115.992 Y70.422 E38.26563
G1 X116.394 Y70.729 E38.2908
G1 X116.611 Y70.943 E38.30597
G1 X117.465 Y71.871 E38.36873
G1 X117.866 Y72.412 E38.40224
G1 X118.5 Y73.487 E38.46435
G1 X118.778 Y74.095 E38.49762
G1 X119.178 Y75.287 E38.56019
G1 X119.327 Y75.978 E38.59537
G1 X119.462 Y77.294 E38.66121
G1 X119.462 Y77.955 E38.6941
G1 X119.157 Y80.863 E38.83961
G1 X119.037 Y81.456 E38.86972
G1 X116.473 Y89.93 E39.31032
G1 X115.235 Y95.231 E39.58122
G1 X114.149 Y101.607 E39.9031
G1 X114.025 Y102.097 E39.92825
G1 X113.825 Y102.562 E39.95344
G1 X113.631 Y102.883 E39.97211
G1 X110.864 Y106.907 E40.21514
G1 X106.435 Y114.242 E40.64155
G1 X106.141 Y114.653 E40.6667
G1 X105.765 Y115.029 E40.69316
G1 X103.203 Y117.2 E40.86028
G1 X102.792 Y117.496 E40.88549
G1 X102.341 Y117.723 E40.91061
G1 X101.859 Y117.876 E40.93578
G1 X101.359 Y117.951 E40.96094
G1 X101.075 Y117.958 E40.97508
G1 X94.032 Y117.827 E41.32564
G1 X88.435 Y117.906 E41.6042
G1 X84.179 Y118.031 E41.8161
G1 X83.674 Y118.006 E41.84126
G1 X83.18 Y117.901 E41.86639
G1 X82.708 Y117.72 E41.89155
G1 X82.275 Y117.471 E41.91641
G1 X80.475 Y116.236 E42.02504
G1 X79.921 Y115.754 E42.06159
G1 X79.002 Y114.747 E42.12943
G1 X78.595 Y114.19 E42.16376
G1 X71.739 Y102.314 E42.84619
G1 X71.521 Y101.857 E42.87139
G1 X71.373 Y101.344 E42.89796
G1 X70.293 Y95.97 E43.17075
G1 X69.644 Y93.322 E43.30643
G1 X68.096 Y87.994 E43.58254
G1 X66.011 Y81.642 E43.91525
G1 X65.87 Y80.991 E43.94839
G1 X65.54 Y77.962 E44.10003
G1 X65.544 Y77.234 E44.13626
G1 X65.717 Y75.79 E44.20863
G1 X65.857 Y75.163 E44.2406
G1 X66.175 Y74.205 E44.29084
G1 X66.426 Y73.64 E44.3216
G1 X67.037 Y72.558 E44.38344
G1 X67.422 Y72.016 E44.41653
G1 X68.251 Y71.075 E44.47894
G1 X68.749 Y70.617 E44.51261
G1 F1500 E43.51261
G0 F2400 X76.185 Y70.94
G0 X76.968 Y71.606
;TYPE:SUPPORT
G1 F1500 E44.51261
G1 F1050 X76.963 Y71.599 E44.51304
G1 X76.997 Y71.599 E44.51473
G1 X77.111 Y71.678 E44.52163
G1 X78.19 Y74.64 E44.67851
G1 X76.473 Y74.942 E44.76527
G1 X76.756 Y72.251 E44.89993
G1 X76.968 Y71.606 E44.93372
G0 F2400 X77.314 Y72.703
G1 F1050 X77.314 Y74.632 E45.02971
G0 F2400 X77.218 Y74.648
G1 F1050 X76.666 Y74.648 E45.05718
G0 F2400 X76.806 Y73.315
G1 F1050 X77.538 Y73.315 E45.09361
G1 F1500 E44.09361
G0 F2400 X79.067 Y75.237
G0 X79.294 Y76.532
G0 X78.711 Y77.61
G1 F1500 E45.09361
G1 F1050 X78.807 Y78.521 E45.1392
G1 X79.705 Y81.294 E45.28425
G1 X80.543 Y82.736 E45.36725
G1 X78.828 Y83.937 E45.47145
G1 X77.798 Y82.15 E45.57409
G1 X76.756 Y78.943 E45.74191
G1 X76.63 Y77.754 E45.80141
G1 X78.71 Y77.389 E45.9065
G1 X78.711 Y77.61 E45.9175
G0 F2400 X78.647 Y78.528
G1 F1050 X78.647 Y83.304 E46.15518
G0 F2400 X78.267 Y82.646
G1 F1050 X80.306 Y82.646 E46.25665
G0 F2400 X79.98 Y82.935
G1 F1050 X79.98 Y82.086 E46.2989
G0 F2400 X79.543 Y81.313
G1 F1050 X77.693 Y81.313 E46.39097
G0 F2400 X77.314 Y80.143
G1 F1050 X77.314 Y77.796 E46.50777
G0 F2400 X76.885 Y78.647
G1 F1050 X78.68 Y78.647 E46.5971
G0 F2400 X79.111 Y79.98
G1 F1050 X77.26 Y79.98 E46.68921
G1 F1500 E45.68921
G0 F2400 X81.367 Y83.062
G0 X82.123 Y84.139
G0 X82.215 Y84.981
G1 F1500 E46.68921
G1 F1050 X83.115 Y85.986 E46.75635
G1 X85.514 Y87.731 E46.90398
G1 X86.106 Y87.991 E46.93616
G1 X86.022 Y88.04 E46.941
G1 X85.495 Y90.002 E47.0421
G1 X84.449 Y89.536 E47.09909
G1 X81.738 Y87.564 E47.26592
G1 X80.494 Y86.187 E47.35827
G1 X82.215 Y84.981 E47.46285
G0 F2400 X82.298 Y85.312
G1 F1050 X82.022 Y85.312 E47.47658
G0 F2400 X82.646 Y85.702
G1 F1050 X82.646 Y88.026 E47.59224
G0 F2400 X82.579 Y87.978
G1 F1050 X85.678 Y87.978 E47.74646
G0 F2400 X85.312 Y87.783
G1 F1050 X85.312 Y89.744 E47.84405
G0 F2400 X85.514 Y89.311
G1 F1050 X84.411 Y89.311 E47.89894
G0 F2400 X83.979 Y88.996
G1 F1050 X83.979 Y86.812 E48.00763
G0 F2400 X83.751 Y86.645
G1 F1050 X81.123 Y86.645 E48.13842
G0 F2400 X81.313 Y86.854
G1 F1050 X81.313 Y85.808 E48.19047
G1 F1500 E47.19047
G0 F2400 X88.112 Y88.179
G0 X88.657 Y89.015
G1 F1500 E48.19047
G1 F1050 X91.034 Y89.522 E48.31142
G1 X91.201 Y89.522 E48.31974
G1 X91.201 Y91.608 E48.42355
G1 X90.822 Y91.608 E48.44241
G1 X88.116 Y91.032 E48.58009
G1 X88.657 Y89.015 E48.68401
G0 F2400 X88.744 Y89.311
G1 F1050 X89.279 Y89.311 E48.71064
G0 F2400 X89.311 Y89.318
