;FLAVOR:Marlin
;TIME:13513
;Filament used: 13.2719m
;Layer height: 0.2
;Generated with Cura_SteamEngine 2.7.0
M190 S60
M104 S220
M109 S220
G21 ;metric values
G90 ;absolute positioning
M82 ;set extruder to absolute mode
M107 ;start with the fan off
G92 E0 ;zero the extruded length
G1 F200 E3 ;extrude 3mm of feed stock
G92 E0 ;zero the extruded length again
G1 F9000
M117 Printing...
;LAYER_COUNT:31
;LAYER:0
M107
M204 S5000
G0 F2400 X12.404 Y31.551 Z0.3
M204 S200
;TYPE:SKIRT
G1 F1200 X36.008 Y7.949 E1.66116
G1 X36.473 Y7.54 E1.69197
G1 X36.987 Y7.195 E1.72278
G1 X37.541 Y6.919 E1.75358
G1 X38.126 Y6.716 E1.7844
G1 X38.732 Y6.591 E1.81519
G1 X39.35 Y6.544 E1.84604
G1 X39.968 Y6.578 E1.87684
G1 X40.576 Y6.691 E1.90761
G1 X41.166 Y6.881 E1.93846
G1 X41.725 Y7.146 E1.96925
G1 X42.246 Y7.481 E2.00007
G1 X42.79 Y7.949 E2.03578
G1 X168.499 Y133.658 E10.88306
G1 X168.908 Y134.123 E10.91388
G1 X169.253 Y134.637 E10.94468
G1 X169.529 Y135.191 E10.97549
G1 X169.732 Y135.776 E11.0063
G1 X169.857 Y136.382 E11.0371
G1 X169.904 Y136.999 E11.06789
G1 X169.87 Y137.618 E11.09874
G1 X169.757 Y138.226 E11.12952
G1 X169.567 Y138.815 E11.16032
G1 X169.302 Y139.375 E11.19115
G1 X168.968 Y139.896 E11.22195
G1 X168.499 Y140.44 E11.25769
G1 X144.893 Y164.044 E12.91899
G1 X144.428 Y164.453 E12.94981
G1 X143.914 Y164.798 E12.98061
G1 X143.36 Y165.074 E13.01141
G1 X142.775 Y165.277 E13.04223
G1 X142.169 Y165.402 E13.07302
G1 X141.551 Y165.449 E13.10387
G1 X140.933 Y165.415 E13.13467
G1 X140.325 Y165.302 E13.16544
G1 X139.735 Y165.112 E13.19629
G1 X139.176 Y164.847 E13.22708
G1 X138.655 Y164.512 E13.2579
G1 X138.111 Y164.044 E13.29361
G1 X12.404 Y38.333 E22.14089
G1 X11.995 Y37.868 E22.17171
G1 X11.65 Y37.354 E22.20252
G1 X11.374 Y36.8 E22.23332
G1 X11.171 Y36.215 E22.26413
G1 X11.046 Y35.609 E22.29493
G1 X10.999 Y34.992 E22.32572
G1 X11.033 Y34.373 E22.35657
G1 X11.146 Y33.765 E22.38735
G1 X11.336 Y33.176 E22.41815
G1 X11.601 Y32.616 E22.44898
G1 X11.935 Y32.095 E22.47978
G1 X12.404 Y31.551 E22.51552
M204 S5000
G0 F2400 X12.686 Y31.833
M204 S200
G1 F1200 X36.29 Y8.231 E24.17668
G1 X36.736 Y7.841 E24.20616
G1 X37.231 Y7.514 E24.23568
G1 X37.766 Y7.258 E24.2652
G1 X38.329 Y7.075 E24.29466
G1 X38.913 Y6.97 E24.32419
G1 X39.505 Y6.944 E24.35368
G1 X40.095 Y6.998 E24.38316
G1 X40.673 Y7.132 E24.41269
G1 X41.227 Y7.341 E24.44216
G1 X41.749 Y7.623 E24.47168
G1 X42.227 Y7.973 E24.50117
G1 X42.508 Y8.231 E24.52015
G1 X168.217 Y133.94 E33.36743
G1 X168.607 Y134.386 E33.39691
G1 X168.933 Y134.881 E33.42641
G1 X169.19 Y135.415 E33.4559
G1 X169.373 Y135.979 E33.48541
G1 X169.478 Y136.563 E33.51494
G1 X169.504 Y137.155 E33.54443
G1 X169.45 Y137.745 E33.57391
G1 X169.316 Y138.323 E33.60344
G1 X169.107 Y138.877 E33.63291
G1 X168.825 Y139.398 E33.66239
G1 X168.475 Y139.877 E33.69191
G1 X168.217 Y140.158 E33.7109
G1 X144.611 Y163.762 E35.37219
G1 X144.165 Y164.152 E35.40168
G1 X143.67 Y164.479 E35.4312
G1 X143.135 Y164.735 E35.46072
G1 X142.572 Y164.918 E35.49018
G1 X141.988 Y165.023 E35.51971
G1 X141.396 Y165.049 E35.5492
G1 X140.806 Y164.995 E35.57868
G1 X140.228 Y164.861 E35.60821
G1 X139.674 Y164.652 E35.63767
G1 X139.152 Y164.37 E35.6672
G1 X138.674 Y164.02 E35.69668
G1 X138.393 Y163.762 E35.71567
G1 X12.686 Y38.051 E44.56294
G1 X12.296 Y37.605 E44.59243
G1 X11.97 Y37.11 E44.62192
G1 X11.713 Y36.576 E44.65142
G1 X11.53 Y36.012 E44.68092
G1 X11.425 Y35.428 E44.71045
G1 X11.399 Y34.836 E44.73994
G1 X11.453 Y34.246 E44.76943
G1 X11.587 Y33.668 E44.79895
G1 X11.796 Y33.114 E44.82842
G1 X12.078 Y32.592 E44.85795
G1 X12.428 Y32.114 E44.88743
G1 X12.686 Y31.833 E44.90641
M204 S5000
G0 F2400 X12.968 Y32.115
M204 S200
G1 F1200 X36.572 Y8.513 E46.56757
G1 X36.999 Y8.142 E46.59572
G1 X37.474 Y7.836 E46.62384
G1 X37.987 Y7.6 E46.65194
G1 X38.529 Y7.438 E46.68009
G1 X39.088 Y7.354 E46.70822
G1 X39.653 Y7.35 E46.73634
G1 X40.213 Y7.426 E46.76447
G1 X40.757 Y7.58 E46.7926
G1 X41.274 Y7.809 E46.82074
G1 X41.753 Y8.108 E46.84884
G1 X42.226 Y8.513 E46.87983
G1 X167.935 Y134.222 E55.72711
G1 X168.305 Y134.649 E55.75522
G1 X168.612 Y135.124 E55.78337
G1 X168.848 Y135.637 E55.81147
G1 X169.01 Y136.179 E55.83962
G1 X169.094 Y136.738 E55.86776
G1 X169.098 Y137.303 E55.89587
G1 X169.022 Y137.863 E55.924
G1 X168.868 Y138.407 E55.95213
G1 X168.639 Y138.923 E55.98023
G1 X168.34 Y139.403 E56.00837
G1 X167.935 Y139.876 E56.03936
G1 X144.329 Y163.48 E57.70066
G1 X143.902 Y163.851 E57.72881
G1 X143.427 Y164.157 E57.75693
G1 X142.914 Y164.393 E57.78503
G1 X142.372 Y164.555 E57.81318
G1 X141.813 Y164.639 E57.84131
G1 X141.248 Y164.643 E57.86943
G1 X140.688 Y164.567 E57.89755
G1 X140.144 Y164.413 E57.92569
G1 X139.627 Y164.184 E57.95383
G1 X139.148 Y163.885 E57.98193
G1 X138.675 Y163.48 E58.01292
G1 X12.968 Y37.769 E66.86019
G1 X12.598 Y37.342 E66.88831
G1 X12.291 Y36.867 E66.91646
G1 X12.055 Y36.354 E66.94456
G1 X11.893 Y35.812 E66.97271
G1 X11.809 Y35.253 E67.00084
G1 X11.805 Y34.688 E67.02896
G1 X11.881 Y34.128 E67.05709
G1 X12.035 Y33.584 E67.08522
G1 X12.264 Y33.068 E67.11332
G1 X12.563 Y32.588 E67.14146
G1 X12.968 Y32.115 E67.17245
M204 S5000
G0 F2400 X13.25 Y32.397
M204 S200
G1 F1200 X36.854 Y8.795 E68.8336
G1 X37.261 Y8.445 E68.86032
G1 X37.714 Y8.16 E68.88695
G1 X38.206 Y7.945 E68.91367
G1 X38.723 Y7.805 E68.94033
G1 X39.256 Y7.744 E68.96703
G1 X39.792 Y7.763 E68.99372
G1 X40.319 Y7.861 E69.02039
G1 X40.826 Y8.036 E69.04708
G1 X41.301 Y8.285 E69.07377
G1 X41.734 Y8.601 E69.10045
G1 X41.944 Y8.795 E69.11468
G1 X167.653 Y134.504 E77.96195
G1 X168.003 Y134.91 E77.98863
G1 X168.288 Y135.364 E78.01531
G1 X168.503 Y135.856 E78.04203
G1 X168.643 Y136.373 E78.06868
G1 X168.704 Y136.906 E78.09538
G1 X168.685 Y137.442 E78.12207
G1 X168.587 Y137.969 E78.14875
G1 X168.412 Y138.476 E78.17544
G1 X168.163 Y138.951 E78.20213
G1 X167.847 Y139.384 E78.2288
G1 X167.653 Y139.594 E78.24303
G1 X144.047 Y163.198 E79.90433
G1 X143.64 Y163.548 E79.93104
G1 X143.187 Y163.833 E79.95768
G1 X142.695 Y164.048 E79.9844
G1 X142.178 Y164.188 E80.01105
G1 X141.645 Y164.249 E80.03775
G1 X141.109 Y164.23 E80.06444
G1 X140.582 Y164.132 E80.09112
G1 X140.075 Y163.957 E80.11781
G1 X139.6 Y163.708 E80.1445
G1 X139.167 Y163.392 E80.17118
G1 X138.957 Y163.198 E80.1854
G1 X13.25 Y37.487 E89.03268
G1 X12.9 Y37.08 E89.05939
G1 X12.615 Y36.627 E89.08603
G1 X12.4 Y36.135 E89.11275
G1 X12.26 Y35.618 E89.1394
G1 X12.199 Y35.085 E89.1661
G1 X12.218 Y34.549 E89.19279
G1 X12.316 Y34.022 E89.21947
G1 X12.491 Y33.515 E89.24616
G1 X12.74 Y33.04 E89.27285
G1 X13.056 Y32.607 E89.29953
G1 X13.25 Y32.397 E89.31375
M204 S5000
G0 F2400 X13.532 Y32.679
M204 S200
G1 F1200 X37.136 Y9.077 E90.97491
G1 X37.521 Y8.749 E91.00008
G1 X37.952 Y8.486 E91.02521
G1 X38.42 Y8.293 E91.0504
G1 X38.912 Y8.177 E91.07556
G1 X39.416 Y8.14 E91.10071
G1 X39.92 Y8.183 E91.12588
G1 X40.411 Y8.304 E91.15104
G1 X40.876 Y8.501 E91.17618
G1 X41.305 Y8.77 E91.20138
G1 X41.662 Y9.077 E91.22481
G1 X167.371 Y134.786 E100.07208
G1 X167.699 Y135.171 E100.09725
G1 X167.962 Y135.602 E100.12238
G1 X168.155 Y136.07 E100.14757
G1 X168.271 Y136.562 E100.17273
G1 X168.308 Y137.066 E100.19788
G1 X168.265 Y137.57 E100.22305
G1 X168.144 Y138.061 E100.24822
G1 X167.947 Y138.526 E100.27335
G1 X167.679 Y138.955 E100.29852
G1 X167.371 Y139.312 E100.32199
G1 X143.765 Y162.916 E101.98328
G1 X143.38 Y163.244 E102.00845
G1 X142.949 Y163.507 E102.03358
G1 X142.481 Y163.7 E102.05877
G1 X141.989 Y163.816 E102.08393
G1 X141.485 Y163.853 E102.10908
G1 X140.981 Y163.81 E102.13425
G1 X140.49 Y163.689 E102.15942
G1 X140.025 Y163.492 E102.18455
G1 X139.596 Y163.223 E102.20975
G1 X139.239 Y162.916 E102.23318
G1 X13.532 Y37.205 E111.08046
G1 X13.204 Y36.82 E111.10563
G1 X12.941 Y36.389 E111.13075
G1 X12.748 Y35.921 E111.15595
G1 X12.632 Y35.429 E111.1811
G1 X12.595 Y34.925 E111.20625
G1 X12.638 Y34.421 E111.23142
G1 X12.759 Y33.93 E111.25659
G1 X12.956 Y33.465 E111.28172
G1 X13.225 Y33.036 E111.30692
G1 X13.532 Y32.679 E111.33035
M204 S5000
G1 F1500 E109.33035
G0 F2400 X15.742 Y34.043
G0 X16.644 Y34.944
G0 X17.328 Y34.804
M204 S200
;TYPE:WALL-INNER
G1 F1500 E111.33035
G1 F1200 X39.399 Y12.734 E112.88365
G1 X163.714 Y137.05 E121.63285
G1 X141.504 Y159.26 E123.19597
G1 X17.328 Y35.084 E131.93536
G1 X17.188 Y34.944 E131.94521
G1 X17.328 Y34.804 E131.95156
M204 S5000
G0 F2400 X16.764 Y34.804
M204 S200
G1 F1200 X39.399 Y12.17 E133.54456
G1 X164.278 Y137.05 E142.33345
G1 X141.504 Y159.824 E143.93626
G1 X16.764 Y35.084 E152.71534
G1 X16.624 Y34.944 E152.72519
G1 X16.764 Y34.804 E152.73155
M204 S5000
G0 F2400 X16.202 Y34.804
M204 S200
;TYPE:WALL-OUTER
G1 F1200 X39.399 Y11.608 E154.36409
G1 X164.84 Y137.05 E163.19254
G1 X141.504 Y160.386 E164.83491
G1 X16.202 Y35.084 E173.65354
G1 X16.062 Y34.944 E173.66339
G1 X16.202 Y34.804 E173.66974
M204 S5000
G0 F2400 X16.343 Y34.663
G0 X16.724 Y34.944
G0 X39.171 Y13.215
M204 S200
;TYPE:SKIN
G1 F1200 X163.232 Y137.275 E182.401
G1 X163.302 Y137.345
M204 S5000
G0 F2400 X162.949 Y137.557
M204 S200
G1 F1200 X38.889 Y13.497 E191.13222
G1 X38.819 Y13.427
M204 S5000
G0 F2400 X38.607 Y13.779
M204 S200
G1 F1200 X162.667 Y137.839 E199.86344
G1 X162.737 Y137.909
M204 S5000
G0 F2400 X162.385 Y138.121
M204 S200
G1 F1200 X38.325 Y14.061 E208.59466
G1 X38.255 Y13.991
M204 S5000
G0 F2400 X38.043 Y14.343
M204 S200
G1 F1200 X162.103 Y138.404 E217.32591
G1 X162.173 Y138.474
M204 S5000
G0 F2400 X161.821 Y138.686
M204 S200
G1 F1200 X37.76 Y14.625 E226.05721
G1 X37.69 Y14.555
M204 S5000
G0 F2400 X37.478 Y14.907
M204 S200
G1 F1200 X161.539 Y138.968 E234.7885
G1 X161.609 Y139.038
M204 S5000
G0 F2400 X161.257 Y139.25
M204 S200
G1 F1200 X37.196 Y15.19 E243.51975
G1 X37.126 Y15.12
M204 S5000
G0 F2400 X36.914 Y15.472
M204 S200
G1 F1200 X160.974 Y139.532 E252.25097
G1 X161.044 Y139.602
M204 S5000
G0 F2400 X160.692 Y139.814
M204 S200
G1 F1200 X36.632 Y15.754 E260.98219
G1 X36.562 Y15.684
M204 S5000
G0 F2400 X36.35 Y16.036
M204 S200
G1 F1200 X160.41 Y140.096 E269.71341
G1 X160.48 Y140.166
M204 S5000
G0 F2400 X160.128 Y140.379
M204 S200
G1 F1200 X36.068 Y16.318 E278.44467
G1 X35.998 Y16.248
M204 S5000
G0 F2400 X35.785 Y16.6
M204 S200
G1 F1200 X159.846 Y140.661 E287.17596
G1 X159.916 Y140.731
M204 S5000
G0 F2400 X159.564 Y140.943
M204 S200
G1 F1200 X35.503 Y16.882 E295.90725
G1 X35.433 Y16.812
M204 S5000
G0 F2400 X35.221 Y17.165
M204 S200
G1 F1200 X159.282 Y141.225 E304.6385
G1 X159.352 Y141.295
M204 S5000
G0 F2400 X159 Y141.507
M204 S200
G1 F1200 X34.939 Y17.447 E313.36976
G1 X34.869 Y17.377
M204 S5000
G0 F2400 X34.657 Y17.729
M204 S200
G1 F1200 X158.717 Y141.789 E322.10098
G1 X158.787 Y141.859
M204 S5000
G0 F2400 X158.435 Y142.071
M204 S200
G1 F1200 X34.375 Y18.011 E330.8322
G1 X34.305 Y17.941
M204 S5000
G0 F2400 X34.093 Y18.293
M204 S200
G1 F1200 X158.153 Y142.354 E339.56346
G1 X158.223 Y142.424
M204 S5000
G0 F2400 X157.871 Y142.636
M204 S200
G1 F1200 X33.811 Y18.575 E348.29471
G1 X33.741 Y18.505
M204 S5000
G0 F2400 X33.528 Y18.857
M204 S200
G1 F1200 X157.589 Y142.918 E357.026
G1 X157.659 Y142.988
M204 S5000
G0 F2400 X157.307 Y143.2
M204 S200
G1 F1200 X33.246 Y19.139 E365.75729
G1 X33.176 Y19.069
M204 S5000
G0 F2400 X32.964 Y19.422
M204 S200
G1 F1200 X157.025 Y143.482 E374.48855
G1 X157.095 Y143.552
M204 S5000
G0 F2400 X156.742 Y143.764
M204 S200
G1 F1200 X32.682 Y19.704 E383.21977
G1 X32.612 Y19.634
M204 S5000
G0 F2400 X32.4 Y19.986
M204 S200
G1 F1200 X156.46 Y144.046 E391.95099
G1 X156.53 Y144.116
M204 S5000
G0 F2400 X156.178 Y144.328
M204 S200
G1 F1200 X32.118 Y20.268 E400.68221
G1 X32.048 Y20.198
M204 S5000
G0 F2400 X31.836 Y20.55
M204 S200
G1 F1200 X155.896 Y144.611 E409.41347
G1 X155.966 Y144.681
M204 S5000
G0 F2400 X155.614 Y144.893
M204 S200
G1 F1200 X31.553 Y20.832 E418.14476
G1 X31.483 Y20.762
M204 S5000
G0 F2400 X31.271 Y21.114
M204 S200
G1 F1200 X155.332 Y145.175 E426.87605
G1 X155.402 Y145.245
M204 S5000
G0 F2400 X155.05 Y145.457
M204 S200
G1 F1200 X30.989 Y21.397 E435.6073
G1 X30.919 Y21.327
M204 S5000
G0 F2400 X30.707 Y21.679
M204 S200
G1 F1200 X154.767 Y145.739 E444.33852
G1 X154.837 Y145.809
M204 S5000
G0 F2400 X154.485 Y146.021
M204 S200
G1 F1200 X30.425 Y21.961 E453.06974
G1 X30.355 Y21.891
M204 S5000
G0 F2400 X30.143 Y22.243
M204 S200
G1 F1200 X154.203 Y146.303 E461.80096
G1 X154.273 Y146.373
M204 S5000
G0 F2400 X153.921 Y146.586
M204 S200
G1 F1200 X29.861 Y22.525 E470.53222
G1 X29.791 Y22.455
M204 S5000
G0 F2400 X29.578 Y22.807
M204 S200
G1 F1200 X153.639 Y146.868 E479.26351
G1 X153.709 Y146.938
M204 S5000
G0 F2400 X153.357 Y147.15
M204 S200
G1 F1200 X29.296 Y23.089 E487.9948
G1 X29.226 Y23.019
M204 S5000
G0 F2400 X29.014 Y23.372
M204 S200
G1 F1200 X153.075 Y147.432 E496.72606
G1 X153.145 Y147.502
M204 S5000
G0 F2400 X152.793 Y147.714
M204 S200
G1 F1200 X28.732 Y23.654 E505.45731
G1 X28.662 Y23.584
M204 S5000
G0 F2400 X28.45 Y23.936
M204 S200
G1 F1200 X152.51 Y147.996 E514.18853
G1 X152.58 Y148.066
M204 S5000
G0 F2400 X152.228 Y148.278
M204 S200
G1 F1200 X28.168 Y24.218 E522.91975
G1 X28.098 Y24.148
M204 S5000
G0 F2400 X27.886 Y24.5
M204 S200
G1 F1200 X151.946 Y148.561 E531.65101
G1 X152.016 Y148.631
M204 S5000
G0 F2400 X151.664 Y148.843
M204 S200
G1 F1200 X27.604 Y24.782 E540.38226
G1 X27.534 Y24.712
M204 S5000
G0 F2400 X27.321 Y25.064
M204 S200
G1 F1200 X151.382 Y149.125 E549.11355
G1 X151.452 Y149.195
M204 S5000
G0 F2400 X151.1 Y149.407
M204 S200
G1 F1200 X27.039 Y25.346 E557.84484
G1 X26.969 Y25.276
M204 S5000
G0 F2400 X26.757 Y25.629
M204 S200
G1 F1200 X150.818 Y149.689 E566.5761
G1 X150.888 Y149.759
M204 S5000
G0 F2400 X150.535 Y149.971
M204 S200
G1 F1200 X26.475 Y25.911 E575.30732
G1 X26.405 Y25.841
M204 S5000
G0 F2400 X26.193 Y26.193
M204 S200
G1 F1200 X150.253 Y150.253 E584.03854
G1 X150.323 Y150.323
M204 S5000
G0 F2400 X149.971 Y150.535
M204 S200
G1 F1200 X25.911 Y26.475 E592.76976
G1 X25.841 Y26.405
M204 S5000
G0 F2400 X25.629 Y26.757
M204 S200
G1 F1200 X149.689 Y150.818 E601.50102
G1 X149.759 Y150.888
M204 S5000
G0 F2400 X149.407 Y151.1
M204 S200
G1 F1200 X25.346 Y27.039 E610.23231
G1 X25.276 Y26.969
M204 S5000
G0 F2400 X25.064 Y27.321
M204 S200
G1 F1200 X149.125 Y151.382 E618.9636
G1 X149.195 Y151.452
M204 S5000
G0 F2400 X148.843 Y151.664
M204 S200
G1 F1200 X24.782 Y27.604 E627.69485
G1 X24.712 Y27.534
M204 S5000
G0 F2400 X24.5 Y27.886
M204 S200
G1 F1200 X148.561 Y151.946 E636.42611
G1 X148.631 Y152.016
M204 S5000
G0 F2400 X148.278 Y152.228
M204 S200
G1 F1200 X24.218 Y28.168 E645.15733
G1 X24.148 Y28.098
M204 S5000
G0 F2400 X23.936 Y28.45
M204 S200
G1 F1200 X147.996 Y152.51 E653.88855
G1 X148.066 Y152.58
M204 S5000
G0 F2400 X147.714 Y152.793
M204 S200
G1 F1200 X23.654 Y28.732 E662.6198
G1 X23.584 Y28.662
M204 S5000
G0 F2400 X23.372 Y29.014
M204 S200
G1 F1200 X147.432 Y153.075 E671.35106
G1 X147.502 Y153.145
M204 S5000
G0 F2400 X147.15 Y153.357
M204 S200
G1 F1200 X23.089 Y29.296 E680.08235
G1 X23.019 Y29.226
M204 S5000
G0 F2400 X22.807 Y29.578
M204 S200
G1 F1200 X146.868 Y153.639 E688.81364
G1 X146.938 Y153.709
M204 S5000
G0 F2400 X146.586 Y153.921
M204 S200
G1 F1200 X22.525 Y29.861 E697.5449
G1 X22.455 Y29.791
M204 S5000
G0 F2400 X22.243 Y30.143
M204 S200
G1 F1200 X146.303 Y154.203 E706.27612
G1 X146.373 Y154.273
M204 S5000
G0 F2400 X146.021 Y154.485
M204 S200
G1 F1200 X21.961 Y30.425 E715.00734
G1 X21.891 Y30.355
M204 S5000
G0 F2400 X21.679 Y30.707
M204 S200
G1 F1200 X145.739 Y154.767 E723.73856
G1 X145.809 Y154.837
M204 S5000
G0 F2400 X145.457 Y155.05
M204 S200
G1 F1200 X21.397 Y30.989 E732.46981
G1 X21.327 Y30.919
M204 S5000
G0 F2400 X21.114 Y31.271
M204 S200
G1 F1200 X145.175 Y155.332 E741.2011
G1 X145.245 Y155.402
M204 S5000
G0 F2400 X144.893 Y155.614
M204 S200
G1 F1200 X20.832 Y31.553 E749.93239
G1 X20.762 Y31.483
M204 S5000
G0 F2400 X20.55 Y31.836
M204 S200
G1 F1200 X144.611 Y155.896 E758.66365
G1 X144.681 Y155.966
M204 S5000
G0 F2400 X144.328 Y156.178
M204 S200
G1 F1200 X20.268 Y32.118 E767.39487
G1 X20.198 Y32.048
M204 S5000
G0 F2400 X19.986 Y32.4
M204 S200
G1 F1200 X144.046 Y156.46 E776.12609
G1 X144.116 Y156.53
M204 S5000
G0 F2400 X143.764 Y156.742
M204 S200
G1 F1200 X19.704 Y32.682 E784.85731
G1 X19.634 Y32.612
M204 S5000
