;FLAVOR:Marlin
;TIME:1678
;Filament used: 1.08728m
;Layer height: 0.15
;Generated with Cura_SteamEngine 2.7.0
M190 S60
M104 S220
M109 S220
G21 ;metric values
G90 ;absolute positioning
M82 ;set extruder to absolute mode
M107 ;start with the fan off
G92 E0 ;zero the extruded length
G1 F200 E3 ;extrude 3mm of feed stock
G92 E0 ;zero the extruded length again
G1 F9000
M301 P31.36 I3.30 D74.51 ;set PID tuning for E0
M304 P72.25 I2.72 D479.41 ; set PID tuning for heated bed
M117 Printing...
;LAYER_COUNT:39
;LAYER:0
M107
M205 X20 Y20
G0 F2400 X58.376 Y73.382 Z0.3
G0 X57.925 Y73.805
;TYPE:SKIRT
G1 F1050 X58.376 Y73.382 E0.03077
G1 X58.94 Y72.982 E0.06518
G1 X59.784 Y72.47 E0.11431
G1 X60.332 Y72.183 E0.14509
G1 X61.004 Y71.944 E0.18059
G1 X61.88 Y71.704 E0.22579
G1 X62.486 Y71.58 E0.25657
G1 X63.295 Y71.536 E0.29689
G1 X68.352 Y71.692 E0.54867
G1 X105.99 Y71.704 E2.42175
G1 X112.371 Y71.508 E2.73945
G1 X112.565 Y71.506 E2.74911
G1 X116.474 Y71.544 E2.94365
G1 X116.593 Y71.547 E2.94957
G1 X121.931 Y71.732 E3.21538
G1 X122.695 Y71.82 E3.25365
G1 X123.307 Y71.941 E3.2847
G1 X123.906 Y72.1 E3.31554
G1 X124.249 Y72.231 E3.33381
G1 X124.815 Y72.471 E3.36441
G1 X125.368 Y72.749 E3.39521
G1 X125.699 Y72.961 E3.41477
G1 X126.216 Y73.324 E3.44621
G1 X126.699 Y73.712 E3.47704
G1 X126.965 Y73.976 E3.49569
G1 X127.388 Y74.429 E3.52653
G1 X127.781 Y74.908 E3.55737
G1 X127.987 Y75.22 E3.57597
G1 X128.304 Y75.744 E3.60645
G1 X128.589 Y76.293 E3.63724
G1 X128.732 Y76.656 E3.65665
G1 X128.943 Y77.265 E3.68873
G1 X129.107 Y77.862 E3.71954
G1 X129.194 Y78.48 E3.7506
G1 X129.283 Y79.679 E3.81043
G1 X129.296 Y80.036 E3.82821
G1 X129.286 Y102.492 E4.94574
G1 X129.261 Y102.979 E4.97001
G1 X129.201 Y103.565 E4.99932
G1 X129.098 Y104.175 E5.03011
G1 X129.015 Y104.483 E5.04598
G1 X128.837 Y105.063 E5.07618
G1 X128.617 Y105.642 E5.107
G1 X128.453 Y105.969 E5.12521
G1 X128.148 Y106.523 E5.15668
G1 X127.815 Y107.045 E5.18749
G1 X127.562 Y107.362 E5.20768
G1 X127.147 Y107.838 E5.2391
G1 X126.711 Y108.277 E5.26989
G1 X126.423 Y108.513 E5.28842
G1 X121.388 Y112.317 E5.60247
G1 X120.871 Y112.657 E5.63326
G1 X120.314 Y112.928 E5.66409
G1 X119.728 Y113.125 E5.69485
G1 X119.12 Y113.245 E5.72569
G1 X118.497 Y113.286 E5.75676
G1 X108.507 Y113.286 E6.25392
G1 X107.889 Y113.246 E6.28474
G1 X107.484 Y113.176 E6.30519
G1 X101.576 Y111.887 E6.60613
G1 X99.01 Y111.448 E6.73568
G1 X93.641 Y110.759 E7.00506
G1 X88.251 Y110.375 E7.27398
G1 X84.165 Y110.287 E7.47737
G1 X63.248 Y110.271 E8.51831
G1 X62.353 Y110.186 E8.56305
G1 X61.735 Y110.068 E8.59436
G1 X61.135 Y109.913 E8.6252
G1 X60.773 Y109.777 E8.64445
G1 X60.196 Y109.534 E8.6756
G1 X59.642 Y109.257 E8.70643
G1 X59.301 Y109.039 E8.72657
G1 X58.784 Y108.676 E8.75801
G1 X58.301 Y108.288 E8.78884
G1 X58.035 Y108.024 E8.80749
G1 X57.612 Y107.571 E8.83833
G1 X57.219 Y107.092 E8.86917
G1 X57.013 Y106.78 E8.88777
G1 X56.696 Y106.256 E8.91825
G1 X56.411 Y105.707 E8.94903
G1 X56.269 Y105.346 E8.96834
G1 X56.057 Y104.735 E9.00052
G1 X55.892 Y104.138 E9.03135
G1 X55.813 Y103.616 E9.05762
G1 X55.535 Y100.687 E9.20404
G1 X55.515 Y100.149 E9.23083
G1 X55.627 Y93.884 E9.54266
G1 X55.505 Y86.748 E9.89784
G1 X55.504 Y86.61 E9.90471
G1 X55.596 Y78.742 E10.29629
G1 X55.644 Y78.125 E10.32709
G1 X55.83 Y77.318 E10.3683
G1 X56.013 Y76.754 E10.39781
G1 X56.242 Y76.179 E10.42861
G1 X56.461 Y75.769 E10.45174
G1 X56.863 Y75.098 E10.49067
G1 X57.215 Y74.589 E10.52147
G1 X57.475 Y74.286 E10.54134
G1 X57.925 Y73.805 E10.57412
G0 F2400 X58.216 Y74.078
G1 F1050 X58.649 Y73.673 E10.60362
G1 X59.146 Y73.323 E10.63387
G1 X59.99 Y72.811 E10.683
G1 X60.517 Y72.538 E10.71254
G1 X61.109 Y72.329 E10.74378
G1 X61.985 Y72.089 E10.78898
G1 X62.566 Y71.972 E10.81847
G1 X63.283 Y71.935 E10.8542
G1 X68.34 Y72.091 E11.10599
G1 X106.002 Y72.103 E12.98025
G1 X112.383 Y71.907 E13.29796
G1 X112.561 Y71.905 E13.30682
G1 X116.47 Y71.943 E13.50136
G1 X116.579 Y71.946 E13.50679
G1 X121.917 Y72.131 E13.77259
G1 X122.618 Y72.211 E13.80771
G1 X123.23 Y72.332 E13.83875
G1 X123.802 Y72.486 E13.86823
G1 X124.094 Y72.598 E13.88379
G1 X124.66 Y72.838 E13.91439
G1 X125.188 Y73.106 E13.94386
G1 X125.47 Y73.287 E13.96053
G1 X125.987 Y73.65 E13.99197
G1 X126.448 Y74.023 E14.02148
G1 X126.674 Y74.248 E14.03735
G1 X127.097 Y74.701 E14.0682
G1 X127.471 Y75.161 E14.0977
G1 X127.645 Y75.426 E14.11348
G1 X127.962 Y75.95 E14.14395
G1 X128.234 Y76.477 E14.17347
G1 X128.355 Y76.787 E14.19003
G1 X128.566 Y77.396 E14.2221
G1 X128.722 Y77.967 E14.25156
G1 X128.796 Y78.51 E14.27883
G1 X128.885 Y79.709 E14.33867
G1 X128.897 Y80.036 E14.35495
G1 X128.887 Y102.492 E15.47248
G1 X128.864 Y102.938 E15.49471
G1 X128.804 Y103.524 E15.52402
G1 X128.633 Y104.366 E15.56678
G1 X128.455 Y104.946 E15.59697
G1 X128.244 Y105.5 E15.62648
G1 X128.104 Y105.777 E15.64192
G1 X127.799 Y106.331 E15.67339
G1 X127.479 Y106.829 E15.70285
G1 X127.261 Y107.1 E15.72016
G1 X126.846 Y107.576 E15.75159
G1 X126.427 Y107.995 E15.78108
G1 X126.183 Y108.194 E15.79675
G1 X121.148 Y111.998 E16.11079
G1 X120.652 Y112.323 E16.1403
G1 X120.116 Y112.578 E16.16984
G1 X119.552 Y112.759 E16.19932
G1 X118.968 Y112.862 E16.22883
G1 X118.497 Y112.887 E16.2523
G1 X108.507 Y112.887 E16.74946
G1 X107.916 Y112.847 E16.77894
G1 X107.569 Y112.786 E16.79647
G1 X101.641 Y111.492 E17.09843
G1 X99.078 Y111.055 E17.22781
G1 X93.684 Y110.362 E17.49846
G1 X88.269 Y109.977 E17.76862
G1 X84.175 Y109.888 E17.9724
G1 X63.249 Y109.872 E19.0138
G1 X62.427 Y109.794 E19.05489
G1 X61.809 Y109.676 E19.0862
G1 X61.236 Y109.526 E19.11568
G1 X60.927 Y109.409 E19.13212
G1 X60.35 Y109.166 E19.16328
G1 X59.821 Y108.9 E19.19274
G1 X59.53 Y108.713 E19.20996
G1 X59.013 Y108.35 E19.24139
G1 X58.552 Y107.977 E19.2709
G1 X58.326 Y107.752 E19.28678
G1 X57.903 Y107.299 E19.31762
G1 X57.529 Y106.839 E19.34712
G1 X57.355 Y106.574 E19.3629
G1 X57.038 Y106.05 E19.39338
G1 X56.766 Y105.523 E19.42289
G1 X56.646 Y105.215 E19.43934
G1 X56.434 Y104.604 E19.47153
G1 X56.278 Y104.033 E19.50098
G1 X56.211 Y103.578 E19.52387
G1 X55.933 Y100.649 E19.67029
G1 X55.914 Y100.156 E19.69484
G1 X56.026 Y93.884 E20.00702
G1 X55.904 Y86.741 E20.36255
G1 X55.903 Y86.615 E20.36882
G1 X55.995 Y78.747 E20.7604
G1 X56.042 Y78.156 E20.7899
G1 X56.21 Y77.441 E20.82646
G1 X56.393 Y76.877 E20.85596
G1 X56.613 Y76.327 E20.88544
G1 X56.803 Y75.974 E20.90539
G1 X57.205 Y75.303 E20.94432
G1 X57.543 Y74.816 E20.97382
G1 X57.766 Y74.559 E20.99075
G1 X58.216 Y74.078 E21.02353
G0 F2400 X58.507 Y74.351
G1 F1050 X58.922 Y73.966 E21.05171
G1 X59.353 Y73.664 E21.0779
G1 X60.197 Y73.152 E21.12702
G1 X60.7 Y72.894 E21.15515
G1 X61.215 Y72.714 E21.1823
G1 X62.091 Y72.474 E21.22751
G1 X62.645 Y72.364 E21.25561
G1 X63.27 Y72.334 E21.28675
G1 X68.327 Y72.49 E21.53854
G1 X106.014 Y72.502 E23.41405
G1 X112.395 Y72.306 E23.73175
G1 X112.557 Y72.304 E23.73981
G1 X116.466 Y72.342 E23.93436
G1 X116.565 Y72.344 E23.93928
G1 X121.903 Y72.529 E24.20509
G1 X122.54 Y72.603 E24.23701
G1 X123.152 Y72.724 E24.26805
G1 X123.938 Y72.965 E24.30896
G1 X124.504 Y73.205 E24.33956
G1 X125.24 Y73.614 E24.38146
G1 X125.757 Y73.977 E24.4129
G1 X126.382 Y74.52 E24.4541
G1 X126.805 Y74.973 E24.48495
G1 X127.304 Y75.633 E24.52612
G1 X127.621 Y76.157 E24.5566
G1 X127.978 Y76.917 E24.59839
G1 X128.189 Y77.526 E24.63046
G1 X128.336 Y78.072 E24.6586
G1 X128.398 Y78.539 E24.68205
G1 X128.487 Y79.738 E24.74188
G1 X128.498 Y80.036 E24.75672
G1 X128.488 Y102.492 E25.87425
G1 X128.467 Y102.897 E25.89443
G1 X128.407 Y103.483 E25.92375
G1 X128.252 Y104.249 E25.96264
G1 X128.074 Y104.829 E25.99284
G1 X127.754 Y105.584 E26.03364
G1 X127.449 Y106.138 E26.06512
G1 X127.142 Y106.613 E26.09326
G1 X126.961 Y106.837 E26.10759
G1 X126.546 Y107.313 E26.13902
G1 X125.942 Y107.876 E26.18011
G1 X120.907 Y111.68 E26.49415
G1 X120.433 Y111.988 E26.52229
G1 X119.921 Y112.226 E26.55038
G1 X119.379 Y112.389 E26.57855
G1 X118.821 Y112.475 E26.60665
G1 X118.497 Y112.488 E26.62278
G1 X108.507 Y112.488 E27.11994
G1 X107.943 Y112.448 E27.14808
G1 X107.654 Y112.396 E27.16269
G1 X101.728 Y111.103 E27.46454
G1 X99.123 Y110.658 E27.59606
G1 X93.729 Y109.966 E27.86669
G1 X88.285 Y109.578 E28.1383
G1 X84.183 Y109.489 E28.34249
G1 X63.249 Y109.473 E29.38428
G1 X62.502 Y109.402 E29.42162
G1 X61.884 Y109.284 E29.45293
G1 X61.082 Y109.042 E29.49462
G1 X60.505 Y108.799 E29.52578
G1 X60.001 Y108.543 E29.55391
G1 X59.76 Y108.386 E29.56823
G1 X59.243 Y108.023 E29.59966
G1 X58.618 Y107.48 E29.64087
G1 X58.195 Y107.027 E29.67171
G1 X57.696 Y106.367 E29.71289
G1 X57.379 Y105.843 E29.74336
G1 X57.023 Y105.085 E29.78504
G1 X56.811 Y104.474 E29.81722
G1 X56.664 Y103.928 E29.84536
G1 X56.608 Y103.541 E29.86482
G1 X56.33 Y100.612 E30.01124
G1 X56.313 Y100.163 E30.0336
G1 X56.425 Y93.884 E30.34613
G1 X56.303 Y86.734 E30.702
G1 X56.302 Y86.619 E30.70773
G1 X56.394 Y78.751 E31.09931
G1 X56.441 Y78.188 E31.12743
G1 X56.589 Y77.564 E31.15934
G1 X56.772 Y77 E31.18885
G1 X56.984 Y76.476 E31.21698
G1 X57.145 Y76.179 E31.23379
G1 X57.547 Y75.508 E31.27272
G1 X57.871 Y75.045 E31.30084
G1 X58.057 Y74.832 E31.31491
G1 X58.507 Y74.351 E31.34769
G0 F2400 X58.799 Y74.623
G1 F1050 X59.193 Y74.26 E31.37435
G1 X59.56 Y74.005 E31.39659
G1 X60.404 Y73.493 E31.44572
G1 X60.882 Y73.25 E31.47241
G1 X61.32 Y73.099 E31.49546
G1 X62.196 Y72.859 E31.54066
G1 X62.722 Y72.756 E31.56734
G1 X63.258 Y72.733 E31.59404
G1 X68.315 Y72.889 E31.84582
G1 X106.027 Y72.901 E33.72257
G1 X112.408 Y72.705 E34.04028
G1 X112.553 Y72.703 E34.04749
G1 X116.462 Y72.741 E34.24204
G1 X116.552 Y72.743 E34.24652
G1 X121.89 Y72.928 E34.51232
G1 X122.463 Y72.994 E34.54103
G1 X123.075 Y73.115 E34.57208
G1 X123.782 Y73.333 E34.60889
G1 X124.348 Y73.573 E34.63949
G1 X125.011 Y73.941 E34.67723
G1 X125.528 Y74.304 E34.70866
G1 X126.09 Y74.793 E34.74574
G1 X126.513 Y75.246 E34.77658
G1 X126.962 Y75.839 E34.8136
G1 X127.279 Y76.363 E34.84407
G1 X127.601 Y77.048 E34.88174
G1 X127.812 Y77.657 E34.91382
G1 X127.949 Y78.175 E34.94048
G1 X128 Y78.569 E34.96025
G1 X128.089 Y79.768 E35.02009
G1 X128.099 Y80.036 E35.03343
G1 X128.089 Y102.492 E36.15097
G1 X128.07 Y102.857 E36.16915
G1 X128.01 Y103.443 E36.19847
G1 X127.871 Y104.132 E36.23345
G1 X127.693 Y104.712 E36.26364
G1 X127.405 Y105.392 E36.30039
G1 X127.1 Y105.946 E36.33186
G1 X126.66 Y106.575 E36.37006
G1 X126.245 Y107.051 E36.40149
G1 X125.702 Y107.558 E36.43846
G1 X120.667 Y111.362 E36.7525
G1 X120.216 Y111.652 E36.77919
G1 X119.727 Y111.872 E36.80587
G1 X119.211 Y112.018 E36.83256
G1 X118.497 Y112.089 E36.86827
G1 X108.507 Y112.089 E37.36543
G1 X107.74 Y112.006 E37.40382
G1 X101.819 Y110.714 E37.70541
G1 X99.191 Y110.265 E37.83809
G1 X93.756 Y109.568 E38.11078
G1 X88.302 Y109.179 E38.38289
G1 X84.192 Y109.09 E38.58748
G1 X63.249 Y109.074 E39.62972
G1 X62.577 Y109.01 E39.66331
G1 X61.959 Y108.892 E39.69462
G1 X61.237 Y108.674 E39.73215
G1 X60.66 Y108.431 E39.76331
G1 X59.989 Y108.059 E39.80149
G1 X59.472 Y107.696 E39.83293
G1 X58.91 Y107.207 E39.87
G1 X58.487 Y106.754 E39.90085
G1 X58.038 Y106.161 E39.93786
G1 X57.721 Y105.637 E39.96834
G1 X57.4 Y104.954 E40.0059
G1 X57.188 Y104.343 E40.03808
G1 X57.05 Y103.824 E40.06481
G1 X57.005 Y103.503 E40.08094
G1 X56.727 Y100.574 E40.22736
G1 X56.712 Y100.17 E40.24747
G1 X56.824 Y93.884 E40.56035
G1 X56.702 Y86.727 E40.91657
G1 X56.701 Y86.624 E40.9217
G1 X56.793 Y78.756 E41.31328
G1 X56.839 Y78.222 E41.33995
G1 X56.969 Y77.687 E41.36735
G1 X57.152 Y77.123 E41.39686
G1 X57.355 Y76.627 E41.42353
G1 X57.488 Y76.384 E41.43732
G1 X57.89 Y75.713 E41.47625
G1 X58.349 Y75.104 E41.5142
G1 X58.799 Y74.623 E41.54698
G0 F2400 X59.09 Y74.896
G1 F1050 X59.464 Y74.555 E41.57216
G1 X59.767 Y74.346 E41.59048
G1 X60.611 Y73.834 E41.63961
G1 X61.063 Y73.607 E41.66478
G1 X61.425 Y73.484 E41.68381
G1 X62.301 Y73.244 E41.72901
G1 X62.798 Y73.149 E41.75419
G1 X63.246 Y73.132 E41.7765
G1 X68.303 Y73.288 E42.02828
G1 X106.038 Y73.3 E43.90618
G1 X112.42 Y73.104 E44.22394
G1 X112.549 Y73.102 E44.23036
G1 X116.458 Y73.14 E44.4249
G1 X116.538 Y73.142 E44.42888
G1 X121.876 Y73.327 E44.69469
G1 X122.386 Y73.386 E44.72024
G1 X122.998 Y73.507 E44.75129
G1 X123.626 Y73.7 E44.78398
G1 X124.192 Y73.94 E44.81458
G1 X124.782 Y74.267 E44.84815
G1 X125.299 Y74.63 E44.87958
G1 X125.799 Y75.065 E44.91256
G1 X126.222 Y75.518 E44.94341
G1 X126.621 Y76.046 E44.97634
G1 X126.938 Y76.57 E45.00682
G1 X127.224 Y77.178 E45.04026
G1 X127.435 Y77.787 E45.07233
G1 X127.562 Y78.277 E45.09752
G1 X127.602 Y78.598 E45.11362
G1 X127.691 Y79.797 E45.17346
G1 X127.7 Y80.035 E45.18531
G1 X127.69 Y102.491 E46.30284
G1 X127.673 Y102.816 E46.31904
G1 X127.613 Y103.402 E46.34835
G1 X127.489 Y104.015 E46.37948
G1 X127.311 Y104.595 E46.40967
G1 X127.055 Y105.199 E46.44232
G1 X126.75 Y105.753 E46.47379
G1 X126.359 Y106.313 E46.50778
G1 X125.944 Y106.789 E46.53921
G1 X125.461 Y107.239 E46.57206
G1 X120.426 Y111.043 E46.8861
G1 X120 Y111.315 E46.91125
G1 X119.536 Y111.517 E46.93644
G1 X119.046 Y111.642 E46.9616
G1 X118.497 Y111.69 E46.98903
G1 X108.507 Y111.69 E47.48619
G1 X107.825 Y111.616 E47.52032
G1 X101.881 Y110.319 E47.82309
G1 X99.263 Y109.872 E47.95526
G1 X93.8 Y109.171 E48.22936
G1 X88.319 Y108.78 E48.50282
G1 X84.201 Y108.691 E48.7078
G1 X63.25 Y108.675 E49.75044
G1 X62.652 Y108.618 E49.78033
G1 X62.034 Y108.5 E49.81164
G1 X61.392 Y108.306 E49.84502
G1 X60.815 Y108.063 E49.87618
G1 X60.218 Y107.733 E49.91012
G1 X59.701 Y107.37 E49.94156
G1 X59.201 Y106.935 E49.97454
G1 X58.778 Y106.482 E50.00539
G1 X58.379 Y105.954 E50.03832
G1 X58.062 Y105.43 E50.0688
G1 X57.777 Y104.823 E50.10217
G1 X57.565 Y104.212 E50.13435
G1 X57.437 Y103.723 E50.15951
G1 X57.402 Y103.465 E50.17247
G1 X57.124 Y100.536 E50.31889
G1 X57.111 Y100.177 E50.33676
G1 X57.223 Y93.913 E50.64854
G1 X57.1 Y86.72 E51.00656
G1 X57.1 Y86.629 E51.01109
G1 X57.192 Y78.761 E51.40267
G1 X57.238 Y78.257 E51.42786
G1 X57.348 Y77.81 E51.45076
G1 X57.531 Y77.246 E51.48027
G1 X57.83 Y76.589 E51.51619
G1 X58.232 Y75.918 E51.55512
G1 X58.64 Y75.377 E51.58884
G1 X59.09 Y74.896 E51.62162
G0 F2400 X61.492 Y77.271
;TYPE:SUPPORT
G1 F1050 X62.002 Y76.9 E51.65301
G1 X62.57 Y76.649 E51.68391
G1 X63.197 Y76.515 E51.71582
G1 X63.467 Y76.515 E51.72926
G1 X63.393 Y76.828 E51.74526
G1 X63.601 Y77.45 E51.7779
G1 X63.601 Y77.48 E51.77939
G1 X63.677 Y77.757 E51.79369
G1 X63.742 Y77.871 E51.80022
G1 X63.759 Y77.924 E51.80299
G1 X63.767 Y77.99 E51.8063
G1 X63.76 Y78.061 E51.80985
G1 X63.742 Y78.113 E51.81259
G1 X63.673 Y78.234 E51.81952
G1 X63.601 Y78.51 E51.83371
G1 X63.601 Y78.601 E51.83824
G1 X60.655 Y78.601 E51.98485
G1 X60.753 Y78.298 E52.0007
G1 X61.072 Y77.741 E52.03264
G1 X61.492 Y77.271 E52.06401
G0 F2400 X61.705 Y77.314
G1 F1050 X63.386 Y77.314 E52.14767
G0 F2400 X62.651 Y76.795
G1 F1050 X62.651 Y78.441 E52.22958
G0 F2400 X61.318 Y78.441
G1 F1050 X61.318 Y77.705 E52.26621
G1 F1500 E51.26621
G0 F2400 X59.839 Y79.343
G0 X59.839 Y84.357
G0 X60.343 Y84.861
G0 X62.034 Y84.912
G1 F1500 E52.26621
G1 F1050 X62.136 Y84.802 E52.27367
G1 X62.184 Y84.767 E52.27663
G1 X62.248 Y84.739 E52.28011
G1 X62.307 Y84.726 E52.28311
G1 X62.355 Y84.726 E52.2855
G1 X63.319 Y85.696 E52.35356
G1 X63.88 Y85.697 E52.38148
G1 X64.851 Y84.726 E52.44981
G1 X64.9 Y84.726 E52.45225
G1 X64.963 Y84.741 E52.45548
G1 X65.041 Y84.775 E52.45971
G1 X65.078 Y84.802 E52.46199
G1 X65.18 Y84.912 E52.46946
G1 X65.601 Y85.099 E52.49238
G1 X65.768 Y85.099 E52.50069
G1 X66.182 Y85.283 E52.52324
G1 X66.501 Y85.221 E52.53941
G1 X66.501 Y87.293 E52.64252
G1 X66.28 Y87.256 E52.65368
G1 X66.175 Y87.304 E52.65942
G1 X65.773 Y87.3 E52.67943
G1 X65.337 Y87.486 E52.70302
G1 X65.072 Y87.782 E52.72279
G1 X65.026 Y87.816 E52.72564
G1 X64.971 Y87.84 E52.72862
G1 X64.902 Y87.855 E52.73214
G1 X64.854 Y87.855 E52.73452
G1 X63.892 Y86.885 E52.80251
G1 X63.331 Y86.884 E52.83043
G1 X62.359 Y87.855 E52.8988
G1 X62.311 Y87.855 E52.90119
G1 X62.252 Y87.842 E52.9042
G1 X62.192 Y87.815 E52.90747
G1 X62.125 Y87.765 E52.91163
G1 X61.877 Y87.488 E52.93014
G1 X61.565 Y87.353 E52.94705
G1 X61.065 Y86.983 E52.97801
G1 X60.523 Y87.023 E53.00505
G1 X60.499 Y87.047 E53.00674
G1 X60.5 Y85.264 E53.09548
G1 X60.901 Y85.338 E53.11577
