;FLAVOR:Marlin
;TIME:4218
;Filament used: 3.62484m
;Layer height: 0.2
;Generated with Cura_SteamEngine 2.7.0
M190 S60
M104 S220
M109 S220
G21 ;metric values
G90 ;absolute positioning
M82 ;set extruder to absolute mode
M107 ;start with the fan off
G92 E0 ;zero the extruded length
G1 F200 E3 ;extrude 3mm of feed stock
G92 E0 ;zero the extruded length again
G1 F9000
M301 P26.92 I2.54 D71.46 ;set PID tuning for E0
M117 Printing...
;LAYER_COUNT:60
;LAYER:0
M107
M204 S5000
G0 F2400 X42.184 Y74.518 Z0.3
M204 S200
;TYPE:SKIRT
G1 F1200 X42.735 Y74.236 E0.0308
G1 X43.318 Y74.027 E0.06162
G1 X43.923 Y73.896 E0.09243
G1 X44.639 Y73.842 E0.12816
G1 X140.362 Y73.843 E4.89186
G1 X140.98 Y73.883 E4.92268
G1 X141.587 Y74.002 E4.95347
G1 X142.174 Y74.199 E4.98428
G1 X142.731 Y74.469 E5.01508
G1 X143.249 Y74.809 E5.04592
G1 X143.718 Y75.213 E5.07673
G1 X144.131 Y75.674 E5.10753
G1 X144.482 Y76.184 E5.13834
G1 X144.764 Y76.735 E5.16914
G1 X144.973 Y77.318 E5.19996
G1 X145.104 Y77.923 E5.23077
G1 X145.158 Y78.639 E5.2665
G1 X145.157 Y106.362 E6.64615
G1 X145.117 Y106.98 E6.67697
G1 X144.998 Y107.587 E6.70775
G1 X144.801 Y108.175 E6.73861
G1 X144.531 Y108.731 E6.76937
G1 X144.191 Y109.249 E6.80021
G1 X143.787 Y109.718 E6.83101
G1 X143.326 Y110.132 E6.86185
G1 X142.816 Y110.482 E6.89263
G1 X142.265 Y110.764 E6.92343
G1 X141.682 Y110.973 E6.95426
G1 X141.077 Y111.104 E6.98506
G1 X140.361 Y111.158 E7.02079
G1 X44.638 Y111.154 E11.7845
G1 X44.02 Y111.114 E11.81531
G1 X43.412 Y110.995 E11.84615
G1 X42.825 Y110.798 E11.87696
G1 X42.269 Y110.528 E11.90772
G1 X41.751 Y110.188 E11.93855
G1 X41.282 Y109.784 E11.96936
G1 X40.868 Y109.323 E12.0002
G1 X40.518 Y108.813 E12.03098
G1 X40.236 Y108.262 E12.06178
G1 X40.027 Y107.679 E12.0926
G1 X39.896 Y107.074 E12.12341
G1 X39.842 Y106.358 E12.15914
G1 X39.843 Y78.638 E13.53864
G1 X39.883 Y78.02 E13.56946
G1 X40.002 Y77.413 E13.60024
G1 X40.199 Y76.825 E13.6311
G1 X40.469 Y76.269 E13.66186
G1 X40.809 Y75.751 E13.6927
G1 X41.213 Y75.282 E13.7235
G1 X41.674 Y74.868 E13.75434
G1 X42.184 Y74.518 E13.78512
M204 S5000
G0 F2400 X42.564 Y74.761
M204 S200
G1 F1200 X43.104 Y74.518 E13.81459
G1 X43.672 Y74.349 E13.84408
G1 X44.258 Y74.258 E13.87359
G1 X44.639 Y74.241 E13.89257
G1 X140.362 Y74.242 E18.65627
G1 X140.953 Y74.282 E18.68575
G1 X141.534 Y74.401 E18.71527
G1 X142.093 Y74.597 E18.74475
G1 X142.621 Y74.867 E18.77426
G1 X143.108 Y75.205 E18.80376
G1 X143.545 Y75.606 E18.83328
G1 X143.924 Y76.061 E18.86275
G1 X144.239 Y76.564 E18.89228
G1 X144.482 Y77.104 E18.92175
G1 X144.651 Y77.672 E18.95124
G1 X144.742 Y78.258 E18.98075
G1 X144.759 Y78.639 E18.99973
G1 X144.758 Y106.362 E20.37938
G1 X144.718 Y106.954 E20.40891
G1 X144.599 Y107.534 E20.43837
G1 X144.403 Y108.094 E20.4679
G1 X144.133 Y108.621 E20.49737
G1 X143.795 Y109.108 E20.52687
G1 X143.394 Y109.545 E20.55639
G1 X142.939 Y109.924 E20.58586
G1 X142.436 Y110.239 E20.61539
G1 X141.896 Y110.482 E20.64486
G1 X141.328 Y110.651 E20.67435
G1 X140.742 Y110.742 E20.70386
G1 X140.361 Y110.759 E20.72284
G1 X44.638 Y110.755 E25.48654
G1 X44.046 Y110.715 E25.51607
G1 X43.466 Y110.596 E25.54554
G1 X42.906 Y110.4 E25.57506
G1 X42.379 Y110.13 E25.60453
G1 X41.892 Y109.792 E25.63403
G1 X41.455 Y109.391 E25.66355
G1 X41.076 Y108.936 E25.69302
G1 X40.761 Y108.433 E25.72255
G1 X40.518 Y107.893 E25.75202
G1 X40.349 Y107.325 E25.78151
G1 X40.258 Y106.739 E25.81103
G1 X40.241 Y106.358 E25.83001
G1 X40.242 Y78.638 E27.20951
G1 X40.282 Y78.046 E27.23903
G1 X40.401 Y77.466 E27.2685
G1 X40.597 Y76.906 E27.29803
G1 X40.867 Y76.379 E27.32749
G1 X41.205 Y75.892 E27.35699
G1 X41.606 Y75.455 E27.38651
G1 X42.061 Y75.076 E27.41598
G1 X42.564 Y74.761 E27.44552
M204 S5000
G0 F2400 X42.94 Y75.019
M204 S200
G1 F1200 X43.468 Y74.815 E27.47368
G1 X44.018 Y74.688 E27.50178
G1 X44.639 Y74.64 E27.53277
G1 X140.362 Y74.641 E32.29647
G1 X140.926 Y74.681 E32.32461
G1 X141.478 Y74.8 E32.35271
G1 X142.009 Y74.996 E32.38088
G1 X142.506 Y75.264 E32.40898
G1 X142.96 Y75.6 E32.43709
G1 X143.363 Y75.997 E32.46524
G1 X143.705 Y76.447 E32.49337
G1 X143.981 Y76.94 E32.52149
G1 X144.184 Y77.467 E32.54959
G1 X144.311 Y78.018 E32.57773
G1 X144.36 Y78.639 E32.60873
G1 X144.359 Y106.362 E33.98838
G1 X144.319 Y106.926 E34.01652
G1 X144.2 Y107.478 E34.04462
G1 X144.004 Y108.009 E34.07279
G1 X143.736 Y108.506 E34.10089
G1 X143.4 Y108.96 E34.129
G1 X143.003 Y109.363 E34.15715
G1 X142.553 Y109.705 E34.18528
G1 X142.06 Y109.981 E34.21339
G1 X141.532 Y110.185 E34.24156
G1 X140.982 Y110.312 E34.26966
G1 X140.361 Y110.36 E34.30065
G1 X44.638 Y110.356 E39.06435
G1 X44.074 Y110.316 E39.09249
G1 X43.522 Y110.197 E39.12059
G1 X42.991 Y110.001 E39.14876
G1 X42.494 Y109.733 E39.17686
G1 X42.04 Y109.397 E39.20497
G1 X41.637 Y109 E39.23312
G1 X41.295 Y108.55 E39.26125
G1 X41.019 Y108.057 E39.28937
G1 X40.815 Y107.529 E39.31754
G1 X40.688 Y106.979 E39.34563
G1 X40.64 Y106.358 E39.37662
G1 X40.641 Y78.638 E40.75612
G1 X40.681 Y78.074 E40.78426
G1 X40.8 Y77.522 E40.81236
G1 X40.996 Y76.991 E40.84053
G1 X41.264 Y76.494 E40.86863
G1 X41.6 Y76.04 E40.89674
G1 X41.997 Y75.637 E40.92489
G1 X42.447 Y75.295 E40.95302
G1 X42.94 Y75.019 E40.98114
M204 S5000
G0 F2400 X43.312 Y75.293
M204 S200
G1 F1200 X43.823 Y75.133 E41.00778
G1 X44.353 Y75.05 E41.03448
G1 X44.639 Y75.039 E41.04873
G1 X140.362 Y75.04 E45.81243
G1 X140.897 Y75.08 E45.83913
G1 X141.42 Y75.199 E45.86582
G1 X141.919 Y75.394 E45.89248
G1 X142.384 Y75.662 E45.91919
G1 X142.804 Y75.995 E45.94586
G1 X143.169 Y76.387 E45.97252
G1 X143.473 Y76.829 E45.99921
G1 X143.707 Y77.311 E46.02588
G1 X143.867 Y77.823 E46.05257
G1 X143.95 Y78.353 E46.07927
G1 X143.961 Y78.639 E46.09351
G1 X143.96 Y106.362 E47.47316
G1 X143.92 Y106.897 E47.49986
G1 X143.801 Y107.42 E47.52655
G1 X143.606 Y107.919 E47.55322
G1 X143.338 Y108.384 E47.57993
G1 X143.005 Y108.804 E47.6066
G1 X142.613 Y109.17 E47.63329
G1 X142.171 Y109.473 E47.65996
G1 X141.688 Y109.707 E47.68667
G1 X141.177 Y109.867 E47.71331
G1 X140.647 Y109.95 E47.74001
G1 X140.361 Y109.961 E47.75425
G1 X44.638 Y109.957 E52.51796
G1 X44.103 Y109.917 E52.54465
G1 X43.58 Y109.798 E52.57135
G1 X43.081 Y109.603 E52.59801
G1 X42.616 Y109.335 E52.62472
G1 X42.196 Y109.002 E52.65139
G1 X41.83 Y108.61 E52.67808
G1 X41.527 Y108.168 E52.70475
G1 X41.293 Y107.685 E52.73146
G1 X41.133 Y107.174 E52.75811
G1 X41.05 Y106.644 E52.7848
G1 X41.039 Y106.358 E52.79905
G1 X41.04 Y78.638 E54.17855
G1 X41.08 Y78.103 E54.20524
G1 X41.199 Y77.58 E54.23194
G1 X41.394 Y77.081 E54.2586
G1 X41.662 Y76.616 E54.28531
G1 X41.995 Y76.196 E54.31198
G1 X42.387 Y75.83 E54.33867
G1 X42.829 Y75.527 E54.36534
G1 X43.312 Y75.293 E54.39205
M204 S5000
G0 F2400 X43.208 Y75.776
M204 S200
G1 F1200 X43.676 Y75.586 E54.41719
G1 X44.169 Y75.473 E54.44236
G1 X44.639 Y75.438 E54.46581
G1 X140.362 Y75.439 E59.22951
G1 X140.866 Y75.479 E59.25467
G1 X141.357 Y75.598 E59.27981
G1 X141.824 Y75.792 E59.30498
G1 X142.254 Y76.058 E59.33014
G1 X142.637 Y76.388 E59.3553
G1 X142.963 Y76.775 E59.38048
G1 X143.224 Y77.208 E59.40564
G1 X143.414 Y77.676 E59.43078
G1 X143.527 Y78.169 E59.45595
G1 X143.562 Y78.639 E59.47941
G1 X143.561 Y106.362 E60.85905
G1 X143.521 Y106.866 E60.88422
G1 X143.402 Y107.358 E60.90941
G1 X143.207 Y107.824 E60.93455
G1 X142.942 Y108.254 E60.95968
G1 X142.611 Y108.637 E60.98487
G1 X142.225 Y108.963 E61.01002
G1 X141.792 Y109.224 E61.03518
G1 X141.324 Y109.414 E61.06031
G1 X140.831 Y109.527 E61.08548
G1 X140.361 Y109.562 E61.10894
G1 X44.638 Y109.558 E65.87264
G1 X44.134 Y109.518 E65.8978
G1 X43.642 Y109.399 E65.92299
G1 X43.176 Y109.204 E65.94813
G1 X42.746 Y108.939 E65.97327
G1 X42.363 Y108.608 E65.99846
G1 X42.037 Y108.222 E66.0236
G1 X41.776 Y107.789 E66.04876
G1 X41.586 Y107.321 E66.0739
G1 X41.473 Y106.828 E66.09907
G1 X41.438 Y106.358 E66.12252
G1 X41.439 Y78.638 E67.50202
G1 X41.479 Y78.134 E67.52718
G1 X41.598 Y77.642 E67.55237
G1 X41.793 Y77.176 E67.57751
G1 X42.058 Y76.746 E67.60265
G1 X42.389 Y76.363 E67.62784
G1 X42.775 Y76.037 E67.65299
G1 X43.208 Y75.776 E67.67815
M204 S5000
G1 F1500 E65.67815
G0 F2400 X45.156 Y77.972
G0 X45.209 Y78.032
G0 X54.129 Y88.094
G0 X54.182 Y88.154
G0 X54.399 Y88.399
M204 S200
;TYPE:SUPPORT
G1 F1500 E67.67815
G1 F1200 X62.601 Y88.399 E68.08632
G1 X62.601 Y91.601 E68.24567
G1 X62.399 Y91.601 E68.25572
G1 X62.399 Y88.999 E68.38521
G1 X62.001 Y88.601 E68.41323
G1 X54.999 Y88.601 E68.76168
G1 X54.601 Y88.999 E68.78969
G1 X54.601 Y96.001 E69.13815
G1 X54.999 Y96.399 E69.16616
G1 X57.601 Y96.399 E69.29565
G1 X57.601 Y96.601 E69.30571
G1 X54.399 Y96.601 E69.46505
G1 X54.399 Y88.399 E69.87323
M204 S5000
G0 F2400 X62.4 Y88.559
M204 S200
G1 F1200 X62.4 Y88.765 E69.88348
M204 S5000
G1 F1500 E67.88348
G0 F2400 X62.398 Y91.834
G0 X62.398 Y91.914
G0 X62.398 Y94.084
G0 X62.398 Y94.164
G0 X62.399 Y94.753
M204 S200
G1 F1500 E69.88348
G1 F1200 X62.399 Y94.399 E69.9011
G1 X62.601 Y94.399 E69.91115
G1 X62.601 Y96.601 E70.02074
G1 X60.399 Y96.601 E70.13032
G1 X60.399 Y96.399 E70.14037
G1 X60.753 Y96.399 E70.15799
G1 X61.235 Y95.235 E70.22069
G1 X62.399 Y94.753 E70.28338
M204 S5000
G0 F2400 X62.4 Y94.925
M204 S200
G1 F1200 X62.4 Y96.441 E70.35883
M204 S5000
G0 F2400 X62.44 Y96
M204 S200
G1 F1200 X61.091 Y96 E70.42596
M204 S5000
G0 F2400 X61.6 Y96.441
M204 S200
G1 F1200 X61.6 Y95.256 E70.48493
M204 S5000
G0 F2400 X61.736 Y95.2
M204 S200
G1 F1200 X62.44 Y95.2 E70.51997
M204 S5000
G1 F1500 E68.51997
G0 F2400 X62.835 Y95.211
G0 X62.915 Y95.214
G0 X72.954 Y95.521
G0 X73.034 Y95.523
G0 X77.964 Y95.674
G0 X78.044 Y95.677
G0 X88.083 Y95.984
G0 X88.163 Y95.987
G0 X88.601 Y96.001
M204 S200
G1 F1500 E70.51997
G1 F1200 X88.999 Y96.399 E70.54798
G1 X91.601 Y96.399 E70.67747
G1 X91.601 Y96.601 E70.68752
G1 X88.399 Y96.601 E70.84687
G1 X88.399 Y88.399 E71.25505
G1 X96.601 Y88.399 E71.66322
G1 X96.601 Y91.601 E71.82257
G1 X96.399 Y91.601 E71.83262
G1 X96.399 Y88.999 E71.96211
G1 X96.001 Y88.601 E71.99013
G1 X88.999 Y88.601 E72.33858
G1 X88.601 Y88.999 E72.36659
G1 X88.601 Y96.001 E72.71505
M204 S5000
G1 F1500 E70.71505
G0 F2400 X89.343 Y96.161
G0 X91.847 Y96.153
G0 X91.915 Y96.214
G0 X94.083 Y96.354
G0 X94.163 Y96.36
G0 X94.753 Y96.399
M204 S200
G1 F1500 E72.71505
G1 F1200 X95.235 Y95.235 E72.77775
G1 X96.399 Y94.753 E72.84045
G1 X96.399 Y94.399 E72.85806
G1 X96.601 Y94.399 E72.86812
G1 X96.601 Y96.601 E72.9777
G1 X94.399 Y96.601 E73.08728
G1 X94.399 Y96.399 E73.09734
G1 X94.753 Y96.399 E73.11495
M204 S5000
G0 F2400 X95.2 Y96.441
M204 S200
G1 F1200 X95.2 Y95.736 E73.15004
M204 S5000
G0 F2400 X95.092 Y96
M204 S200
G1 F1200 X96.441 Y96 E73.21717
M204 S5000
G0 F2400 X96 Y96.441
M204 S200
G1 F1200 X96 Y95.091 E73.28435
M204 S5000
G0 F2400 X95.737 Y95.2
M204 S200
G1 F1200 X96.441 Y95.2 E73.31939
M204 S5000
G1 F1500 E71.31939
G0 F2400 X96.835 Y95.211
G0 X96.915 Y95.213
G0 X106.954 Y95.521
G0 X107.034 Y95.523
G0 X111.964 Y95.674
G0 X112.044 Y95.676
G0 X122.083 Y95.984
G0 X122.163 Y95.986
G0 X122.601 Y96.001
M204 S200
G1 F1500 E73.31939
G1 F1200 X122.999 Y96.399 E73.3474
G1 X125.601 Y96.399 E73.47689
G1 X125.601 Y96.601 E73.48694
G1 X122.399 Y96.601 E73.64629
G1 X122.399 Y88.399 E74.05447
G1 X130.601 Y88.399 E74.46264
G1 X130.601 Y91.601 E74.62199
G1 X130.399 Y91.601 E74.63205
G1 X130.399 Y88.999 E74.76154
G1 X130.001 Y88.601 E74.78955
G1 X122.999 Y88.601 E75.138
G1 X122.601 Y88.999 E75.16602
G1 X122.601 Y96.001 E75.51447
M204 S5000
G1 F1500 E73.51447
G0 F2400 X122.839 Y89.343
G0 X123.343 Y88.839
G0 X130.4 Y88.765
M204 S200
G1 F1500 E75.51447
G1 F1200 X130.4 Y88.559 E75.52472
M204 S5000
G1 F1500 E73.52472
G0 F2400 X130.399 Y91.834
G0 X130.399 Y91.914
G0 X130.398 Y94.084
G0 X130.398 Y94.164
G0 X130.399 Y94.753
M204 S200
G1 F1500 E75.52472
G1 F1200 X130.399 Y94.399 E75.54234
G1 X130.601 Y94.399 E75.55239
G1 X130.601 Y96.601 E75.66198
G1 X128.399 Y96.601 E75.77156
G1 X128.399 Y96.399 E75.78161
G1 X128.753 Y96.399 E75.79923
G1 X129.235 Y95.235 E75.86193
G1 X130.399 Y94.753 E75.92463
M204 S5000
G0 F2400 X130.4 Y94.925
M204 S200
G1 F1200 X130.4 Y96.441 E76.00007
M204 S5000
G0 F2400 X130.441 Y96
M204 S200
G1 F1200 X129.091 Y96 E76.06725
M204 S5000
G0 F2400 X129.6 Y96.441
M204 S200
G1 F1200 X129.6 Y95.256 E76.12622
M204 S5000
G0 F2400 X129.735 Y95.2
M204 S200
G1 F1200 X130.441 Y95.2 E76.16136
M204 S5000
G1 F1500 E74.16136
G0 F2400 X128.993 Y95.2
G0 X128.913 Y95.2
G0 X122.915 Y95.2
G0 X122.839 Y95.657
G0 X122.153 Y96.847
G0 X122.085 Y95.2
G0 X112.044 Y95.2
G0 X111.964 Y95.2
G0 X107.032 Y78.472
G0 X106.528 Y77.968
G0 X78.472 Y77.968
G0 X77.968 Y78.472
G0 X73.036 Y95.2
G0 X71.754 Y95.2
G0 X71.704 Y105.704
G0 X71.774 Y105.774
M204 S200
;TYPE:WALL-INNER
G1 F1500 E76.16136
G1 F1200 X45.226 Y105.774 E77.48253
G1 X45.226 Y79.226 E78.80371
G1 X71.774 Y79.226 E80.12488
G1 X71.774 Y105.774 E81.44605
M204 S5000
G0 F2400 X71.704 Y105.704
G0 X64.167 Y98.167
G0 X64.097 Y98.097
M204 S200
G1 F1200 X64.097 Y86.903 E82.00313
G1 X52.903 Y86.903 E82.5602
G1 X52.903 Y98.097 E83.11728
G1 X64.097 Y98.097 E83.67435
M204 S5000
G1 F1500 E81.67435
G0 F2400 X64.167 Y98.167
G0 X58.579 Y98.097
G0 X57.847 Y96.847
G0 X57.847 Y96.153
G0 X58.579 Y94.883
G0 X58.579 Y94.803
G0 X58.579 Y94.903
M204 S200
G1 F1500 E83.67435
G1 F1200 X58.578 Y94.903 E83.6744
G1 X56.097 Y94.903 E83.79787
G1 X56.097 Y90.097 E84.03704
G1 X60.903 Y90.097 E84.27622
G1 X60.903 Y92.578 E84.39969
G1 X60.903 Y92.579 E84.39974
G1 X60.903 Y93.059 E84.42362
G1 X60.563 Y92.719 E84.4365
G1 X59.025 Y91.181 E84.54474
G1 X57.181 Y93.025 E84.67452
G1 X58.719 Y94.563 E84.78276
G1 X59.059 Y94.903 E84.80669
G1 X58.579 Y94.903 E84.81954
M204 S5000
G0 F2400 X58.699 Y95.301
M204 S200
;TYPE:WALL-OUTER
G1 F1200 X55.699 Y95.301 E84.96884
G1 X55.699 Y89.699 E85.24763
G1 X61.301 Y89.699 E85.52641
G1 X61.301 Y92.699 E85.67571
G1 X63.699 Y92.699 E85.79505
G1 X63.699 Y87.301 E86.06368
G1 X53.301 Y87.301 E86.58114
G1 X53.301 Y97.699 E87.0986
G1 X58.699 Y97.699 E87.36724
G1 X58.699 Y95.301 E87.48657
M204 S5000
G0 F2400 X58.499 Y95.301
G0 X58.499 Y94.803
G0 X58.967 Y94.865
G0 X59.301 Y95.301
M204 S200
G1 F1200 X59.301 Y97.699 E87.60591
G1 X63.699 Y97.699 E87.82478
G1 X63.699 Y93.301 E88.04365
G1 X61.301 Y93.301 E88.16299
G1 X61.301 Y93.538 E88.17478
G1 X61.301 Y93.539 E88.17483
G1 X61.301 Y94.019 E88.19872
G1 X60.961 Y93.679 E88.21159
G1 X59.025 Y91.744 E88.34781
G1 X57.744 Y93.025 E88.43797
G1 X59.679 Y94.961 E88.57419
G1 X60.019 Y95.301 E88.59811
G1 X59.539 Y95.301 E88.61097
G1 X59.538 Y95.301 E88.61102
G1 X59.301 Y95.301 E88.62281
M204 S5000
G0 F2400 X59.301 Y95.501
G1 F1500 E86.62281
G0 F2400 X58.967 Y94.865
G0 X59.041 Y94.896
G0 X59.041 Y98.097
G0 X71.704 Y105.704
G0 X72.172 Y106.172
M204 S200
G1 F1500 E88.62281
G1 F1200 X44.828 Y106.172 E89.9836
G1 X44.828 Y78.828 E91.34438
G1 X72.172 Y78.828 E92.70517
G1 X72.172 Y106.172 E94.06596
M204 S5000
G0 F2400 X71.972 Y106.172
G0 X71.704 Y105.704
G0 X45.78 Y105.592
M204 S200
;TYPE:SKIN
G1 F1200 X45.406 Y105.218 E94.09228
M204 S5000
G0 F2400 X45.406 Y104.654
M204 S200
G1 F1200 X46.344 Y105.592 E94.1583
G1 X46.414 Y105.662
M204 S5000
G0 F2400 X46.908 Y105.592
M204 S200
G1 F1200 X45.406 Y104.09 E94.26401
G1 X45.336 Y104.02
M204 S5000
G0 F2400 X45.406 Y103.526
M204 S200
G1 F1200 X47.473 Y105.592 E94.40944
G1 X47.543 Y105.661
M204 S5000
G0 F2400 X48.037 Y105.592
M204 S200
G1 F1200 X45.406 Y102.961 E94.59461
G1 X45.336 Y102.891
M204 S5000
G0 F2400 X45.406 Y102.397
M204 S200
G1 F1200 X48.601 Y105.592 E94.81947
G1 X48.671 Y105.662
M204 S5000
G0 F2400 X49.165 Y105.592
M204 S200
G1 F1200 X45.406 Y101.833 E95.08403
G1 X45.336 Y101.763
M204 S5000
G0 F2400 X45.406 Y101.269
M204 S200
G1 F1200 X49.73 Y105.592 E95.38831
G1 X49.8 Y105.661
M204 S5000
G0 F2400 X50.294 Y105.592
M204 S200
G1 F1200 X45.406 Y100.704 E95.73232
G1 X45.336 Y100.634
M204 S5000
G0 F2400 X45.406 Y100.14
M204 S200
G1 F1200 X50.858 Y105.592 E96.11603
G1 X50.928 Y105.662
M204 S5000
G0 F2400 X51.422 Y105.592
M204 S200
G1 F1200 X45.406 Y99.576 E96.53943
G1 X45.336 Y99.506
M204 S5000
G0 F2400 X45.406 Y99.011
M204 S200
G1 F1200 X51.987 Y105.592 E97.00259
G1 X52.057 Y105.662
M204 S5000
G0 F2400 X52.551 Y105.592
M204 S200
G1 F1200 X45.406 Y98.447 E97.50545
G1 X45.336 Y98.377
