;FLAVOR:Marlin
;TIME:3320
;Filament used: 1.80032m
;Layer height: 0.2
;Generated with Cura_SteamEngine 2.7.0
M190 S60
M104 S220
M109 S220
G21 ;metric values
G90 ;absolute positioning
M82 ;set extruder to absolute mode
M107 ;start with the fan off
G92 E0 ;zero the extruded length
G1 F200 E3 ;extrude 3mm of feed stock
G92 E0 ;zero the extruded length again
G1 F9000
M301 P26.92 I2.54 D71.46 ;set PID tuning for E0
M117 Printing...
;LAYER_COUNT:70
;LAYER:0
M107
M204 S5000
G0 F2400 X59.843 Y88.115 Z0.3
G0 X60.251 Y87.901
M204 S200
;TYPE:SKIRT
G1 F1200 X65.724 Y85.35 E0.3005
G1 X70.823 Y82.86 E0.58289
G1 X75.503 Y80.233 E0.84998
G1 X81.639 Y76.241 E1.21428
G1 X82.21 Y75.922 E1.24683
G1 X86.458 Y73.921 E1.48051
G1 X87.034 Y73.694 E1.51132
G1 X87.635 Y73.543 E1.54216
G1 X88.503 Y73.464 E1.58553
G1 X96.498 Y73.466 E1.98341
G1 X97.116 Y73.506 E2.01423
G1 X97.723 Y73.625 E2.04501
G1 X98.538 Y73.922 E2.08818
G1 X102.787 Y75.92 E2.32184
G1 X103.442 Y76.293 E2.35936
G1 X106.27 Y78.215 E2.52952
G1 X110.873 Y81.047 E2.79847
G1 X115.622 Y83.612 E3.06708
G1 X124.781 Y87.917 E3.57072
G1 X125.323 Y88.215 E3.6015
G1 X125.822 Y88.582 E3.63233
G1 X126.27 Y89.009 E3.66313
G1 X126.659 Y89.491 E3.69395
G1 X126.983 Y90.019 E3.72478
G1 X127.236 Y90.584 E3.75559
G1 X127.414 Y91.177 E3.7864
G1 X127.514 Y91.788 E3.81721
G1 X127.537 Y92.259 E3.84068
G1 X127.536 Y94.746 E3.96444
G1 X127.496 Y95.364 E3.99526
G1 X127.376 Y95.971 E4.02606
G1 X127.18 Y96.558 E4.05685
G1 X126.909 Y97.115 E4.08768
G1 X126.569 Y97.632 E4.11847
G1 X126.165 Y98.101 E4.14928
G1 X125.835 Y98.408 E4.17171
G1 X120.628 Y102.806 E4.5109
G1 X116.727 Y106.535 E4.77947
G1 X114.901 Y108.435 E4.91061
G1 X111.317 Y112.497 E5.18019
G1 X107.997 Y116.721 E5.44756
G1 X104.68 Y121.481 E5.73629
G1 X104.294 Y121.965 E5.7671
G1 X103.849 Y122.395 E5.79789
G1 X103.352 Y122.764 E5.8287
G1 X102.812 Y123.067 E5.85951
G1 X102.237 Y123.297 E5.89033
G1 X101.638 Y123.451 E5.92111
G1 X100.745 Y123.535 E5.96575
G1 X84.256 Y123.536 E6.78633
G1 X83.638 Y123.496 E6.81715
G1 X83.031 Y123.377 E6.84793
G1 X82.444 Y123.18 E6.87874
G1 X81.887 Y122.91 E6.90955
G1 X81.37 Y122.57 E6.94034
G1 X80.9 Y122.166 E6.97119
G1 X80.34 Y121.509 E7.01415
G1 X76.244 Y115.715 E7.36726
G1 X72.875 Y111.541 E7.63421
G1 X69.26 Y107.546 E7.90233
G1 X65.433 Y103.771 E8.16985
G1 X61.348 Y100.173 E8.44075
G1 X59.251 Y98.479 E8.57491
G1 X58.795 Y98.06 E8.60573
G1 X58.397 Y97.585 E8.63656
G1 X58.064 Y97.064 E8.66734
G1 X57.801 Y96.503 E8.69817
G1 X57.612 Y95.914 E8.72895
G1 X57.5 Y95.305 E8.75977
G1 X57.468 Y94.723 E8.78878
G1 X57.481 Y92.223 E8.91319
G1 X57.524 Y91.605 E8.94402
G1 X57.647 Y90.999 E8.97479
G1 X57.846 Y90.413 E9.00559
G1 X58.119 Y89.857 E9.03642
G1 X58.462 Y89.341 E9.06725
G1 X58.868 Y88.874 E9.09805
G1 X59.331 Y88.463 E9.12886
G1 X59.843 Y88.115 E9.15967
G1 X60.251 Y87.901 E9.18259
M204 S5000
G0 F2400 X60.419 Y88.263
M204 S200
G1 F1200 X65.911 Y85.703 E9.48414
G1 X71.001 Y83.217 E9.76604
G1 X75.701 Y80.579 E10.03427
G1 X81.856 Y76.575 E10.39968
G1 X82.38 Y76.283 E10.42953
G1 X86.628 Y74.282 E10.66322
G1 X87.18 Y74.066 E10.69272
G1 X87.756 Y73.927 E10.7222
G1 X88.503 Y73.863 E10.75952
G1 X96.498 Y73.865 E11.15739
G1 X97.089 Y73.905 E11.18687
G1 X97.67 Y74.024 E11.21638
G1 X98.368 Y74.283 E11.25343
G1 X102.617 Y76.281 E11.4871
G1 X103.217 Y76.623 E11.52147
G1 X106.047 Y78.547 E11.69177
G1 X110.674 Y81.394 E11.96213
G1 X115.44 Y83.968 E12.23169
G1 X124.611 Y88.278 E12.73598
G1 X125.13 Y88.565 E12.7655
G1 X125.604 Y88.92 E12.79497
G1 X126.027 Y89.336 E12.82449
G1 X126.39 Y89.804 E12.85397
G1 X126.687 Y90.317 E12.88347
G1 X126.912 Y90.866 E12.91299
G1 X127.061 Y91.439 E12.94246
G1 X127.138 Y92.259 E12.98345
G1 X127.137 Y94.746 E13.10721
G1 X127.097 Y95.337 E13.13669
G1 X126.977 Y95.918 E13.16621
G1 X126.781 Y96.477 E13.19569
G1 X126.511 Y97.005 E13.22521
G1 X126.173 Y97.492 E13.25471
G1 X125.577 Y98.103 E13.29718
G1 X120.368 Y102.503 E13.63652
G1 X116.445 Y106.253 E13.90659
G1 X114.608 Y108.164 E14.03851
G1 X111.012 Y112.24 E14.30901
G1 X107.677 Y116.482 E14.57755
G1 X104.353 Y121.253 E14.86692
G1 X103.982 Y121.715 E14.89641
G1 X103.552 Y122.123 E14.92591
G1 X103.071 Y122.47 E14.95542
G1 X102.548 Y122.749 E14.98492
G1 X101.993 Y122.955 E15.01438
G1 X101.414 Y123.085 E15.04391
G1 X100.745 Y123.136 E15.0773
G1 X84.256 Y123.137 E15.89789
G1 X83.665 Y123.097 E15.92737
G1 X83.084 Y122.978 E15.95688
G1 X82.525 Y122.782 E15.98636
G1 X81.997 Y122.512 E16.01587
G1 X81.51 Y122.174 E16.04537
G1 X81.073 Y121.774 E16.07486
G1 X80.666 Y121.278 E16.10679
G1 X76.574 Y115.491 E16.4595
G1 X73.166 Y111.268 E16.72956
G1 X69.554 Y107.276 E16.99748
G1 X65.705 Y103.478 E17.26658
G1 X61.616 Y99.877 E17.53773
G1 X59.501 Y98.169 E17.67302
G1 X59.066 Y97.766 E17.70253
G1 X58.69 Y97.309 E17.73198
G1 X58.378 Y96.805 E17.76148
G1 X58.136 Y96.263 E17.79102
G1 X57.97 Y95.694 E17.82051
G1 X57.882 Y95.108 E17.85
G1 X57.867 Y94.725 E17.86908
G1 X57.88 Y92.225 E17.99349
G1 X57.923 Y91.634 E18.02298
G1 X58.045 Y91.054 E18.05248
G1 X58.244 Y90.496 E18.08196
G1 X58.517 Y89.969 E18.1115
G1 X58.857 Y89.484 E18.14097
G1 X59.26 Y89.049 E18.17048
G1 X59.718 Y88.672 E18.2
G1 X60.419 Y88.263 E18.24039
M204 S5000
G0 F2400 X60.588 Y88.624
M204 S200
G1 F1200 X66.077 Y86.066 E18.54176
G1 X71.201 Y83.564 E18.82554
G1 X75.912 Y80.918 E19.09443
G1 X82.074 Y76.91 E19.46025
G1 X82.55 Y76.644 E19.48738
G1 X86.798 Y74.643 E19.72107
G1 X87.325 Y74.439 E19.74919
G1 X87.876 Y74.311 E19.77734
G1 X88.503 Y74.262 E19.80864
G1 X96.498 Y74.264 E20.20651
G1 X97.062 Y74.304 E20.23465
G1 X97.614 Y74.423 E20.26275
G1 X98.198 Y74.644 E20.29383
G1 X102.447 Y76.642 E20.52749
G1 X102.993 Y76.953 E20.55876
G1 X105.835 Y78.885 E20.72978
G1 X110.468 Y81.735 E21.00048
G1 X115.26 Y84.323 E21.27151
G1 X124.442 Y88.639 E21.77642
G1 X124.935 Y88.915 E21.80454
G1 X125.384 Y89.257 E21.83263
G1 X125.781 Y89.66 E21.86078
G1 X126.117 Y90.115 E21.88893
G1 X126.385 Y90.612 E21.91703
G1 X126.581 Y91.143 E21.94519
G1 X126.699 Y91.695 E21.97329
G1 X126.739 Y92.259 E22.00142
G1 X126.738 Y94.746 E22.12519
G1 X126.698 Y95.309 E22.15328
G1 X126.579 Y95.862 E22.18143
G1 X126.383 Y96.392 E22.20955
G1 X126.114 Y96.889 E22.23767
G1 X125.778 Y97.343 E22.26578
G1 X125.32 Y97.798 E22.29791
G1 X120.1 Y102.207 E22.63795
G1 X116.165 Y105.969 E22.90887
G1 X114.315 Y107.894 E23.04174
G1 X110.705 Y111.985 E23.31326
G1 X107.35 Y116.252 E23.58339
G1 X104.025 Y121.025 E23.87287
G1 X103.67 Y121.464 E23.90097
G1 X103.257 Y121.85 E23.9291
G1 X102.793 Y122.173 E23.95724
G1 X102.288 Y122.427 E23.98537
G1 X101.753 Y122.608 E24.01348
G1 X101.197 Y122.711 E24.04162
G1 X100.745 Y122.737 E24.06415
G1 X84.256 Y122.738 E24.88473
G1 X83.692 Y122.698 E24.91287
G1 X83.14 Y122.579 E24.94097
G1 X82.61 Y122.383 E24.96909
G1 X82.112 Y122.115 E24.99724
G1 X81.658 Y121.779 E25.02534
G1 X81.255 Y121.382 E25.0535
G1 X80.992 Y121.048 E25.07465
G1 X76.887 Y115.241 E25.42856
G1 X73.482 Y111.023 E25.69833
G1 X69.839 Y106.997 E25.96853
G1 X65.975 Y103.185 E26.23865
G1 X61.861 Y99.562 E26.51146
G1 X59.752 Y97.858 E26.64639
G1 X59.339 Y97.473 E26.67449
G1 X58.984 Y97.033 E26.70263
G1 X58.694 Y96.548 E26.73075
G1 X58.476 Y96.026 E26.7589
G1 X58.333 Y95.48 E26.78699
G1 X58.266 Y94.727 E26.82461
G1 X58.279 Y92.227 E26.94903
G1 X58.322 Y91.664 E26.97713
G1 X58.444 Y91.112 E27.00526
G1 X58.642 Y90.583 E27.03337
G1 X58.914 Y90.087 E27.06152
G1 X59.252 Y89.634 E27.08965
G1 X59.651 Y89.234 E27.11776
G1 X60.102 Y88.893 E27.1459
G1 X60.588 Y88.624 E27.17355
M204 S5000
G0 F2400 X60.756 Y88.986
M204 S200
G1 F1200 X66.264 Y86.419 E27.47596
G1 X71.379 Y83.921 E27.75924
G1 X76.118 Y81.26 E28.02972
G1 X82.292 Y77.244 E28.39625
G1 X82.72 Y77.005 E28.42065
G1 X86.968 Y75.004 E28.65433
G1 X87.469 Y74.812 E28.68103
G1 X87.993 Y74.697 E28.70773
G1 X88.503 Y74.661 E28.73317
G1 X96.498 Y74.663 E29.13105
G1 X97.033 Y74.703 E29.15775
G1 X97.555 Y74.822 E29.18439
G1 X98.028 Y75.005 E29.20963
G1 X102.277 Y77.003 E29.4433
G1 X102.769 Y77.283 E29.47147
G1 X105.623 Y79.223 E29.6432
G1 X110.269 Y82.081 E29.91466
G1 X115.078 Y84.679 E30.18667
G1 X124.272 Y89 E30.69223
G1 X124.739 Y89.263 E30.7189
G1 X125.161 Y89.594 E30.74559
G1 X125.53 Y89.983 E30.77227
G1 X125.837 Y90.422 E30.79893
G1 X126.075 Y90.903 E30.82564
G1 X126.24 Y91.413 E30.85232
G1 X126.326 Y91.942 E30.87899
G1 X126.34 Y92.258 E30.89473
G1 X126.339 Y94.745 E31.0185
G1 X126.299 Y95.28 E31.0452
G1 X126.18 Y95.803 E31.07189
G1 X125.984 Y96.302 E31.09857
G1 X125.717 Y96.767 E31.12525
G1 X125.383 Y97.187 E31.15196
G1 X125.062 Y97.493 E31.17403
G1 X119.84 Y101.904 E31.51421
G1 X115.883 Y105.687 E31.78664
G1 X114.021 Y107.623 E31.92032
G1 X110.391 Y111.738 E32.19339
G1 X107.032 Y116.01 E32.46384
G1 X103.698 Y120.796 E32.75411
G1 X103.359 Y121.212 E32.78082
G1 X102.963 Y121.573 E32.80748
G1 X102.517 Y121.871 E32.83418
G1 X102.032 Y122.1 E32.86087
G1 X101.519 Y122.254 E32.88753
G1 X100.745 Y122.338 E32.92627
G1 X84.256 Y122.339 E33.74685
G1 X83.721 Y122.299 E33.77355
G1 X83.199 Y122.18 E33.8002
G1 X82.699 Y121.985 E33.8269
G1 X82.234 Y121.718 E33.85359
G1 X81.814 Y121.384 E33.88029
G1 X81.317 Y120.818 E33.91778
G1 X77.198 Y114.992 E34.27286
G1 X73.788 Y110.767 E34.54305
G1 X70.125 Y106.719 E34.81474
G1 X66.246 Y102.892 E35.08591
G1 X62.119 Y99.257 E35.3596
G1 X60.003 Y97.548 E35.49496
G1 X59.612 Y97.181 E35.52165
G1 X59.28 Y96.76 E35.54833
G1 X59.014 Y96.294 E35.57504
G1 X58.82 Y95.794 E35.60173
G1 X58.703 Y95.271 E35.6284
G1 X58.665 Y94.729 E35.65544
G1 X58.678 Y92.229 E35.77985
G1 X58.721 Y91.695 E35.80651
G1 X58.842 Y91.173 E35.83318
G1 X59.04 Y90.674 E35.85989
G1 X59.31 Y90.211 E35.88657
G1 X59.646 Y89.793 E35.91326
G1 X60.04 Y89.429 E35.93995
G1 X60.483 Y89.128 E35.9666
G1 X60.756 Y88.986 E35.98192
M204 S5000
G0 F2400 X60.925 Y89.348
M204 S200
G1 F1200 X66.395 Y86.798 E36.28226
G1 X71.571 Y84.271 E36.56891
G1 X76.328 Y81.6 E36.84041
G1 X82.509 Y77.579 E37.20737
G1 X82.89 Y77.366 E37.22909
G1 X87.138 Y75.365 E37.46277
G1 X87.611 Y75.186 E37.48794
G1 X88.107 Y75.085 E37.51313
G1 X88.503 Y75.06 E37.53288
G1 X96.498 Y75.062 E37.93075
G1 X97.002 Y75.102 E37.95591
G1 X97.493 Y75.221 E37.98106
G1 X97.859 Y75.366 E38.00065
G1 X102.108 Y77.364 E38.23431
G1 X102.545 Y77.613 E38.25934
G1 X105.411 Y79.561 E38.4318
G1 X110.062 Y82.423 E38.70357
G1 X114.905 Y85.038 E38.97747
G1 X124.102 Y89.361 E39.48321
G1 X124.541 Y89.611 E39.50835
G1 X124.936 Y89.928 E39.53355
G1 X125.275 Y90.303 E39.55871
G1 X125.551 Y90.726 E39.58385
G1 X125.757 Y91.188 E39.60902
G1 X125.888 Y91.676 E39.63416
G1 X125.941 Y92.258 E39.66325
G1 X125.94 Y94.745 E39.78701
G1 X125.9 Y95.249 E39.81218
G1 X125.781 Y95.741 E39.83737
G1 X125.586 Y96.207 E39.86251
G1 X125.32 Y96.637 E39.88767
G1 X124.805 Y97.189 E39.92524
G1 X119.555 Y101.624 E40.26725
G1 X115.601 Y105.403 E40.53944
G1 X113.727 Y107.353 E40.67403
G1 X110.102 Y111.462 E40.94672
G1 X106.706 Y115.781 E41.22014
G1 X103.371 Y120.568 E41.51049
G1 X103.05 Y120.959 E41.53566
G1 X102.671 Y121.294 E41.56083
G1 X102.245 Y121.566 E41.58599
G1 X101.781 Y121.767 E41.61115
G1 X101.291 Y121.892 E41.63632
G1 X100.745 Y121.939 E41.66359
G1 X84.256 Y121.94 E42.48417
G1 X83.752 Y121.9 E42.50933
G1 X83.261 Y121.781 E42.53448
G1 X82.794 Y121.587 E42.55964
G1 X82.364 Y121.321 E42.5848
G1 X81.981 Y120.991 E42.60996
G1 X81.643 Y120.587 E42.63618
G1 X77.521 Y114.758 E42.99146
G1 X74.089 Y110.504 E43.26347
G1 X70.41 Y106.439 E43.53632
G1 X66.518 Y102.599 E43.80841
G1 X62.4 Y98.972 E44.0815
G1 X60.253 Y97.238 E44.21884
G1 X59.886 Y96.89 E44.24401
G1 X59.579 Y96.489 E44.26914
G1 X59.338 Y96.044 E44.29433
G1 X59.171 Y95.567 E44.31948
G1 X59.08 Y95.07 E44.34462
G1 X59.064 Y94.731 E44.36151
G1 X59.077 Y92.231 E44.48593
G1 X59.12 Y91.728 E44.51105
G1 X59.241 Y91.237 E44.53622
G1 X59.438 Y90.771 E44.5614
G1 X59.706 Y90.343 E44.58653
G1 X60.038 Y89.961 E44.61171
G1 X60.426 Y89.637 E44.63687
G1 X60.925 Y89.348 E44.66557
M204 S5000
G1 F1500 E42.66557
G0 F2400 X62.861 Y91.585
G0 X62.861 Y92.861
G0 X62.917 Y92.917
G0 X62.847 Y92.847
M204 S200
;TYPE:WALL-INNER
G1 F1500 E44.66557
G1 F1200 X67.097 Y92.847 E44.87707
G1 X67.097 Y90.847 E44.9766
G1 X73.903 Y90.847 E45.3153
G1 X73.903 Y92.847 E45.41483
G1 X78.153 Y92.847 E45.62634
G1 X78.153 Y94.153 E45.69133
G1 X62.847 Y94.153 E46.45304
G1 X62.847 Y92.847 E46.51804
M204 S5000
G0 F2400 X62.917 Y92.917
G0 X67.125 Y92.875
G0 X67.197 Y92.449
G0 X66.699 Y92.449
M204 S200
;TYPE:WALL-OUTER
G1 F1200 X66.699 Y90.449 E46.61757
G1 X74.301 Y90.449 E46.99588
G1 X74.301 Y92.449 E47.09542
G1 X78.551 Y92.449 E47.30692
G1 X78.551 Y94.551 E47.41153
G1 X62.449 Y94.551 E48.21285
G1 X62.449 Y92.449 E48.31746
G1 X66.699 Y92.449 E48.52896
M204 S5000
G0 F2400 X66.699 Y92.249
G0 X67.197 Y92.249
G0 X67.125 Y92.875
G0 X63.501 Y93.972
M204 S200
;TYPE:SKIN
G1 F1200 X63.026 Y93.497 E48.56239
M204 S5000
G0 F2400 X63.119 Y93.026
M204 S200
G1 F1200 X64.065 Y93.972 E48.62897
G1 X64.135 Y94.042
M204 S5000
G0 F2400 X64.63 Y93.972
M204 S200
G1 F1200 X63.684 Y93.026 E48.69555
G1 X63.614 Y92.956
M204 S5000
G0 F2400 X64.248 Y93.026
M204 S200
G1 F1200 X65.194 Y93.972 E48.76213
G1 X65.264 Y94.042
M204 S5000
G0 F2400 X65.758 Y93.972
M204 S200
G1 F1200 X64.812 Y93.026 E48.8287
G1 X64.742 Y92.956
M204 S5000
G0 F2400 X65.376 Y93.026
M204 S200
G1 F1200 X66.323 Y93.972 E48.89532
G1 X66.393 Y94.041
M204 S5000
G0 F2400 X66.887 Y93.972
M204 S200
G1 F1200 X65.941 Y93.026 E48.9619
G1 X65.871 Y92.956
M204 S5000
G0 F2400 X66.505 Y93.026
M204 S200
G1 F1200 X67.451 Y93.972 E49.02847
G1 X67.521 Y94.042
M204 S5000
G0 F2400 X68.015 Y93.972
M204 S200
G1 F1200 X67.069 Y93.026 E49.09505
G1 X66.999 Y92.956
M204 S5000
G0 F2400 X67.276 Y92.669
M204 S200
G1 F1200 X68.58 Y93.972 E49.18679
G1 X68.65 Y94.041
M204 S5000
G0 F2400 X69.144 Y93.972
M204 S200
G1 F1200 X67.276 Y92.104 E49.31826
G1 X67.206 Y92.034
M204 S5000
G0 F2400 X67.276 Y91.54
M204 S200
G1 F1200 X69.708 Y93.972 E49.48942
G1 X69.778 Y94.042
M204 S5000
G0 F2400 X70.272 Y93.972
M204 S200
G1 F1200 X67.326 Y91.025 E49.69679
G1 X67.256 Y90.955
M204 S5000
G0 F2400 X67.89 Y91.025
M204 S200
G1 F1200 X70.837 Y93.972 E49.9042
G1 X70.907 Y94.042
M204 S5000
G0 F2400 X71.401 Y93.972
M204 S200
G1 F1200 X68.455 Y91.025 E50.11157
G1 X68.385 Y90.955
M204 S5000
G0 F2400 X69.019 Y91.025
M204 S200
G1 F1200 X71.965 Y93.972 E50.31894
G1 X72.035 Y94.042
M204 S5000
G0 F2400 X72.53 Y93.972
M204 S200
G1 F1200 X69.583 Y91.025 E50.52635
G1 X69.513 Y90.955
M204 S5000
G0 F2400 X70.147 Y91.025
M204 S200
G1 F1200 X73.094 Y93.972 E50.73376
G1 X73.164 Y94.042
M204 S5000
G0 F2400 X73.658 Y93.972
M204 S200
G1 F1200 X70.712 Y91.025 E50.94113
G1 X70.642 Y90.955
M204 S5000
G0 F2400 X71.276 Y91.025
M204 S200
G1 F1200 X74.222 Y93.972 E51.1485
G1 X74.292 Y94.042
M204 S5000
G0 F2400 X74.787 Y93.972
M204 S200
G1 F1200 X73.841 Y93.026 E51.21508
G1 X73.771 Y92.956
M204 S5000
G0 F2400 X73.723 Y92.908
M204 S200
G1 F1200 X71.84 Y91.025 E51.3476
G1 X71.77 Y90.955
M204 S5000
G0 F2400 X72.404 Y91.025
M204 S200
G1 F1200 X73.723 Y92.344 E51.44043
G1 X73.793 Y92.414
M204 S5000
G0 F2400 X73.723 Y91.78
M204 S200
G1 F1200 X72.969 Y91.025 E51.49353
G1 X72.9 Y90.955
M204 S5000
G0 F2400 X73.533 Y91.025
M204 S200
G1 F1200 X73.723 Y91.216 E51.50694
M204 S5000
G0 F2400 X73.875 Y92.875
G0 X74.405 Y93.026
M204 S200
G1 F1200 X75.351 Y93.972 E51.57352
G1 X75.421 Y94.042
M204 S5000
G0 F2400 X75.915 Y93.972
M204 S200
G1 F1200 X74.969 Y93.026 E51.6401
G1 X74.899 Y92.956
M204 S5000
G0 F2400 X75.533 Y93.026
M204 S200
G1 F1200 X76.479 Y93.972 E51.70668
G1 X76.549 Y94.042
M204 S5000
G0 F2400 X77.044 Y93.972
M204 S200
G1 F1200 X76.098 Y93.026 E51.77326
G1 X76.028 Y92.956
M204 S5000
G0 F2400 X76.662 Y93.026
M204 S200
G1 F1200 X77.608 Y93.972 E51.83983
G1 X77.678 Y94.042
M204 S5000
G0 F2400 X77.973 Y93.772
M204 S200
G1 F1200 X77.226 Y93.026 E51.89237
G1 X77.156 Y92.956
M204 S5000
G0 F2400 X77.79 Y93.026
M204 S200
G1 F1200 X77.973 Y93.208 E51.90522
M204 S5000
G0 F2400 X77.754 Y93.246
G1 F1500 E49.90522
G0 F2400 X78.139 Y92.861
G0 X78.139 Y91.585
G0 X84.861 Y83.415
G0 X84.861 Y82.139
G0 X84.917 Y82.083
G0 X84.847 Y82.153
M204 S200
;TYPE:WALL-INNER
G1 F1500 E51.90522
