;FLAVOR:Marlin
;TIME:10127
;Filament used: 8.00192m
;Layer height: 0.15
;Generated with Cura_SteamEngine 2.7.0
M190 S50
M104 S210
M109 S210
G21 ;metric values
G90 ;absolute positioning
M82 ;set extruder to absolute mode
M107 ;start with the fan off
G92 E0 ;zero the extruded length
G1 F200 E3 ;extrude 3mm of feed stock
G92 E0 ;zero the extruded length again
G1 F9000
M301 P31.36 I3.30 D74.51 ;set PID tuning for E0
M304 P72.25 I2.72 D479.41 ; set PID tuning for heated bed
M117 Printing...
;LAYER_COUNT:266
;LAYER:0
M107
G0 F2400 X65.99 Y76.84 Z0.3
G0 X65.517 Y77.298
;TYPE:SKIRT
G1 F1050 X65.99 Y76.84 E0.03277
G1 X66.461 Y76.438 E0.06358
G1 X66.981 Y76.102 E0.09439
G1 X67.539 Y75.834 E0.1252
G1 X68.127 Y75.641 E0.156
G1 X68.736 Y75.525 E0.18685
G1 X69.326 Y75.489 E0.21626
G1 X80.67 Y75.489 E0.7808
G1 X81.288 Y75.529 E0.81162
G1 X81.9 Y75.649 E0.84266
G1 X86.05 Y76.75 E1.05633
G1 X88.661 Y77.352 E1.18968
G1 X91.244 Y77.868 E1.32076
G1 X96.593 Y78.707 E1.59021
G1 X102.011 Y79.244 E1.86116
G1 X104.622 Y79.392 E1.99131
G1 X108.729 Y79.478 E2.19574
G1 X117.223 Y79.488 E2.61845
G1 X117.84 Y79.529 E2.64922
G1 X118.448 Y79.649 E2.68006
G1 X119.035 Y79.846 E2.71088
G1 X119.591 Y80.117 E2.74166
G1 X120.108 Y80.457 E2.77245
G1 X120.577 Y80.862 E2.80329
G1 X120.99 Y81.323 E2.83409
G1 X121.34 Y81.834 E2.86491
G1 X121.621 Y82.385 E2.8957
G1 X121.829 Y82.968 E2.9265
G1 X121.96 Y83.573 E2.95731
G1 X122.013 Y84.287 E2.99294
G1 X122.004 Y100.719 E3.81068
G1 X121.964 Y101.336 E3.84145
G1 X121.844 Y101.944 E3.87229
G1 X121.647 Y102.531 E3.90311
G1 X121.377 Y103.088 E3.93391
G1 X121.036 Y103.605 E3.96473
G1 X120.632 Y104.074 E3.99554
G1 X120.171 Y104.487 E4.02634
G1 X119.661 Y104.837 E4.05712
G1 X119.109 Y105.119 E4.08797
G1 X118.526 Y105.327 E4.11877
G1 X117.921 Y105.459 E4.14959
G1 X117.213 Y105.512 E4.18492
G1 X108.721 Y105.521 E4.60753
G1 X103.275 Y105.675 E4.87866
G1 X97.902 Y106.132 E5.14702
G1 X92.567 Y106.892 E5.4152
G1 X87.274 Y107.953 E5.68385
G1 X84.692 Y108.587 E5.81616
G1 X81.955 Y109.338 E5.9574
G1 X81.349 Y109.463 E5.98819
G1 X80.687 Y109.509 E6.02122
G1 X69.328 Y109.511 E6.5865
G1 X68.71 Y109.471 E6.61732
G1 X68.103 Y109.352 E6.64811
G1 X67.515 Y109.156 E6.67895
G1 X66.958 Y108.885 E6.70978
G1 X66.441 Y108.545 E6.74057
G1 X65.96 Y108.13 E6.77219
G1 X64.889 Y107.074 E6.84704
G1 X64.813 Y106.998 E6.85238
G1 X64.334 Y106.504 E6.88663
G1 X63.982 Y106.097 E6.91341
G1 X59.976 Y100.912 E7.23948
G1 X59.63 Y100.399 E7.27028
G1 X59.353 Y99.845 E7.3011
G1 X59.149 Y99.261 E7.33189
G1 X59.023 Y98.655 E7.36269
G1 X58.975 Y98.037 E7.39354
G1 X59.008 Y97.419 E7.42434
G1 X59.12 Y96.81 E7.45515
G1 X59.207 Y96.507 E7.47084
G1 X59.611 Y95.254 E7.53636
G1 X61.245 Y89.654 E7.82667
G1 X61.87 Y87.086 E7.95819
G1 X63.079 Y80.904 E8.27167
G1 X63.237 Y80.306 E8.30245
G1 X63.471 Y79.732 E8.3333
G1 X63.776 Y79.194 E8.36408
G1 X64.148 Y78.699 E8.39489
G1 X64.371 Y78.457 E8.41127
G1 X65.438 Y77.375 E8.48689
G1 X65.517 Y77.298 E8.49238
G0 F2400 X65.722 Y77.656
G1 F1050 X65.794 Y77.584 E8.49745
G1 X66.267 Y77.126 E8.53022
G1 X66.72 Y76.743 E8.55974
G1 X67.22 Y76.425 E8.58923
G1 X67.758 Y76.177 E8.61871
G1 X68.325 Y76.003 E8.64822
G1 X68.91 Y75.908 E8.67772
G1 X69.326 Y75.888 E8.69844
G1 X80.67 Y75.888 E9.26298
G1 X81.261 Y75.928 E9.29246
G1 X81.798 Y76.035 E9.31971
G1 X85.926 Y77.13 E9.53225
G1 X88.591 Y77.745 E9.66836
G1 X91.178 Y78.261 E9.79964
G1 X96.544 Y79.103 E10.06995
G1 X101.973 Y79.641 E10.34145
G1 X104.62 Y79.791 E10.47339
G1 X108.721 Y79.877 E10.67752
G1 X117.222 Y79.887 E11.10058
G1 X117.814 Y79.928 E11.13011
G1 X118.394 Y80.047 E11.15957
G1 X118.953 Y80.244 E11.18907
G1 X119.481 Y80.515 E11.21861
G1 X119.967 Y80.853 E11.24807
G1 X120.404 Y81.254 E11.27758
G1 X120.782 Y81.71 E11.30706
G1 X121.096 Y82.213 E11.33657
G1 X121.339 Y82.754 E11.36608
G1 X121.508 Y83.322 E11.39557
G1 X121.598 Y83.908 E11.42508
G1 X121.614 Y84.286 E11.44391
G1 X121.605 Y100.718 E12.26165
G1 X121.565 Y101.31 E12.29118
G1 X121.445 Y101.89 E12.32066
G1 X121.249 Y102.45 E12.35018
G1 X120.979 Y102.977 E12.37965
G1 X120.64 Y103.464 E12.40918
G1 X120.24 Y103.901 E12.43866
G1 X119.784 Y104.28 E12.46817
G1 X119.281 Y104.594 E12.49768
G1 X118.741 Y104.837 E12.52715
G1 X118.172 Y105.006 E12.55669
G1 X117.587 Y105.097 E12.58615
G1 X117.213 Y105.113 E12.60478
G1 X108.708 Y105.122 E13.02803
G1 X103.248 Y105.276 E13.29986
G1 X97.863 Y105.734 E13.56882
G1 X92.503 Y106.498 E13.83826
G1 X87.174 Y107.566 E14.10873
G1 X84.606 Y108.197 E14.24033
G1 X81.85 Y108.953 E14.38255
G1 X81.269 Y109.071 E14.41205
G1 X80.687 Y109.11 E14.44108
G1 X69.328 Y109.112 E15.00637
G1 X68.736 Y109.072 E15.0359
G1 X68.156 Y108.953 E15.06536
G1 X67.596 Y108.757 E15.09489
G1 X67.068 Y108.488 E15.12438
G1 X66.581 Y108.149 E15.15391
G1 X66.24 Y107.846 E15.17661
G1 X65.169 Y106.79 E15.25146
G1 X65.099 Y106.72 E15.25638
G1 X64.62 Y106.226 E15.29063
G1 X64.298 Y105.853 E15.31515
G1 X60.292 Y100.668 E15.64123
G1 X59.962 Y100.176 E15.67071
G1 X59.701 Y99.644 E15.7002
G1 X59.514 Y99.081 E15.72972
G1 X59.405 Y98.498 E15.75924
G1 X59.375 Y97.906 E15.78874
G1 X59.424 Y97.316 E15.8182
G1 X59.587 Y96.63 E15.85329
G1 X59.989 Y95.384 E15.91845
G1 X61.633 Y89.748 E16.21061
G1 X62.26 Y87.171 E16.3426
G1 X63.471 Y80.981 E16.65649
G1 X63.623 Y80.408 E16.68599
G1 X63.852 Y79.861 E16.7155
G1 X64.152 Y79.35 E16.74499
G1 X64.655 Y78.738 E16.78441
G1 X65.722 Y77.656 E16.86004
G0 F2400 X66.072 Y77.871
G1 F1050 X66.545 Y77.413 E16.8928
G1 X66.978 Y77.049 E16.92095
G1 X67.457 Y76.751 E16.94903
G1 X67.975 Y76.522 E16.97721
G1 X68.519 Y76.369 E17.00534
G1 X69.326 Y76.287 E17.0457
G1 X80.67 Y76.287 E17.61024
G1 X81.234 Y76.327 E17.63838
G1 X81.695 Y76.421 E17.66179
G1 X85.823 Y77.516 E17.87433
G1 X88.488 Y78.131 E18.01044
G1 X91.111 Y78.655 E18.14356
G1 X96.496 Y79.499 E18.41481
G1 X101.934 Y80.038 E18.68677
G1 X104.617 Y80.19 E18.8205
G1 X108.711 Y80.276 E19.02429
G1 X117.222 Y80.286 E19.44784
G1 X117.785 Y80.327 E19.47593
G1 X118.338 Y80.446 E19.50408
G1 X118.868 Y80.643 E19.53222
G1 X119.365 Y80.912 E19.56034
G1 X119.819 Y81.248 E19.58845
G1 X120.221 Y81.646 E19.6166
G1 X120.563 Y82.096 E19.64473
G1 X120.838 Y82.589 E19.67283
G1 X121.041 Y83.117 E19.70098
G1 X121.167 Y83.668 E19.72911
G1 X121.215 Y84.286 E19.75995
G1 X121.206 Y100.718 E20.5777
G1 X121.166 Y101.282 E20.60584
G1 X121.046 Y101.834 E20.63395
G1 X120.85 Y102.364 E20.66207
G1 X120.581 Y102.862 E20.69024
G1 X120.245 Y103.316 E20.71835
G1 X119.848 Y103.718 E20.74646
G1 X119.398 Y104.061 E20.77462
G1 X118.905 Y104.336 E20.80272
G1 X118.378 Y104.539 E20.83082
G1 X117.827 Y104.666 E20.85896
G1 X117.212 Y104.714 E20.88966
G1 X108.697 Y104.723 E21.31341
G1 X103.239 Y104.877 E21.58514
G1 X97.807 Y105.339 E21.85644
G1 X92.44 Y106.104 E22.12623
G1 X87.093 Y107.176 E22.39762
G1 X84.476 Y107.818 E22.53172
G1 X81.744 Y108.568 E22.67271
G1 X81.19 Y108.679 E22.70083
G1 X80.687 Y108.711 E22.72591
G1 X69.328 Y108.713 E23.2912
G1 X68.764 Y108.673 E23.31934
G1 X68.211 Y108.554 E23.34749
G1 X67.681 Y108.359 E23.37559
G1 X67.184 Y108.09 E23.40372
G1 X66.729 Y107.754 E23.43186
G1 X66.52 Y107.562 E23.44599
G1 X65.449 Y106.506 E23.52084
G1 X65.386 Y106.442 E23.52531
G1 X64.907 Y105.948 E23.55955
G1 X64.613 Y105.609 E23.58188
G1 X60.607 Y100.424 E23.90796
G1 X60.294 Y99.954 E23.93606
G1 X60.051 Y99.444 E23.96417
G1 X59.881 Y98.905 E23.9923
G1 X59.79 Y98.347 E24.02044
G1 X59.778 Y97.782 E24.04856
G1 X59.846 Y97.221 E24.07668
G1 X59.966 Y96.752 E24.10077
G1 X60.379 Y95.471 E24.16776
G1 X62.02 Y89.847 E24.45931
G1 X62.647 Y87.272 E24.5912
G1 X63.862 Y81.058 E24.9063
G1 X64.01 Y80.512 E24.93445
G1 X64.233 Y79.993 E24.96256
G1 X64.527 Y79.51 E24.9907
G1 X64.939 Y79.018 E25.02264
G1 X66.006 Y77.936 E25.09826
G1 X66.072 Y77.871 E25.10287
G0 F2400 X66.29 Y78.216
G1 F1050 X66.349 Y78.157 E25.10702
G1 X66.822 Y77.699 E25.13979
G1 X67.234 Y77.356 E25.16647
G1 X67.693 Y77.078 E25.19317
G1 X68.187 Y76.871 E25.21983
G1 X68.707 Y76.74 E25.24651
G1 X69.326 Y76.686 E25.27744
G1 X80.67 Y76.686 E25.84197
G1 X81.205 Y76.726 E25.86867
G1 X81.593 Y76.806 E25.88839
G1 X85.75 Y77.909 E26.10242
G1 X88.425 Y78.526 E26.23904
G1 X91.022 Y79.044 E26.37083
G1 X96.464 Y79.897 E26.64496
G1 X101.896 Y80.436 E26.91661
G1 X104.586 Y80.588 E27.05069
G1 X108.703 Y80.675 E27.25562
G1 X117.221 Y80.685 E27.67953
G1 X117.756 Y80.726 E27.70623
G1 X118.279 Y80.845 E27.73292
G1 X118.778 Y81.041 E27.7596
G1 X119.242 Y81.309 E27.78627
G1 X119.662 Y81.643 E27.81297
G1 X120.027 Y82.035 E27.83963
G1 X120.33 Y82.478 E27.86634
G1 X120.564 Y82.96 E27.893
G1 X120.723 Y83.472 E27.91968
G1 X120.805 Y84.002 E27.94637
G1 X120.816 Y84.286 E27.96052
G1 X120.807 Y100.718 E28.77826
G1 X120.767 Y101.253 E28.80496
G1 X120.648 Y101.775 E28.83161
G1 X120.452 Y102.275 E28.85833
G1 X120.184 Y102.739 E28.885
G1 X119.851 Y103.159 E28.91167
G1 X119.458 Y103.525 E28.9384
G1 X119.016 Y103.828 E28.96507
G1 X118.534 Y104.062 E28.99173
G1 X118.022 Y104.222 E29.01843
G1 X117.492 Y104.304 E29.04511
G1 X117.212 Y104.315 E29.05906
G1 X108.722 Y104.324 E29.48157
G1 X103.194 Y104.48 E29.75678
G1 X97.771 Y104.941 E30.02763
G1 X92.377 Y105.71 E30.29878
G1 X86.983 Y106.792 E30.57257
G1 X84.433 Y107.417 E30.70322
G1 X81.639 Y108.184 E30.84741
G1 X81.112 Y108.287 E30.87413
G1 X80.687 Y108.312 E30.89532
G1 X69.328 Y108.314 E31.46061
G1 X68.793 Y108.274 E31.48731
G1 X68.27 Y108.155 E31.514
G1 X67.771 Y107.96 E31.54066
G1 X67.306 Y107.693 E31.56735
G1 X66.8 Y107.278 E31.59991
G1 X65.729 Y106.222 E31.67476
G1 X65.672 Y106.164 E31.67881
G1 X65.193 Y105.67 E31.71305
G1 X64.929 Y105.365 E31.73313
G1 X60.923 Y100.18 E32.0592
G1 X60.628 Y99.733 E32.08586
G1 X60.402 Y99.246 E32.11258
G1 X60.251 Y98.732 E32.13924
G1 X60.179 Y98.201 E32.1659
G1 X60.186 Y97.664 E32.19263
G1 X60.273 Y97.135 E32.21931
G1 X60.346 Y96.875 E32.23275
G1 X60.754 Y95.61 E32.2989
G1 X62.403 Y89.956 E32.59199
G1 X63.04 Y87.34 E32.72598
G1 X64.254 Y81.134 E33.04068
G1 X64.396 Y80.617 E33.06736
G1 X64.613 Y80.127 E33.09403
G1 X64.9 Y79.674 E33.12072
G1 X65.223 Y79.298 E33.14539
G1 X66.29 Y78.216 E33.22101
G0 F2400 X66.575 Y78.496
G1 F1050 X66.627 Y78.444 E33.22467
G1 X67.1 Y77.986 E33.25744
G1 X67.49 Y77.664 E33.28261
G1 X67.926 Y77.408 E33.30777
G1 X68.396 Y77.223 E33.3329
G1 X68.89 Y77.115 E33.35807
G1 X69.326 Y77.085 E33.37982
G1 X80.67 Y77.085 E33.94436
G1 X81.174 Y77.125 E33.96952
G1 X81.491 Y77.192 E33.98564
G1 X85.654 Y78.297 E34.19999
G1 X88.322 Y78.912 E34.33625
G1 X90.975 Y79.442 E34.47088
G1 X96.4 Y80.292 E34.74415
G1 X101.859 Y80.833 E35.01715
G1 X104.583 Y80.987 E35.15293
G1 X108.693 Y81.074 E35.35751
G1 X117.221 Y81.084 E35.78191
G1 X117.725 Y81.125 E35.80708
G1 X118.216 Y81.244 E35.83222
G1 X118.682 Y81.439 E35.85736
G1 X119.112 Y81.705 E35.88252
G1 X119.495 Y82.036 E35.90771
G1 X119.82 Y82.423 E35.93286
G1 X120.081 Y82.856 E35.95802
G1 X120.27 Y83.325 E35.98319
G1 X120.383 Y83.818 E36.00836
G1 X120.417 Y84.286 E36.03171
G1 X120.408 Y100.718 E36.84946
G1 X120.368 Y101.222 E36.87462
G1 X120.249 Y101.713 E36.89976
G1 X120.054 Y102.18 E36.92495
G1 X119.788 Y102.609 E36.95007
G1 X119.457 Y102.992 E36.97526
G1 X119.071 Y103.318 E37.0004
G1 X118.638 Y103.579 E37.02556
G1 X118.169 Y103.768 E37.05073
G1 X117.676 Y103.882 E37.07591
G1 X117.211 Y103.916 E37.09911
G1 X108.711 Y103.925 E37.52212
G1 X103.183 Y104.081 E37.79733
G1 X97.717 Y104.546 E38.07033
G1 X92.311 Y105.317 E38.34209
G1 X86.906 Y106.4 E38.61641
G1 X84.303 Y107.039 E38.7498
G1 X81.533 Y107.799 E38.89274
G1 X81.036 Y107.894 E38.91793
G1 X80.687 Y107.913 E38.93532
G1 X69.328 Y107.915 E39.50061
G1 X68.824 Y107.875 E39.52577
G1 X68.332 Y107.756 E39.55096
G1 X67.866 Y107.562 E39.57608
G1 X67.435 Y107.296 E39.60128
G1 X67.08 Y106.994 E39.62448
G1 X66.009 Y105.938 E39.69933
G1 X65.959 Y105.887 E39.70288
G1 X65.48 Y105.393 E39.73712
G1 X65.245 Y105.121 E39.75501
G1 X61.239 Y99.936 E40.08109
G1 X60.962 Y99.513 E40.10625
G1 X60.756 Y99.052 E40.13138
G1 X60.625 Y98.563 E40.15657
G1 X60.572 Y98.061 E40.1817
G1 X60.599 Y97.556 E40.20686
G1 X60.726 Y96.997 E40.23539
G1 X61.135 Y95.729 E40.30169
G1 X62.79 Y90.055 E40.59583
G1 X63.432 Y87.42 E40.7308
G1 X64.646 Y81.211 E41.04564
G1 X64.781 Y80.724 E41.07079
G1 X64.992 Y80.264 E41.09598
G1 X65.273 Y79.844 E41.12113
G1 X65.508 Y79.578 E41.13879
G1 X66.575 Y78.496 E41.21441
G0 F2400 X65.26 Y94.866
;TYPE:SUPPORT
G1 F1050 X66.101 Y94.866 E41.25627
G1 X66.101 Y100.078 E41.51564
G1 X63.994 Y97.935 E41.66521
G1 X65.26 Y94.866 E41.83042
G0 F2400 X65.317 Y95.249
G1 F1050 X65.317 Y98.996 E42.01689
G0 F2400 X64.967 Y98.642
G1 F1050 X65.902 Y98.642 E42.06342
G0 F2400 X65.902 Y97.309
G1 F1050 X64.467 Y97.309 E42.13484
G0 F2400 X65.017 Y95.976
G1 F1050 X65.902 Y95.976 E42.17888
G1 F1500 E41.17888
G0 F2400 X67.11 Y95.976
G0 X68.392 Y95.976
G0 X68.771 Y102.767
;TYPE:WALL-INNER
G1 F1500 E42.17888
G1 F1050 X68.771 Y82.233 E43.20076
G1 X69.733 Y81.271 E43.26847
G1 X80.267 Y81.271 E43.7927
G1 X81.229 Y82.233 E43.8604
G1 X81.23 Y85.27 E44.01154
G1 X116.031 Y85.27 E45.74343
G1 X116.23 Y85.27 E45.75333
G1 X116.23 Y85.469 E45.75974
G1 X116.229 Y99.729 E46.46939
G1 X81.229 Y99.729 E48.21119
G1 X81.229 Y102.767 E48.36237
G1 X80.267 Y103.729 E48.43008
G1 X69.733 Y103.729 E48.95431
G1 X68.771 Y102.767 E49.02201
G0 F2400 X68.372 Y102.932
G1 F1050 X68.372 Y82.068 E50.06032
G1 X69.568 Y80.872 E50.14449
G1 X80.432 Y80.872 E50.68514
G1 X81.628 Y82.068 E50.76932
G1 X81.629 Y84.871 E50.90881
G1 X116.43 Y84.871 E52.6407
G1 X116.629 Y84.871 E52.6506
G1 X116.629 Y85.07 E52.65701
G1 X116.628 Y100.128 E53.40638
G1 X81.628 Y100.128 E55.14817
G1 X81.628 Y102.932 E55.28771
G1 X80.432 Y104.128 E55.37189
G1 X69.568 Y104.128 E55.91254
G1 X68.372 Y102.932 E55.99671
G0 F2400 X67.974 Y103.096
;TYPE:WALL-OUTER
G1 F1050 X67.974 Y81.904 E57.05134
G1 X69.404 Y80.474 E57.15198
G1 X80.596 Y80.474 E57.70896
G1 X82.026 Y81.904 E57.8096
G1 X82.027 Y84.473 E57.93745
G1 X116.828 Y84.473 E59.66934
G1 X117.027 Y84.473 E59.67924
G1 X117.027 Y84.672 E59.68565
G1 X117.026 Y100.526 E60.47463
G1 X82.026 Y100.526 E62.21642
G1 X82.026 Y103.096 E62.34432
G1 X80.596 Y104.526 E62.44496
G1 X69.404 Y104.526 E63.00193
G1 X67.974 Y103.096 E63.10258
G0 F2400 X67.974 Y102.896
G0 X68.472 Y102.896
G0 X70.256 Y103.548
;TYPE:SKIN
G1 F1050 X68.95 Y102.242 E63.19449
G1 X68.88 Y102.172
G0 F2400 X68.95 Y101.678
G1 F1050 X70.82 Y103.548 E63.3261
G1 X70.89 Y103.618
G0 F2400 X71.384 Y103.548
G1 F1050 X68.95 Y101.114 E63.4974
G1 X68.88 Y101.044
G0 F2400 X68.95 Y100.549
G1 F1050 X71.948 Y103.548 E63.70843
G1 X72.018 Y103.618
G0 F2400 X72.513 Y103.548
G1 F1050 X68.95 Y99.985 E63.95919
G1 X68.88 Y99.915
G0 F2400 X68.95 Y99.421
G1 F1050 X73.077 Y103.548 E64.24965
G1 X73.147 Y103.618
G0 F2400 X73.641 Y103.548
G1 F1050 X68.95 Y98.857 E64.5798
G1 X68.88 Y98.787
G0 F2400 X68.95 Y98.292
G1 F1050 X74.205 Y103.548 E64.94967
G1 X74.275 Y103.618
G0 F2400 X74.77 Y103.548
G1 F1050 X68.95 Y97.728 E65.35928
G1 X68.88 Y97.658
G0 F2400 X68.95 Y97.164
G1 F1050 X75.334 Y103.548 E65.80858
G1 X75.404 Y103.618
G0 F2400 X75.898 Y103.548
G1 F1050 X68.95 Y96.599 E66.29761
G1 X68.88 Y96.529
G0 F2400 X68.95 Y96.035
G1 F1050 X76.462 Y103.548 E66.82633
G1 X76.532 Y103.618
G0 F2400 X77.027 Y103.548
G1 F1050 X68.95 Y95.471 E67.39478
G1 X68.88 Y95.401
G0 F2400 X68.95 Y94.907
G1 F1050 X77.591 Y103.548 E68.00293
G1 X77.661 Y103.618
G0 F2400 X78.155 Y103.548
G1 F1050 X68.95 Y94.342 E68.6508
G1 X68.88 Y94.272
G0 F2400 X68.95 Y93.778
G1 F1050 X78.72 Y103.548 E69.3384
G1 X78.79 Y103.618
G0 F2400 X79.284 Y103.548
G1 F1050 X68.95 Y93.214 E70.0657
G1 X68.88 Y93.144
G0 F2400 X68.95 Y92.65
G1 F1050 X79.848 Y103.548 E70.83269
G1 X79.918 Y103.618
G0 F2400 X80.302 Y103.437
G1 F1050 X68.95 Y92.085 E71.63163
G1 X68.88 Y92.015
G0 F2400 X68.95 Y91.521
G1 F1050 X80.584 Y103.155 E72.45042
G1 X80.654 Y103.225
G0 F2400 X80.866 Y102.873
G1 F1050 X68.95 Y90.957 E73.28906
G1 X68.88 Y90.887
G0 F2400 X68.95 Y90.392
G1 F1050 X81.049 Y102.491 E74.14057
G1 X81.119 Y102.561
G0 F2400 X81.049 Y101.927
G1 F1050 X68.95 Y89.828 E74.99209
G1 X68.88 Y89.758
G0 F2400 X68.95 Y89.264
G1 F1050 X81.049 Y101.363 E75.84361
G1 X81.119 Y101.433
G0 F2400 X81.049 Y100.798
