;FLAVOR:Marlin
;TIME:8203
;Filament used: 4.05014m
;Layer height: 0.1
;Generated with Cura_SteamEngine 2.7.0
M190 S50
M104 S210
M109 S210
G21 ;metric values
G90 ;absolute positioning
M82 ;set extruder to absolute mode
M107 ;start with the fan off
G92 E0 ;zero the extruded length
G1 F200 E3 ;extrude 3mm of feed stock
G92 E0 ;zero the extruded length again
G1 F9000
M301 P31.36 I3.30 D74.51 ;set PID tuning for E0
M304 P72.25 I2.72 D479.41 ; set PID tuning for heated bed
M117 Printing...
;LAYER_COUNT:188
;LAYER:0
M107
M205 X20 Y20
G0 F2400 X65.583 Y68.546 Z0.3
;TYPE:SKIRT
G1 F1050 X66.044 Y68.132 E0.03084
G1 X66.554 Y67.782 E0.06162
G1 X67.105 Y67.499 E0.09244
G1 X67.688 Y67.291 E0.12325
G1 X68.293 Y67.159 E0.15406
G1 X69.01 Y67.105 E0.18985
G1 X114.887 Y67.105 E2.47294
G1 X115.505 Y67.145 E2.50376
G1 X116.112 Y67.264 E2.53454
G1 X116.699 Y67.461 E2.56535
G1 X117.256 Y67.731 E2.59616
G1 X117.774 Y68.071 E2.62699
G1 X118.278 Y68.51 E2.66026
G1 X119.38 Y69.612 E2.73781
G1 X119.789 Y70.077 E2.76863
G1 X120.134 Y70.591 E2.79944
G1 X120.41 Y71.145 E2.83024
G1 X120.613 Y71.73 E2.86106
G1 X120.738 Y72.336 E2.89185
G1 X120.785 Y73.003 E2.92513
G1 X120.786 Y87.995 E3.67121
G1 X120.746 Y88.612 E3.70198
G1 X120.627 Y89.22 E3.73281
G1 X120.43 Y89.807 E3.76363
G1 X120.16 Y90.364 E3.79443
G1 X119.82 Y90.881 E3.82522
G1 X119.387 Y91.381 E3.85814
G1 X114.878 Y95.905 E4.17601
G1 X114.812 Y95.969 E4.18058
G1 X114.321 Y96.443 E4.21455
G1 X113.849 Y96.844 E4.24537
G1 X113.109 Y97.296 E4.28852
G1 X107.719 Y99.95 E4.58751
G1 X105.432 Y101.207 E4.71738
G1 X100.807 Y104.008 E4.98647
G1 X96.368 Y107.052 E5.25433
G1 X92.113 Y110.339 E5.5219
G1 X88.026 Y113.882 E5.79108
G1 X84.811 Y116.956 E6.01244
G1 X84.337 Y117.354 E6.04324
G1 X83.815 Y117.688 E6.07408
G1 X83.255 Y117.952 E6.10489
G1 X82.666 Y118.141 E6.13568
G1 X82.057 Y118.253 E6.16649
G1 X81.496 Y118.286 E6.19446
G1 X78.651 Y118.286 E6.33604
G1 X78.033 Y118.246 E6.36686
G1 X77.426 Y118.127 E6.39765
G1 X76.839 Y117.93 E6.42846
G1 X76.282 Y117.66 E6.45926
G1 X75.764 Y117.32 E6.4901
G1 X75.265 Y116.886 E6.52301
G1 X68.867 Y110.507 E6.97263
G1 X65.696 Y107.463 E7.19138
G1 X65.278 Y107.006 E7.2222
G1 X64.922 Y106.5 E7.25299
G1 X64.635 Y105.951 E7.28382
G1 X64.42 Y105.371 E7.3146
G1 X64.282 Y104.767 E7.34543
G1 X64.221 Y104.004 E7.38352
G1 X64.214 Y71.902 E8.98109
G1 X64.254 Y71.284 E9.01191
G1 X64.373 Y70.677 E9.0427
G1 X64.569 Y70.09 E9.07349
G1 X64.84 Y69.533 E9.10432
G1 X65.179 Y69.015 E9.13513
G1 X65.583 Y68.546 E9.16593
G0 F2400 X65.976 Y68.719
G1 F1050 X66.432 Y68.339 E9.19547
G1 X66.934 Y68.025 E9.22494
G1 X67.474 Y67.781 E9.25443
G1 X68.042 Y67.612 E9.28392
G1 X68.628 Y67.521 E9.31343
G1 X69.01 Y67.504 E9.33246
G1 X114.887 Y67.504 E11.61555
G1 X115.478 Y67.544 E11.64503
G1 X116.059 Y67.663 E11.67455
G1 X116.618 Y67.859 E11.70403
G1 X117.146 Y68.129 E11.73354
G1 X117.633 Y68.467 E11.76304
G1 X117.996 Y68.792 E11.78729
G1 X119.098 Y69.894 E11.86484
G1 X119.488 Y70.34 E11.89433
G1 X119.814 Y70.835 E11.92383
G1 X120.071 Y71.369 E11.95332
G1 X120.254 Y71.933 E11.98283
G1 X120.359 Y72.517 E12.01235
G1 X120.386 Y73.003 E12.03658
G1 X120.387 Y87.995 E12.78266
G1 X120.347 Y88.586 E12.81214
G1 X120.228 Y89.167 E12.84165
G1 X120.032 Y89.726 E12.87113
G1 X119.762 Y90.254 E12.90065
G1 X119.424 Y90.741 E12.93015
G1 X119.104 Y91.099 E12.95404
G1 X114.595 Y95.623 E13.27191
G1 X114.535 Y95.682 E13.2761
G1 X114.044 Y96.156 E13.31006
G1 X113.591 Y96.538 E13.33955
G1 X112.932 Y96.938 E13.37791
G1 X107.538 Y99.594 E13.67713
G1 X105.249 Y100.852 E13.80711
G1 X100.588 Y103.675 E14.07829
G1 X96.135 Y106.729 E14.34701
G1 X91.842 Y110.045 E14.61697
G1 X87.761 Y113.583 E14.88575
G1 X84.535 Y116.668 E15.10789
G1 X84.08 Y117.048 E15.13739
G1 X83.578 Y117.363 E15.16689
G1 X83.038 Y117.608 E15.1964
G1 X82.47 Y117.778 E15.2259
G1 X81.885 Y117.87 E15.25537
G1 X81.496 Y117.887 E15.27475
G1 X78.651 Y117.887 E15.41633
G1 X78.06 Y117.847 E15.44581
G1 X77.479 Y117.728 E15.47532
G1 X76.92 Y117.532 E15.5048
G1 X76.392 Y117.262 E15.53432
G1 X75.905 Y116.924 E15.56382
G1 X75.546 Y116.604 E15.58775
G1 X69.105 Y110.182 E16.04039
G1 X65.972 Y107.175 E16.2565
G1 X65.573 Y106.737 E16.28599
G1 X65.237 Y106.249 E16.31547
G1 X64.969 Y105.72 E16.34499
G1 X64.775 Y105.16 E16.37448
G1 X64.658 Y104.579 E16.40397
G1 X64.62 Y104.004 E16.43265
G1 X64.613 Y71.902 E18.03022
G1 X64.653 Y71.311 E18.0597
G1 X64.772 Y70.73 E18.08921
G1 X64.968 Y70.17 E18.11874
G1 X65.237 Y69.643 E18.14819
G1 X65.575 Y69.156 E18.17769
G1 X65.976 Y68.719 E18.2072
G0 F2400 X66.367 Y68.901
G1 F1050 X66.817 Y68.558 E18.23536
G1 X67.31 Y68.282 E18.26348
G1 X67.838 Y68.079 E18.29163
G1 X68.388 Y67.952 E18.31972
G1 X69.01 Y67.903 E18.35077
G1 X114.887 Y67.903 E20.63386
G1 X115.451 Y67.943 E20.662
G1 X116.003 Y68.062 E20.6901
G1 X116.533 Y68.258 E20.71822
G1 X117.031 Y68.526 E20.74637
G1 X117.485 Y68.862 E20.77448
G1 X117.714 Y69.074 E20.79001
G1 X118.816 Y70.176 E20.86756
G1 X119.186 Y70.603 E20.89568
G1 X119.493 Y71.078 E20.92383
G1 X119.729 Y71.591 E20.95193
G1 X119.891 Y72.133 E20.98008
G1 X119.975 Y72.692 E21.00821
G1 X119.987 Y73.003 E21.0237
G1 X119.988 Y87.995 E21.76978
G1 X119.948 Y88.559 E21.79792
G1 X119.829 Y89.111 E21.82602
G1 X119.633 Y89.641 E21.85415
G1 X119.365 Y90.139 E21.88229
G1 X119.029 Y90.593 E21.9104
G1 X118.822 Y90.817 E21.92558
G1 X114.313 Y95.341 E22.24344
G1 X114.258 Y95.395 E22.24728
G1 X113.767 Y95.869 E22.28124
G1 X113.333 Y96.232 E22.3094
G1 X112.756 Y96.58 E22.34293
G1 X107.365 Y99.234 E22.64197
G1 X105.038 Y100.514 E22.77414
G1 X100.368 Y103.342 E23.04583
G1 X95.899 Y106.407 E23.31551
G1 X91.601 Y109.727 E23.58579
G1 X87.474 Y113.305 E23.85761
G1 X84.259 Y116.379 E24.07897
G1 X83.824 Y116.74 E24.1071
G1 X83.343 Y117.036 E24.13521
G1 X82.824 Y117.261 E24.16336
G1 X82.279 Y117.411 E24.19149
G1 X81.496 Y117.488 E24.23065
G1 X78.651 Y117.488 E24.37223
G1 X78.087 Y117.448 E24.40037
G1 X77.535 Y117.329 E24.42847
G1 X77.005 Y117.133 E24.45659
G1 X76.507 Y116.865 E24.48473
G1 X76.053 Y116.529 E24.51284
G1 X75.828 Y116.321 E24.52809
G1 X69.418 Y109.93 E24.97855
G1 X66.248 Y106.887 E25.19723
G1 X65.869 Y106.468 E25.22535
G1 X65.553 Y105.999 E25.25349
G1 X65.306 Y105.491 E25.2816
G1 X65.133 Y104.953 E25.30973
G1 X65.038 Y104.396 E25.33785
G1 X65.019 Y104.004 E25.35738
G1 X65.012 Y71.902 E26.95495
G1 X65.052 Y71.338 E26.98309
G1 X65.171 Y70.786 E27.01119
G1 X65.366 Y70.255 E27.03934
G1 X65.635 Y69.758 E27.06746
G1 X65.971 Y69.303 E27.09561
G1 X66.367 Y68.901 E27.12369
G0 F2400 X66.757 Y69.094
G1 F1050 X67.2 Y68.791 E27.1504
G1 X67.682 Y68.556 E27.17709
G1 X68.193 Y68.396 E27.20374
G1 X68.723 Y68.313 E27.23043
G1 X69.01 Y68.302 E27.24473
G1 X114.887 Y68.302 E29.52782
G1 X115.422 Y68.342 E29.55452
G1 X115.945 Y68.461 E29.58121
G1 X116.444 Y68.656 E29.60787
G1 X116.909 Y68.924 E29.63458
G1 X117.432 Y69.356 E29.66834
G1 X118.534 Y70.458 E29.7459
G1 X118.884 Y70.864 E29.77257
G1 X119.169 Y71.318 E29.79925
G1 X119.384 Y71.81 E29.82597
G1 X119.524 Y72.327 E29.85262
G1 X119.588 Y73.003 E29.88642
G1 X119.589 Y87.995 E30.6325
G1 X119.549 Y88.529 E30.65915
G1 X119.43 Y89.052 E30.68584
G1 X119.235 Y89.552 E30.71255
G1 X118.968 Y90.017 E30.73923
G1 X118.539 Y90.536 E30.77274
G1 X114.03 Y95.06 E31.09061
G1 X113.981 Y95.108 E31.09402
G1 X113.49 Y95.582 E31.12799
G1 X113.077 Y95.925 E31.1547
G1 X112.58 Y96.222 E31.18352
G1 X107.166 Y98.888 E31.48384
G1 X104.837 Y100.168 E31.6161
G1 X100.161 Y103 E31.88815
G1 X95.662 Y106.085 E32.15963
G1 X91.34 Y109.424 E32.43143
G1 X87.219 Y112.997 E32.70286
G1 X83.983 Y116.091 E32.92567
G1 X83.569 Y116.432 E32.95236
G1 X83.109 Y116.707 E32.97903
G1 X82.613 Y116.911 E33.00572
G1 X82.093 Y117.039 E33.03237
G1 X81.496 Y117.089 E33.06218
G1 X78.651 Y117.089 E33.20377
G1 X78.116 Y117.049 E33.23046
G1 X77.593 Y116.93 E33.25716
G1 X77.094 Y116.735 E33.28382
G1 X76.629 Y116.467 E33.31053
G1 X76.11 Y116.039 E33.34401
G1 X69.669 Y109.617 E33.79665
G1 X66.525 Y106.599 E34.01353
G1 X66.167 Y106.2 E34.04021
G1 X65.872 Y105.752 E34.0669
G1 X65.647 Y105.266 E34.09356
G1 X65.497 Y104.751 E34.12025
G1 X65.418 Y104.004 E34.15763
G1 X65.411 Y71.902 E35.7552
G1 X65.451 Y71.367 E35.7819
G1 X65.57 Y70.844 E35.8086
G1 X65.765 Y70.345 E35.83526
G1 X66.032 Y69.88 E35.86194
G1 X66.365 Y69.46 E35.88862
G1 X66.757 Y69.094 E35.9153
G0 F2400 X67.145 Y69.3
G1 F1050 X67.578 Y69.039 E35.94047
G1 X68.047 Y68.849 E35.96565
G1 X68.539 Y68.736 E35.99077
G1 X69.01 Y68.701 E36.01427
G1 X114.887 Y68.701 E38.29736
G1 X115.391 Y68.741 E38.32253
G1 X115.882 Y68.86 E38.34767
G1 X116.349 Y69.054 E38.37283
G1 X116.779 Y69.32 E38.398
G1 X117.15 Y69.638 E38.42231
G1 X118.252 Y70.74 E38.49987
G1 X118.58 Y71.125 E38.52504
G1 X118.843 Y71.556 E38.55017
G1 X119.036 Y72.024 E38.57536
G1 X119.152 Y72.516 E38.60052
G1 X119.189 Y73.003 E38.62482
G1 X119.19 Y87.995 E39.37091
G1 X119.15 Y88.499 E39.39607
G1 X119.031 Y88.99 E39.42121
G1 X118.837 Y89.457 E39.44638
G1 X118.571 Y89.887 E39.47154
G1 X118.256 Y90.254 E39.49561
G1 X113.747 Y94.778 E39.81347
G1 X113.704 Y94.821 E39.8165
G1 X113.213 Y95.295 E39.85046
G1 X112.822 Y95.617 E39.87567
G1 X112.404 Y95.864 E39.89983
G1 X106.976 Y98.537 E40.20094
G1 X104.654 Y99.813 E40.33279
G1 X99.942 Y102.667 E40.60695
G1 X95.418 Y105.769 E40.87993
G1 X91.099 Y109.106 E41.15154
G1 X86.953 Y112.7 E41.4246
G1 X83.708 Y115.803 E41.64804
G1 X83.316 Y116.122 E41.67319
G1 X82.879 Y116.376 E41.69835
G1 X82.407 Y116.558 E41.72352
G1 X81.912 Y116.663 E41.7487
G1 X81.496 Y116.69 E41.76945
G1 X78.651 Y116.69 E41.91103
G1 X78.147 Y116.65 E41.93619
G1 X77.656 Y116.531 E41.96134
G1 X77.189 Y116.337 E41.9865
G1 X76.759 Y116.071 E42.01166
G1 X76.392 Y115.756 E42.03573
G1 X69.994 Y109.377 E42.48535
G1 X66.801 Y106.312 E42.70561
G1 X66.465 Y105.934 E42.73078
G1 X66.193 Y105.508 E42.75593
G1 X65.991 Y105.044 E42.78112
G1 X65.865 Y104.555 E42.80625
G1 X65.817 Y104.004 E42.83377
G1 X65.81 Y71.902 E44.43135
G1 X65.85 Y71.398 E44.45651
G1 X65.969 Y70.906 E44.4817
G1 X66.163 Y70.44 E44.50682
G1 X66.429 Y70.01 E44.53198
G1 X66.759 Y69.627 E44.55714
G1 X67.145 Y69.3 E44.58231
G1 F1500 E43.58231
G0 F2400 X69.61 Y71.227
G0 X69.611 Y72.503
G0 X69.996 Y72.888
;TYPE:WALL-INNER
G1 F1500 E44.58231
G1 F1050 X114.479 Y72.887 E46.79603
G1 X115.004 Y73.412 E46.83298
G1 X115.004 Y87.588 E47.53846
G1 X110.588 Y92.004 E47.84925
G1 X107.949 Y92.004 E47.98058
G1 X107.717 Y89.797 E48.09102
G1 X106.879 Y87.212 E48.22625
G1 X105.519 Y84.858 E48.36155
G1 X103.7 Y82.838 E48.49682
G1 X101.501 Y81.241 E48.63207
G1 X99.018 Y80.134 E48.76737
G1 X96.359 Y79.57 E48.90264
G1 X93.641 Y79.57 E49.0379
G1 X90.99 Y80.132 E49.17276
G1 X88.5 Y81.24 E49.30839
G1 X86.3 Y82.838 E49.44371
G1 X84.481 Y84.858 E49.57898
G1 X83.122 Y87.212 E49.71425
G1 X82.283 Y89.797 E49.8495
G1 X81.999 Y92.5 E49.98476
G1 X82.283 Y95.203 E50.12002
G1 X83.004 Y97.42 E50.23603
G1 X83.004 Y110.588 E50.89135
G1 X81.088 Y112.504 E51.02619
G1 X79.054 Y112.504 E51.12742
G1 X69.996 Y103.447 E51.76487
G1 X69.996 Y72.888 E53.28566
G0 F2400 X78.68 Y105.478
G1 F1050 X78.174 Y105.704 E53.31324
G1 X77.727 Y106.029 E53.34074
G1 X77.354 Y106.441 E53.3684
G1 X77.077 Y106.922 E53.39602
G1 X76.907 Y107.449 E53.42358
G1 X76.849 Y108 E53.45115
G1 X76.903 Y108.529 E53.47761
G1 X77.068 Y109.05 E53.50481
G1 X77.341 Y109.539 E53.53268
G1 X77.744 Y109.985 E53.56259
G1 X78.199 Y110.308 E53.59036
G1 X78.707 Y110.529 E53.61793
G1 X79.251 Y110.637 E53.64553
G1 X79.804 Y110.633 E53.67305
G1 X80.345 Y110.511 E53.70065
G1 X80.844 Y110.283 E53.72796
G1 X81.274 Y109.97 E53.75442
G1 X81.646 Y109.559 E53.78201
G1 X81.923 Y109.078 E53.80963
G1 X82.093 Y108.551 E53.83719
G1 X82.151 Y108 E53.86476
G1 X82.093 Y107.449 E53.89234
G1 X81.923 Y106.922 E53.91989
G1 X81.646 Y106.441 E53.94752
G1 X81.273 Y106.029 E53.97517
G1 X80.826 Y105.704 E54.00268
G1 X80.32 Y105.478 E54.03026
G1 X79.777 Y105.363 E54.05788
G1 X79.223 Y105.363 E54.08545
G1 X78.68 Y105.478 E54.11307
G0 F2400 X82.636 Y89.872
G0 X83.453 Y87.359
G0 X84.774 Y85.071
G0 X86.542 Y83.107
G0 X88.681 Y81.554
G0 X91.102 Y80.476
G0 X93.679 Y79.93
G0 X108.341 Y78.539
G1 F1050 X108.744 Y78.985 E54.14298
G1 X109.199 Y79.308 E54.17075
G1 X109.707 Y79.529 E54.19832
G1 X110.249 Y79.637 E54.22583
G1 X110.805 Y79.633 E54.2535
G1 X111.345 Y79.511 E54.28105
G1 X111.844 Y79.283 E54.30835
G1 X112.274 Y78.97 E54.33482
G1 X112.646 Y78.559 E54.3624
G1 X112.923 Y78.078 E54.39003
G1 X113.093 Y77.551 E54.41758
G1 X113.151 Y77 E54.44516
G1 X113.093 Y76.449 E54.47273
G1 X112.923 Y75.922 E54.50029
G1 X112.646 Y75.441 E54.52791
G1 X112.273 Y75.029 E54.55557
G1 X111.825 Y74.703 E54.58314
G1 X111.32 Y74.48 E54.61061
G1 X110.778 Y74.363 E54.63821
G1 X110.222 Y74.363 E54.66588
G1 X109.68 Y74.48 E54.69347
G1 X109.175 Y74.703 E54.72094
G1 X108.727 Y75.029 E54.74852
G1 X108.354 Y75.441 E54.77617
G1 X108.077 Y75.922 E54.8038
G1 X107.907 Y76.449 E54.83135
G1 X107.849 Y77 E54.85893
G1 X107.903 Y77.529 E54.88539
G1 X108.068 Y78.05 E54.91259
G1 X108.341 Y78.539 E54.94046
G0 F2400 X108.667 Y78.305
G1 F1050 X109.011 Y78.685 E54.96597
G1 X109.396 Y78.959 E54.98948
G1 X109.827 Y79.146 E55.01286
G1 X110.287 Y79.238 E55.03621
G1 X110.759 Y79.234 E55.0597
G1 X111.217 Y79.131 E55.08306
G1 X111.642 Y78.937 E55.10631
G1 X112.006 Y78.672 E55.12872
G1 X112.321 Y78.323 E55.15211
G1 X112.556 Y77.915 E55.17554
G1 X112.701 Y77.468 E55.19893
G1 X112.75 Y77 E55.22235
G1 X112.701 Y76.532 E55.24577
G1 X112.556 Y76.085 E55.26915
G1 X112.321 Y75.677 E55.29258
G1 X112.005 Y75.327 E55.31605
G1 X111.625 Y75.051 E55.33942
G1 X111.196 Y74.861 E55.36277
G1 X110.736 Y74.762 E55.38619
G1 X110.264 Y74.762 E55.40968
G1 X109.804 Y74.861 E55.43309
G1 X109.375 Y75.051 E55.45644
G1 X108.995 Y75.327 E55.47982
G1 X108.679 Y75.677 E55.50328
G1 X108.444 Y76.085 E55.52671
G1 X108.299 Y76.532 E55.5501
G1 X108.25 Y77 E55.57352
G1 X108.296 Y77.448 E55.59593
G1 X108.436 Y77.891 E55.61905
G1 X108.667 Y78.305 E55.64264
G0 F2400 X108.586 Y78.363
G0 X103.498 Y83.062
G0 X103.432 Y83.136
G1 F1050 X101.3 Y81.588 E55.77376
G1 X98.894 Y80.516 E55.90485
G1 X96.317 Y79.969 E56.03595
G1 X93.683 Y79.969 E56.16703
G1 X91.114 Y80.514 E56.29772
G1 X88.7 Y81.588 E56.42921
G1 X86.568 Y83.136 E56.56033
G1 X84.806 Y85.094 E56.69141
G1 X83.489 Y87.375 E56.82249
G1 X82.675 Y89.88 E56.95357
G1 X82.4 Y92.5 E57.08467
G1 X82.675 Y95.12 E57.21577
G1 X83.403 Y97.359 E57.33294
G1 X83.403 Y110.753 E57.9995
G1 X81.253 Y112.903 E58.15082
G1 X78.889 Y112.903 E58.26846
G1 X69.597 Y103.612 E58.92239
G1 X69.597 Y72.489 E60.47124
G1 X114.644 Y72.488 E62.71302
G1 X115.403 Y73.247 E62.76644
G1 X115.403 Y87.753 E63.48834
G1 X110.753 Y92.403 E63.8156
G1 X107.59 Y92.403 E63.97301
G1 X107.325 Y89.88 E64.09926
G1 X106.512 Y87.375 E64.23032
G1 X105.194 Y85.094 E64.36143
G1 X103.432 Y83.136 E64.49251
G0 F2400 X103.498 Y83.062
G0 X115.367 Y87.738
G0 X114.629 Y72.524
G0 X69.625 Y72.517
G0 X81.071 Y106.253
G0 X81.005 Y106.327
G1 F1050 X80.625 Y106.051 E64.51588
G1 X80.196 Y105.86 E64.53925
G1 X79.735 Y105.762 E64.56271
G1 X79.265 Y105.762 E64.5861
G1 X78.804 Y105.86 E64.60955
G1 X78.375 Y106.051 E64.63292
G1 X77.995 Y106.327 E64.6563
G1 X77.679 Y106.677 E64.67976
G1 X77.444 Y107.085 E64.70319
G1 X77.299 Y107.532 E64.72658
G1 X77.25 Y108 E64.75
G1 X77.296 Y108.448 E64.77241
G1 X77.436 Y108.891 E64.79553
G1 X77.667 Y109.305 E64.81912
G1 X78.011 Y109.685 E64.84463
G1 X78.396 Y109.959 E64.86815
G1 X78.827 Y110.146 E64.89153
G1 X79.289 Y110.238 E64.91497
G1 X79.758 Y110.234 E64.93831
G1 X80.217 Y110.131 E64.96172
G1 X80.642 Y109.937 E64.98497
G1 X81.006 Y109.672 E65.00738
G1 X81.321 Y109.323 E65.03078
G1 X81.556 Y108.915 E65.05421
G1 X81.701 Y108.468 E65.07759
G1 X81.75 Y108 E65.10101
G1 X81.701 Y107.532 E65.12443
G1 X81.556 Y107.085 E65.14782
G1 X81.321 Y106.677 E65.17125
G1 X81.005 Y106.327 E65.19471
G0 F2400 X80.738 Y106.625
;TYPE:WALL-OUTER
G1 F1050 X80.425 Y106.398 E65.21396
G1 X80.072 Y106.241 E65.23318
G1 X79.693 Y106.16 E65.25247
G1 X79.307 Y106.16 E65.27168
G1 X78.928 Y106.241 E65.29097
G1 X78.575 Y106.398 E65.31019
G1 X78.262 Y106.625 E65.32943
G1 X78.003 Y106.912 E65.34867
G1 X77.81 Y107.248 E65.36796
