;FLAVOR:Marlin
;TIME:8154
;Filament used: 4.08766m
;Layer height: 0.1
;Generated with Cura_SteamEngine 2.7.0
M190 S50
M104 S210
M109 S210
G21 ;metric values
G90 ;absolute positioning
M82 ;set extruder to absolute mode
M107 ;start with the fan off
G92 E0 ;zero the extruded length
G1 F200 E3 ;extrude 3mm of feed stock
G92 E0 ;zero the extruded length again
G1 F9000
M301 P31.36 I3.30 D74.51 ;set PID tuning for E0
M304 P72.25 I2.72 D479.41 ; set PID tuning for heated bed
M117 Printing...
;LAYER_COUNT:138
;LAYER:0
M107
M205 X20 Y20
G0 F2400 X77.351 Y76.073 Z0.3
;TYPE:SKIRT
G1 F1050 X78.802 Y74.607 E0.10265
G1 X78.866 Y74.544 E0.10712
G1 X79.351 Y74.072 E0.1408
G1 X79.822 Y73.67 E0.17161
G1 X80.34 Y73.331 E0.20242
G1 X85.82 Y70.241 E0.5155
G1 X90.345 Y67.318 E0.78359
G1 X94.091 Y64.619 E1.01336
G1 X94.616 Y64.29 E1.04419
G1 X95.178 Y64.032 E1.07497
G1 X95.77 Y63.848 E1.10582
G1 X96.38 Y63.742 E1.13663
G1 X96.895 Y63.714 E1.1623
G1 X104.241 Y63.714 E1.52787
G1 X104.859 Y63.754 E1.55869
G1 X105.466 Y63.873 E1.58948
G1 X106.053 Y64.07 E1.62029
G1 X106.61 Y64.34 E1.65109
G1 X107.128 Y64.68 E1.68193
G1 X107.597 Y65.084 E1.71274
G1 X108.01 Y65.545 E1.74354
G1 X108.361 Y66.055 E1.77435
G1 X108.643 Y66.606 E1.80515
G1 X108.851 Y67.189 E1.83596
G1 X108.983 Y67.794 E1.86677
G1 X109.037 Y68.51 E1.90251
G1 X109.037 Y116.491 E4.2903
G1 X108.997 Y117.109 E4.32112
G1 X108.878 Y117.716 E4.3519
G1 X108.681 Y118.303 E4.38272
G1 X108.411 Y118.86 E4.41352
G1 X108.071 Y119.378 E4.44436
G1 X107.667 Y119.847 E4.47516
G1 X107.206 Y120.26 E4.50597
G1 X106.696 Y120.611 E4.53678
G1 X106.145 Y120.893 E4.56758
G1 X105.562 Y121.101 E4.59838
G1 X104.957 Y121.233 E4.6292
G1 X104.24 Y121.287 E4.66498
G1 X96.895 Y121.286 E5.03051
G1 X96.278 Y121.246 E5.06128
G1 X95.67 Y121.127 E5.09211
G1 X95.083 Y120.93 E5.12293
G1 X94.526 Y120.66 E5.15373
G1 X94.084 Y120.375 E5.1799
G1 X90.872 Y118.05 E5.37723
G1 X86.351 Y115.089 E5.64618
G1 X80.351 Y111.674 E5.98975
G1 X79.834 Y111.334 E6.02054
G1 X79.341 Y110.907 E6.053
G1 X77.378 Y108.955 E6.19077
G1 X76.968 Y108.491 E6.22158
G1 X76.622 Y107.978 E6.25238
G1 X76.344 Y107.425 E6.28318
G1 X76.14 Y106.84 E6.31401
G1 X76.012 Y106.234 E6.34484
G1 X75.964 Y105.554 E6.37876
G1 X75.964 Y79.447 E7.67799
G1 X76.004 Y78.829 E7.70881
G1 X76.123 Y78.222 E7.73959
G1 X76.32 Y77.635 E7.7704
G1 X76.59 Y77.078 E7.80121
G1 X76.93 Y76.56 E7.83204
G1 X77.351 Y76.073 E7.86408
G0 F2400 X77.635 Y76.354
G1 F1050 X79.086 Y74.888 E7.96673
G1 X79.144 Y74.83 E7.97081
G1 X79.629 Y74.358 E8.00449
G1 X80.081 Y73.974 E8.03401
G1 X80.536 Y73.679 E8.06099
G1 X86.028 Y70.583 E8.37474
G1 X90.564 Y67.652 E8.6435
G1 X94.324 Y64.943 E8.87413
G1 X94.828 Y64.629 E8.90368
G1 X95.368 Y64.387 E8.93313
G1 X95.937 Y64.219 E8.96265
G1 X96.523 Y64.129 E8.99216
G1 X96.895 Y64.113 E9.01069
G1 X104.241 Y64.113 E9.37626
G1 X104.832 Y64.153 E9.40574
G1 X105.413 Y64.272 E9.43526
G1 X105.972 Y64.468 E9.46474
G1 X106.5 Y64.738 E9.49425
G1 X106.987 Y65.076 E9.52375
G1 X107.424 Y65.477 E9.55327
G1 X107.803 Y65.932 E9.58273
G1 X108.118 Y66.435 E9.61227
G1 X108.361 Y66.975 E9.64174
G1 X108.53 Y67.543 E9.67123
G1 X108.621 Y68.129 E9.70074
G1 X108.638 Y68.51 E9.71972
G1 X108.638 Y116.491 E12.10752
G1 X108.598 Y117.082 E12.137
G1 X108.479 Y117.663 E12.16651
G1 X108.283 Y118.222 E12.19599
G1 X108.013 Y118.75 E12.2255
G1 X107.675 Y119.237 E12.25501
G1 X107.274 Y119.674 E12.28452
G1 X106.819 Y120.053 E12.31399
G1 X106.316 Y120.368 E12.34353
G1 X105.776 Y120.611 E12.373
G1 X105.208 Y120.78 E12.40249
G1 X104.622 Y120.871 E12.432
G1 X104.24 Y120.888 E12.45103
G1 X96.895 Y120.887 E12.81656
G1 X96.304 Y120.847 E12.84603
G1 X95.723 Y120.728 E12.87555
G1 X95.164 Y120.532 E12.90503
G1 X94.636 Y120.262 E12.93454
G1 X94.318 Y120.052 E12.9535
G1 X91.089 Y117.715 E13.15187
G1 X86.564 Y114.751 E13.42107
G1 X80.548 Y111.327 E13.76555
G1 X80.054 Y111 E13.79503
G1 X79.623 Y110.624 E13.8235
G1 X77.66 Y108.672 E13.96126
G1 X77.268 Y108.227 E13.99078
G1 X76.941 Y107.733 E14.02026
G1 X76.682 Y107.199 E14.04979
G1 X76.498 Y106.636 E14.07927
G1 X76.391 Y106.053 E14.10877
G1 X76.363 Y105.554 E14.13364
G1 X76.363 Y79.447 E15.43287
G1 X76.403 Y78.856 E15.46235
G1 X76.522 Y78.275 E15.49186
G1 X76.718 Y77.716 E15.52134
G1 X76.988 Y77.188 E15.55085
G1 X77.326 Y76.701 E15.58035
G1 X77.635 Y76.354 E15.60348
G0 F2400 X77.918 Y76.635
G1 F1050 X79.369 Y75.169 E15.70613
G1 X79.423 Y75.116 E15.70989
G1 X79.908 Y74.644 E15.74357
G1 X80.34 Y74.279 E15.77172
G1 X80.732 Y74.026 E15.79493
G1 X86.243 Y70.919 E16.10977
G1 X90.784 Y67.985 E16.37883
G1 X94.558 Y65.266 E16.61031
G1 X95.039 Y64.969 E16.63844
G1 X95.556 Y64.743 E16.66652
G1 X96.101 Y64.592 E16.69466
G1 X96.895 Y64.512 E16.73438
G1 X104.241 Y64.512 E17.09996
G1 X104.805 Y64.552 E17.12809
G1 X105.357 Y64.671 E17.1562
G1 X105.887 Y64.867 E17.18432
G1 X106.385 Y65.135 E17.21246
G1 X106.839 Y65.471 E17.24057
G1 X107.242 Y65.868 E17.26872
G1 X107.584 Y66.318 E17.29685
G1 X107.86 Y66.811 E17.32497
G1 X108.063 Y67.338 E17.35307
G1 X108.19 Y67.889 E17.38121
G1 X108.239 Y68.51 E17.41221
G1 X108.239 Y116.491 E19.80001
G1 X108.199 Y117.055 E19.82815
G1 X108.08 Y117.607 E19.85625
G1 X107.884 Y118.137 E19.88437
G1 X107.616 Y118.635 E19.91251
G1 X107.28 Y119.089 E19.94062
G1 X106.883 Y119.492 E19.96878
G1 X106.433 Y119.834 E19.9969
G1 X105.94 Y120.11 E20.02502
G1 X105.413 Y120.313 E20.05313
G1 X104.862 Y120.44 E20.08127
G1 X104.24 Y120.489 E20.11232
G1 X96.895 Y120.488 E20.47784
G1 X96.332 Y120.448 E20.50593
G1 X95.779 Y120.329 E20.53408
G1 X95.249 Y120.133 E20.5622
G1 X94.552 Y119.729 E20.6023
G1 X91.315 Y117.386 E20.80116
G1 X86.775 Y114.412 E21.07125
G1 X80.746 Y110.981 E21.41647
G1 X80.275 Y110.667 E21.44464
G1 X79.904 Y110.341 E21.46922
G1 X77.941 Y108.389 E21.60699
G1 X77.569 Y107.963 E21.63513
G1 X77.262 Y107.489 E21.66324
G1 X77.024 Y106.976 E21.69138
G1 X76.86 Y106.435 E21.71951
G1 X76.775 Y105.877 E21.7476
G1 X76.762 Y105.554 E21.76369
G1 X76.762 Y79.447 E23.06292
G1 X76.802 Y78.883 E23.09106
G1 X76.921 Y78.331 E23.11916
G1 X77.117 Y77.801 E23.14728
G1 X77.385 Y77.303 E23.17542
G1 X77.721 Y76.849 E23.20353
G1 X77.918 Y76.635 E23.21801
G0 F2400 X78.202 Y76.915
G1 F1050 X79.653 Y75.449 E23.32065
G1 X79.701 Y75.402 E23.324
G1 X80.186 Y74.93 E23.35768
G1 X80.597 Y74.585 E23.38438
G1 X80.928 Y74.374 E23.40392
G1 X86.438 Y71.268 E23.71869
G1 X91.017 Y68.309 E23.99001
G1 X94.791 Y65.59 E24.22149
G1 X95.248 Y65.31 E24.24816
G1 X95.742 Y65.101 E24.27485
G1 X96.261 Y64.967 E24.30153
G1 X96.895 Y64.911 E24.3332
G1 X104.241 Y64.911 E24.69878
G1 X104.776 Y64.951 E24.72548
G1 X105.299 Y65.07 E24.75217
G1 X105.798 Y65.265 E24.77883
G1 X106.263 Y65.533 E24.80554
G1 X106.683 Y65.866 E24.83222
G1 X107.048 Y66.258 E24.85887
G1 X107.352 Y66.7 E24.88557
G1 X107.586 Y67.182 E24.91223
G1 X107.746 Y67.694 E24.93893
G1 X107.829 Y68.224 E24.96562
G1 X107.84 Y68.51 E24.97987
G1 X107.84 Y116.491 E27.36767
G1 X107.8 Y117.026 E27.39436
G1 X107.681 Y117.549 E27.42106
G1 X107.486 Y118.048 E27.44772
G1 X107.218 Y118.513 E27.47443
G1 X106.885 Y118.933 E27.5011
G1 X106.493 Y119.298 E27.52776
G1 X106.051 Y119.602 E27.55445
G1 X105.569 Y119.836 E27.58112
G1 X105.057 Y119.996 E27.60781
G1 X104.527 Y120.079 E27.63451
G1 X104.241 Y120.09 E27.64875
G1 X96.896 Y120.089 E28.01428
G1 X96.361 Y120.049 E28.04098
G1 X95.838 Y119.93 E28.06767
G1 X95.339 Y119.735 E28.09433
G1 X94.786 Y119.405 E28.12638
G1 X91.561 Y117.071 E28.3245
G1 X86.977 Y114.068 E28.59722
G1 X80.943 Y110.634 E28.94272
G1 X80.498 Y110.335 E28.9694
G1 X80.185 Y110.058 E28.9902
G1 X78.222 Y108.106 E29.12797
G1 X77.871 Y107.701 E29.15464
G1 X77.584 Y107.248 E29.18133
G1 X77.368 Y106.757 E29.20803
G1 X77.227 Y106.24 E29.23469
G1 X77.161 Y105.554 E29.26899
G1 X77.161 Y79.447 E30.56822
G1 X77.201 Y78.912 E30.59492
G1 X77.32 Y78.389 E30.62161
G1 X77.515 Y77.89 E30.64827
G1 X77.783 Y77.425 E30.67498
G1 X78.202 Y76.915 E30.70783
G0 F2400 X78.486 Y77.196
G1 F1050 X79.937 Y75.73 E30.81048
G1 X79.979 Y75.688 E30.81343
G1 X80.464 Y75.216 E30.84711
G1 X80.853 Y74.893 E30.87227
G1 X81.124 Y74.722 E30.88822
G1 X86.641 Y71.612 E31.2034
G1 X91.241 Y68.64 E31.47594
G1 X95.024 Y65.914 E31.70799
G1 X95.457 Y65.652 E31.73318
G1 X95.925 Y65.461 E31.75833
G1 X96.417 Y65.346 E31.78347
G1 X96.895 Y65.31 E31.80733
G1 X104.241 Y65.31 E32.17291
G1 X104.745 Y65.35 E32.19807
G1 X105.236 Y65.469 E32.22321
G1 X105.703 Y65.663 E32.24838
G1 X106.133 Y65.929 E32.27354
G1 X106.516 Y66.259 E32.2987
G1 X106.842 Y66.646 E32.32388
G1 X107.103 Y67.079 E32.34904
G1 X107.293 Y67.547 E32.37418
G1 X107.406 Y68.04 E32.39935
G1 X107.441 Y68.51 E32.4228
G1 X107.441 Y116.491 E34.8106
G1 X107.401 Y116.995 E34.83576
G1 X107.282 Y117.486 E34.8609
G1 X107.088 Y117.953 E34.88607
G1 X106.822 Y118.383 E34.91123
G1 X106.492 Y118.766 E34.93639
G1 X106.105 Y119.092 E34.96157
G1 X105.672 Y119.353 E34.98673
G1 X105.204 Y119.543 E35.01187
G1 X104.711 Y119.656 E35.03704
G1 X104.241 Y119.691 E35.06049
G1 X96.896 Y119.69 E35.42602
G1 X96.392 Y119.65 E35.45118
G1 X95.9 Y119.531 E35.47637
G1 X95.434 Y119.336 E35.50151
G1 X95.02 Y119.082 E35.52568
G1 X91.778 Y116.736 E35.72483
G1 X87.19 Y113.73 E35.9978
G1 X81.14 Y110.287 E36.34422
G1 X80.722 Y110.003 E36.36937
G1 X80.467 Y109.775 E36.38639
G1 X78.504 Y107.823 E36.52416
G1 X78.174 Y107.439 E36.54936
G1 X77.91 Y107.009 E36.57447
G1 X77.716 Y106.542 E36.59964
G1 X77.599 Y106.05 E36.6248
G1 X77.56 Y105.554 E36.64956
G1 X77.56 Y79.447 E37.94879
G1 X77.6 Y78.943 E37.97395
G1 X77.719 Y78.452 E37.99909
G1 X77.913 Y77.985 E38.02426
G1 X78.179 Y77.555 E38.04942
G1 X78.486 Y77.196 E38.07293
G0 F2400 X94.783 Y74.124
;TYPE:SUPPORT
G1 F1050 X94.784 Y72.35 E38.16121
G1 X95.351 Y72.12 E38.19166
G1 X95.351 Y74.366 E38.30344
G1 X94.783 Y74.124 E38.33416
G0 F2400 X94.983 Y73.315
G1 F1050 X95.152 Y73.315 E38.34257
G1 F1500 E37.34257
G0 F2400 X82.605 Y76.836
G0 X82.287 Y76.967
G0 X80.217 Y79.037
G0 X80.086 Y79.355
G0 X80.086 Y105.645
G0 X80.217 Y105.963
G0 X82.287 Y108.033
G0 X82.605 Y108.164
G0 X95.351 Y110.62
G1 F1500 E38.34257
G1 F1050 X95.351 Y112.866 E38.45435
G1 X94.783 Y112.624 E38.48507
G1 X94.784 Y110.85 E38.57335
G1 X95.351 Y110.62 E38.6038
G0 F2400 X95.152 Y111.972
G1 F1050 X94.983 Y111.972 E38.61222
G1 F1500 E37.61222
G0 F2400 X95.585 Y111.972
G0 X96.867 Y111.972
G0 X97.246 Y106.504
;TYPE:WALL-INNER
G1 F1500 E38.61222
G1 F1050 X83.104 Y106.504 E39.316
G1 X81.746 Y105.146 E39.41157
G1 X81.746 Y79.854 E40.67024
G1 X83.104 Y78.496 E40.76582
G1 X97.246 Y78.496 E41.4696
G1 X97.246 Y69.554 E41.9146
G1 X97.304 Y69.496 E41.91868
G1 X103.254 Y69.496 E42.21479
G1 X103.254 Y115.504 E44.5044
G1 X97.304 Y115.504 E44.8005
G1 X97.246 Y115.446 E44.80459
G1 X97.246 Y106.504 E45.24959
G0 F2400 X95.414 Y96.623
G1 F1050 X101.246 Y96.623 E45.53982
G1 X101.246 Y93.828 E45.67892
G1 X100.781 Y93.828 E45.70206
G1 X101.121 Y93.622 E45.70504
G1 X101.246 Y93.546 E45.71011
G1 X101.246 Y88.146 E45.97885
G1 X98.686 Y88.146 E46.10625
G1 X98.686 Y89.024 E46.14994
G1 X95.414 Y89.024 E46.31277
G1 X95.414 Y91.035 E46.41285
G1 X95.993 Y91.938 E46.46623
G1 X95.909 Y92.004 E46.47155
G1 X95.515 Y92.814 E46.51638
G1 X95.414 Y93.647 E46.55813
G1 X95.414 Y96.623 E46.70624
G0 F2400 X95.813 Y96.224
G1 F1050 X100.847 Y96.224 E46.95676
G1 X100.847 Y94.227 E47.05614
G1 X100.065 Y94.227 E47.09505
G1 X99.375 Y94.227 E47.12939
G1 X99.375 Y94.214 E47.13004
G1 X99.965 Y93.856 E47.14839
G1 X100.847 Y93.321 E47.19972
G1 X100.847 Y88.545 E47.4374
G1 X99.085 Y88.545 E47.52509
G1 X99.085 Y89.423 E47.56878
G1 X95.813 Y89.423 E47.73162
G1 X95.813 Y90.918 E47.80602
G1 X96.525 Y92.029 E47.87168
G1 X96.227 Y92.262 E47.89051
G1 X95.903 Y92.928 E47.92737
G1 X95.813 Y93.671 E47.96461
G1 X95.813 Y96.224 E48.09166
G1 F1500 E47.09166
G0 F2400 X95.743 Y96.294
G0 X95.813 Y93.671
G0 X98.26 Y91.82
G0 X98.417 Y91.686
G0 X98.318 Y91.688
G1 F1500 E48.09166
G1 F1050 X98.129 Y91.381 E48.10961
G1 X98.318 Y91.381
G1 X99.085 Y91.381 E48.14778
G1 X99.085 Y91.98 E48.17759
G1 X99.085 Y92.118 E48.18445
G1 X98.838 Y92.276 E48.19904
G1 X98.746 Y92.174 E48.20503
G1 X98.615 Y92.027 E48.21483
G1 X98.241 Y91.825 E48.23598
G1 X98.318 Y91.688 E48.2438
G1 F1500 E47.2438
G0 F2400 X98.417 Y91.686
G0 X98.146 Y91.39
G0 X98.146 Y89.423
G0 X96.917 Y78.167
G0 X96.847 Y78.097
G1 F1500 E48.2438
G1 F1050 X96.847 Y69.389 E48.67716
G1 X97.139 Y69.097 E48.69771
G1 X103.653 Y69.097 E49.02188
G1 X103.653 Y115.903 E51.35121
G1 X97.139 Y115.903 E51.67538
G1 X96.847 Y115.611 E51.69593
G1 X96.847 Y106.903 E52.12929
G1 X82.939 Y106.903 E52.82142
G1 X81.347 Y105.311 E52.93347
G1 X81.347 Y79.689 E54.20856
G1 X82.939 Y78.097 E54.3206
G1 X96.847 Y78.097 E55.01274
G0 F2400 X96.449 Y77.699
;TYPE:WALL-OUTER
G1 F1050 X96.449 Y69.225 E55.43445
G1 X96.975 Y68.699 E55.47147
G1 X104.051 Y68.699 E55.82361
G1 X104.051 Y116.301 E58.19255
G1 X96.975 Y116.301 E58.54469
G1 X96.449 Y115.775 E58.58171
G1 X96.449 Y107.301 E59.00342
G1 X82.775 Y107.301 E59.68392
G1 X80.949 Y105.475 E59.81243
G1 X80.949 Y79.525 E61.10384
G1 X82.775 Y77.699 E61.23235
G1 X96.449 Y77.699 E61.91285
G0 F2400 X96.449 Y77.499
G0 X96.947 Y77.499
G0 X99.483 Y88.445
G0 X99.483 Y88.943
G1 F1050 X99.483 Y89.821 E61.95654
G1 X96.211 Y89.821 E62.11937
G1 X96.211 Y90.801 E62.16814
G1 X96.916 Y91.902 E62.23321
G1 X96.977 Y91.902 E62.23624
G1 X97.544 Y91.902 E62.26446
G1 X97.743 Y91.902 E62.27436
G1 X97.757 Y91.877 E62.27579
G1 X97.857 Y91.698 E62.28599
G1 X97.603 Y91.286 E62.31008
G1 X97.416 Y90.983 E62.3278
G1 X97.772 Y90.983 E62.33779
G1 X97.773 Y90.983 E62.33784
G1 X99.483 Y90.983 E62.42294
G1 X99.483 Y91.932 E62.47016
G1 X99.584 Y91.932 E62.47519
G1 X100.058 Y91.932 E62.49878
G1 X100.115 Y91.932 E62.50162
G1 X100.067 Y91.963 E62.5031
G1 X99.752 Y92.164 E62.5217
G1 X99.667 Y92.218 E62.52635
G1 X98.744 Y92.808 E62.58087
G1 X98.717 Y92.825 E62.58245
G1 X98.652 Y92.665 E62.58427
G1 X98.365 Y92.344 E62.6057
G1 X98.011 Y92.153 E62.62572
G1 X97.986 Y92.14 E62.62712
G1 X97.713 Y92.098 E62.63579
G1 X97.544 Y92.071
G1 X96.977 Y92.181 E62.65165
G1 X96.545 Y92.519 E62.67895
G1 X96.29 Y93.042 E62.7079
G1 X96.211 Y93.695 E62.74064
G1 X96.211 Y95.826 E62.84669
G1 X100.449 Y95.826 E63.05759
G1 X100.449 Y94.625 E63.11736
G1 X98.977 Y94.625 E63.19062
G1 X98.977 Y93.99 E63.22222
G1 X100.449 Y93.097 E63.3079
G1 X100.449 Y92.022 E63.36139
G1 X100.449 Y91.964 E63.36428
G1 X100.436 Y91.957 E63.36502
G1 X100.39 Y91.932 E63.36762
G1 X100.449 Y91.932
G1 X100.449 Y88.943 E63.51637
G1 X99.483 Y88.943 E63.56444
G0 F2400 X99.483 Y89.143
G0 X98.985 Y89.143
G0 X99.057 Y88.517
G0 X103.073 Y69.781
G0 X103.02 Y69.728
G1 F1050 X102.738 Y70.01 E63.5917
;TYPE:SKIN
G1 X103.143 Y70.415
G0 F2400 X103.073 Y70.91
G1 F1050 X101.839 Y69.676 E63.67855
G1 X101.769 Y69.606
G0 F2400 X101.275 Y69.676
G1 F1050 X103.073 Y71.474 E63.80509
G1 X103.143 Y71.544
G0 F2400 X103.073 Y72.038
G1 F1050 X100.711 Y69.676 E63.97133
G1 X100.641 Y69.606
G0 F2400 X100.146 Y69.676
G1 F1050 X103.073 Y72.602 E64.17729
G1 X103.143 Y72.672
G0 F2400 X103.073 Y73.167
G1 F1050 X99.582 Y69.676 E64.42298
G1 X99.512 Y69.606
G0 F2400 X99.018 Y69.676
G1 F1050 X103.073 Y73.731 E64.70837
G1 X103.143 Y73.801
G0 F2400 X103.073 Y74.295
G1 F1050 X98.454 Y69.676 E65.03345
G1 X98.384 Y69.606
G0 F2400 X97.889 Y69.676
G1 F1050 X103.073 Y74.859 E65.39826
G1 X103.143 Y74.929
G0 F2400 X103.073 Y75.424
G1 F1050 X97.425 Y69.775 E65.7958
G1 X97.356 Y69.705
G0 F2400 X97.425 Y70.34
G1 F1050 X103.073 Y75.988 E66.1933
G1 X103.143 Y76.058
G0 F2400 X103.073 Y76.552
G1 F1050 X97.425 Y70.904 E66.5908
G1 X97.355 Y70.834
G0 F2400 X97.425 Y71.468
G1 F1050 X103.073 Y77.117 E66.98833
G1 X103.142 Y77.187
G0 F2400 X103.073 Y77.681
G1 F1050 X97.425 Y72.032 E67.38587
G1 X97.356 Y71.962
G0 F2400 X97.425 Y72.597
G1 F1050 X103.073 Y78.245 E67.78337
G1 X103.143 Y78.315
G0 F2400 X103.073 Y78.809
G1 F1050 X97.425 Y73.161 E68.18087
G1 X97.355 Y73.091
G0 F2400 X97.425 Y73.725
G1 F1050 X103.073 Y79.374 E68.57841
G1 X103.142 Y79.444
G0 F2400 X103.073 Y79.938
G1 F1050 X97.425 Y74.29 E68.97591
G1 X97.355 Y74.22
G0 F2400 X97.425 Y74.854
G1 F1050 X103.073 Y80.502 E69.37341
G1 X103.143 Y80.572
G0 F2400 X103.073 Y81.066
