;FLAVOR:Marlin
;TIME:5109
;Filament used: 4.29629m
;Layer height: 0.2
;Generated with Cura_SteamEngine 2.7.0
M190 S50
M104 S210
M109 S210
G21 ;metric values
G90 ;absolute positioning
M82 ;set extruder to absolute mode
M107 ;start with the fan off
G92 E0 ;zero the extruded length
G1 F200 E3 ;extrude 3mm of feed stock
G92 E0 ;zero the extruded length again
G1 F9000
M301 P31.36 I3.30 D74.51 ;set PID tuning for E0
M304 P72.25 I2.72 D479.41 ; set PID tuning for heated bed
M117 Printing...
;LAYER_COUNT:55
;LAYER:0
M107
G0 F2400 X36.839 Y85.913 Z0.3
G0 X37.192 Y85.787
;TYPE:SKIRT
G1 F1050 X42.252 Y84.201 E0.26389
G1 X47.331 Y82.349 E0.53293
G1 X52.281 Y80.22 E0.80109
G1 X57.106 Y77.813 E1.06943
G1 X61.771 Y75.146 E1.33684
G1 X66.306 Y72.202 E1.60592
G1 X70.65 Y69.018 E1.87395
G1 X73.667 Y66.593 E2.06658
G1 X74.173 Y66.238 E2.09734
G1 X74.722 Y65.95 E2.12819
G1 X75.485 Y65.685 E2.16839
G1 X76.065 Y65.537 E2.19818
G1 X76.632 Y65.428 E2.22691
G1 X80.964 Y64.864 E2.44432
G1 X86.281 Y63.913 E2.71312
G1 X91.5 Y62.672 E2.98009
G1 X96.69 Y61.124 E3.24961
G1 X102.195 Y59.127 E3.54104
G1 X102.789 Y58.954 E3.57183
G1 X103.401 Y58.859 E3.60265
G1 X103.83 Y58.84 E3.62402
G1 X106.19 Y58.84 E3.74147
G1 X106.808 Y58.88 E3.77229
G1 X107.415 Y58.999 E3.80307
G1 X108.002 Y59.196 E3.83388
G1 X108.559 Y59.466 E3.86469
G1 X109.077 Y59.806 E3.89552
G1 X109.521 Y60.185 E3.92457
G1 X112.321 Y62.888 E4.11825
G1 X112.738 Y63.346 E4.14908
G1 X113.092 Y63.854 E4.17989
G1 X113.378 Y64.403 E4.2107
G1 X113.591 Y64.984 E4.24149
G1 X113.727 Y65.588 E4.2723
G1 X113.786 Y66.356 E4.31064
G1 X113.723 Y83.978 E5.18761
G1 X113.79 Y95.497 E5.76087
G1 X113.79 Y95.582 E5.7651
G1 X113.724 Y101.128 E6.04112
G1 X113.796 Y106.812 E6.324
G1 X113.796 Y106.877 E6.32724
G1 X113.786 Y118.659 E6.91358
G1 X113.746 Y119.277 E6.9444
G1 X113.626 Y119.884 E6.97519
G1 X113.429 Y120.471 E7.006
G1 X113.158 Y121.028 E7.03683
G1 X112.817 Y121.545 E7.06765
G1 X112.325 Y122.101 E7.1046
G1 X109.53 Y124.806 E7.29816
G1 X109.059 Y125.207 E7.32895
G1 X108.539 Y125.544 E7.35979
G1 X107.981 Y125.811 E7.39057
G1 X107.392 Y126.004 E7.42142
G1 X106.784 Y126.12 E7.45222
G1 X106.142 Y126.156 E7.48422
G1 X103.157 Y126.123 E7.63278
G1 X102.54 Y126.076 E7.66357
G1 X101.934 Y125.95 E7.69437
G1 X101.552 Y125.827 E7.71435
G1 X96.564 Y123.989 E7.97889
G1 X91.416 Y122.414 E8.24681
G1 X86.117 Y121.114 E8.51833
G1 X83.583 Y120.608 E8.64693
G1 X76.04 Y119.459 E9.02664
G1 X75.435 Y119.327 E9.05746
G1 X74.853 Y119.117 E9.08825
G1 X74.302 Y118.835 E9.11905
G1 X73.787 Y118.48 E9.15018
G1 X69.573 Y115.148 E9.41753
G1 X65.171 Y112.018 E9.68633
G1 X60.615 Y109.153 E9.95416
G1 X55.904 Y106.55 E10.22202
G1 X51.053 Y104.217 E10.4899
G1 X46.064 Y102.156 E10.75853
G1 X40.977 Y100.385 E11.02659
G1 X37.39 Y99.314 E11.21288
G1 X36.81 Y99.099 E11.24367
G1 X36.262 Y98.811 E11.27448
G1 X35.772 Y98.468 E11.30424
G1 X35.555 Y98.295 E11.31805
G1 X35.097 Y97.879 E11.34884
G1 X34.696 Y97.407 E11.37966
G1 X34.4 Y96.958 E11.40643
G1 X33.547 Y95.493 E11.49079
G1 X33.271 Y94.939 E11.52159
G1 X33.068 Y94.354 E11.55241
G1 X32.943 Y93.748 E11.5832
G1 X32.896 Y93.113 E11.61489
G1 X32.888 Y91.959 E11.67232
G1 X32.924 Y91.341 E11.70313
G1 X33.039 Y90.733 E11.73392
G1 X33.231 Y90.144 E11.76475
G1 X33.578 Y89.448 E11.80346
G1 X34.521 Y87.885 E11.8943
G1 X34.874 Y87.377 E11.92508
G1 X35.29 Y86.919 E11.95588
G1 X35.761 Y86.517 E11.98669
G1 X36.281 Y86.18 E12.01753
G1 X36.839 Y85.913 E12.04831
G1 X37.192 Y85.787 E12.06697
G0 F2400 X37.312 Y86.167
G1 F1050 X42.388 Y84.575 E12.33171
G1 X47.483 Y82.718 E12.60158
G1 X52.445 Y80.584 E12.87038
G1 X57.303 Y78.16 E13.14057
G1 X61.982 Y75.486 E13.40877
G1 X66.526 Y72.535 E13.6784
G1 X70.889 Y69.337 E13.94761
G1 X73.917 Y66.904 E14.14092
G1 X74.403 Y66.565 E14.17041
G1 X74.93 Y66.294 E14.1999
G1 X75.584 Y66.072 E14.23427
G1 X76.164 Y65.924 E14.26406
G1 X76.684 Y65.824 E14.29041
G1 X81.024 Y65.259 E14.50821
G1 X86.356 Y64.306 E14.77777
G1 X91.614 Y63.055 E15.04674
G1 X96.804 Y61.507 E15.31627
G1 X102.331 Y59.502 E15.60886
G1 X102.9 Y59.338 E15.63833
G1 X103.487 Y59.252 E15.66785
G1 X103.83 Y59.239 E15.68493
G1 X106.19 Y59.239 E15.80238
G1 X106.781 Y59.279 E15.83186
G1 X107.362 Y59.398 E15.86137
G1 X107.921 Y59.594 E15.89085
G1 X108.449 Y59.864 E15.92036
G1 X108.936 Y60.202 E15.94987
G1 X109.244 Y60.473 E15.97028
G1 X112.044 Y63.176 E16.16396
G1 X112.442 Y63.615 E16.19345
G1 X112.777 Y64.104 E16.22295
G1 X113.043 Y64.634 E16.25246
G1 X113.235 Y65.194 E16.28192
G1 X113.351 Y65.776 E16.31145
G1 X113.387 Y66.355 E16.34032
G1 X113.324 Y83.977 E17.21729
G1 X113.391 Y95.5 E17.79075
G1 X113.391 Y95.578 E17.79463
G1 X113.325 Y101.129 E18.0709
G1 X113.397 Y106.817 E18.35399
G1 X113.397 Y106.877 E18.35698
G1 X113.387 Y118.659 E18.94331
G1 X113.347 Y119.25 E18.97279
G1 X113.227 Y119.831 E19.00232
G1 X113.03 Y120.39 E19.03181
G1 X112.76 Y120.918 E19.06132
G1 X112.422 Y121.404 E19.09078
G1 X112.048 Y121.815 E19.11844
G1 X109.253 Y124.52 E19.31201
G1 X108.8 Y124.902 E19.3415
G1 X108.3 Y125.22 E19.37099
G1 X107.762 Y125.468 E19.40047
G1 X107.195 Y125.642 E19.42998
G1 X106.61 Y125.737 E19.45948
G1 X106.146 Y125.757 E19.48259
G1 X103.161 Y125.724 E19.63115
G1 X102.57 Y125.677 E19.66065
G1 X101.991 Y125.552 E19.69013
G1 X101.69 Y125.453 E19.7059
G1 X96.693 Y123.612 E19.97092
G1 X91.507 Y122.025 E20.24082
G1 X86.221 Y120.728 E20.51168
G1 X83.656 Y120.216 E20.64185
G1 X76.1 Y119.065 E21.02221
G1 X75.521 Y118.936 E21.05173
G1 X74.965 Y118.731 E21.08122
G1 X74.442 Y118.453 E21.1107
G1 X74.035 Y118.167 E21.13545
G1 X69.809 Y114.826 E21.40355
G1 X65.401 Y111.691 E21.67273
G1 X60.821 Y108.811 E21.94198
G1 X56.077 Y106.19 E22.2117
G1 X51.215 Y103.851 E22.4802
G1 X46.211 Y101.785 E22.74962
G1 X41.089 Y100.001 E23.01954
G1 X37.504 Y98.931 E23.20573
G1 X36.949 Y98.724 E23.2352
G1 X36.427 Y98.444 E23.26468
G1 X36.021 Y98.156 E23.28945
G1 X35.804 Y97.983 E23.30327
G1 X35.366 Y97.583 E23.33278
G1 X34.987 Y97.128 E23.36225
G1 X34.745 Y96.757 E23.3843
G1 X33.892 Y95.292 E23.46866
G1 X33.629 Y94.761 E23.49815
G1 X33.44 Y94.2 E23.52761
G1 X33.328 Y93.617 E23.55716
G1 X33.295 Y93.11 E23.58244
G1 X33.287 Y91.956 E23.63987
G1 X33.323 Y91.365 E23.66934
G1 X33.438 Y90.783 E23.69886
G1 X33.63 Y90.223 E23.72832
G1 X33.919 Y89.655 E23.76004
G1 X34.862 Y88.092 E23.85088
G1 X35.202 Y87.606 E23.8804
G1 X35.604 Y87.17 E23.90991
G1 X36.061 Y86.793 E23.93939
G1 X36.564 Y86.48 E23.96888
G1 X37.312 Y86.167 E24.00923
G0 F2400 X37.431 Y86.548
G1 F1050 X42.518 Y84.953 E24.27454
G1 X47.621 Y83.093 E24.54483
G1 X52.617 Y80.944 E24.81549
G1 X57.487 Y78.514 E25.08634
G1 X62.197 Y75.822 E25.35632
G1 X66.734 Y72.876 E25.62553
G1 X71.167 Y69.626 E25.89908
G1 X74.167 Y67.216 E26.09058
G1 X74.631 Y66.894 E26.11869
G1 X75.136 Y66.64 E26.14682
G1 X75.682 Y66.458 E26.17546
G1 X76.262 Y66.31 E26.20525
G1 X76.735 Y66.219 E26.22922
G1 X81.083 Y65.653 E26.44743
G1 X86.464 Y64.691 E26.71946
G1 X91.699 Y63.446 E26.98725
G1 X96.948 Y61.879 E27.25986
G1 X102.467 Y59.878 E27.55201
G1 X103.01 Y59.723 E27.58011
G1 X103.83 Y59.638 E27.62114
G1 X106.19 Y59.638 E27.73858
G1 X106.754 Y59.678 E27.76672
G1 X107.306 Y59.797 E27.79482
G1 X107.836 Y59.993 E27.82295
G1 X108.334 Y60.261 E27.85109
G1 X108.967 Y60.76 E27.8912
G1 X111.767 Y63.463 E28.08488
G1 X112.145 Y63.883 E28.113
G1 X112.459 Y64.352 E28.14109
G1 X112.705 Y64.861 E28.16922
G1 X112.876 Y65.4 E28.19736
G1 X112.97 Y65.957 E28.22547
G1 X112.988 Y66.353 E28.2452
G1 X112.925 Y83.975 E29.12218
G1 X112.992 Y95.502 E29.69583
G1 X112.992 Y95.573 E29.69936
G1 X112.926 Y101.129 E29.97588
G1 X112.998 Y106.822 E30.25922
G1 X112.998 Y106.876 E30.26191
G1 X112.988 Y118.658 E30.84824
G1 X112.948 Y119.222 E30.87638
G1 X112.828 Y119.775 E30.90454
G1 X112.632 Y120.305 E30.93266
G1 X112.363 Y120.802 E30.96079
G1 X112.026 Y121.256 E30.98893
G1 X111.77 Y121.528 E31.00751
G1 X108.975 Y124.233 E31.20108
G1 X108.542 Y124.596 E31.2292
G1 X108.063 Y124.895 E31.2573
G1 X107.546 Y125.123 E31.28542
G1 X107.001 Y125.276 E31.31359
G1 X106.441 Y125.35 E31.3417
G1 X106.151 Y125.358 E31.35614
G1 X103.166 Y125.325 E31.5047
G1 X102.603 Y125.279 E31.53281
G1 X101.828 Y125.078 E31.57266
G1 X96.826 Y123.235 E31.83794
G1 X91.625 Y121.644 E32.10861
G1 X86.303 Y120.338 E32.38132
G1 X83.707 Y119.819 E32.51307
G1 X76.16 Y118.67 E32.89298
G1 X75.609 Y118.546 E32.92108
G1 X75.08 Y118.345 E32.94925
G1 X74.586 Y118.072 E32.97733
G1 X74.282 Y117.854 E32.99595
G1 X70.049 Y114.507 E33.2645
G1 X65.612 Y111.352 E33.53544
G1 X61.034 Y108.473 E33.80458
G1 X56.265 Y105.839 E34.0757
G1 X51.369 Y103.483 E34.3461
G1 X46.368 Y101.418 E34.61536
G1 X41.202 Y99.619 E34.88759
G1 X37.618 Y98.549 E35.07373
G1 X37.09 Y98.349 E35.10182
G1 X36.594 Y98.077 E35.12997
G1 X36.27 Y97.844 E35.14984
G1 X36.053 Y97.671 E35.16365
G1 X35.637 Y97.288 E35.19179
G1 X35.279 Y96.851 E35.2199
G1 X35.09 Y96.557 E35.23729
G1 X34.237 Y95.092 E35.32166
G1 X33.988 Y94.584 E35.34981
G1 X33.813 Y94.047 E35.37792
G1 X33.715 Y93.49 E35.40606
G1 X33.694 Y93.108 E35.4251
G1 X33.686 Y91.954 E35.48253
G1 X33.722 Y91.39 E35.51066
G1 X33.837 Y90.836 E35.53882
G1 X34.029 Y90.305 E35.56692
G1 X34.261 Y89.861 E35.59185
G1 X35.204 Y88.298 E35.68269
G1 X35.529 Y87.836 E35.7108
G1 X35.917 Y87.424 E35.73897
G1 X36.358 Y87.071 E35.76708
G1 X36.845 Y86.784 E35.79521
G1 X37.431 Y86.548 E35.82665
G0 F2400 X37.55 Y86.929
G1 F1050 X42.641 Y85.333 E36.09216
G1 X47.779 Y83.46 E36.36432
G1 X52.782 Y81.308 E36.63535
G1 X57.678 Y78.865 E36.90765
G1 X62.386 Y76.174 E37.17752
G1 X66.974 Y73.195 E37.44975
G1 X71.407 Y69.946 E37.72327
G1 X74.417 Y67.527 E37.91544
G1 X74.858 Y67.223 E37.9421
G1 X75.341 Y66.988 E37.96883
G1 X75.781 Y66.845 E37.99185
G1 X76.361 Y66.697 E38.02164
G1 X76.787 Y66.615 E38.04323
G1 X81.14 Y66.049 E38.26168
G1 X86.538 Y65.083 E38.53458
G1 X91.8 Y63.831 E38.80376
G1 X97.078 Y62.257 E39.07785
G1 X102.603 Y60.253 E39.37033
G1 X103.119 Y60.108 E39.39701
G1 X103.83 Y60.037 E39.43257
G1 X106.19 Y60.037 E39.55001
G1 X106.725 Y60.077 E39.57671
G1 X107.248 Y60.196 E39.60341
G1 X107.747 Y60.391 E39.63007
G1 X108.212 Y60.659 E39.65678
G1 X108.69 Y61.047 E39.68741
G1 X111.49 Y63.75 E39.88109
G1 X111.847 Y64.15 E39.90777
G1 X112.14 Y64.599 E39.93446
G1 X112.364 Y65.086 E39.96113
G1 X112.513 Y65.601 E39.98781
G1 X112.589 Y66.352 E40.02538
G1 X112.526 Y83.974 E40.90235
G1 X112.593 Y95.504 E41.47616
G1 X112.593 Y95.568 E41.47934
G1 X112.527 Y101.129 E41.75611
G1 X112.599 Y106.827 E42.03969
G1 X112.599 Y106.876 E42.04213
G1 X112.589 Y118.658 E42.62847
G1 X112.549 Y119.193 E42.65517
G1 X112.429 Y119.715 E42.68182
G1 X112.233 Y120.215 E42.70855
G1 X111.966 Y120.679 E42.73519
G1 X111.493 Y121.241 E42.77174
G1 X108.698 Y123.946 E42.96531
G1 X108.286 Y124.289 E42.99199
G1 X107.827 Y124.567 E43.0187
G1 X107.333 Y124.774 E43.04535
G1 X106.813 Y124.906 E43.07205
G1 X106.155 Y124.959 E43.1049
G1 X103.17 Y124.926 E43.25346
G1 X102.636 Y124.88 E43.28014
G1 X101.966 Y124.704 E43.31461
G1 X96.955 Y122.858 E43.58037
G1 X91.716 Y121.255 E43.85302
G1 X86.384 Y119.946 E44.12625
G1 X83.801 Y119.431 E44.25732
G1 X76.22 Y118.276 E44.63895
G1 X75.698 Y118.156 E44.6656
G1 X75.199 Y117.96 E44.69228
G1 X74.53 Y117.541 E44.73157
G1 X70.298 Y114.194 E45.00008
G1 X65.842 Y111.026 E45.27217
G1 X61.214 Y108.116 E45.54423
G1 X56.453 Y105.486 E45.81491
G1 X51.552 Y103.128 E46.08557
G1 X46.494 Y101.039 E46.35791
G1 X41.328 Y99.24 E46.63014
G1 X37.733 Y98.167 E46.81684
G1 X37.232 Y97.975 E46.84355
G1 X36.765 Y97.712 E46.87022
G1 X36.518 Y97.532 E46.88543
G1 X36.301 Y97.359 E46.89924
G1 X35.908 Y96.995 E46.9259
G1 X35.435 Y96.356 E46.96546
G1 X34.582 Y94.891 E47.04982
G1 X34.347 Y94.409 E47.07651
G1 X34.187 Y93.897 E47.10321
G1 X34.093 Y93.105 E47.1429
G1 X34.085 Y91.951 E47.20033
G1 X34.121 Y91.416 E47.22701
G1 X34.237 Y90.892 E47.25372
G1 X34.428 Y90.392 E47.28036
G1 X34.602 Y90.067 E47.2987
G1 X35.545 Y88.504 E47.38955
G1 X35.856 Y88.067 E47.41624
G1 X36.228 Y87.68 E47.44295
G1 X36.653 Y87.354 E47.46961
G1 X37.122 Y87.094 E47.4963
G1 X37.55 Y86.929 E47.51912
G0 F2400 X37.67 Y87.31
G1 F1050 X42.765 Y85.713 E47.78484
G1 X47.91 Y83.837 E48.05738
G1 X52.961 Y81.664 E48.33102
G1 X57.862 Y79.219 E48.60358
G1 X62.601 Y76.51 E48.87523
G1 X67.202 Y73.523 E49.14823
G1 X71.646 Y70.265 E49.42245
G1 X74.667 Y67.838 E49.6153
G1 X75.084 Y67.553 E49.64043
G1 X75.542 Y67.338 E49.66561
G1 X75.88 Y67.231 E49.68326
G1 X76.46 Y67.083 E49.71305
G1 X76.838 Y67.011 E49.7322
G1 X81.202 Y66.443 E49.9512
G1 X86.613 Y65.475 E50.22476
G1 X91.914 Y64.214 E50.49593
G1 X97.191 Y62.64 E50.76997
G1 X102.739 Y60.628 E51.06367
G1 X103.226 Y60.493 E51.08882
G1 X103.83 Y60.436 E51.11901
G1 X106.19 Y60.436 E51.23646
G1 X106.694 Y60.476 E51.26162
G1 X107.185 Y60.595 E51.28676
G1 X107.652 Y60.789 E51.31193
G1 X108.082 Y61.055 E51.33709
G1 X108.413 Y61.334 E51.35863
G1 X111.213 Y64.037 E51.55231
G1 X111.547 Y64.416 E51.57745
G1 X111.818 Y64.842 E51.60258
G1 X112.019 Y65.306 E51.62774
G1 X112.144 Y65.796 E51.65291
G1 X112.19 Y66.35 E51.68057
G1 X112.127 Y83.972 E52.55754
G1 X112.194 Y95.506 E53.13155
G1 X112.194 Y95.563 E53.13439
G1 X112.127 Y101.129 E53.4114
G1 X112.2 Y106.832 E53.69524
G1 X112.2 Y106.876 E53.69743
G1 X112.19 Y118.658 E54.28376
G1 X112.15 Y119.162 E54.30892
G1 X112.03 Y119.653 E54.33408
G1 X111.835 Y120.119 E54.35922
G1 X111.569 Y120.549 E54.38438
G1 X111.215 Y120.954 E54.41115
G1 X108.42 Y123.659 E54.60472
G1 X108.03 Y123.981 E54.62989
G1 X107.595 Y124.238 E54.65503
G1 X107.124 Y124.422 E54.68019
G1 X106.63 Y124.53 E54.70536
G1 X106.16 Y124.56 E54.7288
G1 X103.175 Y124.527 E54.87735
G1 X102.671 Y124.481 E54.90254
G1 X102.104 Y124.33 E54.93174
G1 X97.068 Y122.474 E55.19884
G1 X91.84 Y120.875 E55.47091
G1 X86.466 Y119.556 E55.74629
G1 X83.874 Y119.038 E55.87783
G1 X76.28 Y117.882 E56.2601
G1 X75.788 Y117.766 E56.28526
G1 X75.32 Y117.575 E56.31041
G1 X74.777 Y117.228 E56.34248
G1 X70.528 Y113.868 E56.61206
G1 X66.069 Y110.698 E56.88433
G1 X61.419 Y107.773 E57.15771
G1 X56.641 Y105.134 E57.42935
G1 X51.699 Y102.756 E57.70228
G1 X46.637 Y100.666 E57.97482
G1 X41.447 Y98.859 E58.24831
G1 X37.847 Y97.784 E58.43528
G1 X37.375 Y97.602 E58.46046
G1 X36.767 Y97.22 E58.49619
G1 X36.55 Y97.047 E58.51
G1 X36.181 Y96.702 E58.53514
G1 X35.78 Y96.155 E58.5689
G1 X34.927 Y94.69 E58.65326
G1 X34.708 Y94.235 E58.67839
G1 X34.563 Y93.75 E58.70358
G1 X34.492 Y93.102 E58.73602
G1 X34.484 Y91.948 E58.79345
G1 X34.521 Y91.444 E58.8186
G1 X34.636 Y90.952 E58.84375
G1 X34.944 Y90.273 E58.88085
G1 X35.887 Y88.71 E58.9717
G1 X36.182 Y88.299 E58.99687
G1 X36.537 Y87.94 E59.022
G1 X36.945 Y87.641 E59.04717
G1 X37.395 Y87.41 E59.07234
G1 X37.67 Y87.31 E59.08691
G0 F2400 X65.344 Y85.305
;TYPE:SUPPORT
G1 F1050 X65.961 Y83.825 E59.1667
G1 X68.063 Y83.826 E59.27131
G1 X68.681 Y85.306 E59.35113
G1 X68.215 Y85.767 E59.38375
G1 X66.073 Y86.027 E59.49113
G1 X65.344 Y85.305 E59.54219
G0 F2400 X65.577 Y85.312
G1 F1050 X68.447 Y85.312 E59.68502
G0 F2400 X67.983 Y85.634
G1 F1050 X67.983 Y84.051 E59.76379
G0 F2400 X66.65 Y83.986
G1 F1050 X66.65 Y85.795 E59.85382
G1 F1500 E58.85382
G0 F2400 X71.08 Y85.66
G0 X71.661 Y86.172
G0 X71.661 Y89.708
G0 X71.157 Y90.212
G0 X66.188 Y92.161
G1 F1500 E59.85382
G1 F1050 X65.474 Y90.45 E59.94609
G1 X68.558 Y90.45 E60.09956
G1 X67.812 Y92.238 E60.19598
G1 X67.812 Y92.714 E60.21967
G1 X68.559 Y94.503 E60.31615
G1 X65.409 Y94.503 E60.47291
G1 X66.188 Y92.637 E60.57354
G1 X66.188 Y92.161 E60.59722
G0 F2400 X66.284 Y91.977
G1 F1050 X67.747 Y91.977 E60.67003
G0 F2400 X67.983 Y91.413
G1 F1050 X67.983 Y90.61 E60.70999
G0 F2400 X68.303 Y90.644
G1 F1050 X65.728 Y90.644 E60.83814
G0 F2400 X66.65 Y90.61
G1 F1050 X66.65 Y94.343 E61.02391
G0 F2400 X66.081 Y93.31
G1 F1050 X67.888 Y93.31 E61.11384
G0 F2400 X67.983 Y93.539
G1 F1050 X67.983 Y94.343 E61.15385
G1 F1500 E60.15385
G0 F2400 X71.157 Y94.741
G0 X71.661 Y95.245
G0 X71.661 Y98.827
G0 X71.08 Y99.339
G0 X68.217 Y99.232
G1 F1500 E61.15385
G1 F1050 X68.685 Y99.695 E61.18661
G1 X68.067 Y101.175 E61.26643
G1 X65.902 Y101.174 E61.37417
G1 X65.284 Y99.694 E61.45399
G1 X66.02 Y98.966 E61.50551
G1 X68.217 Y99.232 E61.61564
G0 F2400 X67.983 Y99.366
