;FLAVOR:Marlin
;TIME:8636
;Filament used: 4.09517m
;Layer height: 0.1
;Generated with Cura_SteamEngine 2.7.0
M190 S50
M104 S210
M109 S210
G21 ;metric values
G90 ;absolute positioning
M82 ;set extruder to absolute mode
M107 ;start with the fan off
G92 E0 ;zero the extruded length
G1 F200 E3 ;extrude 3mm of feed stock
G92 E0 ;zero the extruded length again
G1 F9000
M301 P31.36 I3.30 D74.51 ;set PID tuning for E0
M304 P72.25 I2.72 D479.41 ; set PID tuning for heated bed
M117 Printing...
;LAYER_COUNT:198
;LAYER:0
M107
M205 X20 Y20
G0 F2400 X76.572 Y71.664 Z0.3
;TYPE:SKIRT
G1 F1050 X77.031 Y71.249 E0.03079
G1 X77.54 Y70.897 E0.06159
G1 X78.091 Y70.613 E0.09244
G1 X78.673 Y70.403 E0.12323
G1 X79.277 Y70.269 E0.15402
G1 X80.009 Y70.213 E0.19056
G1 X104.991 Y70.214 E1.4338
G1 X105.609 Y70.254 E1.46462
G1 X106.217 Y70.373 E1.49545
G1 X106.804 Y70.57 E1.52626
G1 X107.36 Y70.84 E1.55702
G1 X107.878 Y71.18 E1.58786
G1 X108.347 Y71.584 E1.61866
G1 X108.761 Y72.045 E1.6495
G1 X109.111 Y72.555 E1.68028
G1 X109.393 Y73.106 E1.71108
G1 X109.602 Y73.689 E1.7419
G1 X109.762 Y74.522 E1.78412
G1 X109.999 Y76.841 E1.90012
G1 X110.767 Y82.211 E2.17008
G1 X112.332 Y89.787 E2.55507
G1 X112.418 Y90.4 E2.58587
G1 X112.431 Y90.766 E2.6041
G1 X112.424 Y94.454 E2.78763
G1 X112.383 Y95.072 E2.81846
G1 X112.313 Y95.47 E2.83857
G1 X110.995 Y101.493 E3.1454
G1 X110.562 Y104.026 E3.27328
G1 X109.75 Y110.584 E3.60214
G1 X109.634 Y111.192 E3.63294
G1 X109.441 Y111.781 E3.66378
G1 X109.174 Y112.339 E3.69457
G1 X108.837 Y112.859 E3.72541
G1 X108.436 Y113.33 E3.75619
G1 X107.774 Y113.901 E3.7997
G1 X105.177 Y115.752 E3.95841
G1 X104.65 Y116.078 E3.98924
G1 X104.086 Y116.333 E4.02005
G1 X103.494 Y116.514 E4.05086
G1 X102.884 Y116.617 E4.08164
G1 X102.393 Y116.642 E4.10611
G1 X99.611 Y116.642 E4.24456
G1 X98.787 Y116.571 E4.28571
G1 X95.221 Y115.949 E4.46586
G1 X89.867 Y115.264 E4.73447
G1 X84.48 Y114.883 E5.00323
G1 X81.31 Y114.814 E5.16102
G1 X79.91 Y114.785 E5.23071
G1 X79.293 Y114.732 E5.26153
G1 X78.688 Y114.601 E5.29233
G1 X78.105 Y114.392 E5.32316
G1 X77.554 Y114.11 E5.35396
G1 X77.044 Y113.76 E5.38474
G1 X76.583 Y113.346 E5.41558
G1 X76.179 Y112.877 E5.44638
G1 X75.839 Y112.36 E5.47718
G1 X75.569 Y111.803 E5.50798
G1 X75.372 Y111.216 E5.53879
G1 X75.256 Y110.628 E5.56862
G1 X74.282 Y103.366 E5.93325
G1 X73.218 Y98.077 E6.20174
G1 X72.727 Y96.036 E6.30621
G1 X72.621 Y95.426 E6.33702
G1 X72.594 Y94.915 E6.36248
G1 X72.594 Y90.09 E6.6026
G1 X72.634 Y89.472 E6.63342
G1 X72.705 Y89.063 E6.65408
G1 X74.072 Y82.826 E6.97183
G1 X74.51 Y80.261 E7.10133
G1 X75.251 Y74.407 E7.39498
G1 X75.368 Y73.799 E7.42579
G1 X75.563 Y73.211 E7.45662
G1 X75.831 Y72.654 E7.48738
G1 X76.17 Y72.135 E7.51823
G1 X76.572 Y71.664 E7.54905
G0 F2400 X76.947 Y71.854
G1 F1050 X77.399 Y71.47 E7.57857
G1 X77.899 Y71.151 E7.60808
G1 X78.437 Y70.903 E7.63756
G1 X79.003 Y70.729 E7.66703
G1 X79.588 Y70.632 E7.69654
G1 X80.009 Y70.612 E7.71752
G1 X104.991 Y70.613 E8.96076
G1 X105.583 Y70.653 E8.99029
G1 X106.163 Y70.772 E9.01975
G1 X106.723 Y70.968 E9.04928
G1 X107.25 Y71.238 E9.07875
G1 X107.737 Y71.576 E9.10825
G1 X108.174 Y71.977 E9.13776
G1 X108.553 Y72.432 E9.16723
G1 X108.868 Y72.935 E9.19677
G1 X109.111 Y73.475 E9.22624
G1 X109.28 Y74.043 E9.25573
G1 X109.365 Y74.563 E9.28195
G1 X109.603 Y76.886 E9.39816
G1 X110.375 Y82.285 E9.66958
G1 X111.941 Y89.868 E10.05491
G1 X112.022 Y90.455 E10.0844
G1 X112.032 Y90.765 E10.09984
G1 X112.025 Y94.453 E10.28337
G1 X111.984 Y95.045 E10.3129
G1 X111.923 Y95.385 E10.33009
G1 X110.605 Y101.41 E10.63702
G1 X110.167 Y103.972 E10.76637
G1 X109.354 Y110.535 E11.09548
G1 X109.241 Y111.117 E11.12498
G1 X109.052 Y111.679 E11.15449
G1 X108.788 Y112.21 E11.184
G1 X108.456 Y112.701 E11.2135
G1 X108.061 Y113.142 E11.24296
G1 X107.542 Y113.576 E11.27663
G1 X104.945 Y115.427 E11.43534
G1 X104.44 Y115.737 E11.46483
G1 X103.898 Y115.977 E11.49433
G1 X103.329 Y116.142 E11.52381
G1 X102.743 Y116.229 E11.55329
G1 X102.393 Y116.243 E11.57072
G1 X99.611 Y116.243 E11.70917
G1 X98.855 Y116.178 E11.74693
G1 X95.272 Y115.553 E11.92793
G1 X89.911 Y114.867 E12.1969
G1 X84.496 Y114.484 E12.46706
G1 X81.319 Y114.415 E12.6252
G1 X79.918 Y114.386 E12.69493
G1 X79.328 Y114.334 E12.72441
G1 X78.75 Y114.203 E12.7539
G1 X78.195 Y113.995 E12.7834
G1 X77.672 Y113.715 E12.81292
G1 X77.193 Y113.367 E12.84239
G1 X76.764 Y112.957 E12.87192
G1 X76.394 Y112.494 E12.90141
G1 X76.091 Y111.985 E12.93089
G1 X75.858 Y111.44 E12.96039
G1 X75.701 Y110.868 E12.98991
G1 X75.651 Y110.575 E13.0047
G1 X74.674 Y103.298 E13.37009
G1 X73.606 Y97.984 E13.63983
G1 X73.115 Y95.943 E13.7443
G1 X73.015 Y95.359 E13.77379
G1 X72.993 Y94.915 E13.79591
G1 X72.993 Y90.09 E14.03603
G1 X73.033 Y89.499 E14.06551
G1 X73.095 Y89.148 E14.08325
G1 X74.467 Y82.892 E14.40198
G1 X74.904 Y80.331 E14.53127
G1 X75.647 Y74.457 E14.82592
G1 X75.761 Y73.875 E14.85544
G1 X75.952 Y73.314 E14.88493
G1 X76.217 Y72.784 E14.91442
G1 X76.55 Y72.294 E14.9439
G1 X76.947 Y71.854 E14.97339
G0 F2400 X77.321 Y72.05
G1 F1050 X77.765 Y71.7 E15.00153
G1 X78.254 Y71.417 E15.02965
G1 X78.778 Y71.205 E15.05778
G1 X79.326 Y71.07 E15.08586
G1 X80.009 Y71.011 E15.11998
G1 X104.991 Y71.012 E16.36322
G1 X105.555 Y71.052 E16.39136
G1 X106.107 Y71.171 E16.41946
G1 X106.638 Y71.367 E16.44763
G1 X107.135 Y71.635 E16.47573
G1 X107.589 Y71.971 E16.50384
G1 X107.992 Y72.368 E16.53199
G1 X108.334 Y72.818 E16.56012
G1 X108.61 Y73.311 E16.58824
G1 X108.814 Y73.839 E16.6164
G1 X108.968 Y74.603 E16.65519
G1 X109.207 Y76.936 E16.7719
G1 X109.982 Y82.354 E17.04427
G1 X111.55 Y89.948 E17.43017
G1 X111.633 Y90.765 E17.47103
G1 X111.626 Y94.453 E17.65457
G1 X111.585 Y95.016 E17.68266
G1 X111.534 Y95.3 E17.69702
G1 X110.212 Y101.344 E18.00491
G1 X109.771 Y103.921 E18.13502
G1 X108.958 Y110.486 E18.46423
G1 X108.849 Y111.041 E18.49238
G1 X108.663 Y111.574 E18.52047
G1 X108.403 Y112.077 E18.54865
G1 X108.076 Y112.537 E18.57674
G1 X107.686 Y112.947 E18.6049
G1 X107.31 Y113.251 E18.62896
G1 X104.713 Y115.102 E18.78767
G1 X104.231 Y115.396 E18.81576
G1 X103.712 Y115.62 E18.8439
G1 X103.167 Y115.768 E18.872
G1 X102.393 Y115.844 E18.9107
G1 X99.611 Y115.844 E19.04915
G1 X98.924 Y115.784 E19.08347
G1 X95.371 Y115.164 E19.26296
G1 X89.936 Y114.468 E19.53564
G1 X84.512 Y114.085 E19.80624
G1 X81.328 Y114.016 E19.96473
G1 X79.926 Y113.987 E20.03452
G1 X79.364 Y113.936 E20.0626
G1 X78.814 Y113.805 E20.09074
G1 X78.288 Y113.598 E20.11887
G1 X77.796 Y113.32 E20.14699
G1 X77.349 Y112.974 E20.17512
G1 X76.954 Y112.569 E20.20328
G1 X76.621 Y112.113 E20.23138
G1 X76.356 Y111.614 E20.2595
G1 X76.163 Y111.083 E20.28761
G1 X76.047 Y110.522 E20.31612
G1 X75.07 Y103.242 E20.68166
G1 X73.995 Y97.896 E20.95303
G1 X73.503 Y95.85 E21.05776
G1 X73.41 Y95.292 E21.08591
G1 X73.392 Y94.915 E21.10469
G1 X73.392 Y90.09 E21.34481
G1 X73.432 Y89.526 E21.37295
G1 X73.485 Y89.234 E21.38772
G1 X74.855 Y82.983 E21.70618
G1 X75.3 Y80.379 E21.83765
G1 X76.043 Y74.507 E22.13221
G1 X76.153 Y73.953 E22.16031
G1 X76.34 Y73.42 E22.18842
G1 X76.601 Y72.918 E22.21658
G1 X76.93 Y72.459 E22.24469
G1 X77.321 Y72.05 E22.27284
G0 F2400 X77.692 Y72.255
G1 F1050 X78.127 Y71.941 E22.29954
G1 X78.604 Y71.696 E22.32623
G1 X79.112 Y71.524 E22.35292
G1 X79.64 Y71.429 E22.37962
G1 X80.009 Y71.41 E22.39801
G1 X104.991 Y71.411 E23.64125
G1 X105.526 Y71.451 E23.66795
G1 X106.049 Y71.57 E23.69464
G1 X106.548 Y71.765 E23.7213
G1 X107.013 Y72.033 E23.74801
G1 X107.433 Y72.366 E23.77468
G1 X107.799 Y72.758 E23.80137
G1 X108.102 Y73.2 E23.82804
G1 X108.336 Y73.683 E23.85475
G1 X108.496 Y74.194 E23.8814
G1 X108.571 Y74.644 E23.9041
G1 X108.81 Y76.981 E24.02101
G1 X109.587 Y82.412 E24.29404
G1 X111.16 Y90.029 E24.6811
G1 X111.234 Y90.764 E24.71786
G1 X111.227 Y94.452 E24.9014
G1 X111.144 Y95.214 E24.93954
G1 X109.818 Y101.274 E25.24826
G1 X109.378 Y103.849 E25.37826
G1 X108.562 Y110.437 E25.70862
G1 X108.456 Y110.963 E25.73532
G1 X108.274 Y111.467 E25.76199
G1 X108.019 Y111.939 E25.78869
G1 X107.697 Y112.367 E25.81534
G1 X107.314 Y112.743 E25.84205
G1 X107.079 Y112.926 E25.85688
G1 X104.482 Y114.777 E26.01559
G1 X104.023 Y115.055 E26.04229
G1 X103.528 Y115.261 E26.06897
G1 X103.008 Y115.392 E26.09566
G1 X102.393 Y115.445 E26.12638
G1 X99.611 Y115.445 E26.26483
G1 X98.992 Y115.391 E26.29575
G1 X95.422 Y114.768 E26.4761
G1 X89.981 Y114.072 E26.74908
G1 X84.528 Y113.686 E27.02113
G1 X81.336 Y113.617 E27.18001
G1 X79.935 Y113.588 E27.24975
G1 X79.401 Y113.537 E27.27645
G1 X78.881 Y113.408 E27.30311
G1 X78.385 Y113.202 E27.32984
G1 X77.926 Y112.925 E27.35652
G1 X77.513 Y112.583 E27.3832
G1 X77.156 Y112.184 E27.40985
G1 X76.861 Y111.735 E27.43658
G1 X76.637 Y111.248 E27.46326
G1 X76.488 Y110.733 E27.48994
G1 X76.442 Y110.469 E27.50328
G1 X75.461 Y103.158 E27.87037
G1 X74.389 Y97.828 E28.14093
G1 X73.891 Y95.757 E28.24694
G1 X73.805 Y95.227 E28.27366
G1 X73.791 Y94.915 E28.2892
G1 X73.791 Y90.09 E28.52932
G1 X73.875 Y89.319 E28.56791
G1 X75.245 Y83.07 E28.88628
G1 X75.692 Y80.45 E29.01855
G1 X76.438 Y74.557 E29.31416
G1 X76.545 Y74.032 E29.34083
G1 X76.729 Y73.528 E29.36753
G1 X76.985 Y73.057 E29.3942
G1 X77.309 Y72.629 E29.42092
G1 X77.692 Y72.255 E29.44756
G0 F2400 X78.062 Y72.47
G1 F1050 X78.486 Y72.195 E29.47271
G1 X78.948 Y71.99 E29.49786
G1 X79.437 Y71.861 E29.52303
G1 X80.009 Y71.809 E29.55161
G1 X104.991 Y71.81 E30.79485
G1 X105.495 Y71.85 E30.82002
G1 X105.987 Y71.969 E30.84521
G1 X106.453 Y72.164 E30.87035
G1 X106.883 Y72.429 E30.89548
G1 X107.266 Y72.76 E30.92067
G1 X107.592 Y73.146 E30.94582
G1 X107.853 Y73.579 E30.97098
G1 X108.043 Y74.047 E30.99611
G1 X108.174 Y74.684 E31.02848
G1 X108.414 Y77.031 E31.14589
G1 X109.194 Y82.484 E31.42002
G1 X110.769 Y90.11 E31.80754
G1 X110.835 Y90.763 E31.8402
G1 X110.828 Y94.451 E32.02374
G1 X110.754 Y95.129 E32.05768
G1 X109.428 Y101.187 E32.3663
G1 X108.982 Y103.799 E32.49817
G1 X108.166 Y110.388 E32.82858
G1 X108.064 Y110.883 E32.85373
G1 X107.886 Y111.357 E32.87892
G1 X107.635 Y111.796 E32.90409
G1 X107.319 Y112.19 E32.92923
G1 X106.847 Y112.601 E32.96037
G1 X104.25 Y114.452 E33.11908
G1 X103.817 Y114.712 E33.14422
G1 X103.348 Y114.9 E33.16936
G1 X102.855 Y115.013 E33.19453
G1 X102.393 Y115.046 E33.21758
G1 X99.611 Y115.046 E33.35603
G1 X99.061 Y114.998 E33.3835
G1 X95.476 Y114.372 E33.56461
G1 X90.025 Y113.675 E33.83809
G1 X84.544 Y113.287 E34.11154
G1 X81.345 Y113.218 E34.27078
G1 X79.943 Y113.189 E34.34056
G1 X79.44 Y113.139 E34.36572
G1 X78.951 Y113.01 E34.39089
G1 X78.489 Y112.806 E34.41602
G1 X78.064 Y112.531 E34.44121
G1 X77.688 Y112.193 E34.46637
G1 X77.37 Y111.8 E34.49153
G1 X77.118 Y111.362 E34.51668
G1 X76.938 Y110.889 E34.54186
G1 X76.837 Y110.416 E34.56593
G1 X75.853 Y103.087 E34.93394
G1 X74.777 Y97.733 E35.20571
G1 X74.279 Y95.663 E35.31166
G1 X74.19 Y94.915 E35.34915
G1 X74.19 Y90.09 E35.58927
G1 X74.264 Y89.405 E35.62356
G1 X75.643 Y83.116 E35.94397
G1 X76.085 Y80.524 E36.07482
G1 X76.834 Y74.607 E36.37163
G1 X76.937 Y74.112 E36.3968
G1 X77.117 Y73.64 E36.42193
G1 X77.369 Y73.201 E36.44713
G1 X77.686 Y72.808 E36.47225
G1 X78.062 Y72.47 E36.49741
G0 F2400 X77.579 Y90.279
;TYPE:SUPPORT
G1 F1050 X79.101 Y90.279 E36.57316
G1 X79.101 Y94.721 E36.79421
G1 X77.579 Y94.721 E36.86996
G1 X77.579 Y90.279 E37.09102
G0 F2400 X77.778 Y90.644
G1 F1050 X78.902 Y90.644 E37.14695
G0 F2400 X78.647 Y90.478
G1 F1050 X78.647 Y94.522 E37.3482
G0 F2400 X78.902 Y93.31
G1 F1050 X77.778 Y93.31 E37.40414
G0 F2400 X77.778 Y91.977
G1 F1050 X78.902 Y91.977 E37.46008
G1 F1500 E36.46008
G0 F2400 X79.339 Y110.157
G0 X79.843 Y110.661
G0 X105.157 Y110.661
G0 X105.661 Y110.157
G0 X105.899 Y90.056
G1 F1500 E37.46008
G1 F1050 X107.439 Y90.691 E37.54298
G1 X107.439 Y94.313 E37.72323
G1 X105.899 Y94.933 E37.80584
G1 X105.899 Y90.056 E38.04855
G0 F2400 X106.098 Y90.644
G1 F1050 X106.804 Y90.644 E38.08368
G0 F2400 X106.64 Y90.577
G1 F1050 X106.64 Y94.42 E38.27493
G0 F2400 X106.098 Y93.31
G1 F1050 X107.24 Y93.31 E38.33176
G0 F2400 X107.24 Y91.977
G1 F1050 X106.098 Y91.977 E38.3886
G1 F1500 E37.3886
G0 F2400 X105.661 Y110.157
G0 X105.157 Y110.661
G0 X102.575 Y110.899
G1 F1500 E38.3886
G1 F1050 X102.263 Y111.657 E38.42939
G1 X99.737 Y111.657 E38.5551
G1 X99.425 Y110.899 E38.59589
G1 X102.575 Y110.899 E38.75265
G0 F2400 X101.308 Y111.098
G1 F1050 X101.308 Y111.458 E38.77057
G0 F2400 X99.975 Y111.458
G1 F1050 X99.975 Y111.098 E38.78848
G1 F1500 E37.78848
G0 F2400 X99.975 Y110.665
G0 X99.975 Y109.383
G0 X104.004 Y109.004
;TYPE:WALL-INNER
G1 F1500 E38.78848
G1 F1050 X93.933 Y109.004 E39.28967
G1 X93.417 Y109.004 E39.31535
G1 X92.81 Y109.004 E39.34556
G1 X92.19 Y109.004 E39.37641
G1 X91.582 Y109.004 E39.40667
G1 X91.07 Y109.004 E39.43215
G1 X80.996 Y109.004 E39.93349
G1 X80.996 Y75.996 E41.57614
G1 X104.004 Y75.996 E42.72115
G1 X104.004 Y109.004 E44.36381
G0 F2400 X95.407 Y106.617
G1 F1050 X95.469 Y105.999 E44.39472
G1 X95.404 Y105.384 E44.42549
G1 X95.214 Y104.793 E44.45639
G1 X94.902 Y104.253 E44.48742
G1 X94.485 Y103.792 E44.51836
G1 X93.985 Y103.43 E44.54908
G1 X93.418 Y103.175 E44.58002
G1 X92.81 Y103.047 E44.61094
G1 X92.19 Y103.047 E44.64179
G1 X91.583 Y103.176 E44.67268
G1 X91.015 Y103.428 E44.7036
G1 X90.515 Y103.792 E44.73438
G1 X90.096 Y104.253 E44.76538
G1 X89.788 Y104.793 E44.79632
G1 X89.593 Y105.383 E44.82724
G1 X89.531 Y106.001 E44.85815
G1 X89.596 Y106.616 E44.88893
G1 X89.786 Y107.207 E44.91982
G1 X90.098 Y107.747 E44.95086
G1 X90.515 Y108.208 E44.98179
G1 X91.015 Y108.57 E45.01251
G1 X91.115 Y108.615 E45.01797
G1 X91.582 Y108.825 E45.03658
G1 X92.19 Y108.953 E45.04585
G1 X92.81 Y108.953 E45.04979
G1 X93.417 Y108.824 E45.05909
G1 X93.888 Y108.615 E45.07784
G1 X93.985 Y108.572 E45.08312
G1 X94.485 Y108.208 E45.1139
G1 X94.904 Y107.747 E45.1449
G1 X95.212 Y107.207 E45.17584
G1 X95.407 Y106.617 E45.20676
G0 F2400 X96.623 Y94.836
G1 F1050 X96.623 Y89.004 E45.497
G1 X93.828 Y89.004 E45.63609
G1 X93.828 Y89.469 E45.65923
G1 X93.622 Y89.129 E45.66222
G1 X93.546 Y89.004 E45.66729
G1 X88.146 Y89.004 E45.93602
G1 X88.146 Y91.564 E46.06342
G1 X89.024 Y91.564 E46.10712
G1 X89.024 Y94.836 E46.26995
G1 X91.035 Y94.836 E46.37003
G1 X91.938 Y94.258 E46.42338
G1 X92.003 Y94.34 E46.42859
G1 X92.813 Y94.736 E46.47346
G1 X93.647 Y94.836 E46.51526
G1 X96.623 Y94.836 E46.66336
G0 F2400 X96.252 Y89.375
G0 X93.417 Y82.824
G1 F1050 X93.985 Y82.572 E46.69429
G1 X94.485 Y82.208 E46.72507
G1 X94.904 Y81.747 E46.75607
G1 X95.212 Y81.207 E46.78701
G1 X95.407 Y80.617 E46.81793
G1 X95.469 Y79.999 E46.84884
G1 X95.404 Y79.384 E46.87961
G1 X95.214 Y78.793 E46.91051
G1 X94.902 Y78.253 E46.94155
G1 X94.485 Y77.792 E46.97248
G1 X93.985 Y77.43 E47.0032
G1 X93.418 Y77.175 E47.03414
G1 X92.81 Y77.047 E47.06506
G1 X92.19 Y77.047 E47.09591
G1 X91.583 Y77.176 E47.1268
G1 X91.015 Y77.428 E47.15772
G1 X90.515 Y77.792 E47.1885
G1 X90.096 Y78.253 E47.2195
G1 X89.788 Y78.793 E47.25044
G1 X89.593 Y79.383 E47.28136
G1 X89.531 Y80.001 E47.31227
G1 X89.596 Y80.616 E47.34305
G1 X89.786 Y81.207 E47.37394
G1 X90.098 Y81.747 E47.40498
G1 X90.515 Y82.208 E47.43591
G1 X91.015 Y82.57 E47.46663
G1 X91.582 Y82.825 E47.49757
G1 X92.19 Y82.953 E47.52849
G1 X92.81 Y82.953 E47.55935
G1 X93.417 Y82.824 E47.59023
G0 F2400 X93.293 Y82.442
G1 F1050 X93.784 Y82.224 E47.61696
G1 X94.217 Y81.909 E47.64361
G1 X94.579 Y81.511 E47.67039
G1 X94.846 Y81.044 E47.69716
G1 X95.014 Y80.534 E47.72388
G1 X95.068 Y80 E47.75059
G1 X95.012 Y79.467 E47.77726
G1 X94.847 Y78.956 E47.80398
G1 X94.578 Y78.489 E47.8308
G1 X94.217 Y78.091 E47.85754
G1 X93.784 Y77.777 E47.88416
G1 X93.294 Y77.557 E47.91089
G1 X92.768 Y77.446 E47.93764
G1 X92.232 Y77.446 E47.96432
G1 X91.707 Y77.558 E47.99103
G1 X91.216 Y77.776 E48.01777
G1 X90.783 Y78.091 E48.04442
G1 X90.421 Y78.489 E48.07119
G1 X90.154 Y78.956 E48.09796
G1 X89.986 Y79.466 E48.12468
G1 X89.932 Y80 E48.15139
G1 X89.988 Y80.533 E48.17806
G1 X90.153 Y81.044 E48.20479
G1 X90.422 Y81.511 E48.23161
G1 X90.783 Y81.909 E48.25835
G1 X91.216 Y82.223 E48.28497
G1 X91.706 Y82.443 E48.3117
G1 X92.232 Y82.554 E48.33845
G1 X92.768 Y82.554 E48.36512
G1 X93.293 Y82.442 E48.39184
G0 F2400 X93.323 Y82.537
G0 X94.157 Y89.333
G0 X94.227 Y89.403
