;FLAVOR:Marlin
;TIME:4504
;Filament used: 3.06846m
;Layer height: 0.15
;Generated with Cura_SteamEngine 2.7.0
M190 S60
M104 S220
M109 S220
G21 ;metric values
G90 ;absolute positioning
M82 ;set extruder to absolute mode
M107 ;start with the fan off
G92 E0 ;zero the extruded length
G1 F200 E3 ;extrude 3mm of feed stock
G92 E0 ;zero the extruded length again
G1 F9000
M301 P31.36 I3.30 D74.51 ;set PID tuning for E0
M304 P72.25 I2.72 D479.41 ; set PID tuning for heated bed
M117 Printing...
;LAYER_COUNT:149
;LAYER:0
M107
M205 X20 Y20
G0 F2400 X68.423 Y78.327 Z0.3
G0 X67.958 Y78.736
;TYPE:SKIRT
G1 F1050 X68.423 Y78.327 E0.03082
G1 X68.936 Y77.981 E0.06161
G1 X69.563 Y77.674 E0.09635
G1 X69.712 Y77.614 E0.10435
G1 X70.3 Y77.42 E0.13516
G1 X70.908 Y77.304 E0.16597
G1 X71.502 Y77.267 E0.19558
G1 X112.802 Y77.259 E2.2509
G1 X113.197 Y77.275 E2.27057
G1 X114.022 Y77.343 E2.31177
G1 X114.634 Y77.434 E2.34256
G1 X115.23 Y77.602 E2.37337
G1 X115.799 Y77.847 E2.4042
G1 X116.332 Y78.162 E2.43502
G1 X117.015 Y78.727 E2.47913
G1 X120.781 Y82.483 E2.74382
G1 X121.19 Y82.948 E2.77464
G1 X121.536 Y83.461 E2.80544
G1 X121.813 Y84.015 E2.83626
G1 X122.016 Y84.6 E2.86708
G1 X122.143 Y85.206 E2.89789
G1 X122.181 Y85.59 E2.91709
G1 X122.277 Y87.183 E2.99651
G1 X122.286 Y87.425 E3.00856
G1 X122.366 Y95.566 E3.41372
G1 X122.332 Y96.184 E3.44453
G1 X122.219 Y96.793 E3.47535
G1 X122.077 Y97.252 E3.49926
G1 X120.184 Y102.458 E3.77494
G1 X119.936 Y103.025 E3.80573
G1 X119.616 Y103.555 E3.83654
G1 X119.231 Y104.04 E3.86736
G1 X118.786 Y104.471 E3.89819
G1 X118.325 Y104.818 E3.92691
G1 X118.103 Y104.965 E3.94016
G1 X117.566 Y105.273 E3.97096
G1 X116.993 Y105.509 E4.0018
G1 X116.395 Y105.669 E4.03261
G1 X115.782 Y105.751 E4.06339
G1 X115.455 Y105.762 E4.07967
G1 X69.537 Y105.761 E6.3648
G1 X68.919 Y105.721 E6.39562
G1 X68.312 Y105.602 E6.4264
G1 X67.724 Y105.405 E6.45726
G1 X67.168 Y105.135 E6.48802
G1 X66.809 Y104.91 E6.50911
G1 X66.595 Y104.762 E6.52206
G1 X66.11 Y104.377 E6.55287
G1 X65.678 Y103.934 E6.58367
G1 X65.307 Y103.438 E6.61449
G1 X65.002 Y102.899 E6.64531
G1 X64.817 Y102.459 E6.66907
G1 X62.929 Y97.279 E6.94344
G1 X62.755 Y96.685 E6.97424
G1 X62.659 Y96.074 E7.00502
G1 X62.639 Y95.593 E7.02898
G1 X62.714 Y87.431 E7.43518
G1 X62.723 Y87.187 E7.44733
G1 X62.819 Y85.593 E7.5268
G1 X62.896 Y84.978 E7.55765
G1 X63.051 Y84.379 E7.58844
G1 X63.283 Y83.805 E7.61925
G1 X63.586 Y83.265 E7.65007
G1 X63.957 Y82.769 E7.68089
G1 X64.21 Y82.494 E7.69949
G1 X67.958 Y78.736 E7.96362
G0 F2400 X68.241 Y79.018
G1 F1050 X68.687 Y78.627 E7.99314
G1 X69.181 Y78.3 E8.02262
G1 X69.712 Y78.044 E8.05195
G1 X69.861 Y77.984 E8.05995
G1 X70.424 Y77.8 E8.08942
G1 X71.007 Y77.694 E8.11891
G1 X71.502 Y77.666 E8.14359
G1 X112.802 Y77.658 E10.1989
G1 X113.164 Y77.673 E10.21693
G1 X113.989 Y77.741 E10.25813
G1 X114.575 Y77.829 E10.28762
G1 X115.144 Y77.996 E10.31713
G1 X115.686 Y78.237 E10.34665
G1 X116.19 Y78.549 E10.37615
G1 X116.733 Y79.01 E10.41159
G1 X120.499 Y82.766 E10.67629
G1 X120.89 Y83.212 E10.70581
G1 X121.217 Y83.706 E10.73529
G1 X121.474 Y84.24 E10.76478
G1 X121.657 Y84.804 E10.79429
G1 X121.783 Y85.615 E10.83513
G1 X121.879 Y87.208 E10.91455
G1 X121.887 Y87.429 E10.92556
G1 X121.967 Y95.57 E11.33072
G1 X121.933 Y96.162 E11.36023
G1 X121.819 Y96.743 E11.38969
G1 X121.702 Y97.116 E11.40915
G1 X119.809 Y102.322 E11.68482
G1 X119.57 Y102.864 E11.7143
G1 X119.259 Y103.369 E11.74382
G1 X118.884 Y103.827 E11.77327
G1 X118.45 Y104.231 E11.80278
G1 X118.105 Y104.485 E11.8241
G1 X117.883 Y104.632 E11.83735
G1 X117.367 Y104.925 E11.86688
G1 X116.817 Y105.147 E11.8964
G1 X116.243 Y105.292 E11.92586
G1 X115.455 Y105.363 E11.96524
G1 X69.537 Y105.362 E14.25037
G1 X68.945 Y105.322 E14.2799
G1 X68.365 Y105.203 E14.30936
G1 X67.805 Y105.007 E14.33889
G1 X67.036 Y104.581 E14.38264
G1 X66.822 Y104.433 E14.39559
G1 X66.358 Y104.064 E14.42509
G1 X65.948 Y103.636 E14.45458
G1 X65.6 Y103.156 E14.48409
G1 X65.319 Y102.634 E14.51359
G1 X65.192 Y102.323 E14.53031
G1 X63.304 Y97.143 E14.80468
G1 X63.139 Y96.573 E14.83421
G1 X63.052 Y95.987 E14.8637
G1 X63.038 Y95.597 E14.88312
G1 X63.113 Y87.435 E15.28932
G1 X63.121 Y87.211 E15.30048
G1 X63.217 Y85.617 E15.37995
G1 X63.292 Y85.029 E15.40944
G1 X63.446 Y84.456 E15.43897
G1 X63.676 Y83.91 E15.46846
G1 X63.977 Y83.399 E15.49797
G1 X64.493 Y82.776 E15.53823
G1 X68.241 Y79.018 E15.80236
G0 F2400 X68.523 Y79.3
G1 F1050 X68.95 Y78.929 E15.83051
G1 X69.424 Y78.622 E15.85861
G1 X69.861 Y78.414 E15.8827
G1 X70.01 Y78.354 E15.89069
G1 X70.547 Y78.181 E15.91877
G1 X71.104 Y78.085 E15.9469
G1 X71.502 Y78.065 E15.96673
G1 X112.802 Y78.057 E18.02204
G1 X113.131 Y78.071 E18.03843
G1 X113.956 Y78.139 E18.07963
G1 X114.515 Y78.225 E18.10777
G1 X115.056 Y78.389 E18.13591
G1 X115.568 Y78.627 E18.16401
G1 X116.042 Y78.936 E18.19216
G1 X116.451 Y79.292 E18.21915
G1 X120.217 Y83.048 E18.48384
G1 X120.588 Y83.475 E18.51199
G1 X120.895 Y83.949 E18.5401
G1 X121.133 Y84.462 E18.56824
G1 X121.295 Y85.003 E18.59635
G1 X121.385 Y85.639 E18.62831
G1 X121.481 Y87.232 E18.70773
G1 X121.488 Y87.433 E18.71774
G1 X121.568 Y95.574 E19.1229
G1 X121.533 Y96.138 E19.15102
G1 X121.42 Y96.692 E19.17916
G1 X121.327 Y96.979 E19.19418
G1 X119.434 Y102.185 E19.46985
G1 X119.204 Y102.701 E19.49796
G1 X118.903 Y103.18 E19.52612
G1 X118.538 Y103.611 E19.55422
G1 X118.116 Y103.987 E19.58235
G1 X117.884 Y104.152 E19.59652
G1 X117.662 Y104.299 E19.60977
G1 X117.17 Y104.577 E19.63789
G1 X116.644 Y104.783 E19.66601
G1 X116.094 Y104.913 E19.69413
G1 X115.455 Y104.964 E19.72603
G1 X69.537 Y104.963 E22.01116
G1 X68.973 Y104.923 E22.0393
G1 X68.421 Y104.804 E22.0674
G1 X67.89 Y104.608 E22.09557
G1 X67.263 Y104.253 E22.13143
G1 X67.049 Y104.105 E22.14438
G1 X66.608 Y103.752 E22.17249
G1 X66.221 Y103.34 E22.20062
G1 X65.897 Y102.877 E22.22874
G1 X65.567 Y102.186 E22.26685
G1 X63.679 Y97.006 E22.54122
G1 X63.523 Y96.463 E22.56934
G1 X63.446 Y95.903 E22.59747
G1 X63.437 Y95.6 E22.61256
G1 X63.512 Y87.438 E23.01876
G1 X63.519 Y87.235 E23.02887
G1 X63.615 Y85.641 E23.10834
G1 X63.689 Y85.08 E23.1365
G1 X63.841 Y84.536 E23.16461
G1 X64.068 Y84.018 E23.19275
G1 X64.366 Y83.538 E23.22087
G1 X64.775 Y83.058 E23.25225
G1 X68.523 Y79.3 E23.51639
G0 F2400 X68.806 Y79.582
G1 F1050 X69.212 Y79.231 E23.54309
G1 X69.665 Y78.945 E23.56975
G1 X70.01 Y78.785 E23.58868
G1 X70.159 Y78.725 E23.59667
G1 X70.67 Y78.562 E23.62337
G1 X71.199 Y78.477 E23.65003
G1 X71.502 Y78.464 E23.66512
G1 X112.802 Y78.456 E25.72044
G1 X113.099 Y78.468 E25.73523
G1 X113.924 Y78.536 E25.77643
G1 X114.453 Y78.62 E25.80308
G1 X114.965 Y78.781 E25.82979
G1 X115.446 Y79.017 E25.85645
G1 X115.888 Y79.322 E25.88318
G1 X116.169 Y79.575 E25.902
G1 X119.935 Y83.331 E26.16669
G1 X120.286 Y83.737 E26.1934
G1 X120.572 Y84.19 E26.22006
G1 X120.788 Y84.681 E26.24676
G1 X120.928 Y85.199 E26.27346
G1 X120.986 Y85.663 E26.29673
G1 X121.082 Y87.256 E26.37615
G1 X121.089 Y87.437 E26.38517
G1 X121.169 Y95.578 E26.79033
G1 X121.134 Y96.113 E26.81701
G1 X120.952 Y96.843 E26.85445
G1 X119.059 Y102.049 E27.13012
G1 X118.839 Y102.538 E27.15681
G1 X118.549 Y102.988 E27.18345
G1 X118.194 Y103.391 E27.21018
G1 X117.664 Y103.82 E27.24411
G1 X117.442 Y103.967 E27.25736
G1 X116.974 Y104.229 E27.28405
G1 X116.472 Y104.418 E27.31075
G1 X115.948 Y104.531 E27.33742
G1 X115.455 Y104.565 E27.36202
G1 X69.537 Y104.564 E29.64715
G1 X69.002 Y104.524 E29.67385
G1 X68.479 Y104.405 E29.70054
G1 X67.98 Y104.21 E29.7272
G1 X67.49 Y103.925 E29.75541
G1 X67.276 Y103.777 E29.76836
G1 X66.859 Y103.44 E29.79504
G1 X66.496 Y103.045 E29.82174
G1 X66.197 Y102.6 E29.84842
G1 X65.942 Y102.049 E29.87863
G1 X64.054 Y96.869 E30.15301
G1 X63.908 Y96.353 E30.17969
G1 X63.836 Y95.604 E30.21714
G1 X63.911 Y87.442 E30.62334
G1 X63.918 Y87.259 E30.63246
G1 X64.014 Y85.665 E30.71193
G1 X64.086 Y85.133 E30.73864
G1 X64.236 Y84.619 E30.76529
G1 X64.461 Y84.132 E30.79199
G1 X64.755 Y83.684 E30.81865
G1 X65.058 Y83.34 E30.84147
G1 X68.806 Y79.582 E31.1056
G0 F2400 X69.088 Y79.863
G1 F1050 X69.472 Y79.535 E31.13073
G1 X69.904 Y79.271 E31.15593
G1 X70.159 Y79.155 E31.16987
G1 X70.308 Y79.095 E31.17786
G1 X70.79 Y78.943 E31.20301
G1 X71.502 Y78.863 E31.23867
G1 X112.802 Y78.855 E33.29398
G1 X113.066 Y78.866 E33.30713
G1 X113.891 Y78.934 E33.34833
G1 X114.39 Y79.015 E33.37349
G1 X114.87 Y79.174 E33.39865
G1 X115.319 Y79.406 E33.4238
G1 X115.888 Y79.857 E33.45994
G1 X119.654 Y83.613 E33.72463
G1 X119.982 Y83.997 E33.74976
G1 X120.246 Y84.429 E33.77496
G1 X120.439 Y84.896 E33.80011
G1 X120.556 Y85.388 E33.82527
G1 X120.588 Y85.687 E33.84024
G1 X120.684 Y87.28 E33.91966
G1 X120.69 Y87.441 E33.92768
G1 X120.77 Y95.582 E34.33284
G1 X120.735 Y96.086 E34.35798
G1 X120.577 Y96.707 E34.38987
G1 X118.684 Y101.913 E34.66554
G1 X118.475 Y102.373 E34.69069
G1 X118.195 Y102.794 E34.71585
G1 X117.853 Y103.166 E34.741
G1 X117.444 Y103.487 E34.76687
G1 X117.222 Y103.634 E34.78012
G1 X116.779 Y103.879 E34.80531
G1 X116.304 Y104.051 E34.83045
G1 X115.808 Y104.147 E34.8556
G1 X115.455 Y104.166 E34.87319
G1 X69.537 Y104.165 E37.15832
G1 X69.033 Y104.125 E37.18348
G1 X68.542 Y104.006 E37.20862
G1 X68.075 Y103.811 E37.23381
G1 X67.717 Y103.597 E37.25456
G1 X67.503 Y103.449 E37.26751
G1 X67.111 Y103.129 E37.2927
G1 X66.774 Y102.752 E37.31786
G1 X66.501 Y102.327 E37.343
G1 X66.316 Y101.913 E37.36556
G1 X64.428 Y96.733 E37.63994
G1 X64.293 Y96.246 E37.66509
G1 X64.235 Y95.608 E37.69697
G1 X64.31 Y87.446 E38.10317
G1 X64.316 Y87.283 E38.11129
G1 X64.412 Y85.689 E38.19076
G1 X64.482 Y85.188 E38.21593
G1 X64.63 Y84.705 E38.24107
G1 X64.853 Y84.251 E38.26625
G1 X65.144 Y83.837 E38.29143
G1 X65.34 Y83.621 E38.30595
G1 X69.088 Y79.863 E38.57008
G0 F2400 X71.467 Y82.279
;TYPE:SUPPORT
G1 F1050 X71.54 Y82.249 E38.57401
G1 X113.465 Y82.254 E40.66042
G1 X113.53 Y82.28 E40.66391
G1 X116.923 Y85.676 E40.90281
G1 X68.076 Y85.67 E43.3337
G1 X71.467 Y82.279 E43.57236
G0 F2400 X71.327 Y82.646
G1 F1050 X113.669 Y82.646 E45.67953
G0 F2400 X113.305 Y82.414
G1 F1050 X113.305 Y85.515 E45.83385
G0 F2400 X114.638 Y85.515
G1 F1050 X114.638 Y83.617 E45.92831
G0 F2400 X115.001 Y83.979
G1 F1050 X69.994 Y83.979 E48.1681
G0 F2400 X70.649 Y83.324
G1 F1050 X70.649 Y85.51 E48.27689
G0 F2400 X69.316 Y85.51
G1 F1050 X69.316 Y84.657 E48.31934
G0 F2400 X68.661 Y85.312
G1 F1050 X116.333 Y85.312 E50.69176
G0 F2400 X115.971 Y85.515
G1 F1050 X115.971 Y84.951 E50.71983
G0 F2400 X111.972 Y85.515
G1 F1050 X111.972 Y82.414 E50.87415
G0 F2400 X110.639 Y82.414
G1 F1050 X110.639 Y85.515 E51.02847
G0 F2400 X109.306 Y85.515
G1 F1050 X109.306 Y82.414 E51.18279
G0 F2400 X107.973 Y82.414
G1 F1050 X107.973 Y85.514 E51.33707
G0 F2400 X106.64 Y85.514
G1 F1050 X106.64 Y82.414 E51.49134
G0 F2400 X105.307 Y82.414
G1 F1050 X105.307 Y85.514 E51.64561
G0 F2400 X103.974 Y85.514
G1 F1050 X103.974 Y82.413 E51.79994
G0 F2400 X102.641 Y82.413
G1 F1050 X102.641 Y85.514 E51.95426
G0 F2400 X101.308 Y85.514
G1 F1050 X101.308 Y82.413 E52.10858
G0 F2400 X99.975 Y82.413
G1 F1050 X99.975 Y85.513 E52.26285
G0 F2400 X98.642 Y85.513
G1 F1050 X98.642 Y82.413 E52.41713
G0 F2400 X97.309 Y82.413
G1 F1050 X97.309 Y85.513 E52.5714
G0 F2400 X95.976 Y85.513
G1 F1050 X95.976 Y82.412 E52.72572
G0 F2400 X94.643 Y82.412
G1 F1050 X94.643 Y85.513 E52.88005
G0 F2400 X93.31 Y85.513
G1 F1050 X93.31 Y82.412 E53.03437
G0 F2400 X91.977 Y82.412
G1 F1050 X91.977 Y85.512 E53.18864
G0 F2400 X90.644 Y85.512
G1 F1050 X90.644 Y82.412 E53.34291
G0 F2400 X89.311 Y82.412
G1 F1050 X89.311 Y85.512 E53.49719
G0 F2400 X87.978 Y85.512
G1 F1050 X87.978 Y82.411 E53.65151
G0 F2400 X86.645 Y82.411
G1 F1050 X86.645 Y85.512 E53.80583
G0 F2400 X85.312 Y85.512
G1 F1050 X85.312 Y82.411 E53.96016
G0 F2400 X83.979 Y82.411
G1 F1050 X83.979 Y85.511 E54.11443
G0 F2400 X82.646 Y85.511
G1 F1050 X82.646 Y82.411 E54.2687
G0 F2400 X81.313 Y82.411
G1 F1050 X81.313 Y85.511 E54.42297
G0 F2400 X79.98 Y85.511
G1 F1050 X79.98 Y82.411 E54.57725
G0 F2400 X78.647 Y82.41
G1 F1050 X78.647 Y85.511 E54.73157
G0 F2400 X77.314 Y85.511
G1 F1050 X77.314 Y82.41 E54.88589
G0 F2400 X75.981 Y82.41
G1 F1050 X75.981 Y85.51 E55.04017
G0 F2400 X74.648 Y85.51
G1 F1050 X74.648 Y82.41 E55.19444
G0 F2400 X73.315 Y82.41
G1 F1050 X73.315 Y85.51 E55.34871
G0 F2400 X71.982 Y85.51
G1 F1050 X71.982 Y82.41 E55.50298
G1 F1500 E54.50298
G0 F2400 X66.839 Y87.318
G0 X66.839 Y94.182
G0 X67.704 Y95.824
G1 F1500 E55.50298
G1 F1050 X117.296 Y95.824 E57.97095
G1 X115.52 Y100.698 E58.22911
G1 X115.409 Y100.776 E58.23586
G1 X69.591 Y100.776 E60.51602
G1 X69.48 Y100.698 E60.52277
G1 X67.704 Y95.824 E60.78093
G0 F2400 X67.983 Y95.984
G1 F1050 X67.983 Y96.123 E60.78784
G0 F2400 X68.415 Y97.309
G1 F1050 X116.584 Y97.309 E63.185
G0 F2400 X116.098 Y98.642
G1 F1050 X68.901 Y98.642 E65.53378
G0 F2400 X69.316 Y99.78
G1 F1050 X69.316 Y95.984 E65.72269
G0 F2400 X70.649 Y95.984
G1 F1050 X70.649 Y100.616 E65.9532
G0 F2400 X71.982 Y100.616
G1 F1050 X71.982 Y95.984 E66.18372
G0 F2400 X73.315 Y95.984
G1 F1050 X73.315 Y100.616 E66.41423
G0 F2400 X74.648 Y100.616
G1 F1050 X74.648 Y95.984 E66.64474
G0 F2400 X75.981 Y95.984
G1 F1050 X75.981 Y100.616 E66.87526
G0 F2400 X77.314 Y100.616
G1 F1050 X77.314 Y95.984 E67.10577
G0 F2400 X78.647 Y95.984
G1 F1050 X78.647 Y100.616 E67.33628
G0 F2400 X79.98 Y100.616
G1 F1050 X79.98 Y95.984 E67.5668
G0 F2400 X81.313 Y95.984
G1 F1050 X81.313 Y100.616 E67.79731
G0 F2400 X82.646 Y100.616
G1 F1050 X82.646 Y95.984 E68.02783
G0 F2400 X83.979 Y95.984
G1 F1050 X83.979 Y100.616 E68.25834
G0 F2400 X85.312 Y100.616
G1 F1050 X85.312 Y95.984 E68.48885
G0 F2400 X86.645 Y95.984
G1 F1050 X86.645 Y100.616 E68.71937
G0 F2400 X87.978 Y100.616
G1 F1050 X87.978 Y95.984 E68.94988
G0 F2400 X89.311 Y95.984
G1 F1050 X89.311 Y100.616 E69.18039
G0 F2400 X90.644 Y100.616
G1 F1050 X90.644 Y95.984 E69.41091
G0 F2400 X91.977 Y95.984
G1 F1050 X91.977 Y100.616 E69.64142
G0 F2400 X93.31 Y100.616
G1 F1050 X93.31 Y95.984 E69.87194
G0 F2400 X94.643 Y95.984
G1 F1050 X94.643 Y100.616 E70.10245
G0 F2400 X95.976 Y100.616
G1 F1050 X95.976 Y95.984 E70.33296
G0 F2400 X97.309 Y95.984
G1 F1050 X97.309 Y100.616 E70.56348
G0 F2400 X98.642 Y100.616
G1 F1050 X98.642 Y95.984 E70.79399
G0 F2400 X99.975 Y95.984
G1 F1050 X99.975 Y100.616 E71.0245
G0 F2400 X101.308 Y100.616
G1 F1050 X101.308 Y95.984 E71.25502
G0 F2400 X102.641 Y95.984
G1 F1050 X102.641 Y100.616 E71.48553
G0 F2400 X103.974 Y100.616
G1 F1050 X103.974 Y95.984 E71.71604
G0 F2400 X105.307 Y95.984
G1 F1050 X105.307 Y100.616 E71.94656
G0 F2400 X106.64 Y100.616
G1 F1050 X106.64 Y95.984 E72.17707
G0 F2400 X107.973 Y95.984
G1 F1050 X107.973 Y100.616 E72.40759
G0 F2400 X109.306 Y100.616
G1 F1050 X109.306 Y95.984 E72.6381
G0 F2400 X110.639 Y95.984
G1 F1050 X110.639 Y100.616 E72.86861
G0 F2400 X111.972 Y100.616
G1 F1050 X111.972 Y95.984 E73.09913
G0 F2400 X113.305 Y95.984
G1 F1050 X113.305 Y100.616 E73.32964
G0 F2400 X114.638 Y100.616
G1 F1050 X114.638 Y95.984 E73.56015
G0 F2400 X115.971 Y95.984
G1 F1050 X115.971 Y98.994 E73.70995
G0 F2400 X115.613 Y99.975
G1 F1050 X69.386 Y99.975 E76.01046
G1 F1500 E75.01046
G0 F2400 X69.386 Y94.69
G0 X69.386 Y93.408
G0 X72.55 Y93.029
;TYPE:WALL-INNER
G1 F1500 E76.01046
G1 F1050 X68.496 Y93.029 E76.21221
G1 X68.496 Y88.471 E76.43904
G1 X72.595 Y88.471 E76.64303
G1 X72.709 Y88.471 E76.6487
G1 X72.903 Y88.471 E76.65835
G1 X72.709 Y88.74 E76.66239
G1 X72.651 Y88.837 E76.66722
G1 X72.534 Y89.031 E76.67849
G1 X72.386 Y89.342 E76.69563
G1 X72.271 Y89.662 E76.71256
G1 X72.183 Y89.99 E76.72946
G1 X72.128 Y90.326 E76.7464
G1 X72.105 Y90.662 E76.76316
G1 X72.11 Y91.005 E76.78023
G1 X72.151 Y91.347 E76.79737
G1 X72.223 Y91.683 E76.81447
G1 X72.326 Y92.006 E76.83135
G1 X72.456 Y92.317 E76.84812
G1 X72.618 Y92.622 E76.86531
G1 X72.665 Y92.691 E76.86946
G1 X72.809 Y92.906 E76.88234
G1 X72.908 Y93.029 E76.8902
G1 X72.809 Y93.029
G1 X72.55 Y93.029 E76.89916
G1 F1500 E75.89916
G0 F2400 X73.901 Y93.423
G0 X74.698 Y92.432
G0 X76.798 Y92.436
G0 X77.601 Y93.423
G0 X78.676 Y92.927
G1 F1500 E76.89916
G1 F1050 X78.868 Y92.643 E76.91622
G1 X78.872 Y92.635 E76.91667
G1 X79.031 Y92.341 E76.9333
G1 X79.163 Y92.03 E76.95011
G1 X79.268 Y91.707 E76.96702
