;FLAVOR:Marlin
;TIME:953
;Filament used: 0.762223m
;Layer height: 0.2
;Generated with Cura_SteamEngine 2.7.0
M190 S50
M104 S210
M109 S210
G21 ;metric values
G90 ;absolute positioning
M82 ;set extruder to absolute mode
M107 ;start with the fan off
G92 E0 ;zero the extruded length
G1 F200 E3 ;extrude 3mm of feed stock
G92 E0 ;zero the extruded length again
G1 F9000
M301 P31.36 I3.30 D74.51 ;set PID tuning for E0
M304 P72.25 I2.72 D479.41 ; set PID tuning for heated bed
M117 Printing...
;LAYER_COUNT:95
;LAYER:0
M107
G0 F2400 X72.754 Y85.297 Z0.3
G0 X73.025 Y85.107
;TYPE:SKIRT
G1 F1050 X75.635 Y83.415 E0.15479
G1 X80.133 Y80.3 E0.42708
G1 X84.392 Y76.977 E0.69591
G1 X86.399 Y75.272 E0.82696
G1 X90.387 Y71.603 E1.09664
G1 X90.942 Y71.163 E1.13189
G1 X91.713 Y70.64 E1.17825
G1 X92.246 Y70.326 E1.20904
G1 X92.746 Y70.109 E1.23616
G1 X93.948 Y69.666 E1.29992
G1 X94.542 Y69.49 E1.33075
G1 X95.161 Y69.391 E1.36194
G1 X96.071 Y69.306 E1.40743
G1 X96.69 Y69.288 E1.43824
G1 X97.145 Y69.326 E1.46097
G1 X98.273 Y69.475 E1.51759
G1 X98.88 Y69.596 E1.54839
G1 X99.293 Y69.726 E1.56994
G1 X100.061 Y70.007 E1.61064
G1 X100.627 Y70.257 E1.64143
G1 X101.113 Y70.547 E1.66959
G1 X102.204 Y71.29 E1.73528
G1 X102.692 Y71.671 E1.76609
G1 X103.132 Y72.118 E1.79731
G1 X103.75 Y72.833 E1.84434
G1 X104.168 Y73.394 E1.87916
G1 X107.393 Y78.461 E2.17806
G1 X110.554 Y82.84 E2.44683
G1 X113.885 Y86.998 E2.71196
G1 X114.24 Y87.505 E2.74277
G1 X114.433 Y87.855 E2.76266
G1 X114.989 Y88.969 E2.82462
G1 X115.229 Y89.54 E2.85544
G1 X115.414 Y90.239 E2.89142
G1 X115.629 Y91.402 E2.95028
G1 X115.702 Y92.017 E2.9811
G1 X115.699 Y92.589 E3.00957
G1 X115.629 Y93.654 E3.06268
G1 X115.548 Y94.267 E3.09346
G1 X115.389 Y94.868 E3.12439
G1 X115.015 Y95.98 E3.18278
G1 X114.78 Y96.553 E3.2136
G1 X114.463 Y97.106 E3.24532
G1 X113.831 Y98.057 E3.30215
G1 X113.456 Y98.549 E3.33293
G1 X113.029 Y98.981 E3.36316
G1 X112.197 Y99.723 E3.41864
G1 X111.709 Y100.105 E3.44948
G1 X111.268 Y100.373 E3.47516
G1 X110.455 Y100.808 E3.52105
G1 X109.674 Y101.14 E3.56328
G1 X108.932 Y101.381 E3.60211
G1 X108.332 Y101.534 E3.63292
G1 X107.978 Y101.587 E3.65073
G1 X107.093 Y101.685 E3.69504
G1 X106.358 Y101.71 E3.73164
G1 X101.89 Y101.517 E3.9542
G1 X96.468 Y101.529 E4.22403
G1 X92.874 Y101.709 E4.40311
G1 X92.429 Y101.711 E4.42526
G1 X87.892 Y101.517 E4.65125
G1 X82.468 Y101.529 E4.92118
G1 X78.874 Y101.709 E5.10026
G1 X78.137 Y101.689 E5.13695
G1 X76.967 Y101.567 E5.19549
G1 X76.356 Y101.463 E5.22634
G1 X75.771 Y101.284 E5.25678
G1 X74.753 Y100.9 E5.31093
G1 X74.189 Y100.645 E5.34173
G1 X73.686 Y100.335 E5.37114
G1 X72.768 Y99.689 E5.427
G1 X72.286 Y99.301 E5.45779
G1 X72.001 Y99.017 E5.47781
G1 X71.46 Y98.43 E5.51754
G1 X70.957 Y97.78 E5.55844
G1 X70.588 Y97.208 E5.59232
G1 X70.287 Y96.667 E5.62313
G1 X70.126 Y96.289 E5.64357
G1 X69.681 Y95.1 E5.70675
G1 X69.502 Y94.507 E5.73758
G1 X69.427 Y94.112 E5.75759
G1 X69.348 Y93.571 E5.7848
G1 X69.299 Y92.954 E5.8156
G1 X69.308 Y92.573 E5.83457
G1 X69.391 Y91.269 E5.89959
G1 X69.47 Y90.655 E5.9304
G1 X69.671 Y89.931 E5.96779
G1 X70.089 Y88.785 E6.0285
G1 X70.339 Y88.218 E6.05934
G1 X70.666 Y87.678 E6.09075
G1 X71.291 Y86.785 E6.145
G1 X71.871 Y86.102 E6.18959
G1 X72.284 Y85.699 E6.21831
G1 X72.754 Y85.297 E6.24908
G1 X73.025 Y85.107 E6.26555
G0 F2400 X73.242 Y85.442
G1 F1050 X75.851 Y83.751 E6.42028
G1 X80.36 Y80.628 E6.69324
G1 X84.652 Y77.279 E6.96416
G1 X86.658 Y75.575 E7.09515
G1 X90.657 Y71.896 E7.36557
G1 X91.166 Y71.493 E7.39787
G1 X91.937 Y70.97 E7.44424
G1 X92.449 Y70.671 E7.47374
G1 X92.884 Y70.483 E7.49733
G1 X94.086 Y70.04 E7.56108
G1 X94.655 Y69.873 E7.59059
G1 X95.198 Y69.788 E7.61794
G1 X96.108 Y69.703 E7.66343
G1 X96.701 Y69.688 E7.69295
G1 X97.093 Y69.722 E7.71253
G1 X98.221 Y69.871 E7.76915
G1 X98.802 Y69.988 E7.79864
G1 X99.156 Y70.101 E7.81714
G1 X99.924 Y70.382 E7.85784
G1 X100.466 Y70.622 E7.88733
G1 X100.888 Y70.877 E7.91187
G1 X101.979 Y71.62 E7.97756
G1 X102.445 Y71.986 E8.00705
G1 X102.831 Y72.379 E8.03446
G1 X103.449 Y73.094 E8.08149
G1 X103.831 Y73.608 E8.11336
G1 X107.067 Y78.692 E8.41328
G1 X110.237 Y83.085 E8.68287
G1 X113.573 Y87.248 E8.94836
G1 X113.912 Y87.734 E8.97785
G1 X114.076 Y88.033 E8.99482
G1 X114.632 Y89.147 E9.05678
G1 X114.861 Y89.694 E9.08629
G1 X115.022 Y90.312 E9.11807
G1 X115.237 Y91.475 E9.17693
G1 X115.305 Y92.064 E9.20644
G1 X115.301 Y92.562 E9.23122
G1 X115.231 Y93.627 E9.28433
G1 X115.152 Y94.215 E9.31386
G1 X115.011 Y94.741 E9.34096
G1 X114.637 Y95.853 E9.39934
G1 X114.41 Y96.401 E9.42886
G1 X114.131 Y96.885 E9.45667
G1 X113.499 Y97.836 E9.51349
G1 X113.138 Y98.306 E9.54298
G1 X112.764 Y98.684 E9.56945
G1 X111.932 Y99.426 E9.62492
G1 X111.464 Y99.789 E9.6544
G1 X111.079 Y100.021 E9.67677
G1 X110.266 Y100.456 E9.72266
G1 X109.55 Y100.761 E9.76139
G1 X108.808 Y101.002 E9.80021
G1 X108.233 Y101.147 E9.82972
G1 X107.934 Y101.19 E9.84475
G1 X107.049 Y101.288 E9.88907
G1 X106.376 Y101.311 E9.92258
G1 X101.907 Y101.118 E10.14519
G1 X96.447 Y101.13 E10.41691
G1 X92.854 Y101.31 E10.59594
G1 X92.446 Y101.312 E10.61624
G1 X87.909 Y101.118 E10.84224
G1 X82.447 Y101.13 E11.11406
G1 X78.854 Y101.31 E11.29309
G1 X78.178 Y101.292 E11.32674
G1 X77.008 Y101.17 E11.38528
G1 X76.424 Y101.069 E11.41478
G1 X75.912 Y100.911 E11.44144
G1 X74.894 Y100.527 E11.49559
G1 X74.355 Y100.281 E11.52507
G1 X73.916 Y100.009 E11.55077
G1 X72.998 Y99.363 E11.60664
G1 X72.537 Y98.99 E11.63615
G1 X72.295 Y98.747 E11.65321
G1 X71.754 Y98.16 E11.69294
G1 X71.292 Y97.564 E11.73047
G1 X70.923 Y96.992 E11.76434
G1 X70.636 Y96.473 E11.79386
G1 X70.5 Y96.149 E11.81135
G1 X70.055 Y94.96 E11.87452
G1 X69.885 Y94.392 E11.90403
G1 X69.822 Y94.054 E11.92114
G1 X69.743 Y93.513 E11.94835
G1 X69.697 Y92.922 E11.97785
G1 X69.706 Y92.599 E11.99393
G1 X69.789 Y91.295 E12.05896
G1 X69.866 Y90.707 E12.08847
G1 X70.046 Y90.067 E12.12155
G1 X70.464 Y88.921 E12.18226
G1 X70.704 Y88.379 E12.21176
G1 X70.993 Y87.907 E12.2393
G1 X71.618 Y87.014 E12.29355
G1 X72.149 Y86.388 E12.3344
G1 X72.562 Y85.985 E12.36311
G1 X73.242 Y85.442 E12.40642
G0 F2400 X73.459 Y85.777
G1 F1050 X76.066 Y84.088 E12.56101
G1 X80.608 Y80.941 E12.836
G1 X84.899 Y77.594 E13.10682
G1 X86.918 Y75.878 E13.23868
G1 X90.927 Y72.19 E13.50977
G1 X91.39 Y71.823 E13.53917
G1 X92.161 Y71.3 E13.58554
G1 X92.65 Y71.017 E13.61365
G1 X93.022 Y70.858 E13.63379
G1 X94.224 Y70.415 E13.69754
G1 X94.767 Y70.257 E13.72568
G1 X95.235 Y70.185 E13.74925
G1 X96.145 Y70.1 E13.79473
G1 X96.71 Y70.088 E13.82285
G1 X97.041 Y70.117 E13.83939
G1 X98.169 Y70.266 E13.89601
G1 X98.722 Y70.38 E13.92411
G1 X99.019 Y70.475 E13.93963
G1 X99.787 Y70.756 E13.98033
G1 X100.302 Y70.988 E14.00844
G1 X100.663 Y71.207 E14.02945
G1 X101.754 Y71.95 E14.09514
G1 X102.198 Y72.3 E14.12327
G1 X102.529 Y72.64 E14.14689
G1 X103.147 Y73.355 E14.19392
G1 X103.495 Y73.822 E14.2229
G1 X106.736 Y78.915 E14.52333
G1 X109.922 Y83.328 E14.7942
G1 X113.262 Y87.497 E15.06004
G1 X113.583 Y87.962 E15.08816
G1 X113.719 Y88.212 E15.10232
G1 X114.275 Y89.326 E15.16428
G1 X114.491 Y89.848 E15.1924
G1 X114.629 Y90.384 E15.21994
G1 X114.844 Y91.547 E15.2788
G1 X114.908 Y92.109 E15.30695
G1 X114.902 Y92.536 E15.3282
G1 X114.832 Y93.601 E15.38131
G1 X114.756 Y94.161 E15.40944
G1 X114.632 Y94.613 E15.43276
G1 X114.258 Y95.725 E15.49115
G1 X114.041 Y96.247 E15.51928
G1 X113.799 Y96.664 E15.54327
G1 X113.167 Y97.615 E15.6001
G1 X112.821 Y98.062 E15.62823
G1 X112.498 Y98.386 E15.651
G1 X111.666 Y99.128 E15.70648
G1 X111.219 Y99.473 E15.73458
G1 X110.891 Y99.669 E15.75359
G1 X110.078 Y100.104 E15.79948
G1 X109.427 Y100.381 E15.83469
G1 X108.685 Y100.622 E15.87351
G1 X107.89 Y100.794 E15.91399
G1 X107.005 Y100.892 E15.9583
G1 X106.393 Y100.912 E15.98877
G1 X101.923 Y100.719 E16.21143
G1 X96.447 Y100.731 E16.48395
G1 X92.834 Y100.912 E16.66398
G1 X92.463 Y100.913 E16.68244
G1 X87.925 Y100.719 E16.90848
G1 X82.447 Y100.731 E17.1811
G1 X78.834 Y100.912 E17.36113
G1 X78.219 Y100.895 E17.39174
G1 X77.049 Y100.773 E17.45029
G1 X76.493 Y100.675 E17.47838
G1 X76.053 Y100.538 E17.50132
G1 X75.035 Y100.154 E17.55546
G1 X74.522 Y99.917 E17.58358
G1 X74.145 Y99.683 E17.60567
G1 X73.227 Y99.037 E17.66153
G1 X72.789 Y98.679 E17.68968
G1 X72.588 Y98.476 E17.7039
G1 X72.047 Y97.889 E17.74362
G1 X71.627 Y97.347 E17.77775
G1 X71.258 Y96.775 E17.81162
G1 X70.986 Y96.28 E17.83973
G1 X70.874 Y96.009 E17.85432
G1 X70.429 Y94.82 E17.9175
G1 X70.268 Y94.278 E17.94564
G1 X70.217 Y93.997 E17.95985
G1 X70.138 Y93.456 E17.98706
G1 X70.104 Y92.624 E18.0285
G1 X70.187 Y91.32 E18.09353
G1 X70.263 Y90.76 E18.12165
G1 X70.421 Y90.204 E18.15042
G1 X70.839 Y89.058 E18.21112
G1 X71.07 Y88.542 E18.23926
G1 X71.32 Y88.136 E18.26299
G1 X71.945 Y87.243 E18.31723
G1 X72.428 Y86.674 E18.35437
G1 X72.841 Y86.271 E18.38309
G1 X73.459 Y85.777 E18.42246
G0 F2400 X73.676 Y86.112
G1 F1050 X76.297 Y84.414 E18.57788
G1 X80.828 Y81.275 E18.85219
G1 X85.159 Y77.896 E19.12556
G1 X87.177 Y76.182 E19.25732
G1 X91.197 Y72.483 E19.52919
G1 X91.614 Y72.154 E19.55562
G1 X92.385 Y71.631 E19.60198
G1 X92.85 Y71.363 E19.62869
G1 X93.16 Y71.232 E19.64544
G1 X94.362 Y70.789 E19.70919
G1 X94.878 Y70.642 E19.73589
G1 X95.272 Y70.583 E19.75572
G1 X96.182 Y70.498 E19.8012
G1 X96.718 Y70.488 E19.82788
G1 X96.988 Y70.513 E19.84138
G1 X98.116 Y70.662 E19.898
G1 X98.882 Y70.85 E19.93725
G1 X99.65 Y71.131 E19.97795
G1 X100.138 Y71.352 E20.00461
G1 X100.439 Y71.536 E20.02216
G1 X101.53 Y72.279 E20.08785
G1 X101.949 Y72.613 E20.11452
G1 X102.227 Y72.901 E20.13444
G1 X102.845 Y73.616 E20.18147
G1 X103.158 Y74.037 E20.20758
G1 X106.404 Y79.138 E20.50847
G1 X109.596 Y83.56 E20.77988
G1 X112.951 Y87.747 E21.04689
G1 X113.362 Y88.39 E21.08487
G1 X113.918 Y89.504 E21.14683
G1 X114.121 Y90 E21.1735
G1 X114.237 Y90.457 E21.19696
G1 X114.452 Y91.62 E21.25582
G1 X114.51 Y92.153 E21.2825
G1 X114.504 Y92.51 E21.30027
G1 X114.434 Y93.575 E21.35338
G1 X114.359 Y94.106 E21.38007
G1 X114.254 Y94.486 E21.39969
G1 X113.88 Y95.598 E21.45808
G1 X113.672 Y96.092 E21.48475
G1 X113.466 Y96.443 E21.505
G1 X112.834 Y97.394 E21.56183
G1 X112.505 Y97.817 E21.5885
G1 X112.232 Y98.088 E21.60764
G1 X111.4 Y98.83 E21.66312
G1 X110.975 Y99.156 E21.68978
G1 X110.703 Y99.317 E21.70551
G1 X109.89 Y99.752 E21.75139
G1 X109.304 Y100.002 E21.7831
G1 X108.562 Y100.243 E21.82192
G1 X107.846 Y100.397 E21.85837
G1 X106.961 Y100.495 E21.90268
G1 X106.41 Y100.514 E21.93012
G1 X101.917 Y100.32 E22.15392
G1 X96.426 Y100.332 E22.42719
G1 X92.814 Y100.513 E22.60716
G1 X92.48 Y100.515 E22.62379
G1 X87.919 Y100.32 E22.85097
G1 X82.426 Y100.332 E23.12434
G1 X78.814 Y100.513 E23.30431
G1 X78.261 Y100.499 E23.33184
G1 X77.091 Y100.377 E23.39038
G1 X76.563 Y100.281 E23.41709
G1 X76.194 Y100.164 E23.43636
G1 X75.176 Y99.78 E23.4905
G1 X74.69 Y99.554 E23.51718
G1 X74.375 Y99.356 E23.53569
G1 X73.457 Y98.71 E23.59155
G1 X72.882 Y98.206 E23.62961
G1 X72.341 Y97.619 E23.66933
G1 X71.963 Y97.131 E23.70005
G1 X71.594 Y96.559 E23.73393
G1 X71.247 Y95.87 E23.77232
G1 X70.802 Y94.681 E23.8355
G1 X70.612 Y93.939 E23.87361
G1 X70.533 Y93.398 E23.90082
G1 X70.502 Y92.649 E23.93813
G1 X70.585 Y91.345 E24.00315
G1 X70.659 Y90.814 E24.02984
G1 X70.796 Y90.341 E24.05434
G1 X71.214 Y89.195 E24.11505
G1 X71.435 Y88.706 E24.14175
G1 X71.646 Y88.364 E24.16175
G1 X72.271 Y87.471 E24.216
G1 X72.706 Y86.959 E24.24943
G1 X73.119 Y86.556 E24.27815
G1 X73.676 Y86.112 E24.3136
G0 F2400 X73.893 Y86.447
G1 F1050 X76.512 Y84.75 E24.4689
G1 X81.075 Y81.589 E24.74515
G1 X85.393 Y78.22 E25.0177
G1 X87.45 Y76.473 E25.15201
G1 X91.467 Y72.777 E25.42366
G1 X91.838 Y72.484 E25.44718
G1 X92.609 Y71.961 E25.49355
G1 X93.048 Y71.711 E25.51869
G1 X93.298 Y71.606 E25.53218
G1 X94.5 Y71.163 E25.59593
G1 X94.987 Y71.027 E25.6211
G1 X95.309 Y70.98 E25.63729
G1 X96.219 Y70.895 E25.68278
G1 X96.936 Y70.909 E25.71846
G1 X98.064 Y71.058 E25.77509
G1 X98.745 Y71.225 E25.80998
G1 X99.513 Y71.506 E25.85068
G1 X99.972 Y71.717 E25.87582
G1 X100.214 Y71.866 E25.88996
G1 X101.305 Y72.609 E25.95565
G1 X101.699 Y72.926 E25.98082
G1 X101.925 Y73.161 E25.99704
G1 X102.543 Y73.876 E26.04407
G1 X102.822 Y74.251 E26.06734
G1 X106.074 Y79.36 E26.36872
G1 X109.29 Y83.816 E26.6422
G1 X112.639 Y87.996 E26.90875
G1 X113.005 Y88.568 E26.94255
G1 X113.561 Y89.682 E27.00451
G1 X113.751 Y90.151 E27.02969
G1 X113.845 Y90.529 E27.04907
G1 X114.06 Y91.692 E27.10793
G1 X114.112 Y92.195 E27.1331
G1 X114.106 Y92.484 E27.14748
G1 X114.036 Y93.549 E27.2006
G1 X113.963 Y94.049 E27.22574
G1 X113.876 Y94.359 E27.24177
G1 X113.502 Y95.471 E27.30015
G1 X113.304 Y95.936 E27.3253
G1 X113.134 Y96.222 E27.34186
G1 X112.502 Y97.173 E27.39869
G1 X112.19 Y97.571 E27.42385
G1 X111.967 Y97.79 E27.43941
G1 X111.135 Y98.532 E27.49489
G1 X110.515 Y98.966 E27.53255
G1 X109.702 Y99.401 E27.57844
G1 X109.181 Y99.622 E27.6066
G1 X108.439 Y99.863 E27.64542
G1 X107.802 Y100.001 E27.67786
G1 X106.917 Y100.099 E27.72217
G1 X106.427 Y100.115 E27.74657
G1 X101.933 Y99.921 E27.97042
G1 X96.426 Y99.933 E28.24448
G1 X92.794 Y100.115 E28.42546
G1 X92.497 Y100.116 E28.44024
G1 X87.935 Y99.921 E28.66748
G1 X82.426 Y99.933 E28.94164
G1 X78.794 Y100.115 E29.12261
G1 X78.302 Y100.102 E29.1471
G1 X77.132 Y99.98 E29.20564
G1 X76.635 Y99.888 E29.2308
G1 X76.335 Y99.791 E29.24649
G1 X75.317 Y99.407 E29.30063
G1 X74.859 Y99.192 E29.32581
G1 X74.604 Y99.03 E29.34085
G1 X73.686 Y98.384 E29.39671
G1 X73.175 Y97.936 E29.43053
G1 X72.634 Y97.349 E29.47026
G1 X72.298 Y96.915 E29.49757
G1 X71.929 Y96.343 E29.53145
G1 X71.621 Y95.73 E29.56559
G1 X71.176 Y94.541 E29.62877
G1 X71.007 Y93.881 E29.66267
G1 X70.928 Y93.34 E29.68988
G1 X70.9 Y92.675 E29.723
G1 X70.983 Y91.371 E29.78803
G1 X71.055 Y90.87 E29.81322
G1 X71.171 Y90.477 E29.83361
G1 X71.589 Y89.331 E29.89432
G1 X71.799 Y88.872 E29.91944
G1 X71.973 Y88.593 E29.9358
G1 X72.598 Y87.7 E29.99004
G1 X72.985 Y87.245 E30.01977
G1 X73.398 Y86.842 E30.04849
G1 X73.893 Y86.447 E30.08
G1 F1500 E29.08
G0 F2400 X75.441 Y88.429
G0 X76.218 Y89.421
G0 X76.51 Y89.699
;TYPE:WALL-INNER
G1 F1500 E30.08
G1 F1050 X76.636 Y89.613 E30.08759
G1 X76.894 Y89.462 E30.10247
G1 X77.196 Y89.321 E30.11906
G1 X77.473 Y89.222 E30.1337
G1 X77.789 Y89.138 E30.14997
G1 X78.086 Y89.088 E30.16496
G1 X78.211 Y89.076 E30.17121
G1 X78.555 Y89.064 E30.18834
G1 X78.85 Y89.082 E30.20304
G1 X79.167 Y89.131 E30.21901
G1 X79.463 Y89.202 E30.23415
G1 X79.773 Y89.308 E30.25046
G1 X79.907 Y89.364 E30.25769
G1 X80.177 Y89.5 E30.27273
G1 X80.442 Y89.665 E30.28827
G1 X80.695 Y89.856 E30.30404
G1 X80.803 Y89.949 E30.31114
G1 X81.061 Y90.206 E30.32926
G1 X81.334 Y90.555 E30.35131
G1 X81.393 Y90.644 E30.35662
G1 X81.566 Y90.947 E30.37399
G1 X81.686 Y91.211 E30.38842
G1 X81.793 Y91.517 E30.40455
G1 X81.866 Y91.807 E30.41943
G1 X81.915 Y92.121 E30.43525
G1 X81.936 Y92.444 E30.45136
G1 X81.936 Y92.569 E30.45758
G1 X81.912 Y92.904 E30.47429
G1 X81.866 Y93.191 E30.48876
G1 X81.786 Y93.508 E30.50503
G1 X81.687 Y93.786 E30.51971
G1 X81.55 Y94.084 E30.53603
G1 X81.403 Y94.339 E30.55068
G1 X81.208 Y94.615 E30.5675
G1 X81.024 Y94.834 E30.58173
G1 X80.793 Y95.06 E30.59782
G1 X80.689 Y95.15 E30.60466
G1 X80.425 Y95.346 E30.62102
G1 X80.168 Y95.506 E30.63609
G1 X79.879 Y95.648 E30.65211
G1 X79.762 Y95.696 E30.65841
G1 X79.428 Y95.809 E30.67596
G1 X79.15 Y95.873 E30.69015
G1 X78.835 Y95.919 E30.70599
G1 X78.543 Y95.936 E30.72055
G1 X78.218 Y95.924 E30.73674
G1 X77.913 Y95.884 E30.75204
G1 X77.598 Y95.815 E30.76809
G1 X77.301 Y95.721 E30.78359
G1 X77.202 Y95.682 E30.78889
G1 X76.873 Y95.526 E30.80701
G1 X76.609 Y95.369 E30.8223
G1 X76.51 Y95.302 E30.82825
G1 X76.245 Y95.092 E30.84507
G1 X76.136 Y94.993 E30.8524
G1 X75.911 Y94.76 E30.86852
G1 X75.729 Y94.532 E30.88304
G1 X75.639 Y94.404 E30.89082
G1 X75.475 Y94.13 E30.90672
G1 X75.345 Y93.859 E30.92167
G1 X75.222 Y93.531 E30.93911
G1 X75.183 Y93.4 E30.94591
G1 X75.12 Y93.116 E30.96039
G1 X75.075 Y92.773 E30.9776
G1 X75.068 Y92.658 E30.98334
G1 X75.069 Y92.326 E30.99986
G1 X75.095 Y92.038 E31.01425
G1 X75.153 Y91.725 E31.03009
G1 X75.243 Y91.407 E31.04654
G1 X75.348 Y91.129 E31.06133
G1 X75.479 Y90.86 E31.07622
G1 X75.643 Y90.591 E31.09189
