; G-Code generated by Simplify3D(R) Version 3.0.2
; Apr 23, 2018 at 2:40:22 PM
; Settings Summary
;   processName,Process1
;   applyToModels,Spool_Holder_Arm v2
;   profileName,Prusa i3 Rework
;   profileVersion,2018-03-25 15:04:00
;   baseProfile,Default
;   printMaterial,PLA
;   printQuality,Medium
;   printExtruders,
;   extruderName,Extruder 1
;   extruderToolheadNumber,0
;   extruderDiameter,0.4
;   extruderAutoWidth,0
;   extruderWidth,0.4
;   extrusionMultiplier,0.9
;   extruderUseRetract,1
;   extruderRetractionDistance,1
;   extruderExtraRestartDistance,0
;   extruderRetractionZLift,0
;   extruderRetractionSpeed,1800
;   extruderUseCoasting,0
;   extruderCoastingDistance,0.2
;   extruderUseWipe,0
;   extruderWipeDistance,5
;   primaryExtruder,0
;   layerHeight,0.2
;   topSolidLayers,3
;   bottomSolidLayers,3
;   perimeterOutlines,2
;   printPerimetersInsideOut,1
;   startPointOption,2
;   startPointOriginX,0
;   startPointOriginY,0
;   startPointOriginZ,300
;   sequentialIslands,0
;   spiralVaseMode,0
;   firstLayerHeightPercentage,90
;   firstLayerWidthPercentage,100
;   firstLayerUnderspeed,0.5
;   useRaft,0
;   raftExtruder,0
;   raftLayers,3
;   raftOffset,3
;   raftSeparationDistance,0.14
;   raftInfill,85
;   disableRaftBaseLayers,0
;   useSkirt,1
;   skirtExtruder,0
;   skirtLayers,1
;   skirtOutlines,2
;   skirtOffset,4
;   usePrimePillar,0
;   primePillarExtruder,999
;   primePillarWidth,12
;   primePillarLocation,7
;   primePillarSpeedMultiplier,1
;   useOozeShield,0
;   oozeShieldExtruder,999
;   oozeShieldOffset,2
;   oozeShieldOutlines,1
;   oozeShieldSidewallShape,1
;   oozeShieldSidewallAngle,30
;   oozeShieldSpeedMultiplier,1
;   infillExtruder,0
;   internalInfillPattern,Rectilinear
;   externalInfillPattern,Rectilinear
;   infillPercentage,20
;   outlineOverlapPercentage,15
;   infillExtrusionWidthPercentage,100
;   minInfillLength,5
;   infillLayerInterval,1
;   infillAngles,45,-45
;   overlapInfillAngles,0
;   generateSupport,0
;   supportExtruder,0
;   supportInfillPercentage,30
;   supportExtraInflation,0
;   denseSupportLayers,0
;   denseSupportInfillPercentage,70
;   supportLayerInterval,1
;   supportHorizontalPartOffset,0.3
;   supportUpperSeparationLayers,1
;   supportLowerSeparationLayers,1
;   supportType,0
;   supportGridSpacing,4
;   maxOverhangAngle,45
;   supportAngles,0
;   temperatureName,Extruder 1 Temperature,Heated Bed
;   temperatureNumber,0,0
;   temperatureSetpointCount,1,1
;   temperatureSetpointLayers,1,1
;   temperatureSetpointTemperatures,190,60
;   temperatureStabilizeAtStartup,1,1
;   temperatureHeatedBed,0,1
;   temperatureRelayBetweenLayers,0,0
;   temperatureRelayBetweenLoops,0,0
;   fanLayers,1,2
;   fanSpeeds,0,100
;   blipFanToFullPower,0
;   adjustSpeedForCooling,1
;   minSpeedLayerTime,15
;   minCoolingSpeedSlowdown,20
;   increaseFanForCooling,0
;   minFanLayerTime,45
;   maxCoolingFanSpeed,100
;   increaseFanForBridging,0
;   bridgingFanSpeed,100
;   use5D,1
;   relativeEdistances,0
;   allowEaxisZeroing,1
;   independentExtruderAxes,0
;   includeM10123,0
;   stickySupport,1
;   applyToolheadOffsets,0
;   gcodeXoffset,0
;   gcodeYoffset,0
;   gcodeZoffset,0
;   overrideMachineDefinition,1
;   machineTypeOverride,0
;   strokeXoverride,190
;   strokeYoverride,190
;   strokeZoverride,190
;   originOffsetXoverride,0
;   originOffsetYoverride,0
;   originOffsetZoverride,0
;   homeXdirOverride,-1
;   homeYdirOverride,-1
;   homeZdirOverride,-1
;   flipXoverride,1
;   flipYoverride,-1
;   flipZoverride,1
;   toolheadOffsets,0,0|0,0|0,0|0,0|0,0|0,0
;   overrideFirmwareConfiguration,1
;   firmwareTypeOverride,RepRap (Marlin/Repetier/Sprinter)
;   GPXconfigOverride,r2
;   baudRateOverride,115200
;   overridePrinterModels,0
;   printerModelsOverride
;   startingGcode,G28 ; home all axes
;   layerChangeGcode,
;   retractionGcode,
;   toolChangeGcode,
;   endingGcode,M104 S0 ; turn off extruder,M140 S0 ; turn off bed,M84 ; disable motors
;   createX3G,0
;   celebration,0
;   celebrationSong,Random Song
;   createMB5G,0
;   postProcessing,
;   defaultSpeed,3600
;   outlineUnderspeed,0.5
;   solidInfillUnderspeed,0.8
;   supportUnderspeed,0.8
;   rapidXYspeed,4800
;   rapidZspeed,1000
;   minBridgingArea,50
;   bridgingExtraInflation,0
;   bridgingExtrusionMultiplier,1
;   bridgingSpeedMultiplier,1
;   filamentDiameter,1.75
;   filamentPricePerKg,46
;   filamentDensity,1.25
;   useMinPrintHeight,0
;   minPrintHeight,0
;   useMaxPrintHeight,0
;   maxPrintHeight,0
;   useDiaphragm,0
;   diaphragmLayerInterval,20
;   robustSlicing,1
;   mergeAllIntoSolid,0
;   onlyRetractWhenCrossingOutline,1
;   retractBetweenLayers,1
;   useRetractionMinTravel,0
;   retractionMinTravel,3
;   retractWhileWiping,0
;   onlyWipeOutlines,1
;   avoidCrossingOutline,0
;   maxMovementDetourFactor,3
;   toolChangeRetractionDistance,12
;   toolChangeExtraRestartDistance,-0.5
;   toolChangeRetractionSpeed,600
;   allowThinWallGapFill,1
;   thinWallAllowedOverlapPercentage,10
;   horizontalSizeCompensation,0
G90
M82
M106 S0
M140 S60
M190 S60
M104 S190 T0
M109 S190 T0
G28 ; home all axes
G92 E0
G1 E-1.0000 F1800
G1 Z0.380 F1000
; layer 1, Z = 0.18
; layer 2, Z = 0.38
M106 S255
T0
; tool H0.200 W0.400
; inner perimeter
G1 X30.850 Y126.754 F4800
G1 E0.0000 F540
G92 E0
G1 X33.853 Y126.805 E0.0899 F2700
G1 X37.650 Y126.805 E0.2036
G1 X37.663 Y169.347 E1.4771
G1 X30.850 Y169.347 E1.6810
G1 X30.850 Y126.754 E2.9560
; outer perimeter
G1 X30.450 Y126.348 F4800
G92 E0
G1 X33.856 Y126.405 E0.1020 F1800
G1 X38.050 Y126.405 E0.2275
G1 X38.063 Y169.747 E1.5249
G1 X30.450 Y169.747 E1.7528
G1 X30.450 Y126.348 E3.0520
; bridge
G1 X37.000 Y127.145 F4800
G92 E0
G1 X37.000 Y169.007 E1.2531 F3600
G1 X36.600 Y169.007 E1.2651
G1 X36.600 Y127.145 E2.5182
G1 X36.200 Y127.145 E2.5302
G1 X36.200 Y169.007 E3.7833
G1 X35.800 Y169.007 E3.7953
G1 X35.800 Y127.145 E5.0484
G1 X35.400 Y127.145 E5.0604
G1 X35.400 Y169.007 E6.3135
G1 X35.000 Y169.007 E6.3255
G1 X35.000 Y127.145 E7.5786
G1 X34.600 Y127.145 E7.5906
G1 X34.600 Y169.007 E8.8437
G1 X34.200 Y169.007 E8.8557
G1 X34.200 Y127.145 E10.1088
G1 X33.850 Y127.145 E10.1193
G1 X33.800 Y127.144 E10.1208
G1 X33.800 Y169.007 E11.3740
G1 X33.400 Y169.007 E11.3859
G1 X33.400 Y127.137 E12.6393
G1 X33.000 Y127.130 E12.6513
G1 X33.000 Y169.007 E13.9048
G1 X32.600 Y169.007 E13.9168
G1 X32.600 Y127.124 E15.1705
G1 X32.200 Y127.117 E15.1825
G1 X32.200 Y169.007 E16.4365
G1 X31.800 Y169.007 E16.4484
G1 X31.800 Y127.110 E17.7026
G1 X31.400 Y127.104 E17.7146
G1 X31.400 Y169.007 E18.9689
G92 E0
G1 E-1.0000 F1800
; layer 3, Z = 0.58
; inner perimeter
G1 X30.850 Y169.347 F4800
G1 Z0.580 F1000
G1 E0.0000 F1800
G92 E0
G1 X30.850 Y20.549 E4.4541 F2700
G1 X37.818 Y20.549 E4.6627
G1 X37.832 Y67.364 E6.0641
G1 X125.533 Y67.365 E8.6893
G1 X125.828 Y65.959 E8.7323
G1 X126.134 Y64.863 E8.7664
G1 X126.521 Y63.763 E8.8013
G1 X126.974 Y62.722 E8.8353
G1 X127.496 Y61.710 E8.8694
G1 X128.086 Y60.728 E8.9036
G1 X128.739 Y59.793 E8.9378
G1 X129.453 Y58.911 E8.9718
G1 X130.228 Y58.072 E9.0060
G1 X131.056 Y57.287 E9.0401
G1 X131.935 Y56.562 E9.0742
G1 X132.862 Y55.897 E9.1083
G1 X133.831 Y55.293 E9.1425
G1 X134.837 Y54.758 E9.1766
G1 X135.877 Y54.298 E9.2107
G1 X136.949 Y53.904 E9.2449
G1 X138.044 Y53.579 E9.2791
G1 X139.156 Y53.330 E9.3132
G1 X140.283 Y53.163 E9.3473
G1 X141.420 Y53.065 E9.3815
G1 X142.559 Y53.050 E9.4155
G1 X143.699 Y53.110 E9.4497
G1 X144.831 Y53.245 E9.4838
G1 X145.952 Y53.456 E9.5180
G1 X147.055 Y53.742 E9.5521
G1 X148.135 Y54.104 E9.5862
G1 X149.191 Y54.542 E9.6204
G1 X150.215 Y55.040 E9.6545
G1 X151.202 Y55.613 E9.6887
G1 X152.148 Y56.246 E9.7227
G1 X153.049 Y56.948 E9.7569
G1 X153.901 Y57.703 E9.7910
G1 X154.699 Y58.517 E9.8251
G1 X155.442 Y59.385 E9.8593
G1 X156.124 Y60.298 E9.8934
G1 X156.743 Y61.256 E9.9276
G1 X157.296 Y62.252 E9.9617
G1 X157.781 Y63.286 E9.9959
G1 X158.196 Y64.350 E10.0300
G1 X158.536 Y65.436 E10.0641
G1 X158.803 Y66.545 E10.0983
G1 X158.995 Y67.670 E10.1324
G1 X159.111 Y68.802 E10.1665
G1 X159.150 Y69.941 E10.2006
G1 X159.111 Y71.081 E10.2347
G1 X158.997 Y72.220 E10.2690
G1 X158.806 Y73.337 E10.3029
G1 X158.539 Y74.447 E10.3371
G1 X158.199 Y75.541 E10.3714
G1 X157.785 Y76.597 E10.4054
G1 X157.301 Y77.632 E10.4396
G1 X156.748 Y78.628 E10.4737
G1 X156.130 Y79.586 E10.5078
G1 X155.448 Y80.500 E10.5419
G1 X154.706 Y81.368 E10.5761
G1 X153.908 Y82.183 E10.6102
G1 X153.056 Y82.938 E10.6443
G1 X152.156 Y83.640 E10.6785
G1 X151.210 Y84.274 E10.7126
G1 X150.222 Y84.848 E10.7468
G1 X149.200 Y85.354 E10.7809
G1 X148.146 Y85.784 E10.8150
G1 X147.064 Y86.147 E10.8492
G1 X145.961 Y86.434 E10.8833
G1 X144.841 Y86.645 E10.9174
G1 X143.709 Y86.781 E10.9515
G1 X142.569 Y86.842 E10.9857
G1 X141.430 Y86.827 E11.0198
G1 X140.293 Y86.730 E11.0540
G1 X139.165 Y86.564 E11.0881
G1 X138.052 Y86.315 E11.1222
G1 X136.957 Y85.998 E11.1564
G1 X135.888 Y85.607 E11.1904
G1 X134.847 Y85.139 E11.2246
G1 X133.838 Y84.603 E11.2588
G1 X132.868 Y84.007 E11.2929
G1 X131.944 Y83.344 E11.3269
G1 X131.063 Y82.612 E11.3612
G1 X130.234 Y81.834 E11.3952
G1 X129.460 Y80.998 E11.4293
G1 X128.745 Y80.107 E11.4635
G1 X128.090 Y79.171 E11.4977
G1 X127.500 Y78.197 E11.5318
G1 X126.978 Y77.187 E11.5659
G1 X126.525 Y76.138 E11.6000
G1 X126.143 Y75.059 E11.6343
G1 X125.828 Y73.933 E11.6693
G1 X125.534 Y72.531 E11.7122
G1 X37.834 Y72.530 E14.3374
G1 X37.863 Y169.347 E17.2356
G1 X30.850 Y169.347 E17.4455
; outer perimeter
G1 X30.450 Y169.747 F4800
G92 E0
G1 X30.450 Y20.149 E4.4781 F1800
G1 X38.167 Y20.149 E4.7091
G1 X38.218 Y20.200 E4.7112
G1 X38.232 Y66.964 E6.1111
G1 X125.208 Y66.965 E8.7147
G1 X125.439 Y65.864 E8.7483
G1 X125.752 Y64.743 E8.7832
G1 X126.149 Y63.617 E8.8189
G1 X126.612 Y62.551 E8.8537
G1 X127.147 Y61.515 E8.8886
G1 X127.750 Y60.511 E8.9236
G1 X128.419 Y59.553 E8.9586
G1 X129.151 Y58.649 E8.9934
G1 X129.943 Y57.791 E9.0284
G1 X130.790 Y56.987 E9.0634
G1 X131.691 Y56.245 E9.0983
G1 X132.639 Y55.565 E9.1332
G1 X133.631 Y54.947 E9.1682
G1 X134.662 Y54.398 E9.2032
G1 X135.727 Y53.927 E9.2380
G1 X136.823 Y53.524 E9.2730
G1 X137.943 Y53.192 E9.3080
G1 X139.083 Y52.936 E9.3429
G1 X140.236 Y52.766 E9.3778
G1 X141.400 Y52.665 E9.4128
G1 X142.567 Y52.650 E9.4477
G1 X143.733 Y52.711 E9.4827
G1 X144.892 Y52.850 E9.5176
G1 X146.039 Y53.066 E9.5525
G1 X147.169 Y53.359 E9.5875
G1 X148.275 Y53.729 E9.6224
G1 X149.355 Y54.177 E9.6574
G1 X150.403 Y54.687 E9.6923
G1 X151.414 Y55.273 E9.7273
G1 X152.382 Y55.922 E9.7622
G1 X153.305 Y56.640 E9.7972
G1 X154.177 Y57.413 E9.8320
G1 X154.994 Y58.246 E9.8670
G1 X155.755 Y59.135 E9.9020
G1 X156.453 Y60.069 E9.9369
G1 X157.086 Y61.050 E9.9719
G1 X157.652 Y62.070 E10.0068
G1 X158.149 Y63.128 E10.0418
G1 X158.573 Y64.217 E10.0767
G1 X158.922 Y65.329 E10.1116
G1 X159.196 Y66.465 E10.1466
G1 X159.392 Y67.616 E10.1816
G1 X159.510 Y68.775 E10.2164
G1 X159.550 Y69.941 E10.2514
G1 X159.511 Y71.108 E10.2863
G1 X159.393 Y72.274 E10.3214
G1 X159.197 Y73.418 E10.3561
G1 X158.925 Y74.553 E10.3911
G1 X158.576 Y75.673 E10.4262
G1 X158.153 Y76.755 E10.4610
G1 X157.657 Y77.814 E10.4960
G1 X157.092 Y78.833 E10.5309
G1 X156.459 Y79.815 E10.5658
G1 X155.761 Y80.750 E10.6007
G1 X155.001 Y81.638 E10.6357
G1 X154.184 Y82.473 E10.6707
G1 X153.312 Y83.246 E10.7056
G1 X152.390 Y83.964 E10.7406
G1 X151.422 Y84.613 E10.7754
G1 X150.411 Y85.201 E10.8105
G1 X149.365 Y85.719 E10.8454
G1 X148.285 Y86.159 E10.8803
G1 X147.178 Y86.530 E10.9153
G1 X146.049 Y86.824 E10.9502
G1 X144.902 Y87.041 E10.9851
G1 X143.743 Y87.180 E11.0201
G1 X142.577 Y87.242 E11.0550
G1 X141.410 Y87.227 E11.0900
G1 X140.246 Y87.127 E11.1249
G1 X139.093 Y86.957 E11.1598
G1 X137.952 Y86.703 E11.1948
G1 X136.832 Y86.378 E11.2297
G1 X135.737 Y85.977 E11.2646
G1 X134.671 Y85.499 E11.2996
G1 X133.639 Y84.950 E11.3346
G1 X132.647 Y84.340 E11.3695
G1 X131.699 Y83.661 E11.4044
G1 X130.798 Y82.912 E11.4394
G1 X129.950 Y82.116 E11.4743
G1 X129.157 Y81.259 E11.5092
G1 X128.425 Y80.348 E11.5442
G1 X127.755 Y79.390 E11.5792
G1 X127.151 Y78.393 E11.6141
G1 X126.616 Y77.358 E11.6489
G1 X126.153 Y76.285 E11.6839
G1 X125.761 Y75.180 E11.7190
G1 X125.439 Y74.028 E11.7548
G1 X125.209 Y72.931 E11.7884
G1 X38.234 Y72.930 E14.3919
G1 X38.263 Y169.651 E17.2872
G1 X38.167 Y169.747 E17.2912
G1 X30.450 Y169.747 E17.5222
G92 E0
G1 E-1.0000 F1800
; inner perimeter
G1 X130.469 Y80.283 F4800
G1 E0.0000 F1800
G92 E0
G1 X131.171 Y81.027 E0.0306 F2700
G1 X131.919 Y81.729 E0.0613
G1 X132.712 Y82.377 E0.0920
G1 X133.545 Y82.975 E0.1227
G1 X134.416 Y83.515 E0.1534
G1 X135.321 Y84.000 E0.1841
G1 X136.254 Y84.420 E0.2147
G1 X137.213 Y84.784 E0.2454
G1 X138.195 Y85.081 E0.2761
G1 X139.194 Y85.315 E0.3068
G1 X140.205 Y85.479 E0.3375
G1 X141.225 Y85.583 E0.3682
G1 X142.250 Y85.616 E0.3989
G1 X143.275 Y85.583 E0.4296
G1 X144.295 Y85.479 E0.4603
G1 X145.306 Y85.315 E0.4910
G1 X146.305 Y85.081 E0.5217
G1 X147.287 Y84.784 E0.5524
G1 X148.246 Y84.420 E0.5831
G1 X149.179 Y84.000 E0.6137
G1 X150.084 Y83.515 E0.6444
G1 X150.955 Y82.975 E0.6751
G1 X151.788 Y82.377 E0.7058
G1 X152.581 Y81.729 E0.7365
G1 X153.329 Y81.027 E0.7672
G1 X154.031 Y80.283 E0.7978
G1 X154.683 Y79.489 E0.8285
G1 X155.280 Y78.651 E0.8593
G1 X155.822 Y77.785 E0.8899
G1 X156.306 Y76.879 E0.9207
G1 X156.730 Y75.943 E0.9514
G1 X157.091 Y74.988 E0.9820
G1 X157.390 Y74.002 E1.0128
G1 X157.623 Y73.006 E1.0434
G1 X157.791 Y71.996 E1.0741
G1 X157.892 Y70.970 E1.1050
G1 X157.926 Y69.949 E1.1355
G1 X157.894 Y68.923 E1.1663
G1 X157.794 Y67.903 E1.1970
G1 X157.627 Y66.891 E1.2276
G1 X157.395 Y65.889 E1.2584
G1 X157.097 Y64.909 E1.2891
G1 X156.737 Y63.947 E1.3199
G1 X156.314 Y63.015 E1.3505
G1 X155.831 Y62.109 E1.3812
G1 X155.290 Y61.236 E1.4120
G1 X154.692 Y60.401 E1.4427
G1 X154.042 Y59.608 E1.4734
G1 X153.340 Y58.856 E1.5042
G1 X152.591 Y58.158 E1.5348
G1 X151.799 Y57.504 E1.5656
G1 X150.962 Y56.903 E1.5964
G1 X149.960 Y56.290 E1.6316
G1 X149.187 Y55.882 E1.6578
G1 X148.253 Y55.454 E1.6885
G1 X147.291 Y55.097 E1.7192
G1 X146.311 Y54.798 E1.7499
G1 X145.312 Y54.563 E1.7806
G1 X144.297 Y54.393 E1.8114
G1 X143.274 Y54.296 E1.8422
G1 X142.250 Y54.264 E1.8729
G1 X141.226 Y54.296 E1.9035
G1 X140.203 Y54.393 E1.9343
G1 X139.188 Y54.563 E1.9651
G1 X138.189 Y54.798 E1.9958
G1 X137.209 Y55.097 E2.0265
G1 X136.247 Y55.454 E2.0572
G1 X135.312 Y55.882 E2.0880
G1 X134.408 Y56.361 E2.1186
G1 X133.536 Y56.904 E2.1494
G1 X132.701 Y57.504 E2.1801
G1 X131.909 Y58.158 E2.2109
G1 X131.160 Y58.856 E2.2415
G1 X130.458 Y59.608 E2.2723
G1 X129.808 Y60.401 E2.3030
G1 X129.210 Y61.236 E2.3337
G1 X128.669 Y62.109 E2.3645
G1 X128.186 Y63.014 E2.3952
G1 X127.763 Y63.946 E2.4259
G1 X127.403 Y64.909 E2.4566
G1 X127.105 Y65.889 E2.4873
G1 X126.873 Y66.891 E2.5181
G1 X126.706 Y67.903 E2.5488
G1 X126.606 Y68.923 E2.5794
G1 X126.574 Y69.949 E2.6102
G1 X126.608 Y70.970 E2.6408
G1 X126.709 Y71.996 E2.6716
G1 X126.877 Y73.006 E2.7023
G1 X127.110 Y74.002 E2.7329
G1 X127.409 Y74.988 E2.7637
G1 X127.770 Y75.943 E2.7943
G1 X128.194 Y76.879 E2.8251
G1 X128.678 Y77.785 E2.8558
G1 X129.220 Y78.651 E2.8864
G1 X129.817 Y79.489 E2.9172
G1 X130.469 Y80.283 E2.9479
; outer perimeter
G1 X130.770 Y80.019 F4800
G92 E0
G1 X131.453 Y80.744 E0.0298 F1800
G1 X132.183 Y81.428 E0.0598
G1 X132.955 Y82.059 E0.0896
G1 X133.768 Y82.642 E0.1196
G1 X134.616 Y83.169 E0.1495
G1 X135.498 Y83.641 E0.1794
G1 X136.407 Y84.051 E0.2093
G1 X137.342 Y84.405 E0.2392
G1 X138.299 Y84.695 E0.2691
G1 X139.271 Y84.923 E0.2990
G1 X140.258 Y85.083 E0.3289
G1 X141.251 Y85.184 E0.3588
G1 X142.250 Y85.215 E0.3887
G1 X143.248 Y85.184 E0.4186
G1 X144.242 Y85.083 E0.4485
G1 X145.229 Y84.923 E0.4784
G1 X146.201 Y84.695 E0.5083
G1 X147.158 Y84.405 E0.5383
G1 X148.093 Y84.051 E0.5682
G1 X149.002 Y83.641 E0.5981
G1 X149.884 Y83.169 E0.6280
G1 X150.732 Y82.642 E0.6579
G1 X151.545 Y82.059 E0.6878
G1 X152.317 Y81.428 E0.7177
G1 X153.047 Y80.744 E0.7476
G1 X153.730 Y80.019 E0.7774
G1 X154.365 Y79.245 E0.8074
G1 X154.948 Y78.429 E0.8374
G1 X155.475 Y77.585 E0.8672
G1 X155.947 Y76.702 E0.8972
G1 X156.360 Y75.790 E0.9271
G1 X156.712 Y74.859 E0.9569
G1 X157.003 Y73.899 E0.9870
G1 X157.231 Y72.928 E1.0168
