;FLAVOR:Marlin
;TIME:5325
;Filament used: 3.08262m
;Layer height: 0.2
;Generated with Cura_SteamEngine 2.7.0
M190 S60
M104 S220
M109 S220
G21 ;metric values
G90 ;absolute positioning
M82 ;set extruder to absolute mode
M107 ;start with the fan off
G92 E0 ;zero the extruded length
G1 F200 E3 ;extrude 3mm of feed stock
G92 E0 ;zero the extruded length again
G1 F9000
M301 P26.92 I2.54 D71.46 ;set PID tuning for E0
M117 Printing...
;LAYER_COUNT:80
;LAYER:0
M107
M204 S5000
G0 F2400 X45.791 Y80.665 Z0.3
M204 S200
;TYPE:SKIRT
G1 F1200 X46.345 Y80.389 E0.0308
G1 X46.93 Y80.186 E0.06162
G1 X47.536 Y80.061 E0.09241
G1 X48.204 Y80.014 E0.12574
G1 X95.492 Y80.014 E2.47905
G1 X96.11 Y80.054 E2.50987
G1 X96.717 Y80.173 E2.54065
G1 X97.304 Y80.37 E2.57146
G1 X97.861 Y80.64 E2.60227
G1 X98.379 Y80.98 E2.6331
G1 X98.848 Y81.384 E2.66391
G1 X99.261 Y81.845 E2.69471
G1 X99.612 Y82.355 E2.72552
G1 X99.894 Y82.906 E2.75632
G1 X100.166 Y83.737 E2.79984
G1 X101.161 Y88.07 E3.02108
G1 X101.261 Y88.681 E3.05189
G1 X101.283 Y89.143 E3.07491
G1 X101.283 Y95.858 E3.40909
G1 X101.243 Y96.476 E3.43991
G1 X101.161 Y96.932 E3.46296
G1 X100.165 Y101.265 E3.68422
G1 X99.988 Y101.859 E3.71507
G1 X99.735 Y102.424 E3.74587
G1 X99.412 Y102.952 E3.77668
G1 X99.024 Y103.434 E3.80747
G1 X98.577 Y103.862 E3.83827
G1 X98.078 Y104.229 E3.86909
G1 X97.537 Y104.529 E3.89988
G1 X96.961 Y104.756 E3.93069
G1 X96.36 Y104.908 E3.96154
G1 X95.491 Y104.987 E4.00497
G1 X48.205 Y104.986 E6.35818
G1 X47.587 Y104.946 E6.389
G1 X46.98 Y104.827 E6.41978
G1 X46.392 Y104.63 E6.45064
G1 X45.836 Y104.36 E6.4814
G1 X45.318 Y104.02 E6.51223
G1 X44.822 Y103.589 E6.54493
G1 X41.598 Y100.38 E6.77131
G1 X41.54 Y100.322 E6.77539
G1 X41.069 Y99.837 E6.80904
G1 X40.668 Y99.366 E6.83982
G1 X40.33 Y98.847 E6.87064
G1 X40.062 Y98.289 E6.90145
G1 X39.868 Y97.701 E6.93226
G1 X39.751 Y97.093 E6.96307
G1 X39.714 Y96.496 E6.99284
G1 X39.714 Y88.505 E7.39052
G1 X39.754 Y87.887 E7.42134
G1 X39.873 Y87.28 E7.45212
G1 X40.07 Y86.693 E7.48293
G1 X40.34 Y86.136 E7.51374
G1 X40.68 Y85.618 E7.54457
G1 X41.118 Y85.114 E7.5778
G1 X44.812 Y81.419 E7.83782
G1 X45.277 Y81.011 E7.8686
G1 X45.791 Y80.665 E7.89944
M204 S5000
G0 F2400 X46.036 Y80.985
M204 S200
G1 F1200 X46.57 Y80.728 E7.92893
G1 X47.134 Y80.545 E7.95844
G1 X47.717 Y80.44 E7.98792
G1 X48.204 Y80.413 E8.01219
G1 X95.492 Y80.413 E10.3655
G1 X96.083 Y80.453 E10.39498
G1 X96.664 Y80.572 E10.4245
G1 X97.223 Y80.768 E10.45397
G1 X97.751 Y81.038 E10.48349
G1 X98.238 Y81.376 E10.51299
G1 X98.675 Y81.777 E10.5425
G1 X99.054 Y82.232 E10.57197
G1 X99.369 Y82.735 E10.60151
G1 X99.612 Y83.275 E10.63098
G1 X99.777 Y83.826 E10.6596
G1 X100.772 Y88.159 E10.88085
G1 X100.866 Y88.744 E10.91033
G1 X100.884 Y89.143 E10.93021
G1 X100.884 Y95.858 E11.26439
G1 X100.844 Y96.449 E11.29386
G1 X100.772 Y96.843 E11.3138
G1 X99.776 Y101.176 E11.53505
G1 X99.605 Y101.743 E11.56453
G1 X99.359 Y102.283 E11.59406
G1 X99.042 Y102.784 E11.62356
G1 X98.661 Y103.238 E11.65306
G1 X98.223 Y103.637 E11.68254
G1 X97.734 Y103.973 E11.71207
G1 X97.205 Y104.24 E11.74156
G1 X96.645 Y104.434 E11.77105
G1 X96.064 Y104.551 E11.80055
G1 X95.491 Y104.588 E11.82912
G1 X48.205 Y104.587 E14.18233
G1 X47.613 Y104.547 E14.21186
G1 X47.033 Y104.428 E14.24132
G1 X46.473 Y104.232 E14.27085
G1 X45.946 Y103.962 E14.30032
G1 X45.459 Y103.624 E14.32982
G1 X45.103 Y103.306 E14.35358
G1 X41.879 Y100.097 E14.57995
G1 X41.827 Y100.044 E14.58364
G1 X41.356 Y99.559 E14.61729
G1 X40.972 Y99.107 E14.64681
G1 X40.653 Y98.608 E14.67628
G1 X40.404 Y98.07 E14.70578
G1 X40.23 Y97.503 E14.7353
G1 X40.133 Y96.918 E14.76481
G1 X40.113 Y96.496 E14.78583
G1 X40.113 Y88.505 E15.18351
G1 X40.153 Y87.914 E15.21299
G1 X40.272 Y87.333 E15.2425
G1 X40.468 Y86.774 E15.27198
G1 X40.738 Y86.246 E15.30149
G1 X41.076 Y85.759 E15.33099
G1 X41.4 Y85.396 E15.35521
G1 X45.094 Y81.701 E15.61522
G1 X45.541 Y81.311 E15.64474
G1 X46.036 Y80.985 E15.67424
M204 S5000
G0 F2400 X46.278 Y81.306
M204 S200
G1 F1200 X46.792 Y81.07 E15.70239
G1 X47.333 Y80.908 E15.73049
G1 X47.892 Y80.824 E15.75862
G1 X48.204 Y80.812 E15.77416
G1 X95.492 Y80.812 E18.12747
G1 X96.056 Y80.852 E18.15561
G1 X96.608 Y80.971 E18.18371
G1 X97.138 Y81.167 E18.21183
G1 X97.636 Y81.435 E18.23998
G1 X98.09 Y81.771 E18.26808
G1 X98.493 Y82.168 E18.29624
G1 X98.835 Y82.618 E18.32437
G1 X99.111 Y83.111 E18.35248
G1 X99.314 Y83.638 E18.38059
G1 X99.389 Y83.915 E18.39487
G1 X100.384 Y88.248 E18.61612
G1 X100.471 Y88.807 E18.64427
G1 X100.485 Y89.143 E18.661
G1 X100.485 Y95.858 E18.99518
G1 X100.445 Y96.422 E19.02332
G1 X100.383 Y96.754 E19.04013
G1 X99.387 Y101.087 E19.26138
G1 X99.222 Y101.627 E19.28948
G1 X98.982 Y102.139 E19.31762
G1 X98.673 Y102.612 E19.34574
G1 X98.3 Y103.036 E19.37384
G1 X97.87 Y103.404 E19.40201
G1 X97.393 Y103.707 E19.43013
G1 X96.879 Y103.94 E19.45822
G1 X96.336 Y104.099 E19.48637
G1 X95.777 Y104.179 E19.51448
G1 X95.491 Y104.189 E19.52872
G1 X48.205 Y104.188 E21.88193
G1 X47.641 Y104.148 E21.91007
G1 X47.089 Y104.029 E21.93817
G1 X46.558 Y103.833 E21.96634
G1 X46.061 Y103.565 E21.99444
G1 X45.607 Y103.229 E22.02254
G1 X45.385 Y103.024 E22.03758
G1 X42.161 Y99.815 E22.26396
G1 X42.113 Y99.766 E22.26737
G1 X41.642 Y99.281 E22.30102
G1 X41.278 Y98.849 E22.32913
G1 X40.978 Y98.37 E22.35726
G1 X40.749 Y97.853 E22.3854
G1 X40.596 Y97.309 E22.41352
G1 X40.512 Y96.496 E22.45419
G1 X40.512 Y88.505 E22.85187
G1 X40.552 Y87.941 E22.88001
G1 X40.671 Y87.389 E22.90811
G1 X40.867 Y86.859 E22.93623
G1 X41.135 Y86.361 E22.96437
G1 X41.471 Y85.907 E22.99248
G1 X41.683 Y85.678 E23.00801
G1 X45.377 Y81.983 E23.26803
G1 X45.803 Y81.613 E23.29611
G1 X46.278 Y81.306 E23.32425
M204 S5000
G0 F2400 X46.519 Y81.63
M204 S200
G1 F1200 X47.01 Y81.415 E23.35093
G1 X47.528 Y81.275 E23.37763
G1 X48.204 Y81.211 E23.41142
G1 X95.492 Y81.211 E25.76473
G1 X96.027 Y81.251 E25.79143
G1 X96.55 Y81.37 E25.81813
G1 X97.049 Y81.565 E25.84479
G1 X97.514 Y81.833 E25.8715
G1 X97.934 Y82.166 E25.89817
G1 X98.299 Y82.558 E25.92483
G1 X98.603 Y83 E25.95152
G1 X98.837 Y83.482 E25.97819
G1 X99 Y84.005 E26.00545
G1 X99.995 Y88.338 E26.22669
G1 X100.075 Y88.868 E26.25337
G1 X100.086 Y89.143 E26.26707
G1 X100.086 Y95.858 E26.60124
G1 X100.046 Y96.393 E26.62794
G1 X99.995 Y96.664 E26.64166
G1 X98.999 Y100.997 E26.86292
G1 X98.84 Y101.509 E26.8896
G1 X98.607 Y101.992 E26.91629
G1 X98.305 Y102.435 E26.94297
G1 X97.94 Y102.828 E26.96966
G1 X97.521 Y103.163 E26.99636
G1 X97.057 Y103.432 E27.02305
G1 X96.558 Y103.628 E27.04973
G1 X96.035 Y103.749 E27.07644
G1 X95.491 Y103.79 E27.10359
G1 X48.205 Y103.789 E29.4568
G1 X47.67 Y103.749 E29.4835
G1 X47.147 Y103.63 E29.5102
G1 X46.648 Y103.435 E29.53686
G1 X46.183 Y103.167 E29.56357
G1 X45.666 Y102.741 E29.5969
G1 X42.442 Y99.532 E29.82328
G1 X42.399 Y99.488 E29.82634
G1 X41.928 Y99.003 E29.85999
G1 X41.584 Y98.592 E29.88666
G1 X41.305 Y98.134 E29.91335
G1 X41.098 Y97.64 E29.94
G1 X40.965 Y97.12 E29.96671
G1 X40.911 Y96.496 E29.99788
G1 X40.911 Y88.505 E30.39556
G1 X40.951 Y87.97 E30.42226
G1 X41.07 Y87.447 E30.44895
G1 X41.265 Y86.948 E30.47561
G1 X41.533 Y86.483 E30.50232
G1 X41.965 Y85.96 E30.53608
G1 X45.659 Y82.265 E30.79609
G1 X46.065 Y81.916 E30.82274
G1 X46.519 Y81.63 E30.84944
M204 S5000
G0 F2400 X46.757 Y81.956
M204 S200
G1 F1200 X47.225 Y81.764 E30.87461
G1 X47.717 Y81.647 E30.89978
G1 X48.204 Y81.61 E30.92409
G1 X95.492 Y81.61 E33.2774
G1 X95.996 Y81.65 E33.30256
G1 X96.487 Y81.769 E33.3277
G1 X96.954 Y81.963 E33.35287
G1 X97.384 Y82.229 E33.37803
G1 X97.767 Y82.559 E33.40319
G1 X98.093 Y82.946 E33.42837
G1 X98.354 Y83.379 E33.45353
G1 X98.544 Y83.847 E33.47867
G1 X98.611 Y84.094 E33.4914
G1 X99.606 Y88.427 E33.71265
G1 X99.687 Y89.143 E33.74851
G1 X99.687 Y95.858 E34.08268
G1 X99.606 Y96.575 E34.11859
G1 X98.61 Y100.908 E34.33985
G1 X98.458 Y101.39 E34.365
G1 X98.232 Y101.842 E34.39015
G1 X97.938 Y102.253 E34.4153
G1 X97.582 Y102.613 E34.44049
G1 X97.175 Y102.912 E34.46563
G1 X96.725 Y103.143 E34.4908
G1 X96.245 Y103.301 E34.51595
G1 X95.746 Y103.381 E34.5411
G1 X95.491 Y103.391 E34.5538
G1 X48.205 Y103.39 E36.90701
G1 X47.701 Y103.35 E36.93217
G1 X47.21 Y103.231 E36.95731
G1 X46.743 Y103.036 E36.9825
G1 X46.313 Y102.771 E37.00763
G1 X45.948 Y102.458 E37.03156
G1 X42.724 Y99.249 E37.25794
G1 X42.685 Y99.21 E37.26068
G1 X42.214 Y98.725 E37.29433
G1 X41.892 Y98.336 E37.31946
G1 X41.635 Y97.901 E37.3446
G1 X41.449 Y97.43 E37.3698
G1 X41.34 Y96.937 E37.39493
G1 X41.31 Y96.496 E37.41693
G1 X41.31 Y88.505 E37.8146
G1 X41.35 Y88.001 E37.83976
G1 X41.469 Y87.51 E37.8649
G1 X41.663 Y87.043 E37.89007
G1 X41.929 Y86.613 E37.91523
G1 X42.247 Y86.243 E37.93951
G1 X45.941 Y82.548 E38.19953
G1 X46.326 Y82.219 E38.22473
G1 X46.757 Y81.956 E38.24986
M204 S5000
G1 F1500 E36.24986
G0 F2400 X47.549 Y84.512
G0 X48.454 Y85.415
G0 X48.485 Y85.489
G0 X48.447 Y85.397
M204 S200
;TYPE:WALL-INNER
G1 F1500 E38.24986
G1 F1200 X50.903 Y85.397 E38.37208
G1 X50.903 Y89.152 E38.55895
G1 X51.903 Y89.557 E38.61264
G1 X51.903 Y95.443 E38.90556
G1 X50.903 Y95.848 E38.95925
G1 X50.903 Y99.603 E39.14612
G1 X48.447 Y99.603 E39.26835
G1 X45.097 Y96.253 E39.50412
G1 X45.097 Y88.747 E39.87766
G1 X48.447 Y85.397 E40.11343
M204 S5000
G0 F2400 X48.283 Y84.999
M204 S200
;TYPE:WALL-OUTER
G1 F1200 X51.301 Y84.999 E40.26362
G1 X51.301 Y88.884 E40.45696
G1 X52.301 Y89.289 E40.51065
G1 X52.301 Y95.711 E40.83024
G1 X51.301 Y96.116 E40.88394
G1 X51.301 Y100.001 E41.07727
G1 X48.283 Y100.001 E41.22747
G1 X44.699 Y96.417 E41.47971
G1 X44.699 Y88.583 E41.86957
G1 X48.283 Y84.999 E42.12181
M204 S5000
G0 F2400 X48.483 Y84.999
G0 X48.483 Y85.497
G0 X50.723 Y85.708
G0 X50.657 Y85.642
G1 F1200 X50.375 Y85.924 E42.15095
M204 S200
;TYPE:SKIN
G1 X50.793 Y86.342
M204 S5000
G0 F2400 X50.723 Y86.836
M204 S200
G1 F1200 X49.462 Y85.576 E42.23967
G1 X49.392 Y85.506
M204 S5000
G0 F2400 X48.898 Y85.576
M204 S200
G1 F1200 X50.723 Y87.401 E42.36811
G1 X50.793 Y87.471
M204 S5000
G0 F2400 X50.723 Y87.965
M204 S200
G1 F1200 X48.428 Y85.67 E42.52963
G1 X48.358 Y85.6
M204 S5000
G0 F2400 X48.146 Y85.952
M204 S200
G1 F1200 X50.723 Y88.529 E42.711
G1 X50.793 Y88.599
M204 S5000
G0 F2400 X50.723 Y89.094
M204 S200
G1 F1200 X47.864 Y86.234 E42.91224
G1 X47.794 Y86.164
M204 S5000
G0 F2400 X47.581 Y86.516
M204 S200
G1 F1200 X51.722 Y90.657 E43.20368
G1 X51.792 Y90.727
M204 S5000
G0 F2400 X51.722 Y91.221
M204 S200
G1 F1200 X47.299 Y86.798 E43.51497
G1 X47.229 Y86.728
M204 S5000
G0 F2400 X47.017 Y87.08
M204 S200
G1 F1200 X51.722 Y91.785 E43.8461
G1 X51.792 Y91.855
M204 S5000
G0 F2400 X51.722 Y92.35
M204 S200
G1 F1200 X46.735 Y87.363 E44.19708
G1 X46.665 Y87.293
M204 S5000
G0 F2400 X46.453 Y87.645
M204 S200
G1 F1200 X51.722 Y92.914 E44.56791
G1 X51.792 Y92.984
M204 S5000
G0 F2400 X51.722 Y93.478
M204 S200
G1 F1200 X46.171 Y87.927 E44.95858
G1 X46.101 Y87.857
M204 S5000
G0 F2400 X45.889 Y88.209
M204 S200
G1 F1200 X51.722 Y94.043 E45.36914
G1 X51.792 Y94.113
M204 S5000
G0 F2400 X51.722 Y94.607
M204 S200
G1 F1200 X45.606 Y88.491 E45.79958
G1 X45.536 Y88.421
M204 S5000
G0 F2400 X45.324 Y88.773
M204 S200
G1 F1200 X51.722 Y95.171 E46.24986
G1 X51.792 Y95.241
M204 S5000
G0 F2400 X51.427 Y95.44
M204 S200
G1 F1200 X45.276 Y89.289 E46.68276
G1 X45.206 Y89.219
M204 S5000
G0 F2400 X45.276 Y89.854
M204 S200
G1 F1200 X51.025 Y95.602 E47.08734
G1 X51.095 Y95.672
M204 S5000
G0 F2400 X50.722 Y95.864
M204 S200
G1 F1200 X45.276 Y90.418 E47.47062
G1 X45.206 Y90.348
M204 S5000
G0 F2400 X45.276 Y90.982
M204 S200
G1 F1200 X50.722 Y96.428 E47.85391
G1 X50.792 Y96.498
M204 S5000
G0 F2400 X50.722 Y96.993
M204 S200
G1 F1200 X45.276 Y91.546 E48.23723
G1 X45.206 Y91.476
M204 S5000
G0 F2400 X45.276 Y92.111
M204 S200
G1 F1200 X50.722 Y97.557 E48.62051
G1 X50.792 Y97.627
M204 S5000
G0 F2400 X50.722 Y98.121
M204 S200
G1 F1200 X45.276 Y92.675 E49.00379
G1 X45.206 Y92.605
M204 S5000
G0 F2400 X45.276 Y93.239
M204 S200
G1 F1200 X50.722 Y98.685 E49.38708
G1 X50.792 Y98.755
M204 S5000
G0 F2400 X50.722 Y99.25
M204 S200
G1 F1200 X45.276 Y93.804 E49.77036
G1 X45.206 Y93.734
M204 S5000
G0 F2400 X45.276 Y94.368
M204 S200
G1 F1200 X50.33 Y99.422 E50.12606
G1 X50.4 Y99.492
M204 S5000
G0 F2400 X49.766 Y99.422
M204 S200
G1 F1200 X45.276 Y94.932 E50.44206
G1 X45.206 Y94.862
M204 S5000
G0 F2400 X45.276 Y95.496
M204 S200
G1 F1200 X49.201 Y99.422 E50.71833
G1 X49.271 Y99.492
M204 S5000
G0 F2400 X48.637 Y99.422
M204 S200
G1 F1200 X45.276 Y96.061 E50.95488
G1 X45.206 Y95.991
M204 S5000
G0 F2400 X51.722 Y90.093
M204 S200
G1 F1200 X51.023 Y89.393 E51.00411
G1 X50.954 Y89.323
M204 S5000
G0 F2400 X50.856 Y89.563
G1 F1500 E49.00411
G0 F2400 X51.887 Y89.568
G0 X52.653 Y88.518
G0 X52.636 Y88.413
G0 X52.767 Y88.095
G0 X56.595 Y84.267
G0 X56.913 Y84.136
G0 X60.457 Y84.139
G0 X60.961 Y84.643
G0 X61.453 Y88.518
G0 X62.717 Y89.568
G0 X62.789 Y88.785
G0 X62.697 Y88.747
M204 S200
;TYPE:WALL-INNER
G1 F1500 E51.00411
G1 F1200 X66.047 Y85.397 E51.23988
G1 X68.503 Y85.397 E51.3621
G1 X68.503 Y89.152 E51.54897
G1 X69.503 Y89.557 E51.60266
G1 X69.503 Y95.443 E51.89558
G1 X68.503 Y95.848 E51.94927
G1 X68.503 Y99.603 E52.13614
G1 X66.047 Y99.603 E52.25837
G1 X62.697 Y96.253 E52.49414
G1 X62.697 Y88.747 E52.86768
M204 S5000
G0 F2400 X62.299 Y88.583
M204 S200
;TYPE:WALL-OUTER
G1 F1200 X65.883 Y84.999 E53.11991
G1 X68.901 Y84.999 E53.27011
G1 X68.901 Y88.884 E53.46345
G1 X69.901 Y89.289 E53.51714
G1 X69.901 Y95.711 E53.83673
G1 X68.901 Y96.116 E53.89042
G1 X68.901 Y100.001 E54.08376
G1 X65.883 Y100.001 E54.23395
G1 X62.299 Y96.417 E54.48619
G1 X62.299 Y88.583 E54.87606
M204 S5000
G0 F2400 X62.44 Y88.442
G0 X62.79 Y88.794
G0 X68.323 Y85.815
M204 S200
;TYPE:SKIN
G1 F1200 X68.083 Y85.576 E54.89291
M204 S5000
G0 F2400 X67.519 Y85.576
M204 S200
G1 F1200 X68.323 Y86.38 E54.9495
G1 X68.393 Y86.45
M204 S5000
G0 F2400 X68.323 Y86.944
M204 S200
G1 F1200 X66.955 Y85.576 E55.04577
G1 X66.885 Y85.506
M204 S5000
G0 F2400 X66.39 Y85.576
M204 S200
G1 F1200 X68.323 Y87.508 E55.18178
G1 X68.393 Y87.578
M204 S5000
G0 F2400 X68.323 Y88.072
M204 S200
G1 F1200 X65.974 Y85.723 E55.3471
G1 X65.904 Y85.653
M204 S5000
G0 F2400 X65.692 Y86.006
M204 S200
G1 F1200 X68.323 Y88.637 E55.53227
G1 X68.393 Y88.707
M204 S5000
G0 F2400 X68.323 Y89.201
M204 S200
G1 F1200 X65.41 Y86.288 E55.73728
G1 X65.34 Y86.218
M204 S5000
G0 F2400 X65.128 Y86.57
M204 S200
G1 F1200 X69.322 Y90.764 E56.03245
G1 X69.392 Y90.834
M204 S5000
G0 F2400 X69.322 Y90.2
M204 S200
G1 F1200 X68.442 Y89.321 E56.09435
G1 X68.372 Y89.251
M204 S5000
G0 F2400 X69.322 Y91.329
M204 S200
G1 F1200 X64.845 Y86.852 E56.40944
G1 X64.775 Y86.782
M204 S5000
G0 F2400 X64.563 Y87.134
M204 S200
G1 F1200 X69.322 Y91.893 E56.74437
G1 X69.392 Y91.963
M204 S5000
G0 F2400 X69.322 Y92.457
M204 S200
G1 F1200 X64.281 Y87.416 E57.09915
G1 X64.211 Y87.346
M204 S5000
G0 F2400 X63.999 Y87.698
M204 S200
G1 F1200 X69.322 Y93.022 E57.47382
G1 X69.392 Y93.092
M204 S5000
G0 F2400 X69.322 Y93.586
M204 S200
G1 F1200 X63.717 Y87.981 E57.86829
G1 X63.647 Y87.911
M204 S5000
G0 F2400 X63.435 Y88.263
M204 S200
G1 F1200 X69.322 Y94.15 E58.28261
G1 X69.392 Y94.22
M204 S5000
G0 F2400 X69.322 Y94.714
M204 S200
G1 F1200 X63.153 Y88.545 E58.71678
G1 X63.083 Y88.475
M204 S5000
G0 F2400 X62.876 Y88.833
M204 S200
G1 F1200 X69.322 Y95.279 E59.17044
G1 X69.392 Y95.349
M204 S5000
G0 F2400 X68.95 Y95.471
M204 S200
G1 F1200 X62.876 Y89.397 E59.59792
G1 X62.806 Y89.327
M204 S5000
G0 F2400 X62.876 Y89.961
M204 S200
G1 F1200 X68.549 Y95.634 E59.99718
G1 X68.619 Y95.704
M204 S5000
G0 F2400 X68.322 Y95.972
M204 S200
G1 F1200 X62.876 Y90.525 E60.3805
G1 X62.806 Y90.455
M204 S5000
G0 F2400 X62.876 Y91.09
M204 S200
G1 F1200 X68.322 Y96.536 E60.76379
G1 X68.392 Y96.606
M204 S5000
G0 F2400 X68.322 Y97.1
M204 S200
G1 F1200 X62.876 Y91.654 E61.14707
G1 X62.806 Y91.584
M204 S5000
G0 F2400 X62.876 Y92.218
M204 S200
G1 F1200 X68.322 Y97.664 E61.53036
G1 X68.392 Y97.734
M204 S5000
G0 F2400 X68.322 Y98.229
M204 S200
G1 F1200 X62.876 Y92.783 E61.91364
G1 X62.806 Y92.713
M204 S5000
G0 F2400 X62.876 Y93.347
M204 S200
G1 F1200 X68.322 Y98.793 E62.29692
G1 X68.392 Y98.863
M204 S5000
G0 F2400 X68.322 Y99.357
M204 S200
