; G-Code generated by Simplify3D(R) Version 3.0.2
; Mar 20, 2018 at 5:18:12 PM
; Settings Summary
;   processName,Process1
;   applyToModels,Y_AXIS_SUPPORT_ARM_STATIC_v2,Y_AXIS_SUPPORT_ARM_STATIC_v2(2),Y_AXIS_SUPPORT_ARM_STATIC_v2(3),Y_AXIS_SUPPORT_ARM_STATIC_v2(4)
;   profileName,steve (modified)
;   profileVersion,2015-05-01 08:00:00
;   baseProfile,Default (modified)
;   printMaterial,PLA
;   printQuality,High
;   printExtruders,
;   extruderName,Primary Extruder
;   extruderToolheadNumber,0
;   extruderDiameter,0.4
;   extruderAutoWidth,0
;   extruderWidth,0.4
;   extrusionMultiplier,0.9
;   extruderUseRetract,1
;   extruderRetractionDistance,1
;   extruderExtraRestartDistance,0
;   extruderRetractionZLift,0
;   extruderRetractionSpeed,1800
;   extruderUseCoasting,0
;   extruderCoastingDistance,0.2
;   extruderUseWipe,0
;   extruderWipeDistance,5
;   primaryExtruder,0
;   layerHeight,0.15
;   topSolidLayers,4
;   bottomSolidLayers,4
;   perimeterOutlines,3
;   printPerimetersInsideOut,1
;   startPointOption,1
;   startPointOriginX,0
;   startPointOriginY,0
;   startPointOriginZ,300
;   sequentialIslands,0
;   spiralVaseMode,0
;   firstLayerHeightPercentage,90
;   firstLayerWidthPercentage,100
;   firstLayerUnderspeed,0.5
;   useRaft,0
;   raftExtruder,0
;   raftLayers,3
;   raftOffset,3
;   raftSeparationDistance,0.14
;   raftInfill,85
;   disableRaftBaseLayers,0
;   useSkirt,1
;   skirtExtruder,0
;   skirtLayers,2
;   skirtOutlines,2
;   skirtOffset,4
;   usePrimePillar,0
;   primePillarExtruder,999
;   primePillarWidth,12
;   primePillarLocation,7
;   primePillarSpeedMultiplier,1
;   useOozeShield,0
;   oozeShieldExtruder,999
;   oozeShieldOffset,2
;   oozeShieldOutlines,1
;   oozeShieldSidewallShape,1
;   oozeShieldSidewallAngle,30
;   oozeShieldSpeedMultiplier,1
;   infillExtruder,0
;   internalInfillPattern,Rectilinear
;   externalInfillPattern,Rectilinear
;   infillPercentage,100
;   outlineOverlapPercentage,25
;   infillExtrusionWidthPercentage,100
;   minInfillLength,5
;   infillLayerInterval,1
;   infillAngles,45,-45
;   overlapInfillAngles,0
;   generateSupport,1
;   supportExtruder,0
;   supportInfillPercentage,40
;   supportExtraInflation,0
;   denseSupportLayers,0
;   denseSupportInfillPercentage,70
;   supportLayerInterval,1
;   supportHorizontalPartOffset,0.3
;   supportUpperSeparationLayers,1
;   supportLowerSeparationLayers,1
;   supportType,0
;   supportGridSpacing,4
;   maxOverhangAngle,45
;   supportAngles,0
;   temperatureName,Primary Extruder,Heated Bed
;   temperatureNumber,0,1
;   temperatureSetpointCount,1,1
;   temperatureSetpointLayers,1,1
;   temperatureSetpointTemperatures,220,60
;   temperatureStabilizeAtStartup,1,1
;   temperatureHeatedBed,0,1
;   temperatureRelayBetweenLayers,0,0
;   temperatureRelayBetweenLoops,0,0
;   fanLayers,1,2
;   fanSpeeds,0,100
;   blipFanToFullPower,0
;   adjustSpeedForCooling,1
;   minSpeedLayerTime,15
;   minCoolingSpeedSlowdown,20
;   increaseFanForCooling,0
;   minFanLayerTime,45
;   maxCoolingFanSpeed,100
;   increaseFanForBridging,0
;   bridgingFanSpeed,100
;   use5D,1
;   relativeEdistances,0
;   allowEaxisZeroing,1
;   independentExtruderAxes,0
;   includeM10123,0
;   stickySupport,1
;   applyToolheadOffsets,0
;   gcodeXoffset,0
;   gcodeYoffset,0
;   gcodeZoffset,0
;   overrideMachineDefinition,0
;   machineTypeOverride,0
;   strokeXoverride,105
;   strokeYoverride,105
;   strokeZoverride,105
;   originOffsetXoverride,0
;   originOffsetYoverride,0
;   originOffsetZoverride,0
;   homeXdirOverride,-1
;   homeYdirOverride,-1
;   homeZdirOverride,-1
;   flipXoverride,1
;   flipYoverride,-1
;   flipZoverride,1
;   toolheadOffsets,0,0|0,0|0,0|0,0|0,0|0,0
;   overrideFirmwareConfiguration,1
;   firmwareTypeOverride,RepRap (Marlin/Repetier/Sprinter)
;   GPXconfigOverride,r2
;   baudRateOverride,115200
;   overridePrinterModels,0
;   printerModelsOverride
;   startingGcode,G28 ; home all axes
;   layerChangeGcode,
;   retractionGcode,
;   toolChangeGcode,
;   endingGcode,M104 S0 ; turn off extruder,M140 S0 ; turn off bed,M84 ; disable motors
;   createX3G,0
;   celebration,0
;   celebrationSong,Random Song
;   createMB5G,0
;   postProcessing,
;   defaultSpeed,3600
;   outlineUnderspeed,0.5
;   solidInfillUnderspeed,0.8
;   supportUnderspeed,0.8
;   rapidXYspeed,4800
;   rapidZspeed,1000
;   minBridgingArea,50
;   bridgingExtraInflation,0
;   bridgingExtrusionMultiplier,1
;   bridgingSpeedMultiplier,1
;   filamentDiameter,1.75
;   filamentPricePerKg,46
;   filamentDensity,1.25
;   useMinPrintHeight,0
;   minPrintHeight,0
;   useMaxPrintHeight,0
;   maxPrintHeight,0
;   useDiaphragm,1
;   diaphragmLayerInterval,20
;   robustSlicing,1
;   mergeAllIntoSolid,0
;   onlyRetractWhenCrossingOutline,1
;   retractBetweenLayers,1
;   useRetractionMinTravel,0
;   retractionMinTravel,3
;   retractWhileWiping,0
;   onlyWipeOutlines,1
;   avoidCrossingOutline,0
;   maxMovementDetourFactor,3
;   toolChangeRetractionDistance,12
;   toolChangeExtraRestartDistance,-0.5
;   toolChangeRetractionSpeed,600
;   allowThinWallGapFill,1
;   thinWallAllowedOverlapPercentage,10
;   horizontalSizeCompensation,0
G90
M82
M106 S0
M140 S60
M190 S60
M104 S220 T0
M109 S220 T0
G28 ; home all axes
G92 E0
G1 E-1.0000 F1800
G1 Z0.135 F1000
; layer 1, Z = 0.135
T0
; tool H0.150 W0.400
; skirt
G1 X75.948 Y61.516 F4800
G1 E0.0000 F540
G92 E0
G1 X75.975 Y61.481 E0.0010 F1800
G1 X76.402 Y61.012 E0.0152
G1 X76.434 Y60.982 E0.0162
G1 X77.105 Y60.433 E0.0357
G1 X77.148 Y60.404 E0.0368
G1 X77.802 Y60.036 E0.0537
G1 X77.850 Y60.015 E0.0549
G1 X78.628 Y59.742 E0.0734
G1 X78.660 Y59.733 E0.0741
G1 X79.117 Y59.627 E0.0847
G1 X79.149 Y59.621 E0.0854
G1 X110.796 Y55.828 E0.8010
G1 X110.977 Y55.862 E0.8051
G1 X113.360 Y57.135 E0.8658
G1 X113.489 Y57.267 E0.8699
G1 X114.202 Y58.669 E0.9052
G1 X114.211 Y58.688 E0.9057
G1 X114.328 Y58.964 E0.9124
G1 X114.336 Y58.983 E0.9129
G1 X114.547 Y59.599 E0.9275
G1 X114.557 Y59.632 E0.9283
G1 X114.661 Y60.103 E0.9391
G1 X114.667 Y60.136 E0.9399
G1 X114.723 Y60.659 E0.9517
G1 X114.724 Y60.674 E0.9520
G1 X114.736 Y60.888 E0.9568
G1 X114.737 Y60.903 E0.9572
G1 X114.751 Y62.929 E1.0026
G1 X114.750 Y62.947 E1.0031
G1 X114.736 Y63.207 E1.0089
G1 X114.735 Y63.225 E1.0093
G1 X114.664 Y63.843 E1.0233
G1 X114.657 Y63.881 E1.0241
G1 X114.521 Y64.426 E1.0367
G1 X114.509 Y64.463 E1.0376
G1 X113.796 Y66.276 E1.0814
G1 X113.702 Y66.393 E1.0847
G1 X114.370 Y67.751 E1.1187
G1 X114.382 Y67.781 E1.1194
G1 X114.540 Y68.214 E1.1298
G1 X114.550 Y68.244 E1.1305
G1 X114.717 Y68.919 E1.1461
G1 X114.723 Y68.953 E1.1469
G1 X114.786 Y69.450 E1.1581
G1 X114.788 Y69.485 E1.1589
G1 X114.812 Y71.827 E1.2115
G1 X114.811 Y71.852 E1.2120
G1 X114.785 Y72.203 E1.2199
G1 X114.783 Y72.227 E1.2205
G1 X114.656 Y73.047 E1.2391
G1 X114.645 Y73.093 E1.2402
G1 X114.435 Y73.744 E1.2555
G1 X114.416 Y73.788 E1.2566
G1 X113.487 Y75.612 E1.3026
G1 X113.358 Y75.744 E1.3067
G1 X112.939 Y75.967 E1.3174
G1 X113.360 Y76.192 E1.3281
G1 X113.489 Y76.324 E1.3322
G1 X114.202 Y77.726 E1.3675
G1 X114.211 Y77.745 E1.3680
G1 X114.328 Y78.021 E1.3747
G1 X114.336 Y78.040 E1.3752
G1 X114.547 Y78.657 E1.3898
G1 X114.557 Y78.689 E1.3906
G1 X114.661 Y79.160 E1.4014
G1 X114.667 Y79.193 E1.4022
G1 X114.723 Y79.716 E1.4140
G1 X114.724 Y79.731 E1.4143
G1 X114.736 Y79.945 E1.4192
G1 X114.737 Y79.960 E1.4195
G1 X114.751 Y81.986 E1.4650
G1 X114.750 Y82.004 E1.4654
G1 X114.736 Y82.264 E1.4712
G1 X114.735 Y82.282 E1.4716
G1 X114.664 Y82.900 E1.4856
G1 X114.657 Y82.938 E1.4865
G1 X114.521 Y83.483 E1.4991
G1 X114.509 Y83.521 E1.4999
G1 X113.796 Y85.333 E1.5437
G1 X113.702 Y85.450 E1.5470
G1 X114.370 Y86.808 E1.5810
G1 X114.382 Y86.838 E1.5817
G1 X114.540 Y87.271 E1.5921
G1 X114.550 Y87.301 E1.5928
G1 X114.717 Y87.976 E1.6084
G1 X114.723 Y88.010 E1.6092
G1 X114.786 Y88.507 E1.6204
G1 X114.788 Y88.542 E1.6212
G1 X114.812 Y90.884 E1.6738
G1 X114.811 Y90.909 E1.6744
G1 X114.785 Y91.260 E1.6823
G1 X114.783 Y91.284 E1.6828
G1 X114.656 Y92.104 E1.7014
G1 X114.645 Y92.150 E1.7025
G1 X114.435 Y92.801 E1.7179
G1 X114.416 Y92.845 E1.7189
G1 X113.487 Y94.669 E1.7649
G1 X113.358 Y94.801 E1.7690
G1 X112.939 Y95.024 E1.7797
G1 X113.360 Y95.249 E1.7904
G1 X113.489 Y95.380 E1.7945
G1 X114.202 Y96.782 E1.8299
G1 X114.211 Y96.801 E1.8303
G1 X114.328 Y97.078 E1.8371
G1 X114.336 Y97.097 E1.8375
G1 X114.547 Y97.714 E1.8522
G1 X114.557 Y97.746 E1.8529
G1 X114.661 Y98.217 E1.8638
G1 X114.667 Y98.250 E1.8645
G1 X114.723 Y98.773 E1.8763
G1 X114.724 Y98.788 E1.8766
G1 X114.736 Y99.003 E1.8815
G1 X114.737 Y99.018 E1.8818
G1 X114.751 Y101.043 E1.9273
G1 X114.750 Y101.061 E1.9277
G1 X114.736 Y101.321 E1.9335
G1 X114.735 Y101.339 E1.9339
G1 X114.664 Y101.957 E1.9479
G1 X114.657 Y101.995 E1.9488
G1 X114.521 Y102.540 E1.9614
G1 X114.509 Y102.578 E1.9623
G1 X113.796 Y104.390 E2.0060
G1 X113.702 Y104.507 E2.0094
G1 X114.370 Y105.865 E2.0433
G1 X114.382 Y105.895 E2.0441
G1 X114.540 Y106.328 E2.0544
G1 X114.549 Y106.358 E2.0551
G1 X114.716 Y107.033 E2.0707
G1 X114.723 Y107.067 E2.0715
G1 X114.786 Y107.564 E2.0828
G1 X114.788 Y107.599 E2.0835
G1 X114.812 Y109.942 E2.1361
G1 X114.811 Y109.966 E2.1367
G1 X114.785 Y110.317 E2.1446
G1 X114.783 Y110.341 E2.1451
G1 X114.656 Y111.161 E2.1638
G1 X114.645 Y111.207 E2.1648
G1 X114.435 Y111.858 E2.1802
G1 X114.416 Y111.902 E2.1812
G1 X113.487 Y113.727 E2.2272
G1 X113.358 Y113.858 E2.2314
G1 X112.939 Y114.081 E2.2420
G1 X113.360 Y114.306 E2.2527
G1 X113.489 Y114.438 E2.2569
G1 X114.202 Y115.840 E2.2922
G1 X114.211 Y115.859 E2.2927
G1 X114.328 Y116.135 E2.2994
G1 X114.336 Y116.155 E2.2999
G1 X114.547 Y116.771 E2.3145
G1 X114.557 Y116.803 E2.3152
G1 X114.661 Y117.274 E2.3261
G1 X114.667 Y117.307 E2.3268
G1 X114.723 Y117.830 E2.3386
G1 X114.724 Y117.845 E2.3390
G1 X114.736 Y118.060 E2.3438
G1 X114.737 Y118.075 E2.3441
G1 X114.751 Y120.100 E2.3896
G1 X114.750 Y120.119 E2.3900
G1 X114.736 Y120.379 E2.3959
G1 X114.735 Y120.397 E2.3963
G1 X114.664 Y121.014 E2.4102
G1 X114.657 Y121.053 E2.4111
G1 X114.521 Y121.597 E2.4237
G1 X114.509 Y121.635 E2.4246
G1 X113.796 Y123.447 E2.4683
G1 X113.702 Y123.564 E2.4717
G1 X114.370 Y124.923 E2.5057
G1 X114.382 Y124.952 E2.5064
G1 X114.540 Y125.385 E2.5167
G1 X114.550 Y125.416 E2.5174
G1 X114.717 Y126.090 E2.5330
G1 X114.723 Y126.124 E2.5338
G1 X114.786 Y126.621 E2.5451
G1 X114.788 Y126.656 E2.5459
G1 X114.812 Y128.999 E2.5984
G1 X114.811 Y129.023 E2.5990
G1 X114.785 Y129.374 E2.6069
G1 X114.783 Y129.398 E2.6074
G1 X114.656 Y130.218 E2.6261
G1 X114.645 Y130.265 E2.6271
G1 X114.435 Y130.915 E2.6425
G1 X114.416 Y130.959 E2.6436
G1 X113.487 Y132.784 E2.6895
G1 X113.358 Y132.915 E2.6937
G1 X110.969 Y134.187 E2.7544
G1 X110.787 Y134.220 E2.7586
G1 X79.081 Y130.342 E3.4757
G1 X79.044 Y130.335 E3.4766
G1 X78.523 Y130.204 E3.4886
G1 X78.487 Y130.193 E3.4895
G1 X77.695 Y129.885 E3.5085
G1 X77.651 Y129.863 E3.5096
G1 X77.044 Y129.504 E3.5255
G1 X77.004 Y129.475 E3.5266
G1 X76.292 Y128.877 E3.5475
G1 X76.251 Y128.835 E3.5488
G1 X75.722 Y128.176 E3.5678
G1 X75.689 Y128.126 E3.5691
G1 X75.111 Y127.015 E3.5972
G1 X75.085 Y126.947 E3.5988
G1 X74.838 Y125.925 E3.6224
G1 X74.830 Y125.852 E3.6241
G1 X74.857 Y121.586 E3.7199
G1 X74.860 Y121.551 E3.7207
G1 X74.922 Y121.050 E3.7320
G1 X74.928 Y121.015 E3.7328
G1 X75.137 Y120.165 E3.7524
G1 X75.154 Y120.115 E3.7536
G1 X75.459 Y119.425 E3.7706
G1 X75.484 Y119.379 E3.7717
G1 X75.948 Y118.688 E3.7904
G1 X75.975 Y118.653 E3.7914
G1 X76.402 Y118.184 E3.8057
G1 X76.434 Y118.153 E3.8067
G1 X77.105 Y117.605 E3.8261
G1 X77.148 Y117.575 E3.8273
G1 X77.803 Y117.208 E3.8441
G1 X77.850 Y117.186 E3.8453
G1 X78.629 Y116.913 E3.8638
G1 X78.660 Y116.904 E3.8646
G1 X79.117 Y116.798 E3.8751
G1 X79.149 Y116.792 E3.8758
G1 X101.855 Y114.071 E4.3892
G1 X79.081 Y111.285 E4.9044
G1 X79.044 Y111.278 E4.9052
G1 X78.523 Y111.147 E4.9173
G1 X78.487 Y111.136 E4.9181
G1 X77.695 Y110.828 E4.9372
G1 X77.651 Y110.806 E4.9383
G1 X77.044 Y110.447 E4.9541
G1 X77.004 Y110.418 E4.9552
G1 X76.292 Y109.820 E4.9761
G1 X76.251 Y109.778 E4.9774
G1 X75.722 Y109.119 E4.9964
G1 X75.689 Y109.069 E4.9977
G1 X75.111 Y107.958 E5.0259
G1 X75.085 Y107.890 E5.0275
G1 X74.838 Y106.868 E5.0511
G1 X74.830 Y106.795 E5.0527
G1 X74.857 Y102.529 E5.1485
G1 X74.860 Y102.493 E5.1493
G1 X74.922 Y101.993 E5.1606
G1 X74.928 Y101.958 E5.1614
G1 X75.137 Y101.108 E5.1811
G1 X75.154 Y101.058 E5.1823
G1 X75.459 Y100.368 E5.1992
G1 X75.484 Y100.322 E5.2004
G1 X75.948 Y99.630 E5.2191
G1 X75.975 Y99.596 E5.2201
G1 X76.402 Y99.126 E5.2343
G1 X76.434 Y99.096 E5.2353
G1 X77.105 Y98.547 E5.2548
G1 X77.148 Y98.518 E5.2559
G1 X77.802 Y98.151 E5.2728
G1 X77.850 Y98.129 E5.2740
G1 X78.628 Y97.856 E5.2925
G1 X78.660 Y97.847 E5.2932
G1 X79.117 Y97.741 E5.3037
G1 X79.149 Y97.735 E5.3045
G1 X101.855 Y95.014 E5.8179
G1 X79.081 Y92.228 E6.3330
G1 X79.044 Y92.221 E6.3339
G1 X78.523 Y92.090 E6.3459
G1 X78.487 Y92.079 E6.3468
G1 X77.695 Y91.770 E6.3658
G1 X77.651 Y91.749 E6.3669
G1 X77.044 Y91.389 E6.3828
G1 X77.004 Y91.361 E6.3839
G1 X76.292 Y90.763 E6.4048
G1 X76.251 Y90.721 E6.4061
G1 X75.722 Y90.062 E6.4251
G1 X75.690 Y90.012 E6.4264
G1 X75.111 Y88.901 E6.4545
G1 X75.085 Y88.833 E6.4561
G1 X74.838 Y87.811 E6.4797
G1 X74.830 Y87.738 E6.4814
G1 X74.857 Y83.471 E6.5772
G1 X74.860 Y83.436 E6.5780
G1 X74.922 Y82.936 E6.5893
G1 X74.928 Y82.901 E6.5901
G1 X75.137 Y82.051 E6.6098
G1 X75.154 Y82.001 E6.6109
G1 X75.459 Y81.311 E6.6279
G1 X75.484 Y81.265 E6.6290
G1 X75.948 Y80.573 E6.6477
G1 X75.975 Y80.539 E6.6487
G1 X76.402 Y80.069 E6.6630
G1 X76.434 Y80.039 E6.6640
G1 X77.105 Y79.490 E6.6834
G1 X77.148 Y79.461 E6.6846
G1 X77.802 Y79.094 E6.7014
G1 X77.850 Y79.072 E6.7026
G1 X78.628 Y78.799 E6.7211
G1 X78.660 Y78.790 E6.7219
G1 X79.117 Y78.684 E6.7324
G1 X79.149 Y78.678 E6.7331
G1 X101.855 Y75.957 E7.2466
G1 X79.081 Y73.171 E7.7617
G1 X79.044 Y73.164 E7.7625
G1 X78.523 Y73.033 E7.7746
G1 X78.487 Y73.022 E7.7754
G1 X77.695 Y72.713 E7.7945
G1 X77.651 Y72.692 E7.7956
G1 X77.044 Y72.332 E7.8114
G1 X77.004 Y72.304 E7.8125
G1 X76.292 Y71.706 E7.8334
G1 X76.251 Y71.664 E7.8347
G1 X75.722 Y71.004 E7.8537
G1 X75.690 Y70.955 E7.8550
G1 X75.111 Y69.844 E7.8832
G1 X75.085 Y69.776 E7.8848
G1 X74.838 Y68.754 E7.9084
G1 X74.830 Y68.681 E7.9100
G1 X74.857 Y64.414 E8.0058
G1 X74.860 Y64.379 E8.0066
G1 X74.922 Y63.878 E8.0180
G1 X74.928 Y63.844 E8.0187
G1 X75.137 Y62.993 E8.0384
G1 X75.154 Y62.944 E8.0396
G1 X75.459 Y62.254 E8.0565
G1 X75.484 Y62.208 E8.0577
G1 X75.948 Y61.516 E8.0764
G1 X76.272 Y61.751 F4800
G92 E0
G1 X76.281 Y61.740 E0.0003 F1800
G1 X76.688 Y61.292 E0.0139
G1 X76.699 Y61.282 E0.0142
G1 X77.344 Y60.754 E0.0330
G1 X77.359 Y60.744 E0.0334
G1 X77.983 Y60.394 E0.0494
G1 X77.999 Y60.387 E0.0498
G1 X78.750 Y60.123 E0.0677
G1 X78.761 Y60.120 E0.0679
G1 X79.197 Y60.019 E0.0780
G1 X79.207 Y60.017 E0.0782
G1 X110.782 Y56.232 E0.7922
G1 X110.843 Y56.244 E0.7936
G1 X113.118 Y57.459 E0.8515
G1 X113.161 Y57.503 E0.8528
G1 X113.843 Y58.844 E0.8866
G1 X113.846 Y58.850 E0.8868
G1 X113.957 Y59.113 E0.8932
G1 X113.960 Y59.120 E0.8934
G1 X114.165 Y59.719 E0.9076
G1 X114.169 Y59.730 E0.9078
G1 X114.268 Y60.179 E0.9182
G1 X114.270 Y60.190 E0.9184
G1 X114.325 Y60.696 E0.9298
G1 X114.325 Y60.701 E0.9300
G1 X114.337 Y60.906 E0.9346
G1 X114.337 Y60.911 E0.9347
G1 X114.351 Y62.926 E0.9799
G1 X114.351 Y62.932 E0.9800
G1 X114.337 Y63.180 E0.9856
G1 X114.337 Y63.186 E0.9857
G1 X114.268 Y63.784 E0.9993
G1 X114.266 Y63.797 E0.9996
G1 X114.136 Y64.317 E1.0116
G1 X114.132 Y64.329 E1.0119
G1 X113.446 Y66.073 E1.0540
G1 X113.408 Y66.120 E1.0553
G1 X113.145 Y66.300 E1.0625
G1 X113.215 Y66.343 E1.0643
G1 X113.253 Y66.385 E1.0656
G1 X114.006 Y67.918 E1.1039
G1 X114.010 Y67.928 E1.1042
G1 X114.161 Y68.341 E1.1140
G1 X114.164 Y68.351 E1.1143
G1 X114.325 Y69.003 E1.1294
G1 X114.328 Y69.015 E1.1296
G1 X114.388 Y69.489 E1.1404
G1 X114.389 Y69.501 E1.1406
G1 X114.411 Y71.823 E1.1928
G1 X114.411 Y71.831 E1.1929
G1 X114.387 Y72.166 E1.2005
G1 X114.386 Y72.174 E1.2007
G1 X114.263 Y72.970 E1.2187
G1 X114.259 Y72.985 E1.2191
G1 X114.059 Y73.606 E1.2337
G1 X114.053 Y73.621 E1.2341
G1 X113.159 Y75.376 E1.2783
