;FLAVOR:Marlin
;TIME:863
;Filament used: 0.68672m
;Layer height: 0.2
;Generated with Cura_SteamEngine 2.7.0
M190 S60
M104 S220
M109 S220
G21 ;metric values
G90 ;absolute positioning
M82 ;set extruder to absolute mode
M107 ;start with the fan off
G92 E0 ;zero the extruded length
G1 F200 E3 ;extrude 3mm of feed stock
G92 E0 ;zero the extruded length again
G1 F9000
M117 Printing...
;LAYER_COUNT:64
;LAYER:0
M107
M204 S5000
G0 F2400 X83.635 Y83.237 Z0.3
M204 S200
;TYPE:SKIRT
G1 F1200 X84.242 Y82.676 E0.04113
G1 X85.027 Y82.067 E0.09058
G1 X85.704 Y81.627 E0.13076
G1 X87.242 Y80.804 E0.21757
G1 X87.806 Y80.548 E0.24839
G1 X88.193 Y80.42 E0.26868
G1 X89.793 Y79.965 E0.35146
G1 X90.537 Y79.816 E0.38922
G1 X91.442 Y79.708 E0.43458
G1 X92.015 Y79.674 E0.46314
G1 X92.992 Y79.675 E0.51176
G1 X93.804 Y79.745 E0.55232
G1 X95.546 Y80.046 E0.6403
G1 X96.41 Y80.28 E0.68484
G1 X97.524 Y80.697 E0.74404
G1 X98.306 Y81.074 E0.78724
G1 X99.815 Y81.977 E0.87476
G1 X100.454 Y82.434 E0.91385
G1 X101.144 Y83.019 E0.95887
G1 X101.54 Y83.396 E0.98608
G1 X102.143 Y84.039 E1.02995
G1 X102.552 Y84.538 E1.06206
G1 X103.338 Y85.642 E1.1295
G1 X103.75 Y86.338 E1.16975
G1 X104.302 Y87.481 E1.23292
G1 X104.583 Y88.211 E1.27185
G1 X104.991 Y89.595 E1.34365
G1 X105.128 Y90.199 E1.37448
G1 X105.171 Y90.564 E1.39277
G1 X105.315 Y92.343 E1.48159
G1 X105.325 Y92.962 E1.5124
G1 X105.283 Y93.408 E1.53469
G1 X105.029 Y95.188 E1.62417
G1 X104.902 Y95.793 E1.65493
G1 X104.767 Y96.208 E1.67665
G1 X104.149 Y97.841 E1.76354
G1 X103.804 Y98.563 E1.80337
G1 X103.343 Y99.352 E1.84884
G1 X102.891 Y99.996 E1.888
G1 X101.773 Y101.342 E1.97508
G1 X101.219 Y101.907 E2.01445
G1 X100.551 Y102.484 E2.05838
G1 X100.048 Y102.864 E2.08975
G1 X99.052 Y103.518 E2.14905
G1 X98.403 Y103.876 E2.18594
G1 X97.137 Y104.451 E2.25513
G1 X96.481 Y104.693 E2.28993
G1 X95.623 Y104.94 E2.33436
G1 X95.092 Y105.061 E2.36147
G1 X94.159 Y105.218 E2.40855
G1 X93.355 Y105.284 E2.4487
G1 X91.601 Y105.281 E2.53599
G1 X90.695 Y105.193 E2.58128
G1 X89.484 Y104.958 E2.64268
G1 X88.735 Y104.748 E2.68139
G1 X87.353 Y104.237 E2.75471
G1 X86.607 Y103.886 E2.79574
G1 X85.562 Y103.279 E2.85588
G1 X85.07 Y102.951 E2.88531
G1 X84.417 Y102.455 E2.92612
G1 X83.925 Y102.026 E2.9586
G1 X82.919 Y101.019 E3.02944
G1 X82.511 Y100.553 E3.06026
G1 X82.307 Y100.268 E3.07771
G1 X81.335 Y98.793 E3.16562
G1 X80.955 Y98.097 E3.20508
G1 X80.589 Y97.271 E3.25004
G1 X80.321 Y96.492 E3.29104
G1 X79.877 Y94.717 E3.38209
G1 X79.749 Y93.929 E3.42182
G1 X79.68 Y93.052 E3.4656
G1 X79.668 Y92.514 E3.49238
G1 X79.698 Y91.628 E3.5365
G1 X79.758 Y91.012 E3.5673
G1 X79.944 Y89.88 E3.62439
G1 X80.078 Y89.298 E3.65411
G1 X80.338 Y88.419 E3.69973
G1 X80.527 Y87.894 E3.7275
G1 X80.94 Y86.928 E3.77978
G1 X81.271 Y86.291 E3.8155
G1 X81.917 Y85.246 E3.87664
G1 X82.449 Y84.54 E3.92064
G1 X83.635 Y83.237 E4.00832
M204 S5000
G0 F2400 X83.93 Y83.505
M204 S200
G1 F1200 X84.487 Y82.991 E4.04604
G1 X85.272 Y82.382 E4.09548
G1 X85.892 Y81.979 E4.13228
G1 X87.43 Y81.156 E4.21909
G1 X87.971 Y80.912 E4.24862
G1 X88.302 Y80.804 E4.26595
G1 X89.902 Y80.349 E4.34873
G1 X90.584 Y80.212 E4.38335
G1 X91.489 Y80.104 E4.42871
G1 X92.015 Y80.073 E4.45493
G1 X92.992 Y80.074 E4.50355
G1 X93.736 Y80.138 E4.54071
G1 X95.478 Y80.439 E4.62869
G1 X96.27 Y80.654 E4.66953
G1 X97.384 Y81.071 E4.72873
G1 X98.101 Y81.416 E4.76832
G1 X99.61 Y82.319 E4.85584
G1 X100.195 Y82.738 E4.89165
G1 X100.885 Y83.323 E4.93667
G1 X101.249 Y83.669 E4.96166
G1 X101.852 Y84.312 E5.00553
G1 X102.227 Y84.77 E5.03499
G1 X103.013 Y85.874 E5.10243
G1 X103.39 Y86.512 E5.13931
G1 X103.942 Y87.655 E5.20248
G1 X104.201 Y88.324 E5.23818
G1 X104.609 Y89.708 E5.30998
G1 X104.737 Y90.286 E5.33945
G1 X104.774 Y90.596 E5.35498
G1 X104.918 Y92.375 E5.4438
G1 X104.926 Y92.968 E5.47332
G1 X104.888 Y93.351 E5.49247
G1 X104.634 Y95.131 E5.58195
G1 X104.511 Y95.711 E5.61146
G1 X104.393 Y96.066 E5.63007
G1 X103.775 Y97.699 E5.71697
G1 X103.459 Y98.361 E5.75347
G1 X102.998 Y99.15 E5.79895
G1 X102.584 Y99.741 E5.83486
G1 X101.466 Y101.087 E5.92194
G1 X100.958 Y101.606 E5.95808
G1 X100.29 Y102.183 E6.002
G1 X99.829 Y102.53 E6.03072
G1 X98.833 Y103.184 E6.09002
G1 X98.238 Y103.512 E6.12383
G1 X96.972 Y104.087 E6.19302
G1 X96.37 Y104.309 E6.22496
G1 X95.512 Y104.556 E6.26939
G1 X95.026 Y104.667 E6.2942
G1 X94.093 Y104.824 E6.34128
G1 X93.355 Y104.885 E6.37813
G1 X91.601 Y104.882 E6.46542
G1 X90.771 Y104.801 E6.50692
G1 X89.56 Y104.566 E6.56831
G1 X88.873 Y104.374 E6.60381
G1 X87.491 Y103.863 E6.67714
G1 X86.807 Y103.541 E6.71476
G1 X85.762 Y102.934 E6.7749
G1 X85.311 Y102.633 E6.80189
G1 X84.658 Y102.137 E6.8427
G1 X84.207 Y101.744 E6.87247
G1 X83.201 Y100.737 E6.9433
G1 X82.641 Y100.048 E6.98749
G1 X81.669 Y98.573 E7.0754
G1 X81.32 Y97.935 E7.11159
G1 X80.954 Y97.109 E7.15655
G1 X80.708 Y96.395 E7.19413
G1 X80.264 Y94.62 E7.28519
G1 X80.147 Y93.898 E7.32159
G1 X80.078 Y93.021 E7.36537
G1 X80.067 Y92.527 E7.38996
G1 X80.097 Y91.641 E7.43407
G1 X80.152 Y91.077 E7.46227
G1 X80.338 Y89.945 E7.51936
G1 X80.461 Y89.411 E7.54663
G1 X80.721 Y88.532 E7.59225
G1 X80.894 Y88.05 E7.61774
G1 X81.307 Y87.084 E7.67002
G1 X81.61 Y86.501 E7.70272
G1 X82.256 Y85.456 E7.76386
G1 X82.744 Y84.808 E7.80423
G1 X83.93 Y83.505 E7.89191
M204 S5000
G0 F2400 X84.225 Y83.774
M204 S200
G1 F1200 X84.731 Y83.306 E7.92621
G1 X85.516 Y82.697 E7.97565
G1 X86.081 Y82.331 E8.00916
G1 X87.619 Y81.508 E8.09596
G1 X88.135 Y81.277 E8.1241
G1 X88.411 Y81.187 E8.13855
G1 X90.011 Y80.732 E8.22133
G1 X90.631 Y80.608 E8.25279
G1 X91.536 Y80.5 E8.29815
G1 X92.014 Y80.472 E8.32198
G1 X92.991 Y80.473 E8.3706
G1 X93.668 Y80.531 E8.40442
G1 X95.41 Y80.832 E8.49239
G1 X96.131 Y81.028 E8.52957
G1 X97.245 Y81.445 E8.58877
G1 X97.896 Y81.758 E8.62472
G1 X99.405 Y82.661 E8.71223
G1 X99.937 Y83.042 E8.7448
G1 X100.627 Y83.627 E8.78982
G1 X100.958 Y83.942 E8.81255
G1 X101.561 Y84.585 E8.85642
G1 X101.902 Y85.001 E8.88319
G1 X102.688 Y86.105 E8.95064
G1 X103.031 Y86.685 E8.98417
G1 X103.583 Y87.828 E9.04734
G1 X103.818 Y88.436 E9.07978
G1 X104.226 Y89.82 E9.15158
G1 X104.376 Y90.628 E9.19248
G1 X104.52 Y92.407 E9.2813
G1 X104.526 Y92.973 E9.30947
G1 X104.493 Y93.295 E9.32558
G1 X104.239 Y95.075 E9.41506
G1 X104.12 Y95.627 E9.44316
G1 X104.02 Y95.925 E9.4588
G1 X103.402 Y97.558 E9.5457
G1 X103.115 Y98.16 E9.57888
G1 X102.654 Y98.949 E9.62436
G1 X102.277 Y99.487 E9.65705
G1 X101.159 Y100.833 E9.74413
G1 X100.697 Y101.304 E9.77696
G1 X100.029 Y101.881 E9.82089
G1 X99.61 Y102.197 E9.84701
G1 X98.614 Y102.851 E9.90631
G1 X98.073 Y103.149 E9.93704
G1 X96.807 Y103.724 E10.00624
G1 X96.26 Y103.926 E10.03526
G1 X95.402 Y104.173 E10.07969
G1 X94.959 Y104.274 E10.1023
G1 X94.026 Y104.431 E10.14939
G1 X93.356 Y104.486 E10.18284
G1 X91.602 Y104.483 E10.27013
G1 X90.847 Y104.41 E10.30788
G1 X89.636 Y104.175 E10.36927
G1 X89.011 Y104 E10.40157
G1 X87.629 Y103.489 E10.4749
G1 X87.008 Y103.196 E10.50907
G1 X85.963 Y102.589 E10.56921
G1 X85.553 Y102.316 E10.59372
G1 X84.9 Y101.82 E10.63453
G1 X84.49 Y101.462 E10.66162
G1 X83.484 Y100.455 E10.73245
G1 X82.974 Y99.829 E10.77264
G1 X82.002 Y98.354 E10.86055
G1 X81.685 Y97.774 E10.89344
G1 X81.319 Y96.948 E10.9384
G1 X81.095 Y96.298 E10.97262
G1 X80.651 Y94.523 E11.06367
G1 X80.544 Y93.867 E11.09675
G1 X80.475 Y92.99 E11.14053
G1 X80.465 Y92.541 E11.16288
G1 X80.495 Y91.655 E11.207
G1 X80.546 Y91.142 E11.23265
G1 X80.732 Y90.01 E11.28974
G1 X80.843 Y89.524 E11.31455
G1 X81.103 Y88.645 E11.36017
G1 X81.261 Y88.207 E11.38334
G1 X81.674 Y87.241 E11.43562
G1 X81.949 Y86.711 E11.46534
G1 X82.595 Y85.666 E11.52648
G1 X83.039 Y85.077 E11.56318
G1 X84.225 Y83.774 E11.65087
M204 S5000
G0 F2400 X84.52 Y84.042
M204 S200
G1 F1200 X84.976 Y83.621 E11.68175
G1 X85.761 Y83.012 E11.7312
G1 X86.269 Y82.683 E11.76132
G1 X87.807 Y81.86 E11.84812
G1 X88.521 Y81.571 E11.88646
G1 X90.121 Y81.116 E11.96924
G1 X90.679 Y81.004 E11.99756
G1 X91.584 Y80.896 E12.04292
G1 X92.014 Y80.871 E12.06436
G1 X92.991 Y80.872 E12.11298
G1 X93.6 Y80.925 E12.1434
G1 X95.342 Y81.226 E12.23137
G1 X95.991 Y81.401 E12.26483
G1 X97.105 Y81.818 E12.32402
G1 X97.691 Y82.101 E12.35641
G1 X99.2 Y83.004 E12.44392
G1 X99.679 Y83.347 E12.47324
G1 X100.369 Y83.932 E12.51826
G1 X100.667 Y84.215 E12.53871
G1 X101.27 Y84.858 E12.58258
G1 X101.577 Y85.233 E12.6067
G1 X102.363 Y86.337 E12.67414
G1 X102.672 Y86.859 E12.70433
G1 X103.224 Y88.002 E12.7675
G1 X103.435 Y88.549 E12.79667
G1 X103.843 Y89.933 E12.86848
G1 X103.978 Y90.661 E12.90533
G1 X104.122 Y92.44 E12.99415
G1 X104.098 Y93.238 E13.03388
G1 X103.844 Y95.018 E13.12336
G1 X103.647 Y95.784 E13.16272
G1 X103.029 Y97.417 E13.24961
G1 X102.77 Y97.959 E13.27951
G1 X102.309 Y98.748 E13.32498
G1 X101.971 Y99.232 E13.35436
G1 X100.853 Y100.578 E13.44144
G1 X100.437 Y101.002 E13.471
G1 X99.769 Y101.579 E13.51493
G1 X99.391 Y101.863 E13.53846
G1 X98.395 Y102.517 E13.59775
G1 X97.908 Y102.786 E13.62544
G1 X96.642 Y103.361 E13.69464
G1 X96.15 Y103.543 E13.72074
G1 X95.292 Y103.79 E13.76518
G1 X94.893 Y103.88 E13.78553
G1 X93.96 Y104.037 E13.83261
G1 X93.357 Y104.087 E13.86273
G1 X91.603 Y104.084 E13.95001
G1 X90.923 Y104.018 E13.98401
G1 X89.712 Y103.783 E14.0454
G1 X89.15 Y103.626 E14.07444
G1 X87.768 Y103.115 E14.14777
G1 X87.208 Y102.851 E14.17858
G1 X86.163 Y102.244 E14.23872
G1 X85.794 Y101.998 E14.26079
G1 X85.141 Y101.502 E14.3016
G1 X84.772 Y101.18 E14.32597
G1 X83.766 Y100.173 E14.39681
G1 X83.307 Y99.609 E14.433
G1 X82.335 Y98.134 E14.52091
G1 X82.05 Y97.612 E14.5505
G1 X81.684 Y96.786 E14.59546
G1 X81.483 Y96.201 E14.62625
G1 X81.039 Y94.426 E14.7173
G1 X80.942 Y93.835 E14.74711
G1 X80.873 Y92.958 E14.79089
G1 X80.864 Y92.554 E14.811
G1 X80.894 Y91.668 E14.85512
G1 X80.94 Y91.206 E14.87822
G1 X81.126 Y90.074 E14.93531
G1 X81.226 Y89.637 E14.95762
G1 X81.486 Y88.758 E15.00324
G1 X81.628 Y88.364 E15.02408
G1 X82.041 Y87.398 E15.07636
G1 X82.289 Y86.921 E15.10312
G1 X82.935 Y85.876 E15.16426
G1 X83.334 Y85.345 E15.19731
G1 X84.52 Y84.042 E15.28499
M204 S5000
G0 F2400 X84.816 Y84.311
M204 S200
G1 F1200 X85.221 Y83.937 E15.31243
G1 X86.006 Y83.328 E15.36187
G1 X86.457 Y83.035 E15.38864
G1 X87.995 Y82.212 E15.47545
G1 X88.63 Y81.955 E15.50954
G1 X90.23 Y81.5 E15.59232
G1 X90.726 Y81.401 E15.61749
G1 X91.631 Y81.293 E15.66285
G1 X92.013 Y81.27 E15.68189
G1 X92.99 Y81.271 E15.73051
G1 X93.532 Y81.318 E15.75759
G1 X95.274 Y81.619 E15.84556
G1 X95.851 Y81.775 E15.87531
G1 X96.965 Y82.192 E15.9345
G1 X97.486 Y82.443 E15.96328
G1 X98.995 Y83.346 E16.0508
G1 X99.421 Y83.651 E16.07687
G1 X100.111 Y84.236 E16.12189
G1 X100.376 Y84.488 E16.14009
G1 X100.979 Y85.131 E16.18396
G1 X101.252 Y85.464 E16.20539
G1 X102.038 Y86.568 E16.27283
G1 X102.313 Y87.032 E16.29967
G1 X102.865 Y88.175 E16.36284
G1 X103.052 Y88.662 E16.3888
G1 X103.46 Y90.046 E16.46061
G1 X103.581 Y90.693 E16.49336
G1 X103.725 Y92.472 E16.58219
G1 X103.703 Y93.182 E16.61754
G1 X103.449 Y94.962 E16.70702
G1 X103.274 Y95.643 E16.74201
G1 X102.656 Y97.276 E16.8289
G1 X102.426 Y97.757 E16.85543
G1 X101.965 Y98.546 E16.90091
G1 X101.664 Y98.977 E16.92707
G1 X100.546 Y100.323 E17.01415
G1 X100.176 Y100.7 E17.04044
G1 X99.508 Y101.277 E17.08436
G1 X99.172 Y101.53 E17.10529
G1 X98.176 Y102.184 E17.16459
G1 X97.743 Y102.423 E17.1892
G1 X96.477 Y102.998 E17.2584
G1 X96.039 Y103.159 E17.28162
G1 X95.181 Y103.406 E17.32606
G1 X94.827 Y103.487 E17.34413
G1 X93.894 Y103.644 E17.39121
G1 X93.358 Y103.688 E17.41798
G1 X91.604 Y103.685 E17.50527
G1 X90.999 Y103.626 E17.53552
G1 X89.788 Y103.391 E17.59691
G1 X89.288 Y103.251 E17.62275
G1 X87.906 Y102.74 E17.69607
G1 X87.409 Y102.506 E17.72341
G1 X86.364 Y101.899 E17.78355
G1 X86.035 Y101.68 E17.80322
G1 X85.382 Y101.184 E17.84403
G1 X85.054 Y100.898 E17.86569
G1 X84.048 Y99.891 E17.93652
G1 X83.64 Y99.39 E17.96868
G1 X82.668 Y97.915 E18.05659
G1 X82.414 Y97.45 E18.08296
G1 X82.048 Y96.624 E18.12792
G1 X81.87 Y96.105 E18.15522
G1 X81.426 Y94.33 E18.24628
G1 X81.34 Y93.804 E18.2728
G1 X81.271 Y92.927 E18.31658
G1 X81.263 Y92.568 E18.33445
G1 X81.293 Y91.682 E18.37857
G1 X81.333 Y91.271 E18.39912
G1 X81.519 Y90.139 E18.45621
G1 X81.608 Y89.75 E18.47607
G1 X81.868 Y88.871 E18.52168
G1 X81.995 Y88.521 E18.54021
G1 X82.408 Y87.555 E18.5925
G1 X82.628 Y87.13 E18.61631
G1 X83.274 Y86.085 E18.67745
G1 X83.63 Y85.614 E18.70683
G1 X84.816 Y84.311 E18.79452
M204 S5000
G1 F1500 E16.79452
G0 F2400 X86.534 Y86.154
G0 X86.588 Y86.213
G0 X91.168 Y91.125
G0 X91.222 Y91.183
G0 X91.383 Y91.355
M204 S200
;TYPE:SUPPORT
G1 F1500 E18.79452
G1 F1200 X91.601 Y91.179 E18.80846
G1 X91.846 Y91.04 E18.82248
G1 X92.054 Y90.964 E18.8335
G1 X92.35 Y90.906 E18.84851
G1 X92.622 Y90.904 E18.86205
G1 X92.887 Y90.946 E18.8754
G1 X93.162 Y91.044 E18.88993
G1 X93.394 Y91.174 E18.90316
G1 X93.594 Y91.332 E18.91585
G1 X93.781 Y91.546 E18.92999
G1 X93.918 Y91.765 E18.94284
G1 X94.022 Y92.017 E18.95641
G1 X94.079 Y92.271 E18.96937
G1 X94.093 Y92.547 E18.98312
G1 X94.063 Y92.815 E18.99654
G1 X93.985 Y93.079 E19.01024
G1 X93.867 Y93.317 E19.02346
G1 X93.698 Y93.547 E19.03766
G1 X93.506 Y93.732 E19.05093
G1 X93.287 Y93.883 E19.06417
G1 X93.039 Y93.998 E19.07777
G1 X92.779 Y94.068 E19.09117
G1 X92.506 Y94.093 E19.10482
G1 X92.254 Y94.074 E19.11739
G1 X91.974 Y94.002 E19.13178
G1 X91.724 Y93.891 E19.14539
G1 X91.509 Y93.747 E19.15827
G1 X91.308 Y93.557 E19.17204
G1 X91.149 Y93.345 E19.18522
G1 X91.024 Y93.104 E19.19873
G1 X90.941 Y92.841 E19.21246
G1 X90.906 Y92.58 E19.22556
G1 X90.915 Y92.298 E19.2396
G1 X90.972 Y92.032 E19.25314
G1 X91.07 Y91.788 E19.26623
G1 X91.207 Y91.562 E19.27938
G1 X91.383 Y91.355 E19.2929
M204 S5000
G0 F2400 X93.31 Y91.312
M204 S200
G1 F1200 X93.31 Y93.673 E19.4104
M204 S5000
G0 F2400 X93.673 Y93.31
M204 S200
G1 F1200 X91.322 Y93.31 E19.5274
M204 S5000
G1 F1500 E17.5274
G0 F2400 X91.008 Y93.547
G0 X89.983 Y94.318
G0 X89.537 Y94.356
M204 S200
;TYPE:WALL-INNER
G1 F1500 E19.5274
G1 F1200 X89.892 Y94.828 E19.55679
G1 X90.324 Y95.237 E19.58639
G1 X90.819 Y95.564 E19.61592
G1 X91.362 Y95.805 E19.64548
G1 X91.94 Y95.949 E19.67513
G1 X92.531 Y95.992 E19.70462
G1 X93.12 Y95.938 E19.73405
G1 X93.693 Y95.782 E19.7636
G1 X94.231 Y95.534 E19.79309
G1 X94.722 Y95.197 E19.82272
G1 X95.145 Y94.781 E19.85225
G1 X95.492 Y94.304 E19.8816
G1 X95.758 Y93.772 E19.9112
G1 X95.926 Y93.2 E19.94087
G1 X95.994 Y92.61 E19.97043
G1 X95.964 Y92.021 E19.99978
G1 X95.835 Y91.442 E20.0293
G1 X95.609 Y90.894 E20.0588
G1 X95.294 Y90.39 E20.08837
G1 X94.896 Y89.946 E20.11805
G1 X94.431 Y89.58 E20.1475
G1 X93.914 Y89.294 E20.1769
G1 X93.347 Y89.099 E20.20674
G1 X92.762 Y89.008 E20.2362
G1 X92.172 Y89.012 E20.26556
G1 X91.587 Y89.117 E20.29514
G1 X91.028 Y89.322 E20.32477
G1 X90.516 Y89.614 E20.35411
G1 X90.057 Y89.99 E20.38363
G1 X89.668 Y90.44 E20.41324
G1 X89.362 Y90.945 E20.44262
G1 X89.144 Y91.499 E20.47225
G1 X89.024 Y92.084 E20.50197
G1 X89.007 Y92.676 E20.53144
G1 X89.086 Y93.261 E20.56082
G1 X89.265 Y93.827 E20.59036
G1 X89.537 Y94.356 E20.61996
M204 S5000
G0 F2400 X86.617 Y96.385
M204 S200
G1 F1200 X86.224 Y95.713 E20.6587
G1 X85.904 Y94.991 E20.69801
G1 X85.668 Y94.255 E20.73647
G1 X85.517 Y93.495 E20.77503
G1 X85.449 Y92.737 E20.8129
G1 X85.468 Y91.945 E20.85233
G1 X85.571 Y91.172 E20.89114
G1 X85.755 Y90.429 E20.92923
G1 X86.026 Y89.694 E20.96822
G1 X86.182 Y89.358 E20.98665
G1 X86.368 Y89.008 E21.00638
G1 X86.795 Y88.347 E21.04554
G1 X87.288 Y87.744 E21.0843
G1 X87.84 Y87.199 E21.1229
G1 X88.447 Y86.724 E21.16126
G1 X89.113 Y86.309 E21.20031
G1 X89.808 Y85.976 E21.23866
G1 X90.549 Y85.718 E21.27771
G1 X91.306 Y85.544 E21.31637
G1 X92.072 Y85.456 E21.35474
G1 X92.847 Y85.451 E21.39331
G1 X93.628 Y85.534 E21.43239
G1 X94.382 Y85.699 E21.4708
G1 X95.126 Y85.95 E21.50988
G1 X95.817 Y86.272 E21.54782
G1 X96.497 Y86.687 E21.58746
G1 X97.103 Y87.152 E21.62548
G1 X97.665 Y87.694 E21.66433
G1 X98.155 Y88.283 E21.70246
G1 X98.591 Y88.942 E21.74178
G1 X98.941 Y89.626 E21.78002
G1 X99.22 Y90.359 E21.81905
G1 X99.413 Y91.105 E21.8574
G1 X99.524 Y91.873 E21.89602
G1 X99.549 Y92.658 E21.9351
G1 X99.49 Y93.431 E21.97368
G1 X99.344 Y94.192 E22.01225
G1 X99.116 Y94.935 E22.05092
