;FLAVOR:Marlin
;TIME:676
;Filament used: 0.376974m
;Layer height: 0.2
;Generated with Cura_SteamEngine 2.7.0
M190 S60
M104 S220
M109 S220
G21 ;metric values
G90 ;absolute positioning
M82 ;set extruder to absolute mode
M107 ;start with the fan off
G92 E0 ;zero the extruded length
G1 F200 E3 ;extrude 3mm of feed stock
G92 E0 ;zero the extruded length again
G1 F9000
M117 Printing...
;LAYER_COUNT:109
;LAYER:0
M107
M204 S5000
G0 F2400 X83.833 Y81.103 Z0.3
M204 S200
;TYPE:SKIRT
G1 F1200 X84.294 Y80.69 E0.0308
G1 X84.804 Y80.339 E0.06161
G1 X85.355 Y80.057 E0.09242
G1 X85.938 Y79.849 E0.12322
G1 X86.543 Y79.717 E0.15404
G1 X87.259 Y79.663 E0.18977
G1 X97.741 Y79.664 E0.71141
G1 X98.359 Y79.704 E0.74223
G1 X98.967 Y79.823 E0.77306
G1 X99.554 Y80.02 E0.80388
G1 X100.111 Y80.29 E0.83468
G1 X100.628 Y80.63 E0.86547
G1 X101.097 Y81.034 E0.89628
G1 X101.511 Y81.495 E0.92712
G1 X101.861 Y82.005 E0.9579
G1 X102.143 Y82.557 E0.98875
G1 X102.352 Y83.139 E1.01952
G1 X102.483 Y83.744 E1.05033
G1 X102.537 Y84.465 E1.08631
G1 X102.526 Y95.6 E1.64045
G1 X102.462 Y96.377 E1.67924
G1 X102.261 Y97.593 E1.74058
G1 X102.121 Y98.196 E1.77139
G1 X101.944 Y98.685 E1.79727
G1 X101.498 Y99.736 E1.85409
G1 X101.22 Y100.289 E1.88489
G1 X101.032 Y100.583 E1.90225
G1 X100.423 Y101.467 E1.95568
G1 X99.869 Y102.134 E1.99883
G1 X99.351 Y102.653 E2.03532
G1 X98.843 Y103.095 E2.06883
G1 X98.254 Y103.539 E2.10554
G1 X97.475 Y104.017 E2.15102
G1 X96.441 Y104.523 E2.20831
G1 X95.869 Y104.759 E2.2391
G1 X95.546 Y104.855 E2.25587
G1 X94.517 Y105.124 E2.3088
G1 X93.618 Y105.27 E2.35413
G1 X92.765 Y105.326 E2.39667
G1 X92.108 Y105.324 E2.42936
G1 X91.383 Y105.272 E2.46554
G1 X90.508 Y105.127 E2.50967
G1 X89.4 Y104.836 E2.56668
G1 X88.812 Y104.64 E2.59753
G1 X88.504 Y104.502 E2.61432
G1 X87.547 Y104.032 E2.66738
G1 X87.01 Y103.724 E2.69819
G1 X86.626 Y103.44 E2.72196
G1 X85.739 Y102.715 E2.77897
G1 X85.136 Y102.127 E2.82089
G1 X84.643 Y101.553 E2.85854
G1 X84.164 Y100.889 E2.89929
G1 X83.617 Y99.974 E2.95234
G1 X83.243 Y99.195 E2.99534
G1 X82.979 Y98.49 E3.03281
G1 X82.785 Y97.833 E3.0669
G1 X82.631 Y97.129 E3.10276
G1 X82.533 Y96.458 E3.13651
G1 X82.476 Y95.687 E3.17498
G1 X82.463 Y95.333 E3.19261
G1 X82.463 Y84.459 E3.73376
G1 X82.503 Y83.841 E3.76458
G1 X82.622 Y83.234 E3.79536
G1 X82.819 Y82.647 E3.82618
G1 X83.089 Y82.09 E3.85698
G1 X83.429 Y81.572 E3.88782
G1 X83.833 Y81.103 E3.91862
M204 S5000
G0 F2400 X84.226 Y81.276
M204 S200
G1 F1200 X84.681 Y80.897 E3.94809
G1 X85.184 Y80.582 E3.97763
G1 X85.724 Y80.339 E4.00709
G1 X86.292 Y80.17 E4.03659
G1 X86.878 Y80.079 E4.0661
G1 X87.259 Y80.062 E4.08508
G1 X97.741 Y80.063 E4.60672
G1 X98.333 Y80.103 E4.63625
G1 X98.913 Y80.222 E4.66571
G1 X99.473 Y80.418 E4.69524
G1 X100.001 Y80.688 E4.72475
G1 X100.487 Y81.026 E4.75421
G1 X100.924 Y81.427 E4.78373
G1 X101.303 Y81.883 E4.81324
G1 X101.618 Y82.385 E4.84273
G1 X101.862 Y82.925 E4.87222
G1 X102.03 Y83.494 E4.90174
G1 X102.121 Y84.079 E4.93121
G1 X102.138 Y84.464 E4.95038
G1 X102.127 Y95.599 E5.50452
G1 X102.068 Y96.312 E5.54013
G1 X101.867 Y97.528 E5.60146
G1 X101.731 Y98.105 E5.63097
G1 X101.577 Y98.529 E5.65341
G1 X101.131 Y99.58 E5.71023
G1 X100.704 Y100.357 E5.75435
G1 X100.095 Y101.241 E5.80778
G1 X99.586 Y101.852 E5.84735
G1 X99.068 Y102.371 E5.88384
G1 X98.603 Y102.776 E5.91453
G1 X98.014 Y103.22 E5.95124
G1 X97.3 Y103.658 E5.99292
G1 X96.266 Y104.164 E6.05021
G1 X95.445 Y104.469 E6.0938
G1 X94.416 Y104.738 E6.14673
G1 X93.592 Y104.872 E6.18827
G1 X92.739 Y104.928 E6.23081
G1 X92.136 Y104.926 E6.26082
G1 X91.411 Y104.874 E6.297
G1 X90.609 Y104.741 E6.33745
G1 X89.501 Y104.45 E6.39446
G1 X88.68 Y104.144 E6.43807
G1 X87.723 Y103.674 E6.49112
G1 X87.209 Y103.377 E6.52067
G1 X86.878 Y103.131 E6.54119
G1 X85.991 Y102.406 E6.5982
G1 X85.438 Y101.867 E6.63663
G1 X84.945 Y101.293 E6.67429
G1 X84.507 Y100.684 E6.71162
G1 X83.96 Y99.769 E6.76467
G1 X83.616 Y99.055 E6.80411
G1 X83.352 Y98.35 E6.84158
G1 X83.175 Y97.748 E6.8728
G1 X83.021 Y97.044 E6.90867
G1 X82.931 Y96.428 E6.93965
G1 X82.874 Y95.657 E6.97812
G1 X82.862 Y95.333 E6.99426
G1 X82.862 Y84.459 E7.53541
G1 X82.902 Y83.868 E7.56489
G1 X83.021 Y83.287 E7.5944
G1 X83.217 Y82.728 E7.62388
G1 X83.487 Y82.2 E7.65339
G1 X83.825 Y81.713 E7.68289
G1 X84.226 Y81.276 E7.71241
M204 S5000
G0 F2400 X84.617 Y81.458
M204 S200
G1 F1200 X85.067 Y81.116 E7.74054
G1 X85.56 Y80.84 E7.76865
G1 X86.087 Y80.637 E7.79676
G1 X86.638 Y80.51 E7.8249
G1 X87.259 Y80.461 E7.8559
G1 X97.741 Y80.462 E8.37754
G1 X98.305 Y80.502 E8.40568
G1 X98.858 Y80.621 E8.43383
G1 X99.388 Y80.817 E8.46195
G1 X99.885 Y81.086 E8.49007
G1 X100.34 Y81.422 E8.51822
G1 X100.742 Y81.818 E8.5463
G1 X101.085 Y82.268 E8.57446
G1 X101.36 Y82.761 E8.60256
G1 X101.564 Y83.289 E8.63072
G1 X101.691 Y83.839 E8.65882
G1 X101.739 Y84.464 E8.69001
G1 X101.728 Y95.599 E9.24415
G1 X101.674 Y96.247 E9.27651
G1 X101.473 Y97.463 E9.33785
G1 X101.342 Y98.013 E9.36598
G1 X101.209 Y98.373 E9.38508
G1 X100.763 Y99.424 E9.4419
G1 X100.375 Y100.13 E9.48199
G1 X99.766 Y101.014 E9.53541
G1 X99.304 Y101.57 E9.57139
G1 X98.786 Y102.089 E9.60788
G1 X98.363 Y102.458 E9.63581
G1 X97.774 Y102.902 E9.67252
G1 X97.124 Y103.3 E9.71045
G1 X96.09 Y103.806 E9.76774
G1 X95.344 Y104.083 E9.80734
G1 X94.315 Y104.352 E9.86027
G1 X93.566 Y104.473 E9.89803
G1 X92.713 Y104.529 E9.94057
G1 X92.165 Y104.528 E9.96784
G1 X91.44 Y104.476 E10.00401
G1 X90.71 Y104.355 E10.04084
G1 X89.602 Y104.064 E10.09785
G1 X88.856 Y103.786 E10.13747
G1 X87.899 Y103.316 E10.19053
G1 X87.41 Y103.031 E10.21869
G1 X87.131 Y102.823 E10.23601
G1 X86.244 Y102.098 E10.29302
G1 X85.741 Y101.607 E10.328
G1 X85.248 Y101.033 E10.36566
G1 X84.849 Y100.479 E10.39964
G1 X84.302 Y99.564 E10.45269
G1 X83.99 Y98.915 E10.48852
G1 X83.726 Y98.21 E10.52599
G1 X83.564 Y97.662 E10.55443
G1 X83.41 Y96.958 E10.59029
G1 X83.329 Y96.399 E10.6184
G1 X83.272 Y95.628 E10.65687
G1 X83.261 Y95.333 E10.67156
G1 X83.261 Y84.459 E11.21271
G1 X83.301 Y83.895 E11.24085
G1 X83.42 Y83.343 E11.26895
G1 X83.616 Y82.813 E11.29707
G1 X83.884 Y82.315 E11.32522
G1 X84.22 Y81.861 E11.35333
G1 X84.617 Y81.458 E11.38148
M204 S5000
G0 F2400 X85.007 Y81.652
M204 S200
G1 F1200 X85.449 Y81.348 E11.40818
G1 X85.931 Y81.114 E11.43484
G1 X86.443 Y80.954 E11.46153
G1 X86.973 Y80.871 E11.48823
G1 X87.259 Y80.86 E11.50248
G1 X97.741 Y80.861 E12.02412
G1 X98.276 Y80.901 E12.05082
G1 X98.799 Y81.02 E12.07751
G1 X99.298 Y81.215 E12.10417
G1 X99.763 Y81.483 E12.13088
G1 X100.183 Y81.816 E12.15755
G1 X100.549 Y82.208 E12.18424
G1 X100.852 Y82.65 E12.21091
G1 X101.086 Y83.133 E12.23762
G1 X101.246 Y83.645 E12.26432
G1 X101.329 Y84.174 E12.29096
G1 X101.34 Y84.464 E12.30541
G1 X101.329 Y95.599 E12.85954
G1 X101.281 Y96.182 E12.88866
G1 X101.08 Y97.398 E12.94999
G1 X100.953 Y97.919 E12.97668
G1 X100.842 Y98.217 E12.9925
G1 X100.396 Y99.268 E13.04932
G1 X100.047 Y99.904 E13.08543
G1 X99.438 Y100.788 E13.13885
G1 X99.021 Y101.288 E13.17125
G1 X98.503 Y101.807 E13.20774
G1 X98.122 Y102.139 E13.23289
G1 X97.533 Y102.583 E13.2696
G1 X96.949 Y102.942 E13.30371
G1 X95.915 Y103.448 E13.361
G1 X95.243 Y103.697 E13.39666
G1 X94.214 Y103.966 E13.44959
G1 X93.54 Y104.075 E13.48357
G1 X92.687 Y104.131 E13.52611
G1 X92.194 Y104.13 E13.55065
G1 X91.469 Y104.078 E13.58682
G1 X90.812 Y103.969 E13.61996
G1 X89.704 Y103.678 E13.67697
G1 X89.031 Y103.427 E13.71272
G1 X88.074 Y102.957 E13.76578
G1 X87.612 Y102.686 E13.79243
G1 X87.383 Y102.514 E13.80669
G1 X86.496 Y101.789 E13.8637
G1 X86.044 Y101.347 E13.89516
G1 X85.551 Y100.773 E13.93281
G1 X85.192 Y100.275 E13.96337
G1 X84.645 Y99.36 E14.01642
G1 X84.364 Y98.775 E14.04871
G1 X84.1 Y98.07 E14.08618
G1 X83.954 Y97.577 E14.11177
G1 X83.8 Y96.873 E14.14763
G1 X83.727 Y96.369 E14.17297
G1 X83.67 Y95.598 E14.21145
G1 X83.66 Y95.333 E14.22464
G1 X83.66 Y84.459 E14.76579
G1 X83.7 Y83.924 E14.79249
G1 X83.819 Y83.401 E14.81918
G1 X84.014 Y82.902 E14.84585
G1 X84.282 Y82.437 E14.87256
G1 X84.615 Y82.017 E14.89923
G1 X85.007 Y81.652 E14.92589
M204 S5000
G0 F2400 X85.395 Y81.858
M204 S200
G1 F1200 X85.828 Y81.597 E14.95105
G1 X86.296 Y81.407 E14.97618
G1 X86.789 Y81.294 E15.00135
G1 X87.259 Y81.259 E15.02481
G1 X97.741 Y81.26 E15.54645
G1 X98.245 Y81.3 E15.57161
G1 X98.737 Y81.419 E15.5968
G1 X99.203 Y81.614 E15.62194
G1 X99.633 Y81.879 E15.64708
G1 X100.016 Y82.21 E15.67227
G1 X100.342 Y82.596 E15.69741
G1 X100.603 Y83.029 E15.72257
G1 X100.793 Y83.498 E15.74775
G1 X100.906 Y83.99 E15.77288
G1 X100.941 Y84.463 E15.79648
G1 X100.93 Y95.598 E16.35062
G1 X100.887 Y96.117 E16.37654
G1 X100.686 Y97.333 E16.43787
G1 X100.565 Y97.824 E16.46304
G1 X100.475 Y98.061 E16.47565
G1 X100.029 Y99.112 E16.53247
G1 X99.718 Y99.677 E16.56457
G1 X99.109 Y100.561 E16.61799
G1 X98.739 Y101.007 E16.64683
G1 X98.221 Y101.526 E16.68332
G1 X97.882 Y101.82 E16.70565
G1 X97.293 Y102.264 E16.74236
G1 X96.774 Y102.583 E16.77267
G1 X95.74 Y103.089 E16.82996
G1 X95.142 Y103.311 E16.86171
G1 X94.113 Y103.58 E16.91464
G1 X93.514 Y103.677 E16.94484
G1 X92.661 Y103.733 E16.98738
G1 X92.222 Y103.732 E17.00922
G1 X91.497 Y103.68 E17.0454
G1 X90.913 Y103.583 E17.07486
G1 X89.805 Y103.292 E17.13187
G1 X89.207 Y103.069 E17.16363
G1 X88.25 Y102.599 E17.21669
G1 X87.636 Y102.205 E17.25299
G1 X86.749 Y101.48 E17.31001
G1 X86.346 Y101.087 E17.33802
G1 X85.853 Y100.513 E17.37567
G1 X85.534 Y100.07 E17.40284
G1 X84.987 Y99.155 E17.45589
G1 X84.737 Y98.635 E17.48461
G1 X84.473 Y97.93 E17.52207
G1 X84.344 Y97.492 E17.54479
G1 X84.19 Y96.788 E17.58066
G1 X84.125 Y96.34 E17.60318
G1 X84.068 Y95.569 E17.64166
G1 X84.059 Y95.333 E17.65341
G1 X84.059 Y84.459 E18.19456
G1 X84.099 Y83.955 E18.21972
G1 X84.218 Y83.464 E18.24486
G1 X84.412 Y82.997 E18.27003
G1 X84.678 Y82.567 E18.29519
G1 X85.008 Y82.184 E18.32035
G1 X85.395 Y81.858 E18.34553
M204 S5000
G1 F1500 E16.34553
G0 F2400 X86.664 Y84.213
G0 X86.702 Y84.283
G0 X91.468 Y93.115
G0 X91.506 Y93.186
G0 X91.997 Y94.093
M204 S200
;TYPE:SUPPORT
G1 F1500 E18.34553
G1 F1200 X92.197 Y94.024 E18.35606
G1 X92.455 Y93.98 E18.36909
G1 X92.55 Y93.975 E18.37382
G1 X92.645 Y93.98 E18.37856
G1 X92.903 Y94.024 E18.39158
G1 X93.103 Y94.093 E18.40211
G1 X93.319 Y94.214 E18.41443
G1 X93.503 Y94.365 E18.42628
G1 X93.649 Y94.528 E18.43717
G1 X93.774 Y94.734 E18.44916
G1 X93.866 Y94.959 E18.46126
G1 X93.913 Y95.177 E18.47235
G1 X93.922 Y95.411 E18.48401
G1 X93.894 Y95.632 E18.49509
G1 X93.827 Y95.856 E18.50673
G1 X93.713 Y96.076 E18.51906
G1 X93.577 Y96.26 E18.53045
G1 X93.422 Y96.41 E18.54118
G1 X93.217 Y96.548 E18.55348
G1 X93.001 Y96.645 E18.56526
G1 X92.776 Y96.704 E18.57684
G1 X92.55 Y96.724 E18.58813
G1 X92.324 Y96.704 E18.59942
G1 X92.099 Y96.645 E18.611
G1 X91.883 Y96.548 E18.62278
G1 X91.678 Y96.41 E18.63508
G1 X91.523 Y96.26 E18.64581
G1 X91.387 Y96.076 E18.6572
G1 X91.273 Y95.856 E18.66953
G1 X91.206 Y95.632 E18.68116
G1 X91.178 Y95.411 E18.69225
G1 X91.187 Y95.177 E18.7039
G1 X91.234 Y94.959 E18.715
G1 X91.326 Y94.734 E18.7271
G1 X91.451 Y94.528 E18.73909
G1 X91.597 Y94.365 E18.74998
G1 X91.781 Y94.214 E18.76183
G1 X91.997 Y94.093 E18.77415
M204 S5000
G0 F2400 X93.31 Y94.415
M204 S200
G1 F1200 X93.31 Y96.293 E18.86761
M204 S5000
G0 F2400 X93.583 Y95.976
M204 S200
G1 F1200 X91.516 Y95.976 E18.97047
M204 S5000
G1 F1500 E16.97047
G0 F2400 X90.449 Y96.511
G0 X89.306 Y97.086
G0 X89.081 Y97.485
M204 S200
;TYPE:WALL-INNER
G1 F1500 E18.97047
G1 F1200 X89.445 Y97.976 E19.00089
G1 X89.494 Y98.042 E19.00498
G1 X89.841 Y98.373 E19.02885
G1 X89.993 Y98.519 E19.03933
G1 X90.292 Y98.721 E19.05729
G1 X90.564 Y98.906 E19.07366
G1 X90.781 Y99.003 E19.08549
G1 X91.193 Y99.189 E19.10799
G1 X91.306 Y99.218 E19.11379
G1 X91.862 Y99.366 E19.14243
G1 X92.55 Y99.423 E19.17678
G1 X93.135 Y99.375 E19.20599
G1 X93.238 Y99.366 E19.21114
G1 X93.699 Y99.244 E19.23487
G1 X93.907 Y99.189 E19.24558
G1 X94.235 Y99.042 E19.26346
G1 X94.536 Y98.906 E19.2799
G1 X94.739 Y98.769 E19.29209
G1 X95.107 Y98.519 E19.31423
G1 X95.206 Y98.424 E19.32106
G1 X95.606 Y98.042 E19.34858
G1 X95.618 Y98.026 E19.34958
G1 X95.979 Y97.539 E19.37975
G1 X96.019 Y97.485 E19.38309
G1 X96.247 Y97.031 E19.40837
G1 X96.33 Y96.867 E19.41752
G1 X96.443 Y96.495 E19.43687
G1 X96.531 Y96.209 E19.45176
G1 X96.567 Y95.929 E19.46581
G1 X96.62 Y95.522 E19.48623
G1 X96.612 Y95.327 E19.49595
G1 X96.59 Y94.833 E19.52056
G1 X96.445 Y94.158 E19.55491
G1 X96.359 Y93.944 E19.56639
G1 X96.186 Y93.517 E19.58932
G1 X95.825 Y92.929 E19.62366
G1 X95.368 Y92.409 E19.65811
G1 X94.831 Y91.976 E19.69244
G1 X94.228 Y91.638 E19.72684
G1 X93.576 Y91.407 E19.76126
G1 X92.915 Y91.294 E19.79463
G1 X92.55 Y91.28 E19.81281
G1 X92.185 Y91.294 E19.83099
G1 X91.524 Y91.407 E19.86436
G1 X90.872 Y91.638 E19.89878
G1 X90.269 Y91.976 E19.93319
G1 X89.732 Y92.409 E19.96752
G1 X89.275 Y92.929 E20.00197
G1 X88.914 Y93.517 E20.0363
G1 X88.655 Y94.158 E20.07071
G1 X88.643 Y94.212 E20.07346
G1 X88.51 Y94.833 E20.10507
G1 X88.489 Y95.332 E20.12992
G1 X88.48 Y95.522 E20.13939
G1 X88.53 Y95.915 E20.1591
G1 X88.569 Y96.209 E20.17386
G1 X88.647 Y96.465 E20.18718
G1 X88.77 Y96.867 E20.2081
G1 X88.832 Y96.991 E20.215
G1 X89.081 Y97.485 E20.24253
M204 S5000
G0 F2400 X88.897 Y97.587
M204 S200
G1 F1200 X88.627 Y97.095 E20.25799
G1 X88.571 Y96.943 E20.26116
G1 X88.419 Y96.536 E20.27353
G1 X88.358 Y96.255 E20.28005
G1 X88.291 Y95.946 E20.28447
G1 X88.262 Y95.538 E20.29632
G1 X88.246 Y95.321 E20.29971
G1 X88.246 Y94.833 E20.31504
G1 X88.246 Y94.198 E20.34132
G1 X88.246 Y85.446 E20.77687
G1 X96.754 Y85.446 E21.20027
G1 X96.754 Y93.927 E21.62233
G1 X96.754 Y94.158 E21.63256
G1 X96.754 Y94.833 E21.6524
G1 X96.754 Y95.321 E21.66162
G1 X96.739 Y95.53 E21.66254
G1 X96.709 Y95.946 E21.66947
G1 X96.647 Y96.234
G1 X96.581 Y96.536
G1 X96.443 Y96.909 E21.67613
G1 X96.373 Y97.095
G1 X96.127 Y97.544 E21.68461
G1 X96.086 Y97.619
G1 X95.724 Y98.103 E21.69452
G1 X95.696 Y98.131 E21.69482
G1 X95.303 Y98.524 E21.70404
G1 X95.18 Y98.616 E21.70457
G1 X94.819 Y98.886 E21.71202
G1 X94.593 Y99.01
G1 X94.295 Y99.173
G1 X93.949 Y99.301 E21.71511
G1 X93.736 Y99.381
G1 X93.263 Y99.483 E21.72305
G1 X93.146 Y99.509 E21.72336
G1 X92.559 Y99.551 E21.73299
G1 X92.533 Y99.553 E21.73429
G1 X91.854 Y99.509 E21.74576
G1 X91.833 Y99.505 E21.74648
G1 X91.264 Y99.381 E21.75626
G1 X91.14 Y99.335 E21.7574
G1 X90.705 Y99.173 E21.76516
G1 X90.484 Y99.052
G1 X90.181 Y98.886 E21.76866
G1 X89.885 Y98.665 E21.7775
G1 X89.697 Y98.524
G1 X89.355 Y98.182 E21.78975
G1 X89.276 Y98.103
G1 X88.914 Y97.619 E21.80575
G1 X88.897 Y97.587 E21.80755
M204 S5000
G0 F2400 X88.58 Y97.839
M204 S200
G1 F1200 X88.263 Y97.259 E21.84044
G1 X88.035 Y96.648 E21.8729
G1 X87.895 Y96.004 E21.90569
G1 X87.847 Y95.336 E21.93902
G1 X87.847 Y85.047 E22.45106
G1 X97.153 Y85.047 E22.91418
G1 X97.153 Y95.336 E23.42622
G1 X97.105 Y96.004 E23.45954
G1 X96.965 Y96.648 E23.49234
G1 X96.737 Y97.259 E23.5248
G1 X96.42 Y97.839 E23.55769
G1 X96.029 Y98.362 E23.59019
G1 X95.562 Y98.829 E23.62305
G1 X95.039 Y99.22 E23.65555
G1 X94.459 Y99.537 E23.68844
G1 X93.848 Y99.765 E23.7209
G1 X93.204 Y99.905 E23.7537
G1 X92.536 Y99.953 E23.78703
G1 X91.796 Y99.905 E23.82393
G1 X91.152 Y99.765 E23.85673
G1 X90.541 Y99.537 E23.88918
G1 X89.961 Y99.22 E23.92208
G1 X89.438 Y98.829 E23.95457
G1 X88.971 Y98.362 E23.98744
G1 X88.58 Y97.839 E24.01994
M204 S5000
G0 F2400 X88.664 Y97.785
G0 X89.337 Y97.327
G0 X89.422 Y97.275
M204 S200
G1 F1200 X89.794 Y97.777 E24.05103
G1 X90.244 Y98.207 E24.08201
G1 X90.759 Y98.556 E24.11297
G1 X91.327 Y98.812 E24.14397
G1 X91.93 Y98.971 E24.175
G1 X92.55 Y99.023 E24.20597
G1 X93.17 Y98.971 E24.23693
G1 X93.773 Y98.812 E24.26796
G1 X94.341 Y98.556 E24.29897
G1 X94.856 Y98.207 E24.32993
G1 X95.306 Y97.777 E24.3609
G1 X95.678 Y97.275 E24.392
G1 X95.958 Y96.718 E24.42302
G1 X96.14 Y96.124 E24.45394
G1 X96.22 Y95.505 E24.485
G1 X96.193 Y94.884 E24.51594
G1 X96.062 Y94.275 E24.54694
G1 X95.829 Y93.697 E24.57795
G1 X95.503 Y93.167 E24.60891
G1 X95.091 Y92.698 E24.63998
G1 X94.607 Y92.308 E24.67091
G1 X94.063 Y92.003 E24.70195
G1 X93.475 Y91.795 E24.73299
G1 X92.873 Y91.692 E24.76338
G1 X92.55 Y91.679 E24.77947
G1 X92.227 Y91.692 E24.79556
