;FLAVOR:Marlin
;TIME:2741
;Filament used: 2.21198m
;Layer height: 0.2
;Generated with Cura_SteamEngine 2.7.0
M190 S60
M104 S220
M109 S220
G21 ;metric values
G90 ;absolute positioning
M82 ;set extruder to absolute mode
M107 ;start with the fan off
G92 E0 ;zero the extruded length
G1 F200 E3 ;extrude 3mm of feed stock
G92 E0 ;zero the extruded length again
G1 F9000
M117 Printing...
;LAYER_COUNT:101
;LAYER:0
M107
M204 S5000
G0 F2400 X76.769 Y77.414 Z0.3
M204 S200
;TYPE:SKIRT
G1 F1200 X77.907 Y76.315 E0.07873
G1 X78.242 Y76.021 E0.10091
G1 X79.525 Y74.994 E0.1827
G1 X79.958 Y74.685 E0.20917
G1 X81.961 Y73.418 E0.32712
G1 X82.49 Y73.128 E0.35714
G1 X83.888 Y72.473 E0.43397
G1 X84.403 Y72.267 E0.46157
G1 X86.731 Y71.489 E0.58373
G1 X87.177 Y71.364 E0.60678
G1 X88.278 Y71.111 E0.663
G1 X88.784 Y71.023 E0.68856
G1 X91.04 Y70.754 E0.80162
G1 X91.686 Y70.721 E0.83381
G1 X93.9 Y70.757 E0.94401
G1 X94.564 Y70.814 E0.97717
G1 X97.15 Y71.219 E1.10744
G1 X97.728 Y71.346 E1.13689
G1 X99.268 Y71.787 E1.21661
G1 X99.767 Y71.96 E1.24289
G1 X101.936 Y72.849 E1.35955
G1 X102.474 Y73.11 E1.3893
G1 X103.787 Y73.851 E1.46433
G1 X104.139 Y74.07 E1.48496
G1 X105.407 Y74.938 E1.56144
G1 X105.86 Y75.29 E1.58999
G1 X107.771 Y76.966 E1.71648
G1 X108.111 Y77.295 E1.74003
G1 X108.9 Y78.138 E1.79749
G1 X109.19 Y78.478 E1.81973
G1 X110.238 Y79.831 E1.90489
G1 X110.473 Y80.164 E1.92518
G1 X111.119 Y81.163 E1.98438
G1 X111.31 Y81.484 E2.00297
G1 X112.023 Y82.801 E2.0775
G1 X112.22 Y83.211 E2.10014
G1 X112.866 Y84.734 E2.18247
G1 X113.086 Y85.375 E2.21619
G1 X113.92 Y88.513 E2.37778
G1 X114.049 Y89.191 E2.41212
G1 X114.225 Y90.705 E2.48798
G1 X114.256 Y91.159 E2.51062
G1 X114.294 Y92.989 E2.60171
G1 X114.282 Y93.448 E2.62456
G1 X114.176 Y94.861 E2.69508
G1 X114.107 Y95.387 E2.72148
G1 X113.696 Y97.576 E2.83232
G1 X113.546 Y98.166 E2.86262
G1 X112.906 Y100.146 E2.96617
G1 X112.692 Y100.691 E2.99531
G1 X111.773 Y102.67 E3.1039
G1 X111.48 Y103.207 E3.13434
G1 X110.328 Y105.035 E3.24187
G1 X109.973 Y105.527 E3.27206
G1 X108.667 Y107.113 E3.37431
G1 X108.256 Y107.552 E3.40423
G1 X106.607 Y109.108 E3.51706
G1 X106.18 Y109.467 E3.54482
G1 X104.786 Y110.505 E3.63132
G1 X104.391 Y110.77 E3.65499
G1 X102.964 Y111.627 E3.73783
G1 X102.537 Y111.855 E3.76192
G1 X101.151 Y112.507 E3.83814
G1 X100.634 Y112.714 E3.86586
G1 X98.261 Y113.51 E3.99042
G1 X97.813 Y113.636 E4.01358
G1 X96.698 Y113.893 E4.07052
G1 X96.183 Y113.983 E4.09654
G1 X93.981 Y114.243 E4.20688
G1 X93.342 Y114.275 E4.23872
G1 X91.039 Y114.238 E4.35335
G1 X90.361 Y114.179 E4.38722
G1 X87.781 Y113.768 E4.51723
G1 X87.213 Y113.642 E4.54618
G1 X85.715 Y113.212 E4.62374
G1 X85.27 Y113.06 E4.64714
G1 X83.724 Y112.447 E4.72991
G1 X83.308 Y112.259 E4.75263
G1 X81.9 Y111.539 E4.83133
G1 X81.451 Y111.278 E4.85717
G1 X79.537 Y110.021 E4.97113
G1 X79.067 Y109.669 E5.00035
G1 X77.832 Y108.621 E5.08096
G1 X77.409 Y108.215 E5.11014
G1 X75.63 Y106.286 E5.24073
G1 X75.257 Y105.828 E5.27012
G1 X74.335 Y104.541 E5.34891
G1 X74.058 Y104.106 E5.37457
G1 X72.991 Y102.216 E5.48258
G1 X72.728 Y101.673 E5.51261
G1 X71.959 Y99.792 E5.61374
G1 X71.802 Y99.349 E5.63713
G1 X71.479 Y98.267 E5.69332
G1 X71.384 Y97.894 E5.71248
G1 X71.016 Y96.166 E5.8004
G1 X70.935 Y95.651 E5.82634
G1 X70.735 Y93.678 E5.92503
G1 X70.712 Y93.078 E5.95492
G1 X70.765 Y90.88 E6.06433
G1 X70.829 Y90.208 E6.09793
G1 X71.26 Y87.619 E6.22854
G1 X71.387 Y87.065 E6.25683
G1 X71.747 Y85.83 E6.32085
G1 X71.866 Y85.473 E6.33957
G1 X72.387 Y84.098 E6.41275
G1 X72.635 Y83.55 E6.44268
G1 X73.908 Y81.149 E6.57792
G1 X74.17 Y80.713 E6.60324
G1 X74.822 Y79.747 E6.66124
G1 X75.111 Y79.361 E6.68523
G1 X76.415 Y77.795 E6.78665
G1 X76.769 Y77.414 E6.81253
M204 S5000
G0 F2400 X77.047 Y77.701
M204 S200
G1 F1200 X78.185 Y76.602 E6.89126
G1 X78.491 Y76.332 E6.91157
G1 X79.774 Y75.305 E6.99335
G1 X80.171 Y75.022 E7.01762
G1 X82.174 Y73.755 E7.13557
G1 X82.659 Y73.489 E7.16309
G1 X84.057 Y72.834 E7.23992
G1 X84.529 Y72.646 E7.26521
G1 X86.857 Y71.868 E7.38736
G1 X87.266 Y71.753 E7.4085
G1 X88.367 Y71.5 E7.46472
G1 X88.831 Y71.419 E7.48816
G1 X91.087 Y71.15 E7.60123
G1 X91.679 Y71.12 E7.63073
G1 X93.893 Y71.156 E7.74092
G1 X94.502 Y71.208 E7.77134
G1 X97.088 Y71.613 E7.9016
G1 X97.618 Y71.73 E7.92861
G1 X99.158 Y72.171 E8.00833
G1 X99.616 Y72.329 E8.03244
G1 X101.785 Y73.218 E8.1491
G1 X102.278 Y73.458 E8.17639
G1 X103.591 Y74.199 E8.25142
G1 X103.914 Y74.4 E8.27035
G1 X105.182 Y75.268 E8.34682
G1 X105.597 Y75.59 E8.37296
G1 X107.508 Y77.266 E8.49946
G1 X107.819 Y77.567 E8.521
G1 X108.608 Y78.41 E8.57846
G1 X108.874 Y78.722 E8.59886
G1 X109.922 Y80.075 E8.68403
G1 X110.138 Y80.38 E8.70263
G1 X110.784 Y81.379 E8.76183
G1 X110.959 Y81.674 E8.7789
G1 X111.672 Y82.991 E8.85343
G1 X111.853 Y83.367 E8.8742
G1 X112.499 Y84.89 E8.95653
G1 X112.7 Y85.478 E8.98745
G1 X113.534 Y88.616 E9.14904
G1 X113.653 Y89.237 E9.18051
G1 X113.829 Y90.751 E9.25636
G1 X113.857 Y91.168 E9.27716
G1 X113.895 Y92.998 E9.36825
G1 X113.884 Y93.418 E9.38916
G1 X113.778 Y94.831 E9.45967
G1 X113.714 Y95.313 E9.48387
G1 X113.303 Y97.502 E9.59471
G1 X113.166 Y98.043 E9.62248
G1 X112.526 Y100.023 E9.72604
G1 X112.33 Y100.523 E9.75276
G1 X111.411 Y102.502 E9.86135
G1 X111.143 Y102.994 E9.88923
G1 X109.991 Y104.822 E9.99676
G1 X109.665 Y105.273 E10.02446
G1 X108.359 Y106.859 E10.1267
G1 X107.983 Y107.262 E10.15413
G1 X106.334 Y108.818 E10.26696
G1 X105.942 Y109.147 E10.29243
G1 X104.548 Y110.185 E10.37892
G1 X104.186 Y110.427 E10.40059
G1 X102.759 Y111.284 E10.48343
G1 X102.367 Y111.494 E10.50556
G1 X100.981 Y112.146 E10.58178
G1 X100.507 Y112.336 E10.6072
G1 X98.134 Y113.132 E10.73176
G1 X97.724 Y113.248 E10.75296
G1 X96.609 Y113.505 E10.80991
G1 X96.137 Y113.587 E10.83375
G1 X93.935 Y113.847 E10.94409
G1 X93.348 Y113.876 E10.97334
G1 X91.045 Y113.839 E11.08796
G1 X90.424 Y113.785 E11.11899
G1 X87.844 Y113.374 E11.249
G1 X87.323 Y113.258 E11.27556
G1 X85.825 Y112.828 E11.35312
G1 X85.417 Y112.689 E11.37457
G1 X83.871 Y112.076 E11.45734
G1 X83.49 Y111.904 E11.47814
G1 X82.082 Y111.184 E11.55684
G1 X81.67 Y110.944 E11.58057
G1 X79.756 Y109.687 E11.69452
G1 X79.325 Y109.365 E11.7213
G1 X78.09 Y108.317 E11.8019
G1 X77.703 Y107.945 E11.82862
G1 X75.924 Y106.016 E11.95921
G1 X75.582 Y105.596 E11.98616
G1 X74.66 Y104.309 E12.06495
G1 X74.405 Y103.91 E12.08851
G1 X73.338 Y102.02 E12.19653
G1 X73.097 Y101.522 E12.22406
G1 X72.328 Y99.641 E12.32519
G1 X72.185 Y99.235 E12.34661
G1 X71.862 Y98.153 E12.4028
G1 X71.774 Y97.811 E12.42038
G1 X71.406 Y96.083 E12.5083
G1 X71.332 Y95.61 E12.53213
G1 X71.132 Y93.637 E12.63082
G1 X71.111 Y93.088 E12.65816
G1 X71.164 Y90.89 E12.76757
G1 X71.223 Y90.274 E12.79837
G1 X71.654 Y87.685 E12.92899
G1 X71.77 Y87.176 E12.95497
G1 X72.13 Y85.941 E13.01898
G1 X72.239 Y85.614 E13.03614
G1 X72.76 Y84.239 E13.10931
G1 X72.987 Y83.737 E13.13673
G1 X74.26 Y81.336 E13.27197
G1 X74.5 Y80.936 E13.29519
G1 X75.152 Y79.97 E13.35319
G1 X75.418 Y79.616 E13.37522
G1 X76.722 Y78.05 E13.47664
G1 X77.047 Y77.701 E13.50037
M204 S5000
G0 F2400 X77.324 Y77.988
M204 S200
G1 F1200 X78.462 Y76.889 E13.5791
G1 X78.741 Y76.644 E13.59758
G1 X80.024 Y75.617 E13.67936
G1 X80.385 Y75.359 E13.70145
G1 X82.388 Y74.092 E13.81939
G1 X82.829 Y73.851 E13.8444
G1 X84.227 Y73.196 E13.92123
G1 X84.656 Y73.024 E13.94423
G1 X86.984 Y72.246 E14.06639
G1 X87.356 Y72.142 E14.08561
G1 X88.457 Y71.889 E14.14183
G1 X88.879 Y71.815 E14.16315
G1 X91.135 Y71.546 E14.27622
G1 X91.673 Y71.519 E14.30302
G1 X93.887 Y71.555 E14.41322
G1 X94.441 Y71.602 E14.44089
G1 X97.027 Y72.007 E14.57115
G1 X97.509 Y72.113 E14.59571
G1 X99.049 Y72.554 E14.67543
G1 X99.464 Y72.699 E14.69731
G1 X101.633 Y73.588 E14.81396
G1 X102.082 Y73.805 E14.83878
G1 X103.395 Y74.546 E14.91381
G1 X103.688 Y74.729 E14.931
G1 X104.956 Y75.597 E15.00747
G1 X105.334 Y75.89 E15.03127
G1 X107.245 Y77.566 E15.15777
G1 X107.528 Y77.84 E15.17737
G1 X108.317 Y78.683 E15.23483
G1 X108.559 Y78.967 E15.2534
G1 X109.607 Y80.32 E15.33857
G1 X109.803 Y80.597 E15.35546
G1 X110.449 Y81.596 E15.41466
G1 X110.608 Y81.864 E15.43017
G1 X111.321 Y83.181 E15.5047
G1 X111.486 Y83.523 E15.5236
G1 X112.132 Y85.046 E15.60593
G1 X112.315 Y85.58 E15.63402
G1 X113.149 Y88.718 E15.7956
G1 X113.256 Y89.283 E15.82422
G1 X113.432 Y90.797 E15.90007
G1 X113.458 Y91.176 E15.91898
G1 X113.496 Y93.006 E16.01007
G1 X113.486 Y93.388 E16.02909
G1 X113.38 Y94.801 E16.0996
G1 X113.322 Y95.24 E16.12164
G1 X112.911 Y97.429 E16.23248
G1 X112.786 Y97.921 E16.25774
G1 X112.146 Y99.901 E16.3613
G1 X111.968 Y100.355 E16.38557
G1 X111.049 Y102.334 E16.49415
G1 X110.805 Y102.782 E16.51954
G1 X109.653 Y104.61 E16.62707
G1 X109.357 Y105.019 E16.65219
G1 X108.051 Y106.605 E16.75444
G1 X107.709 Y106.972 E16.7794
G1 X106.06 Y108.528 E16.89223
G1 X105.704 Y108.827 E16.91537
G1 X104.31 Y109.865 E17.00186
G1 X103.98 Y110.085 E17.0216
G1 X102.553 Y110.942 E17.10444
G1 X102.197 Y111.133 E17.12454
G1 X100.811 Y111.785 E17.20077
G1 X100.38 Y111.957 E17.22386
G1 X98.007 Y112.753 E17.34842
G1 X97.634 Y112.859 E17.36772
G1 X96.519 Y113.116 E17.42466
G1 X96.09 Y113.19 E17.44633
G1 X93.888 Y113.45 E17.55667
G1 X93.355 Y113.477 E17.58323
G1 X91.052 Y113.44 E17.69786
G1 X90.487 Y113.391 E17.72608
G1 X87.907 Y112.98 E17.85609
G1 X87.433 Y112.875 E17.88025
G1 X85.935 Y112.445 E17.95781
G1 X85.564 Y112.319 E17.97731
G1 X84.018 Y111.706 E18.06008
G1 X83.672 Y111.549 E18.07898
G1 X82.264 Y110.829 E18.15768
G1 X81.889 Y110.611 E18.17927
G1 X79.975 Y109.354 E18.29323
G1 X79.583 Y109.06 E18.31761
G1 X78.348 Y108.012 E18.39822
G1 X77.996 Y107.674 E18.4225
G1 X76.217 Y105.745 E18.55309
G1 X75.906 Y105.363 E18.57761
G1 X74.984 Y104.076 E18.6564
G1 X74.752 Y103.713 E18.67783
G1 X73.685 Y101.823 E18.78584
G1 X73.466 Y101.371 E18.81084
G1 X72.697 Y99.49 E18.91197
G1 X72.567 Y99.121 E18.93144
G1 X72.244 Y98.039 E18.98763
G1 X72.165 Y97.728 E19.0036
G1 X71.797 Y96 E19.09153
G1 X71.729 Y95.57 E19.11319
G1 X71.529 Y93.597 E19.21188
G1 X71.51 Y93.098 E19.23673
G1 X71.563 Y90.9 E19.34615
G1 X71.616 Y90.339 E19.37419
G1 X72.047 Y87.75 E19.50481
G1 X72.153 Y87.288 E19.5284
G1 X72.513 Y86.053 E19.59241
G1 X72.612 Y85.755 E19.60804
G1 X73.133 Y84.38 E19.68122
G1 X73.34 Y83.924 E19.70614
G1 X74.613 Y81.523 E19.84138
G1 X74.831 Y81.159 E19.8625
G1 X75.483 Y80.193 E19.92049
G1 X75.725 Y79.872 E19.9405
G1 X77.029 Y78.306 E20.04191
G1 X77.324 Y77.988 E20.0635
M204 S5000
G0 F2400 X77.601 Y78.275
M204 S200
G1 F1200 X78.739 Y77.176 E20.14223
G1 X78.99 Y76.955 E20.15887
G1 X80.273 Y75.928 E20.24066
G1 X80.598 Y75.696 E20.26053
G1 X82.601 Y74.429 E20.37848
G1 X82.998 Y74.212 E20.401
G1 X84.396 Y73.557 E20.47783
G1 X84.782 Y73.403 E20.49851
G1 X87.11 Y72.625 E20.62066
G1 X87.445 Y72.53 E20.63799
G1 X88.546 Y72.277 E20.69421
G1 X88.926 Y72.211 E20.7134
G1 X91.182 Y71.942 E20.82647
G1 X91.667 Y71.917 E20.85064
G1 X93.881 Y71.953 E20.96083
G1 X94.379 Y71.996 E20.98571
G1 X96.965 Y72.401 E21.11597
G1 X97.399 Y72.497 E21.13809
G1 X98.939 Y72.938 E21.21781
G1 X99.313 Y73.068 E21.23751
G1 X101.482 Y73.957 E21.35417
G1 X101.886 Y74.153 E21.37652
G1 X103.199 Y74.894 E21.45155
G1 X103.463 Y75.058 E21.46701
G1 X104.731 Y75.926 E21.54348
G1 X105.071 Y76.19 E21.56491
G1 X106.982 Y77.866 E21.6914
G1 X107.237 Y78.113 E21.70907
G1 X108.026 Y78.956 E21.76653
G1 X108.243 Y79.211 E21.78319
G1 X109.291 Y80.564 E21.86836
G1 X109.468 Y80.814 E21.88361
G1 X110.114 Y81.813 E21.94281
G1 X110.257 Y82.054 E21.95676
G1 X110.97 Y83.371 E22.03129
G1 X111.118 Y83.679 E22.04829
G1 X111.764 Y85.202 E22.13062
G1 X111.929 Y85.683 E22.15593
G1 X112.763 Y88.821 E22.31751
G1 X112.86 Y89.329 E22.34325
G1 X113.036 Y90.843 E22.4191
G1 X113.059 Y91.184 E22.43611
G1 X113.097 Y93.014 E22.5272
G1 X113.088 Y93.358 E22.54433
G1 X112.982 Y94.771 E22.61484
G1 X112.93 Y95.166 E22.63467
G1 X112.519 Y97.355 E22.74551
G1 X112.407 Y97.798 E22.76825
G1 X111.767 Y99.778 E22.8718
G1 X111.606 Y100.187 E22.89368
G1 X110.687 Y102.166 E23.00227
G1 X110.468 Y102.569 E23.02509
G1 X109.316 Y104.397 E23.13262
G1 X109.049 Y104.766 E23.15529
G1 X107.743 Y106.352 E23.25753
G1 X107.435 Y106.682 E23.27999
G1 X105.786 Y108.238 E23.39282
G1 X105.465 Y108.507 E23.41367
G1 X104.071 Y109.545 E23.50016
G1 X103.775 Y109.743 E23.51788
G1 X102.348 Y110.6 E23.60072
G1 X102.027 Y110.772 E23.61884
G1 X100.641 Y111.424 E23.69507
G1 X100.254 Y111.579 E23.71582
G1 X97.881 Y112.375 E23.84038
G1 X97.544 Y112.47 E23.8578
G1 X96.429 Y112.727 E23.91474
G1 X96.043 Y112.794 E23.93424
G1 X93.841 Y113.054 E24.04459
G1 X93.361 Y113.079 E24.06851
G1 X91.058 Y113.042 E24.18313
G1 X90.55 Y112.997 E24.20851
G1 X87.97 Y112.586 E24.33852
G1 X87.543 Y112.491 E24.36029
G1 X86.045 Y112.061 E24.43785
G1 X85.711 Y111.948 E24.4554
G1 X84.165 Y111.335 E24.53816
G1 X83.853 Y111.193 E24.55522
G1 X82.445 Y110.473 E24.63392
G1 X82.108 Y110.277 E24.65332
G1 X80.194 Y109.02 E24.76728
G1 X79.841 Y108.756 E24.78922
G1 X78.606 Y107.708 E24.86982
G1 X78.289 Y107.404 E24.89168
G1 X76.51 Y105.475 E25.02227
G1 X76.23 Y105.131 E25.04434
G1 X75.308 Y103.844 E25.12313
G1 X75.1 Y103.517 E25.14242
G1 X74.033 Y101.627 E25.25043
G1 X73.836 Y101.22 E25.27293
G1 X73.067 Y99.339 E25.37406
G1 X72.949 Y99.006 E25.39164
G1 X72.626 Y97.924 E25.44784
G1 X72.555 Y97.645 E25.46216
G1 X72.187 Y95.917 E25.55009
G1 X72.126 Y95.53 E25.56958
G1 X71.926 Y93.557 E25.66827
G1 X71.909 Y93.107 E25.69068
G1 X71.962 Y90.909 E25.8001
G1 X72.01 Y90.405 E25.8253
G1 X72.441 Y87.816 E25.95591
G1 X72.536 Y87.4 E25.97715
G1 X72.896 Y86.165 E26.04117
G1 X72.985 Y85.897 E26.05522
G1 X73.506 Y84.522 E26.12839
G1 X73.692 Y84.111 E26.15085
G1 X74.965 Y81.71 E26.28609
G1 X75.162 Y81.383 E26.30509
G1 X75.814 Y80.417 E26.36308
G1 X76.031 Y80.127 E26.38111
G1 X77.335 Y78.561 E26.48252
G1 X77.601 Y78.275 E26.50196
M204 S5000
G0 F2400 X77.878 Y78.562
M204 S200
G1 F1200 X79.016 Y77.463 E26.58069
G1 X79.239 Y77.267 E26.59547
G1 X80.522 Y76.24 E26.67725
G1 X80.811 Y76.034 E26.69491
G1 X82.814 Y74.767 E26.81286
G1 X83.167 Y74.573 E26.83291
G1 X84.565 Y73.918 E26.90974
G1 X84.909 Y73.781 E26.92816
G1 X87.237 Y73.003 E27.05032
G1 X87.534 Y72.919 E27.06568
G1 X88.635 Y72.666 E27.1219
G1 X88.973 Y72.608 E27.13896
G1 X91.229 Y72.339 E27.25203
G1 X91.66 Y72.316 E27.27351
G1 X93.874 Y72.352 E27.3837
G1 X94.317 Y72.391 E27.40584
G1 X96.903 Y72.796 E27.5361
G1 X97.289 Y72.881 E27.55577
G1 X98.829 Y73.322 E27.63549
G1 X99.162 Y73.437 E27.65302
G1 X101.331 Y74.326 E27.76968
G1 X101.69 Y74.5 E27.78953
G1 X103.003 Y75.241 E27.86456
G1 X103.238 Y75.387 E27.87833
G1 X104.506 Y76.255 E27.9548
G1 X104.808 Y76.49 E27.97384
G1 X106.719 Y78.166 E28.10034
G1 X106.945 Y78.385 E28.116
G1 X107.734 Y79.228 E28.17346
G1 X107.928 Y79.455 E28.18832
G1 X108.976 Y80.808 E28.27349
G1 X109.133 Y81.03 E28.28702
G1 X109.779 Y82.029 E28.34622
G1 X109.906 Y82.244 E28.35865
G1 X110.619 Y83.561 E28.43318
G1 X110.751 Y83.834 E28.44827
G1 X111.397 Y85.357 E28.5306
G1 X111.544 Y85.785 E28.55312
G1 X112.378 Y88.923 E28.71471
G1 X112.464 Y89.375 E28.7376
G1 X112.64 Y90.889 E28.81346
G1 X112.66 Y91.193 E28.82862
G1 X112.698 Y93.023 E28.91971
G1 X112.69 Y93.328 E28.93489
G1 X112.584 Y94.741 E29.00541
G1 X112.538 Y95.093 E29.02307
G1 X112.127 Y97.282 E29.13392
G1 X112.027 Y97.675 E29.1541
G1 X111.387 Y99.655 E29.25765
G1 X111.244 Y100.019 E29.27711
G1 X110.325 Y101.998 E29.3857
G1 X110.13 Y102.356 E29.40599
G1 X108.978 Y104.184 E29.51352
G1 X108.741 Y104.512 E29.53366
G1 X107.435 Y106.098 E29.6359
G1 X107.161 Y106.391 E29.65586
G1 X105.512 Y107.947 E29.76869
G1 X105.227 Y108.187 E29.78724
G1 X103.833 Y109.225 E29.87373
G1 X103.57 Y109.401 E29.88948
G1 X102.143 Y110.258 E29.97231
G1 X101.857 Y110.411 E29.98846
G1 X100.471 Y111.063 E30.06468
G1 X100.127 Y111.201 E30.08313
G1 X97.754 Y111.997 E30.20769
G1 X97.455 Y112.081 E30.22314
G1 X96.34 Y112.338 E30.28009
G1 X95.996 Y112.398 E30.29746
G1 X93.794 Y112.658 E30.40781
G1 X93.368 Y112.68 E30.42904
G1 X91.065 Y112.643 E30.54366
G1 X90.613 Y112.603 E30.56624
G1 X88.033 Y112.192 E30.69626
G1 X87.653 Y112.108 E30.71563
G1 X86.155 Y111.678 E30.79318
G1 X85.859 Y111.577 E30.80875
G1 X84.313 Y110.964 E30.89151
