;FLAVOR:Marlin
;TIME:1913
;Filament used: 1.45263m
;Layer height: 0.2
;Generated with Cura_SteamEngine 2.7.0
M190 S60
M104 S220
M109 S220
G21 ;metric values
G90 ;absolute positioning
M82 ;set extruder to absolute mode
M107 ;start with the fan off
G92 E0 ;zero the extruded length
G1 F200 E3 ;extrude 3mm of feed stock
G92 E0 ;zero the extruded length again
G1 F9000
M117 Printing...
;LAYER_COUNT:40
;LAYER:0
M107
M204 S5000
G0 F2400 X75.884 Y78.481 Z0.3
M204 S200
;TYPE:SKIRT
G1 F1200 X76.331 Y78.053 E0.0308
G1 X76.83 Y77.686 E0.06162
G1 X77.372 Y77.386 E0.09245
G1 X77.948 Y77.159 E0.12326
G1 X78.548 Y77.008 E0.15405
G1 X79.331 Y76.93 E0.19321
G1 X90.526 Y76.732 E0.75043
G1 X91.145 Y76.761 E0.78126
G1 X91.754 Y76.869 E0.81204
G1 X92.345 Y77.055 E0.84288
G1 X93.012 Y77.375 E0.87969
G1 X96.379 Y79.322 E1.07325
G1 X101.164 Y81.798 E1.34137
G1 X106.108 Y84.012 E1.61096
G1 X108.609 Y85.008 E1.74493
G1 X111.119 Y85.923 E1.87788
G1 X115.996 Y87.526 E2.13336
G1 X116.457 Y87.704 E2.15795
G1 X117.034 Y87.962 E2.18941
G1 X117.706 Y88.33 E2.22753
G1 X118.514 Y88.86 E2.27562
G1 X119.122 Y89.332 E2.31393
G1 X119.747 Y89.904 E2.35609
G1 X120.176 Y90.351 E2.38692
G1 X120.384 Y90.616 E2.40369
G1 X121.104 Y91.603 E2.46449
G1 X121.435 Y92.125 E2.49525
G1 X121.639 Y92.545 E2.51848
G1 X122.197 Y93.851 E2.58916
G1 X122.403 Y94.434 E2.61993
G1 X122.503 Y94.862 E2.64181
G1 X122.67 Y95.764 E2.68746
G1 X122.749 Y96.552 E2.72687
G1 X122.765 Y97.452 E2.77166
G1 X122.714 Y98.239 E2.81091
G1 X122.581 Y99.138 E2.85614
G1 X122.398 Y99.918 E2.89601
G1 X122.117 Y100.783 E2.94127
G1 X121.81 Y101.515 E2.98077
G1 X121.39 Y102.322 E3.02605
G1 X120.972 Y102.986 E3.06509
G1 X120.428 Y103.711 E3.1102
G1 X119.892 Y104.313 E3.15031
G1 X119.235 Y104.936 E3.19537
G1 X118.63 Y105.423 E3.23402
G1 X117.888 Y105.927 E3.27866
G1 X117.206 Y106.313 E3.31766
G1 X116.38 Y106.695 E3.36295
G1 X115.555 Y106.989 E3.40654
G1 X114.569 Y107.241 E3.45718
G1 X113.697 Y107.38 E3.50113
G1 X112.213 Y107.478 E3.57514
G1 X111.967 Y107.487 E3.58739
G1 X87.975 Y107.837 E4.78149
G1 X85.043 Y107.963 E4.92754
G1 X84.917 Y107.966 E4.93381
G1 X67.286 Y108.263 E5.81135
G1 X66.667 Y108.234 E5.84219
G1 X66.058 Y108.125 E5.87298
G1 X65.468 Y107.938 E5.90378
G1 X64.906 Y107.677 E5.93461
G1 X64.383 Y107.346 E5.96542
G1 X63.907 Y106.95 E5.99623
G1 X63.486 Y106.496 E6.02704
G1 X63.127 Y105.992 E6.05784
G1 X62.836 Y105.446 E6.08863
G1 X62.617 Y104.866 E6.11948
G1 X62.475 Y104.264 E6.15026
G1 X62.41 Y103.552 E6.18584
G1 X62.235 Y93.585 E6.68193
G1 X62.264 Y92.967 E6.71272
G1 X62.372 Y92.357 E6.74355
G1 X62.559 Y91.767 E6.77435
G1 X62.819 Y91.205 E6.80517
G1 X63.15 Y90.682 E6.83597
G1 X63.545 Y90.206 E6.86675
G1 X63.99 Y89.791 E6.89703
G1 X65.659 Y88.424 E7.00439
G1 X69.701 Y84.84 E7.27323
G1 X73.568 Y81.003 E7.54434
G1 X75.884 Y78.481 E7.71474
M204 S5000
G0 F2400 X76.178 Y78.751
M204 S200
G1 F1200 X76.607 Y78.342 E7.74423
G1 X77.088 Y77.995 E7.77375
G1 X77.611 Y77.716 E7.80325
G1 X78.166 Y77.509 E7.83273
G1 X78.745 Y77.38 E7.86225
G1 X79.338 Y77.329 E7.89187
G1 X90.533 Y77.131 E8.44908
G1 X91.125 Y77.16 E8.47858
G1 X91.708 Y77.269 E8.50809
G1 X92.271 Y77.455 E8.5376
G1 X92.812 Y77.721 E8.5676
G1 X96.166 Y79.66 E8.7604
G1 X100.996 Y82.16 E9.03106
G1 X105.965 Y84.386 E9.30202
G1 X108.461 Y85.379 E9.4357
G1 X110.974 Y86.296 E9.56883
G1 X115.872 Y87.905 E9.8254
G1 X116.294 Y88.068 E9.84791
G1 X116.871 Y88.326 E9.87936
G1 X117.488 Y88.663 E9.91435
G1 X118.296 Y89.193 E9.96244
G1 X118.853 Y89.626 E9.99755
G1 X119.478 Y90.198 E10.03971
G1 X120.061 Y90.851 E10.08328
G1 X120.781 Y91.838 E10.14408
G1 X121.098 Y92.339 E10.17358
G1 X121.272 Y92.701 E10.19357
G1 X121.83 Y94.007 E10.26425
G1 X122.026 Y94.567 E10.29377
G1 X122.111 Y94.935 E10.31257
G1 X122.278 Y95.837 E10.35822
G1 X122.35 Y96.559 E10.39433
G1 X122.366 Y97.459 E10.43912
G1 X122.32 Y98.18 E10.47508
G1 X122.187 Y99.079 E10.5203
G1 X122.019 Y99.795 E10.5569
G1 X121.738 Y100.66 E10.60217
G1 X121.456 Y101.331 E10.63839
G1 X121.036 Y102.138 E10.68366
G1 X120.653 Y102.747 E10.71946
G1 X120.109 Y103.472 E10.76457
G1 X119.617 Y104.024 E10.80137
G1 X118.96 Y104.647 E10.84643
G1 X118.406 Y105.093 E10.88182
G1 X117.664 Y105.597 E10.92646
G1 X117.039 Y105.951 E10.96221
G1 X116.213 Y106.333 E11.0075
G1 X115.456 Y106.602 E11.04748
G1 X114.47 Y106.854 E11.09812
G1 X113.671 Y106.981 E11.13839
G1 X112.187 Y107.079 E11.2124
G1 X111.961 Y107.089 E11.22366
G1 X87.917 Y107.439 E12.42034
G1 X85.026 Y107.564 E12.56435
G1 X84.91 Y107.567 E12.57013
G1 X67.279 Y107.864 E13.44767
G1 X66.687 Y107.834 E13.47716
G1 X66.104 Y107.725 E13.50668
G1 X65.542 Y107.538 E13.53616
G1 X65.01 Y107.278 E13.56562
G1 X64.517 Y106.948 E13.59515
G1 X64.073 Y106.555 E13.62466
G1 X63.687 Y106.105 E13.65416
G1 X63.364 Y105.608 E13.68366
G1 X63.111 Y105.072 E13.71315
G1 X62.932 Y104.507 E13.74265
G1 X62.832 Y103.923 E13.77214
G1 X62.809 Y103.545 E13.79098
G1 X62.634 Y93.578 E14.28707
G1 X62.663 Y92.986 E14.31657
G1 X62.772 Y92.404 E14.34603
G1 X62.958 Y91.841 E14.37554
G1 X63.219 Y91.308 E14.40508
G1 X63.548 Y90.816 E14.43453
G1 X63.941 Y90.372 E14.46404
G1 X64.243 Y90.1 E14.48426
G1 X65.908 Y88.736 E14.59138
G1 X69.983 Y85.124 E14.86237
G1 X73.85 Y81.285 E15.13354
G1 X76.178 Y78.751 E15.30479
M204 S5000
G0 F2400 X76.472 Y79.02
M204 S200
G1 F1200 X76.882 Y78.632 E15.33288
G1 X77.344 Y78.306 E15.36102
G1 X77.847 Y78.048 E15.38915
G1 X78.381 Y77.863 E15.41728
G1 X78.936 Y77.756 E15.4454
G1 X79.345 Y77.728 E15.46581
G1 X90.54 Y77.53 E16.02302
G1 X91.105 Y77.56 E16.05118
G1 X91.659 Y77.669 E16.07927
G1 X92.193 Y77.855 E16.10741
G1 X92.612 Y78.066 E16.13076
G1 X95.969 Y80.007 E16.32374
G1 X100.828 Y82.522 E16.59602
G1 X105.815 Y84.755 E16.86794
G1 X108.314 Y85.75 E17.0018
G1 X110.849 Y86.675 E17.1361
G1 X115.747 Y88.284 E17.39266
G1 X116.131 Y88.432 E17.41314
G1 X116.708 Y88.69 E17.4446
G1 X117.269 Y88.997 E17.47642
G1 X118.077 Y89.527 E17.52451
G1 X118.583 Y89.921 E17.55643
G1 X119.208 Y90.493 E17.59859
G1 X119.739 Y91.086 E17.6382
G1 X120.459 Y92.073 E17.699
G1 X120.759 Y92.552 E17.72713
G1 X120.905 Y92.858 E17.744
G1 X121.463 Y94.164 E17.81468
G1 X121.648 Y94.698 E17.8428
G1 X121.718 Y95.007 E17.85857
G1 X121.885 Y95.909 E17.90422
G1 X121.951 Y96.566 E17.93708
G1 X121.967 Y97.466 E17.98188
G1 X121.925 Y98.122 E18.01459
G1 X121.792 Y99.021 E18.05982
G1 X121.639 Y99.671 E18.09305
G1 X121.358 Y100.536 E18.13831
G1 X121.102 Y101.147 E18.17128
G1 X120.682 Y101.954 E18.21655
G1 X120.334 Y102.508 E18.24911
G1 X119.79 Y103.233 E18.29422
G1 X119.343 Y103.734 E18.32763
G1 X118.686 Y104.357 E18.37269
G1 X118.181 Y104.763 E18.40494
G1 X117.439 Y105.267 E18.44957
G1 X116.871 Y105.589 E18.48207
G1 X116.045 Y105.971 E18.52736
G1 X115.357 Y106.215 E18.56369
G1 X114.371 Y106.467 E18.61433
G1 X113.644 Y106.583 E18.65097
G1 X112.16 Y106.681 E18.72498
G1 X111.955 Y106.69 E18.73519
G1 X87.893 Y107.041 E19.93278
G1 X85.008 Y107.165 E20.07648
G1 X84.903 Y107.168 E20.08171
G1 X67.272 Y107.465 E20.95925
G1 X66.708 Y107.435 E20.98736
G1 X66.154 Y107.325 E21.01547
G1 X65.62 Y107.138 E21.04362
G1 X65.118 Y106.878 E21.07176
G1 X64.658 Y106.55 E21.09987
G1 X64.249 Y106.16 E21.128
G1 X63.899 Y105.716 E21.15613
G1 X63.615 Y105.228 E21.18423
G1 X63.403 Y104.704 E21.21236
G1 X63.267 Y104.155 E21.24051
G1 X63.208 Y103.538 E21.27135
G1 X63.033 Y93.571 E21.76744
G1 X63.063 Y93.007 E21.79555
G1 X63.172 Y92.452 E21.8237
G1 X63.358 Y91.919 E21.85179
G1 X63.618 Y91.417 E21.87993
G1 X63.946 Y90.957 E21.90804
G1 X64.496 Y90.409 E21.94668
G1 X66.155 Y89.049 E22.05344
G1 X70.256 Y85.414 E22.32616
G1 X74.133 Y81.567 E22.59796
G1 X76.472 Y79.02 E22.77005
M204 S5000
G0 F2400 X76.765 Y79.29
M204 S200
G1 F1200 X77.157 Y78.924 E22.79674
G1 X77.598 Y78.619 E22.82343
G1 X78.08 Y78.383 E22.85014
G1 X78.591 Y78.222 E22.8768
G1 X79.352 Y78.127 E22.91496
G1 X90.547 Y77.929 E23.47217
G1 X91.083 Y77.959 E23.49889
G1 X91.608 Y78.069 E23.52559
G1 X92.11 Y78.255 E23.55223
G1 X92.413 Y78.411 E23.56919
G1 X95.807 Y80.374 E23.76431
G1 X100.638 Y82.874 E24.03501
G1 X105.652 Y85.12 E24.30842
G1 X108.195 Y86.132 E24.44463
G1 X110.714 Y87.05 E24.57805
G1 X115.622 Y88.663 E24.83516
G1 X115.968 Y88.796 E24.8536
G1 X116.545 Y89.054 E24.88506
G1 X117.05 Y89.331 E24.91372
G1 X117.858 Y89.861 E24.96181
G1 X118.314 Y90.215 E24.99054
G1 X118.939 Y90.787 E25.0327
G1 X119.417 Y91.321 E25.06837
G1 X120.137 Y92.308 E25.12917
G1 X120.419 Y92.764 E25.15585
G1 X120.539 Y93.015 E25.16969
G1 X121.097 Y94.321 E25.24037
G1 X121.326 Y95.08 E25.27983
G1 X121.493 Y95.982 E25.32548
G1 X121.552 Y96.573 E25.35503
G1 X121.568 Y97.473 E25.39983
G1 X121.53 Y98.064 E25.4293
G1 X121.397 Y98.963 E25.47453
G1 X121.26 Y99.548 E25.50443
G1 X120.979 Y100.413 E25.54969
G1 X120.749 Y100.963 E25.57936
G1 X120.329 Y101.77 E25.62463
G1 X120.015 Y102.268 E25.65393
G1 X119.471 Y102.993 E25.69904
G1 X119.068 Y103.445 E25.72917
G1 X118.411 Y104.068 E25.77423
G1 X117.957 Y104.433 E25.80322
G1 X117.215 Y104.937 E25.84786
G1 X116.704 Y105.227 E25.8771
G1 X115.878 Y105.609 E25.92239
G1 X115.258 Y105.829 E25.95513
G1 X114.272 Y106.081 E26.00578
G1 X113.618 Y106.185 E26.03873
G1 X112.134 Y106.283 E26.11274
G1 X111.949 Y106.291 E26.12196
G1 X87.906 Y106.641 E27.3186
G1 X84.991 Y106.767 E27.4638
G1 X84.897 Y106.769 E27.46848
G1 X67.266 Y107.066 E28.34602
G1 X66.73 Y107.036 E28.37273
G1 X66.206 Y106.925 E28.39939
G1 X65.703 Y106.739 E28.42608
G1 X65.234 Y106.479 E28.45277
G1 X64.808 Y106.153 E28.47946
G1 X64.436 Y105.767 E28.50614
G1 X64.125 Y105.33 E28.53283
G1 X63.883 Y104.852 E28.55949
G1 X63.714 Y104.343 E28.58619
G1 X63.623 Y103.814 E28.6129
G1 X63.607 Y103.531 E28.627
G1 X63.432 Y93.564 E29.12309
G1 X63.462 Y93.029 E29.14976
G1 X63.572 Y92.504 E29.17645
G1 X63.758 Y92.001 E29.20314
G1 X64.018 Y91.532 E29.22983
G1 X64.344 Y91.106 E29.25652
G1 X64.749 Y90.717 E29.28447
G1 X66.44 Y89.331 E29.39328
G1 X70.53 Y85.706 E29.66526
G1 X74.404 Y81.86 E29.93692
G1 X76.765 Y79.29 E30.1106
M204 S5000
G0 F2400 X77.059 Y79.56
M204 S200
G1 F1200 X77.43 Y79.216 E30.13578
G1 X77.85 Y78.935 E30.16093
G1 X78.309 Y78.723 E30.18609
G1 X78.795 Y78.586 E30.21121
G1 X79.359 Y78.526 E30.23944
G1 X90.554 Y78.328 E30.79665
G1 X91.059 Y78.359 E30.82183
G1 X91.552 Y78.469 E30.84697
G1 X92.213 Y78.757 E30.88285
G1 X95.594 Y80.712 E31.07721
G1 X100.484 Y83.243 E31.35123
G1 X105.482 Y85.481 E31.62375
G1 X108.059 Y86.507 E31.76179
G1 X110.569 Y87.422 E31.89474
G1 X115.498 Y89.042 E32.15295
G1 X115.805 Y89.161 E32.16933
G1 X116.382 Y89.419 E32.20079
G1 X116.831 Y89.664 E32.22624
G1 X117.639 Y90.194 E32.27433
G1 X118.044 Y90.509 E32.29986
G1 X118.669 Y91.081 E32.34203
G1 X119.094 Y91.556 E32.37375
G1 X119.814 Y92.543 E32.43455
G1 X120.172 Y93.172 E32.47056
G1 X120.73 Y94.478 E32.54124
G1 X120.934 Y95.152 E32.57628
G1 X121.101 Y96.054 E32.62194
G1 X121.153 Y96.58 E32.64824
G1 X121.169 Y97.48 E32.69304
G1 X121.136 Y98.005 E32.71921
G1 X121.003 Y98.904 E32.76444
G1 X120.88 Y99.425 E32.79108
G1 X120.599 Y100.29 E32.83634
G1 X120.395 Y100.778 E32.86267
G1 X119.975 Y101.585 E32.90794
G1 X119.696 Y102.029 E32.93404
G1 X119.152 Y102.754 E32.97914
G1 X118.794 Y103.155 E33.00589
G1 X118.137 Y103.778 E33.05095
G1 X117.733 Y104.103 E33.07676
G1 X116.991 Y104.607 E33.1214
G1 X116.536 Y104.864 E33.1474
G1 X115.71 Y105.246 E33.19269
G1 X115.159 Y105.442 E33.22179
G1 X114.173 Y105.694 E33.27244
G1 X113.592 Y105.787 E33.30172
G1 X112.108 Y105.885 E33.37573
G1 X111.944 Y105.892 E33.3839
G1 X87.882 Y106.243 E34.58149
G1 X84.974 Y106.368 E34.72634
G1 X84.89 Y106.371 E34.73052
G1 X67.259 Y106.668 E35.60806
G1 X66.754 Y106.636 E35.63324
G1 X66.261 Y106.526 E35.65838
G1 X65.791 Y106.339 E35.68356
G1 X65.357 Y106.08 E35.70871
G1 X64.968 Y105.757 E35.73387
G1 X64.636 Y105.376 E35.75902
G1 X64.367 Y104.947 E35.78422
G1 X64.17 Y104.482 E35.80935
G1 X64.048 Y103.991 E35.83453
G1 X64.005 Y103.524 E35.85787
G1 X63.83 Y93.557 E36.35396
G1 X63.862 Y93.053 E36.37909
G1 X63.972 Y92.559 E36.40427
G1 X64.158 Y92.089 E36.42943
G1 X64.416 Y91.655 E36.45456
G1 X64.74 Y91.266 E36.47975
G1 X65.002 Y91.026 E36.49743
G1 X66.667 Y89.661 E36.60458
G1 X70.811 Y85.988 E36.88015
G1 X74.697 Y82.131 E37.15263
G1 X77.059 Y79.56 E37.32637
M204 S5000
G1 F1500 E35.32637
G0 F2400 X79.059 Y81.239
G0 X79.12 Y81.291
G0 X83.568 Y85.027
G0 X83.629 Y85.079
G0 X83.878 Y85.289
M204 S200
;TYPE:SUPPORT
G1 F1500 E37.32637
G1 F1200 X84.377 Y85.282 E37.35121
G1 X84.431 Y88.267 E37.49978
G1 X83.93 Y88.276 E37.52472
G1 X83.878 Y85.289 E37.67339
M204 S5000
G0 F2400 X84.085 Y87.978
M204 S200
G1 F1200 X84.266 Y87.978 E37.6824
M204 S5000
G1 F1500 E35.6824
G0 F2400 X84.66 Y88.008
G0 X84.74 Y88.014
G0 X87.013 Y88.19
G0 X87.093 Y88.196
G0 X87.329 Y88.215
M204 S200
G1 F1500 E37.6824
G1 F1200 X87.285 Y85.691 E37.80803
G1 X87.784 Y85.689 E37.83286
G1 X87.829 Y88.207 E37.95819
G1 X87.329 Y88.215 E37.98307
M204 S5000
G0 F2400 X87.485 Y87.978
M204 S200
G1 F1200 X87.665 Y87.978 E37.99203
M204 S5000
G1 F1500 E35.99203
G0 F2400 X87.744 Y88.441
G0 X87.758 Y88.52
G0 X88.237 Y91.284
G0 X88.25 Y91.363
G0 X88.294 Y91.609
M204 S200
G1 F1500 E37.99203
G1 F1200 X88.466 Y91.603 E38.0006
G1 X88.531 Y93.291 E38.08466
G1 X88.815 Y94.637 E38.15312
G1 X88.838 Y94.717 E38.15726
G1 X89.339 Y95.992 E38.22544
G1 X90.053 Y97.183 E38.29454
G1 X90.39 Y97.573 E38.32019
G1 X85.995 Y97.65 E38.53895
G1 X85.962 Y96.062 E38.61799
G1 X85.907 Y95.53 E38.64461
G1 X85.767 Y94.988 E38.67247
G1 X85.738 Y94.907 E38.67675
G1 X85.533 Y94.438 E38.70222
G1 X85.493 Y94.363 E38.70645
G1 X85.198 Y93.898 E38.73386
G1 X84.801 Y93.446 E38.76379
G1 X84.737 Y93.386 E38.76816
G1 X84.33 Y93.052 E38.79436
G1 X83.846 Y92.76 E38.82249
G1 X83.771 Y92.723 E38.82665
G1 X83.254 Y92.514 E38.8544
G1 X83.167 Y92.487 E38.85894
G1 X82.655 Y92.375 E38.88502
G1 X82.571 Y92.364 E38.88924
G1 X82.001 Y92.331 E38.91765
G1 X80.869 Y92.351 E38.97399
G1 X80.989 Y92.171 E38.98476
G1 X81.212 Y91.722 E39.00971
G1 X88.281 Y91.597 E39.36156
G1 X88.294 Y91.609 E39.36244
M204 S5000
G0 F2400 X87.978 Y91.762
M204 S200
G1 F1200 X87.978 Y97.456 E39.6458
M204 S5000
G0 F2400 X89.161 Y95.976
M204 S200
G1 F1200 X86.114 Y95.976 E39.79744
M204 S5000
G0 F2400 X85.312 Y93.784
M204 S200
G1 F1200 X85.312 Y91.809 E39.89572
M204 S5000
G0 F2400 X84.89 Y93.31
M204 S200
G1 F1200 X88.372 Y93.31 E40.06901
M204 S5000
G0 F2400 X82.646 Y92.213
M204 S200
G1 F1200 X82.646 Y91.856 E40.08677
M204 S5000
G1 F1500 E38.08677
G0 F2400 X82.413 Y92.589
G0 X82.389 Y92.665
G0 X81.514 Y95.429
G0 X81.49 Y95.506
G0 X81.418 Y95.739
M204 S200
G1 F1500 E40.08677
G1 F1200 X81.643 Y95.753 E40.09799
G1 X81.795 Y95.787 E40.10574
G1 X81.961 Y95.853 E40.11463
G1 X82.109 Y95.939 E40.12315
G1 X82.247 Y96.053 E40.13206
G1 X82.355 Y96.176 E40.14021
G1 X82.451 Y96.326 E40.14907
G1 X82.519 Y96.481 E40.15749
G1 X82.563 Y96.649 E40.16613
G1 X82.583 Y96.849 E40.17614
G1 X82.631 Y99.558 E40.31097
G1 X82.617 Y99.794 E40.32274
G1 X82.585 Y99.933 E40.32984
G1 X82.497 Y100.145 E40.34126
G1 X82.419 Y100.271 E40.34863
G1 X82.313 Y100.398 E40.35687
G1 X82.192 Y100.506 E40.36494
G1 X82.043 Y100.6 E40.3737
G1 X81.859 Y100.675 E40.38359
G1 X81.727 Y100.709 E40.39038
G1 X81.564 Y100.722 E40.39851
G1 X70.741 Y100.922 E40.93722
G1 X70.525 Y100.908 E40.94799
G1 X70.478 Y100.898 E40.95038
G1 X70.386 Y100.878 E40.95507
G1 X70.196 Y100.807 E40.96516
G1 X70.044 Y100.714 E40.97403
G1 X69.911 Y100.607 E40.98252
G1 X69.817 Y100.501 E40.98957
G1 X69.705 Y100.329 E40.99979
G1 X69.645 Y100.192 E41.00723
G1 X69.594 Y99.977 E41.01823
G1 X69.586 Y99.885 E41.02282
G1 X69.532 Y97.053 E41.16379
G1 X69.546 Y96.864 E41.17322
G1 X69.586 Y96.7 E41.18162
G1 X69.65 Y96.542 E41.1901
G1 X69.739 Y96.392 E41.19878
G1 X69.854 Y96.257 E41.20761
G1 X69.984 Y96.146 E41.21611
G1 X70.128 Y96.056 E41.22456
G1 X70.28 Y95.992 E41.23277
G1 X70.438 Y95.951 E41.24089
G1 X70.571 Y95.94 E41.24754
G1 X81.418 Y95.739 E41.78744
M204 S5000
G0 F2400 X81.837 Y95.976
M204 S200
G1 F1200 X77.26 Y95.976 E42.01521
M204 S5000
G0 F2400 X77.314 Y95.974
M204 S200
G1 F1200 X77.314 Y100.641 E42.24747
M204 S5000
G0 F2400 X74.648 Y100.69
M204 S200
G1 F1200 X74.648 Y96.024 E42.47967
M204 S5000
G0 F2400 X71.982 Y96.073
