;FLAVOR:Marlin
;TIME:1744
;Filament used: 1.05344m
;Layer height: 0.15
;Generated with Cura_SteamEngine 2.7.0
M190 S60
M104 S220
M109 S220
G21 ;metric values
G90 ;absolute positioning
M82 ;set extruder to absolute mode
M107 ;start with the fan off
G92 E0 ;zero the extruded length
G1 F200 E3 ;extrude 3mm of feed stock
G92 E0 ;zero the extruded length again
G1 F9000
M301 P26.92 I2.54 D71.46 ;set PID tuning for E0
M117 Printing...
;LAYER_COUNT:32
;LAYER:0
M107
G0 F2400 X76.096 Y76.971 Z0.3
;TYPE:SKIRT
G1 F1200 X77.922 Y75.277 E0.12395
G1 X78.552 Y74.784 E0.16376
G1 X81.387 Y72.923 E0.33253
G1 X82.068 Y72.551 E0.37115
G1 X84.781 Y71.343 E0.51894
G1 X85.544 Y71.077 E0.55915
G1 X88.936 Y70.21 E0.73339
G1 X89.545 Y70.096 E0.76422
G1 X89.891 Y70.067 E0.7815
G1 X92.989 Y69.916 E0.93585
G1 X93.806 Y69.946 E0.97654
G1 X96.836 Y70.318 E1.12846
G1 X97.445 Y70.433 E1.15931
G1 X97.75 Y70.522 E1.17512
G1 X100.812 Y71.529 E1.33553
G1 X101.453 Y71.792 E1.37001
G1 X102.587 Y72.357 E1.43306
G1 X103.919 Y73.013 E1.50695
G1 X104.637 Y73.449 E1.54875
G1 X107.027 Y75.202 E1.69626
G1 X107.641 Y75.738 E1.73682
G1 X110.026 Y78.209 E1.90772
G1 X110.426 Y78.682 E1.93855
G1 X110.646 Y79.005 E1.958
G1 X112.023 Y81.216 E2.08763
G1 X112.328 Y81.788 E2.11989
G1 X113.865 Y85.214 E2.30675
G1 X114.081 Y85.794 E2.33755
G1 X114.188 Y86.216 E2.35922
G1 X114.795 Y89.185 E2.51003
G1 X114.879 Y89.793 E2.54058
G1 X115.043 Y92.012 E2.65131
G1 X115.037 Y92.791 E2.69007
G1 X114.701 Y96.561 E2.87843
G1 X114.606 Y97.173 E2.90925
G1 X114.506 Y97.552 E2.92876
G1 X113.568 Y100.586 E3.0868
G1 X113.222 Y101.417 E3.1316
G1 X111.78 Y104.134 E3.28467
G1 X111.493 Y104.607 E3.31221
G1 X110.068 Y106.675 E3.43719
G1 X109.685 Y107.161 E3.46798
G1 X109.428 Y107.426 E3.48635
G1 X106.846 Y109.887 E3.66387
G1 X106.119 Y110.456 E3.70981
G1 X103.626 Y112.049 E3.85704
G1 X103.045 Y112.367 E3.89
G1 X99.961 Y113.783 E4.05888
G1 X99.383 Y114.004 E4.08968
G1 X98.98 Y114.11 E4.11042
G1 X96.558 Y114.637 E4.23377
G1 X95.972 Y114.727 E4.26327
G1 X93.245 Y114.975 E4.39954
G1 X92.48 Y114.984 E4.43762
G1 X88.751 Y114.726 E4.62364
G1 X88.137 Y114.643 E4.65447
G1 X87.712 Y114.537 E4.67627
G1 X84.398 Y113.549 E4.84836
G1 X83.817 Y113.334 E4.87919
G1 X83.38 Y113.112 E4.90359
G1 X80.403 Y111.403 E5.07441
G1 X79.956 Y111.112 E5.10096
G1 X78.364 Y109.945 E5.19919
G1 X77.836 Y109.496 E5.23368
G1 X75.068 Y106.773 E5.42692
G1 X74.655 Y106.311 E5.45775
G1 X74.267 Y105.734 E5.49236
G1 X72.359 Y102.396 E5.6837
G1 X72.165 Y102.019 E5.7048
G1 X71.465 Y100.496 E5.78821
G1 X71.177 Y99.685 E5.83104
G1 X70.245 Y96.052 E6.01769
G1 X70.11 Y95.236 E6.05885
G1 X69.957 Y93.289 E6.15605
G1 X69.96 Y92.495 E6.19556
G1 X70.323 Y88.341 E6.40307
G1 X70.417 Y87.73 E6.43384
G1 X70.513 Y87.363 E6.45272
G1 X70.88 Y86.157 E6.51545
G1 X70.91 Y86.06 E6.5205
G1 X71.381 Y84.622 E6.59581
G1 X71.628 Y84.013 E6.62851
G1 X73.168 Y80.855 E6.80336
G1 X73.475 Y80.317 E6.83419
G1 X73.662 Y80.053 E6.85029
G1 X75.541 Y77.583 E7.00474
G1 X76.096 Y76.971 E7.04585
G0 F2400 X76.368 Y77.264
G1 F1200 X78.194 Y75.57 E7.16981
G1 X78.771 Y75.117 E7.20631
G1 X81.606 Y73.256 E7.37508
G1 X82.23 Y72.915 E7.41047
G1 X84.943 Y71.707 E7.55826
G1 X85.643 Y71.464 E7.59513
G1 X89.035 Y70.597 E7.76937
G1 X89.91 Y70.465 E7.8134
G1 X93.008 Y70.314 E7.96776
G1 X93.758 Y70.342 E8.00511
G1 X96.788 Y70.714 E8.15703
G1 X97.626 Y70.901 E8.19976
G1 X100.688 Y71.908 E8.36017
G1 X101.275 Y72.149 E8.39175
G1 X102.411 Y72.715 E8.45491
G1 X103.743 Y73.371 E8.5288
G1 X104.401 Y73.77 E8.5671
G1 X106.791 Y75.523 E8.7146
G1 X107.354 Y76.015 E8.75181
G1 X109.739 Y78.486 E8.92272
G1 X110.121 Y78.94 E8.95225
G1 X110.307 Y79.216 E8.96881
G1 X111.684 Y81.427 E9.09843
G1 X111.964 Y81.951 E9.128
G1 X113.501 Y85.377 E9.31487
G1 X113.706 Y85.933 E9.34436
G1 X113.797 Y86.296 E9.36298
G1 X114.404 Y89.265 E9.51379
G1 X114.481 Y89.822 E9.54178
G1 X114.645 Y92.041 E9.65251
G1 X114.64 Y92.755 E9.68804
G1 X114.304 Y96.525 E9.8764
G1 X114.211 Y97.111 E9.90593
G1 X114.125 Y97.434 E9.92256
G1 X113.187 Y100.468 E10.0806
G1 X112.87 Y101.23 E10.12167
G1 X111.428 Y103.947 E10.27475
G1 X111.165 Y104.381 E10.3
G1 X109.74 Y106.449 E10.42499
G1 X109.371 Y106.913 E10.45449
G1 X109.153 Y107.137 E10.47004
G1 X106.571 Y109.598 E10.64756
G1 X105.905 Y110.12 E10.68967
G1 X103.412 Y111.713 E10.8369
G1 X102.879 Y112.004 E10.86712
G1 X99.795 Y113.42 E11.036
G1 X99.241 Y113.63 E11.06548
G1 X98.895 Y113.72 E11.08328
G1 X96.473 Y114.247 E11.20663
G1 X95.936 Y114.33 E11.23367
G1 X93.209 Y114.578 E11.36994
G1 X92.508 Y114.586 E11.40483
G1 X88.779 Y114.328 E11.59085
G1 X88.191 Y114.247 E11.62039
G1 X87.826 Y114.155 E11.63912
G1 X84.512 Y113.167 E11.81121
G1 X83.956 Y112.959 E11.84076
G1 X83.579 Y112.766 E11.86183
G1 X80.602 Y111.057 E12.03266
G1 X80.191 Y110.79 E12.05705
G1 X78.599 Y109.623 E12.15529
G1 X78.115 Y109.212 E12.18689
G1 X75.347 Y106.489 E12.38012
G1 X74.954 Y106.045 E12.40963
G1 X74.614 Y105.536 E12.44009
G1 X72.706 Y102.198 E12.63143
G1 X72.528 Y101.852 E12.65079
G1 X71.828 Y100.329 E12.73421
G1 X71.564 Y99.586 E12.77345
G1 X70.632 Y95.953 E12.9601
G1 X70.508 Y95.204 E12.99788
G1 X70.355 Y93.257 E13.09507
G1 X70.358 Y92.53 E13.13125
G1 X70.721 Y88.376 E13.33877
G1 X70.812 Y87.791 E13.36823
G1 X70.894 Y87.479 E13.38428
G1 X71.261 Y86.273 E13.44702
G1 X71.289 Y86.184 E13.45166
G1 X71.76 Y84.746 E13.52696
G1 X71.987 Y84.188 E13.55694
G1 X73.527 Y81.03 E13.73179
G1 X73.98 Y80.295 E13.77476
G1 X75.859 Y77.825 E13.92921
G1 X76.368 Y77.264 E13.9669
G0 F2400 X76.639 Y77.556
G1 F1200 X78.465 Y75.862 E14.09086
G1 X78.99 Y75.451 E14.12404
G1 X81.825 Y73.59 E14.29281
G1 X82.393 Y73.28 E14.32501
G1 X85.106 Y72.072 E14.4728
G1 X85.742 Y71.851 E14.50631
G1 X89.134 Y70.984 E14.68054
G1 X89.929 Y70.864 E14.72055
G1 X93.027 Y70.713 E14.87491
G1 X93.709 Y70.738 E14.90887
G1 X96.739 Y71.11 E15.06079
G1 X97.501 Y71.28 E15.09965
G1 X100.563 Y72.287 E15.26006
G1 X101.097 Y72.507 E15.2888
G1 X102.234 Y73.073 E15.35201
G1 X103.566 Y73.729 E15.4259
G1 X104.165 Y74.092 E15.46075
G1 X106.555 Y75.845 E15.60826
G1 X107.067 Y76.292 E15.64208
G1 X109.452 Y78.763 E15.81299
G1 X109.969 Y79.426 E15.85483
G1 X111.346 Y81.637 E15.98445
G1 X111.6 Y82.115 E16.01139
G1 X113.137 Y85.541 E16.19826
G1 X113.331 Y86.071 E16.22635
G1 X113.406 Y86.376 E16.24198
G1 X114.013 Y89.345 E16.39279
G1 X114.083 Y89.851 E16.41821
G1 X114.247 Y92.07 E16.52894
G1 X114.242 Y92.72 E16.56129
G1 X113.906 Y96.49 E16.74965
G1 X113.744 Y97.316 E16.79154
G1 X112.806 Y100.35 E16.94958
G1 X112.517 Y101.043 E16.98694
G1 X111.075 Y103.76 E17.14002
G1 X110.836 Y104.154 E17.16295
G1 X109.411 Y106.222 E17.28793
G1 X108.877 Y106.848 E17.32888
G1 X106.295 Y109.309 E17.50639
G1 X105.69 Y109.784 E17.54467
G1 X103.197 Y111.377 E17.6919
G1 X102.712 Y111.641 E17.71938
G1 X99.628 Y113.057 E17.88826
G1 X99.099 Y113.256 E17.91639
G1 X98.81 Y113.331 E17.93125
G1 X96.388 Y113.858 E18.0546
G1 X95.9 Y113.933 E18.07917
G1 X93.173 Y114.181 E18.21544
G1 X92.535 Y114.187 E18.24719
G1 X88.806 Y113.929 E18.43321
G1 X88.246 Y113.851 E18.46135
G1 X87.94 Y113.772 E18.47708
G1 X84.626 Y112.784 E18.64918
G1 X84.097 Y112.585 E18.6773
G1 X83.778 Y112.42 E18.69518
G1 X80.801 Y110.711 E18.866
G1 X80.427 Y110.468 E18.8882
G1 X78.835 Y109.301 E18.98643
G1 X78.395 Y108.927 E19.01517
G1 X75.627 Y106.204 E19.2084
G1 X75.253 Y105.78 E19.23654
G1 X74.96 Y105.338 E19.26293
G1 X73.052 Y102 E19.45427
G1 X72.89 Y101.686 E19.47185
G1 X72.19 Y100.163 E19.55527
G1 X71.95 Y99.486 E19.59101
G1 X71.018 Y95.853 E19.77767
G1 X70.905 Y95.173 E19.81197
G1 X70.752 Y93.226 E19.90916
G1 X70.755 Y92.565 E19.94206
G1 X71.118 Y88.411 E20.14957
G1 X71.276 Y87.595 E20.19093
G1 X71.643 Y86.389 E20.25367
G1 X71.669 Y86.309 E20.25786
G1 X72.14 Y84.871 E20.33316
G1 X72.346 Y84.363 E20.36044
G1 X73.886 Y81.205 E20.53529
G1 X74.297 Y80.536 E20.57436
G1 X76.176 Y78.066 E20.72881
G1 X76.639 Y77.556 E20.76309
G0 F2400 X76.91 Y77.849
G1 F1200 X78.736 Y76.155 E20.88704
G1 X79.209 Y75.784 E20.91696
G1 X82.044 Y73.923 E21.08573
G1 X82.555 Y73.644 E21.1147
G1 X85.268 Y72.436 E21.26249
G1 X85.841 Y72.237 E21.29268
G1 X89.233 Y71.37 E21.46691
G1 X89.949 Y71.262 E21.50295
G1 X93.047 Y71.111 E21.6573
G1 X93.661 Y71.134 E21.68788
G1 X96.691 Y71.506 E21.8398
G1 X97.376 Y71.659 E21.87473
G1 X100.438 Y72.666 E22.03514
G1 X100.919 Y72.864 E22.06103
G1 X102.058 Y73.431 E22.12434
G1 X103.39 Y74.087 E22.19824
G1 X103.929 Y74.414 E22.22961
G1 X106.319 Y76.167 E22.37711
G1 X106.78 Y76.57 E22.40758
G1 X109.165 Y79.041 E22.57849
G1 X109.63 Y79.637 E22.61611
G1 X111.007 Y81.848 E22.74574
G1 X111.236 Y82.278 E22.76998
G1 X112.773 Y85.704 E22.95685
G1 X113.015 Y86.456 E22.99616
G1 X113.622 Y89.425 E23.14697
G1 X113.685 Y89.881 E23.16988
G1 X113.849 Y92.1 E23.28061
G1 X113.845 Y92.684 E23.30968
G1 X113.509 Y96.454 E23.49804
G1 X113.362 Y97.198 E23.53578
G1 X112.424 Y100.232 E23.69382
G1 X112.165 Y100.856 E23.72744
G1 X110.723 Y103.573 E23.88052
G1 X110.508 Y103.928 E23.90117
G1 X109.083 Y105.996 E24.02615
G1 X108.602 Y106.559 E24.063
G1 X106.02 Y109.02 E24.24051
G1 X105.475 Y109.448 E24.275
G1 X102.982 Y111.041 E24.42223
G1 X102.546 Y111.279 E24.44695
G1 X99.462 Y112.695 E24.61583
G1 X98.725 Y112.941 E24.6545
G1 X96.303 Y113.468 E24.77785
G1 X95.864 Y113.535 E24.79995
G1 X93.137 Y113.783 E24.93622
G1 X92.563 Y113.789 E24.96479
G1 X88.834 Y113.531 E25.15081
G1 X88.054 Y113.39 E25.19025
G1 X84.74 Y112.402 E25.36235
G1 X84.239 Y112.211 E25.38903
G1 X83.976 Y112.074 E25.40379
G1 X80.999 Y110.365 E25.57462
G1 X80.663 Y110.147 E25.59455
G1 X79.071 Y108.98 E25.69278
G1 X78.675 Y108.643 E25.71866
G1 X75.907 Y105.92 E25.91189
G1 X75.554 Y105.516 E25.93859
G1 X75.306 Y105.14 E25.96101
G1 X73.398 Y101.802 E26.15235
G1 X73.253 Y101.519 E26.16817
G1 X72.553 Y99.996 E26.25159
G1 X72.337 Y99.387 E26.28374
G1 X71.405 Y95.754 E26.4704
G1 X71.303 Y95.142 E26.50127
G1 X71.15 Y93.195 E26.59847
G1 X71.153 Y92.6 E26.62808
G1 X71.516 Y88.446 E26.83559
G1 X71.658 Y87.711 E26.87284
G1 X72.025 Y86.505 E26.93558
G1 X72.048 Y86.433 E26.93934
G1 X72.519 Y84.995 E27.01464
G1 X72.704 Y84.538 E27.03918
G1 X74.244 Y81.38 E27.21403
G1 X74.615 Y80.778 E27.24922
G1 X76.494 Y78.308 E27.40367
G1 X76.91 Y77.849 E27.43449
G0 F2400 X77.182 Y78.141
G1 F1200 X79.008 Y76.447 E27.55845
G1 X79.428 Y76.118 E27.585
G1 X82.263 Y74.257 E27.75377
G1 X82.717 Y74.009 E27.77951
G1 X85.43 Y72.801 E27.9273
G1 X85.94 Y72.624 E27.95417
G1 X89.332 Y71.757 E28.1284
G1 X89.968 Y71.661 E28.16041
G1 X93.066 Y71.51 E28.31477
G1 X93.612 Y71.53 E28.34196
G1 X96.642 Y71.902 E28.49388
G1 X97.252 Y72.038 E28.52498
G1 X100.314 Y73.045 E28.68539
G1 X100.741 Y73.221 E28.70838
G1 X101.882 Y73.789 E28.77181
G1 X103.214 Y74.445 E28.8457
G1 X103.693 Y74.736 E28.87359
G1 X106.083 Y76.489 E29.02109
G1 X106.492 Y76.847 E29.04814
G1 X108.877 Y79.318 E29.21905
G1 X109.291 Y79.848 E29.25252
G1 X110.668 Y82.059 E29.38214
G1 X110.872 Y82.441 E29.40369
G1 X112.409 Y85.867 E29.59056
G1 X112.624 Y86.536 E29.62553
G1 X113.231 Y89.505 E29.77634
G1 X113.287 Y89.91 E29.79669
G1 X113.451 Y92.129 E29.90742
G1 X113.447 Y92.649 E29.9333
G1 X113.111 Y96.419 E30.12166
G1 X112.981 Y97.08 E30.15518
G1 X112.043 Y100.114 E30.31322
G1 X111.813 Y100.669 E30.34312
G1 X110.371 Y103.386 E30.4962
G1 X110.179 Y103.702 E30.5146
G1 X108.754 Y105.77 E30.63958
G1 X108.327 Y106.27 E30.6723
G1 X105.745 Y108.731 E30.84981
G1 X105.26 Y109.112 E30.88051
G1 X102.767 Y110.705 E31.02774
G1 X102.379 Y110.916 E31.04972
G1 X99.295 Y112.332 E31.2186
G1 X98.64 Y112.551 E31.25297
G1 X96.218 Y113.078 E31.37632
G1 X95.828 Y113.138 E31.39596
G1 X93.101 Y113.386 E31.53223
G1 X92.59 Y113.391 E31.55766
G1 X88.861 Y113.133 E31.74368
G1 X88.168 Y113.008 E31.77872
G1 X84.854 Y112.02 E31.95082
G1 X84.175 Y111.728 E31.9876
G1 X81.198 Y110.019 E32.15843
G1 X80.899 Y109.825 E32.17617
G1 X79.307 Y108.658 E32.2744
G1 X78.955 Y108.358 E32.29742
G1 X76.187 Y105.635 E32.49065
G1 X75.856 Y105.253 E32.5158
G1 X75.653 Y104.942 E32.53429
G1 X73.745 Y101.604 E32.72562
G1 X73.615 Y101.352 E32.73974
G1 X72.915 Y99.829 E32.82315
G1 X72.723 Y99.288 E32.85172
G1 X71.791 Y95.655 E33.03837
G1 X71.701 Y95.111 E33.06581
G1 X71.548 Y93.164 E33.163
G1 X71.55 Y92.634 E33.18938
G1 X71.913 Y88.48 E33.39689
G1 X72.04 Y87.827 E33.43
G1 X72.407 Y86.621 E33.49273
G1 X72.427 Y86.557 E33.49607
G1 X72.898 Y85.119 E33.57138
G1 X73.063 Y84.712 E33.59323
G1 X74.603 Y81.554 E33.76808
G1 X74.932 Y81.02 E33.79929
G1 X76.811 Y78.55 E33.95374
G1 X77.182 Y78.141 E33.98122
G0 F2400 X79.396 Y81.198
;TYPE:SUPPORT
G1 F1200 X79.428 Y81.269 E33.9851
G1 X79.081 Y81.192 E34.00279
G1 X79.29 Y80.903 E34.02053
G1 X79.396 Y81.198 E34.03613
G1 F1500 E33.03613
G0 F2400 X79.34 Y80.348
G0 X79.452 Y79.855
G0 X80.153 Y79.166
G0 X81.301 Y78.941
G1 F1500 E34.03613
G1 F1200 X81.502 Y78.804 E34.04824
G1 X81.569 Y79.16 E34.06627
G1 X81.223 Y79.019 E34.08486
G1 X81.301 Y78.941 E34.09035
G1 F1500 E33.09035
G0 F2400 X81.838 Y77.776
G0 X82.657 Y77.216
G0 X83.164 Y77.198
G0 X83.787 Y77.299
G1 F1500 E34.09035
G1 F1200 X84.041 Y77.144 E34.10516
G1 X84.045 Y77.457 E34.12074
G1 X83.787 Y77.299 E34.13579
G1 F1500 E33.13579
G0 F2400 X84.551 Y76.141
G0 X85.456 Y75.731
G0 X85.957 Y75.804
G0 X86.548 Y76.008
G1 F1500 E34.13579
G1 F1200 X86.83 Y75.895 E34.15091
G1 X86.779 Y76.212 E34.16689
G1 X86.548 Y76.008 E34.18223
G1 F1500 E33.18223
G0 F2400 X87.507 Y75.003
G0 X88.462 Y74.758
G0 X88.939 Y74.909
G0 X89.485 Y75.197
G1 F1500 E34.18223
G1 F1200 X89.806 Y75.123 E34.19862
G1 X89.686 Y75.464 E34.21661
G1 X89.485 Y75.197 E34.23324
G1 F1500 E33.23324
G0 F2400 X90.613 Y74.394
G0 X91.597 Y74.318
G0 X92.036 Y74.549
G0 X92.523 Y74.926
G1 F1500 E34.23324
G1 F1200 X92.859 Y74.911 E34.24998
G1 X92.682 Y75.227 E34.268
G1 X92.523 Y74.926 E34.28494
G1 F1500 E33.28494
G0 F2400 X93.779 Y74.335
G0 X94.756 Y74.43
G0 X95.145 Y74.724
G0 X95.568 Y75.186
G1 F1500 E34.28494
G1 F1200 X95.907 Y75.227 E34.30194
G1 X95.675 Y75.509 E34.32011
G1 X95.568 Y75.186 E34.33704
G1 F1500 E33.33704
G0 F2400 X96.909 Y74.83
G0 X97.855 Y75.088
G0 X98.191 Y75.459
G0 X98.529 Y76.008
G1 F1500 E34.33704
G1 F1200 X98.817 Y76.101 E34.35211
G1 X98.565 Y76.317 E34.36862
G1 X98.529 Y76.008 E34.3841
G1 F1500 E33.3841
G0 F2400 X99.903 Y75.855
G0 X100.8 Y76.283
G0 X101.065 Y76.717
G0 X101.288 Y77.314
G1 F1500 E34.3841
G1 F1200 X101.578 Y77.43 E34.39965
G1 X101.281 Y77.608 E34.41688
G1 X101.288 Y77.314 E34.43152
G1 F1500 E33.43152
G0 F2400 X102.676 Y77.392
G0 X103.479 Y77.965
G0 X103.669 Y78.437
G0 X103.795 Y79.017
G1 F1500 E34.43152
G1 F1200 X104.074 Y79.221 E34.44872
G1 X103.729 Y79.35 E34.46705
G1 X103.795 Y79.017 E34.48394
G1 F1500 E33.48394
G0 F2400 X105.135 Y79.379
G0 X105.831 Y80.085
G0 X105.935 Y80.582
G0 X105.91 Y81.475
G1 F1500 E34.48394
G1 F1200 X105.832 Y81.495 E34.48795
G1 X105.959 Y81.173 E34.50517
G1 X106.203 Y81.426 E34.52266
G1 X105.91 Y81.475 E34.53745
G1 F1500 E33.53745
G0 F2400 X106.748 Y81.57
G0 X107.215 Y81.764
G0 X107.776 Y82.58
G0 X107.794 Y83.077
G0 X107.7 Y83.714
G1 F1500 E34.53745
G1 F1200 X107.856 Y83.967 E34.55224
G1 X107.53 Y83.971 E34.56847
G1 X107.7 Y83.714 E34.5838
G1 F1500 E33.5838
G0 F2400 X108.851 Y84.477
G0 X109.259 Y85.377
G0 X109.194 Y85.865
G0 X109.002 Y86.459
G1 F1500 E34.5838
G1 F1200 X109.132 Y86.756 E34.59993
G1 X108.777 Y86.706 E34.61778
G1 X109.002 Y86.459 E34.6344
G1 F1500 E33.6344
G0 F2400 X109.989 Y87.439
G0 X110.234 Y88.386
G0 X110.083 Y88.862
G0 X109.778 Y89.425
G1 F1500 E34.6344
G1 F1200 X109.835 Y89.719 E34.64931
G1 X109.528 Y89.612 E34.66549
G1 X109.778 Y89.425 E34.68102
G1 F1500 E33.68102
G0 F2400 X110.598 Y90.539
G0 X110.674 Y91.523
G0 X110.443 Y91.961
G0 X110.069 Y92.448
G1 F1500 E34.68102
G1 F1200 X110.093 Y92.793 E34.69823
G1 X109.766 Y92.607 E34.71695
G1 X110.069 Y92.448 E34.73398
G1 F1500 E33.73398
G0 F2400 X110.657 Y93.706
G0 X110.563 Y94.682
G0 X110.269 Y95.071
G0 X109.816 Y95.491
G1 F1500 E34.73398
G1 F1200 X109.78 Y95.845 E34.75169
G1 X109.484 Y95.601 E34.77078
G1 X109.816 Y95.491 E34.78819
G1 F1500 E33.78819
G0 F2400 X110.162 Y96.835
G0 X109.904 Y97.782
G0 X109.532 Y98.118
G0 X108.907 Y98.468
G1 F1500 E34.78819
G1 F1200 X109.009 Y98.45 E34.79334
