;FLAVOR:Marlin
;TIME:271
;Filament used: 0.199847m
;Layer height: 0.15
;Generated with Cura_SteamEngine 2.7.0
M190 S60
M104 S220
M109 S220
G21 ;metric values
G90 ;absolute positioning
M82 ;set extruder to absolute mode
M107 ;start with the fan off
G92 E0 ;zero the extruded length
G1 F200 E3 ;extrude 3mm of feed stock
G92 E0 ;zero the extruded length again
G1 F9000
M301 P26.92 I2.54 D71.46 ;set PID tuning for E0
M117 Printing...
;LAYER_COUNT:26
;LAYER:0
M107
G0 F2400 X75.744 Y86.431 Z0.3
;TYPE:SKIRT
G1 F1200 X76.361 Y85.889 E0.04087
G1 X76.965 Y85.437 E0.07841
G1 X77.608 Y85.031 E0.11626
G1 X78.246 Y84.693 E0.15219
G1 X78.913 Y84.401 E0.18842
G1 X79.583 Y84.164 E0.22379
G1 X80.337 Y83.96 E0.26266
G1 X81.09 Y83.82 E0.30078
G1 X100.927 Y81.739 E1.29339
G1 X101.8 Y81.727 E1.33684
G1 X102.878 Y81.811 E1.39065
G1 X103.736 Y81.958 E1.43397
G1 X104.794 Y82.239 E1.48845
G1 X105.381 Y82.436 E1.51926
G1 X105.726 Y82.593 E1.53813
G1 X106.965 Y83.219 E1.60721
G1 X107.498 Y83.534 E1.63802
G1 X107.798 Y83.755 E1.65656
G1 X108.643 Y84.431 E1.71042
G1 X109.101 Y84.848 E1.74124
G1 X109.337 Y85.113 E1.7589
G1 X110.206 Y86.16 E1.82661
G1 X110.57 Y86.661 E1.85743
G1 X110.753 Y86.976 E1.87556
G1 X111.261 Y87.934 E1.92953
G1 X111.515 Y88.499 E1.96035
G1 X111.628 Y88.836 E1.97804
G1 X112.01 Y90.144 E2.04586
G1 X112.18 Y91.032 E2.09085
G1 X112.267 Y91.941 E2.13629
G1 X112.289 Y92.4 E2.15916
G1 X112.286 Y98.492 E2.46233
G1 X112.246 Y99.11 E2.49315
G1 X112.126 Y99.718 E2.52399
G1 X111.929 Y100.305 E2.55481
G1 X111.659 Y100.861 E2.58557
G1 X111.319 Y101.379 E2.6164
G1 X110.915 Y101.848 E2.64721
G1 X110.453 Y102.261 E2.67805
G1 X109.943 Y102.611 E2.70883
G1 X109.392 Y102.893 E2.73963
G1 X108.809 Y103.101 E2.77044
G1 X108.204 Y103.233 E2.80125
G1 X107.488 Y103.286 E2.83698
G1 X82.162 Y103.275 E4.09734
G1 X81.24 Y103.185 E4.14345
G1 X80.003 Y102.942 E4.20618
G1 X79.404 Y102.784 E4.23701
G1 X78.864 Y102.566 E4.26599
G1 X77.743 Y102.032 E4.32778
G1 X77.203 Y101.73 E4.35858
G1 X76.813 Y101.449 E4.3825
G1 X76.003 Y100.802 E4.43409
G1 X75.404 Y100.233 E4.4752
G1 X74.952 Y99.722 E4.50915
G1 X74.524 Y99.159 E4.54435
G1 X74.098 Y98.504 E4.58323
G1 X73.752 Y97.875 E4.61896
G1 X73.45 Y97.211 E4.65526
G1 X73.195 Y96.507 E4.69252
G1 X72.973 Y95.707 E4.73384
G1 X72.819 Y94.876 E4.7759
G1 X72.736 Y93.997 E4.81984
G1 X72.718 Y93.378 E4.85065
G1 X72.773 Y92.8 E4.87955
G1 X73.03 Y91.167 E4.96182
G1 X73.166 Y90.563 E4.99263
G1 X73.449 Y89.828 E5.03182
G1 X73.994 Y88.699 E5.09421
G1 X74.298 Y88.16 E5.12501
G1 X74.558 Y87.8 E5.14711
G1 X75.154 Y87.05 E5.19478
G1 X75.744 Y86.431 E5.23734
G0 F2400 X76.007 Y86.731
G1 F1200 X76.624 Y86.189 E5.27821
G1 X77.178 Y85.774 E5.31265
G1 X77.821 Y85.368 E5.3505
G1 X78.406 Y85.058 E5.38345
G1 X79.073 Y84.766 E5.41968
G1 X79.688 Y84.55 E5.45212
G1 X80.442 Y84.346 E5.49099
G1 X81.131 Y84.217 E5.52588
G1 X100.968 Y82.136 E6.51849
G1 X101.769 Y82.125 E6.55836
G1 X102.847 Y82.209 E6.61217
G1 X103.634 Y82.343 E6.6519
G1 X104.692 Y82.624 E6.70637
G1 X105.253 Y82.815 E6.73587
G1 X105.546 Y82.949 E6.7519
G1 X106.785 Y83.575 E6.82098
G1 X107.295 Y83.878 E6.8505
G1 X107.549 Y84.067 E6.86626
G1 X108.394 Y84.743 E6.92011
G1 X108.831 Y85.143 E6.9496
G1 X109.03 Y85.368 E6.96454
G1 X109.899 Y86.415 E7.03226
G1 X110.246 Y86.895 E7.06173
G1 X110.401 Y87.163 E7.07714
G1 X110.909 Y88.121 E7.1311
G1 X111.15 Y88.662 E7.16058
G1 X111.245 Y88.948 E7.17557
G1 X111.627 Y90.256 E7.24339
G1 X111.783 Y91.07 E7.28463
G1 X111.87 Y91.979 E7.33008
G1 X111.89 Y92.4 E7.35105
G1 X111.887 Y98.492 E7.65422
G1 X111.847 Y99.084 E7.68375
G1 X111.727 Y99.664 E7.71323
G1 X111.531 Y100.223 E7.74271
G1 X111.261 Y100.751 E7.77222
G1 X110.923 Y101.238 E7.80172
G1 X110.522 Y101.675 E7.83124
G1 X110.066 Y102.053 E7.86071
G1 X109.563 Y102.368 E7.89025
G1 X109.023 Y102.611 E7.91972
G1 X108.455 Y102.78 E7.94921
G1 X107.869 Y102.871 E7.97872
G1 X107.488 Y102.887 E7.9977
G1 X82.162 Y102.876 E9.25806
G1 X81.316 Y102.794 E9.30036
G1 X80.079 Y102.551 E9.36309
G1 X79.507 Y102.397 E9.39257
G1 X79.036 Y102.206 E9.41787
G1 X77.915 Y101.672 E9.47966
G1 X77.398 Y101.381 E9.50918
G1 X77.062 Y101.138 E9.52982
G1 X76.252 Y100.491 E9.58141
G1 X75.703 Y99.968 E9.61914
G1 X75.251 Y99.457 E9.6531
G1 X74.858 Y98.941 E9.68537
G1 X74.432 Y98.286 E9.72426
G1 X74.116 Y97.709 E9.757
G1 X73.814 Y97.045 E9.7933
G1 X73.579 Y96.401 E9.82742
G1 X73.357 Y95.601 E9.86873
G1 X73.216 Y94.838 E9.90735
G1 X73.133 Y93.959 E9.95128
G1 X73.118 Y93.367 E9.98076
G1 X73.167 Y92.862 E10.006
G1 X73.424 Y91.229 E10.08827
G1 X73.556 Y90.651 E10.11778
G1 X73.808 Y90.002 E10.15242
G1 X74.353 Y88.873 E10.21481
G1 X74.646 Y88.357 E10.24434
G1 X74.871 Y88.048 E10.26337
G1 X75.467 Y87.298 E10.31104
G1 X76.007 Y86.731 E10.35001
G0 F2400 X76.27 Y87.03
G1 F1200 X76.887 Y86.488 E10.39088
G1 X77.391 Y86.111 E10.4222
G1 X78.034 Y85.705 E10.46004
G1 X78.566 Y85.424 E10.48998
G1 X79.233 Y85.132 E10.52622
G1 X79.792 Y84.935 E10.55571
G1 X80.546 Y84.731 E10.59459
G1 X81.173 Y84.614 E10.62633
G1 X101.01 Y82.533 E11.61894
G1 X101.738 Y82.523 E11.65518
G1 X102.816 Y82.607 E11.70899
G1 X103.531 Y82.729 E11.74508
G1 X104.589 Y83.01 E11.79956
G1 X105.366 Y83.306 E11.84094
G1 X106.605 Y83.932 E11.91002
G1 X107.3 Y84.378 E11.95112
G1 X108.145 Y85.054 E12.00497
G1 X108.723 Y85.623 E12.04533
G1 X109.592 Y86.67 E12.11305
G1 X110.048 Y87.35 E12.15379
G1 X110.556 Y88.308 E12.20776
G1 X110.862 Y89.06 E12.24816
G1 X111.244 Y90.368 E12.31597
G1 X111.386 Y91.108 E12.35347
G1 X111.473 Y92.017 E12.39891
G1 X111.491 Y92.4 E12.41799
G1 X111.488 Y98.492 E12.72117
G1 X111.448 Y99.056 E12.7493
G1 X111.328 Y99.608 E12.77742
G1 X111.132 Y100.138 E12.80554
G1 X110.864 Y100.635 E12.83364
G1 X110.527 Y101.09 E12.86182
G1 X110.13 Y101.492 E12.88993
G1 X109.681 Y101.834 E12.91802
G1 X109.187 Y102.11 E12.94618
G1 X108.66 Y102.313 E12.97429
G1 X108.109 Y102.44 E13.00243
G1 X107.488 Y102.488 E13.03342
G1 X82.162 Y102.477 E14.29378
G1 X81.393 Y102.402 E14.33223
G1 X80.156 Y102.159 E14.39497
G1 X79.611 Y102.011 E14.42308
G1 X79.208 Y101.845 E14.44477
G1 X78.087 Y101.311 E14.50656
G1 X77.595 Y101.033 E14.53468
G1 X77.311 Y100.826 E14.55217
G1 X76.501 Y100.179 E14.60376
G1 X76.001 Y99.704 E14.63808
G1 X75.549 Y99.193 E14.67203
G1 X75.192 Y98.724 E14.70137
G1 X74.766 Y98.069 E14.74025
G1 X74.479 Y97.544 E14.77003
G1 X74.177 Y96.88 E14.80633
G1 X73.964 Y96.294 E14.83736
G1 X73.742 Y95.494 E14.87867
G1 X73.614 Y94.801 E14.91375
G1 X73.531 Y93.922 E14.95768
G1 X73.517 Y93.357 E14.98581
G1 X73.562 Y92.924 E15.00747
G1 X73.819 Y91.291 E15.08974
G1 X73.946 Y90.741 E15.11783
G1 X74.168 Y90.175 E15.14809
G1 X74.713 Y89.046 E15.21048
G1 X74.994 Y88.556 E15.23859
G1 X75.183 Y88.297 E15.25455
G1 X75.779 Y87.547 E15.30222
G1 X76.27 Y87.03 E15.3377
G0 F2400 X76.534 Y87.33
G1 F1200 X77.151 Y86.788 E15.37857
G1 X77.605 Y86.449 E15.40677
G1 X78.248 Y86.043 E15.44461
G1 X78.726 Y85.789 E15.47155
G1 X79.393 Y85.497 E15.50779
G1 X79.896 Y85.32 E15.53432
G1 X80.65 Y85.116 E15.57319
G1 X81.215 Y85.011 E15.60179
G1 X101.052 Y82.93 E16.59441
G1 X101.707 Y82.921 E16.62701
G1 X102.785 Y83.005 E16.68082
G1 X103.429 Y83.115 E16.71333
G1 X104.487 Y83.396 E16.76781
G1 X105.186 Y83.662 E16.80503
G1 X106.425 Y84.288 E16.87411
G1 X107.05 Y84.69 E16.91109
G1 X107.895 Y85.366 E16.96495
G1 X108.416 Y85.877 E17.00126
G1 X109.285 Y86.924 E17.06898
G1 X109.696 Y87.537 E17.1057
G1 X110.204 Y88.495 E17.15967
G1 X110.479 Y89.172 E17.19603
G1 X110.861 Y90.48 E17.26385
G1 X110.989 Y91.146 E17.2976
G1 X111.076 Y92.055 E17.34304
G1 X111.092 Y92.4 E17.36023
G1 X111.089 Y98.492 E17.6634
G1 X111.049 Y99.026 E17.69005
G1 X110.93 Y99.549 E17.71674
G1 X110.734 Y100.049 E17.74347
G1 X110.466 Y100.513 E17.77013
G1 X110.133 Y100.933 E17.79681
G1 X109.741 Y101.299 E17.8235
G1 X109.298 Y101.602 E17.8502
G1 X108.816 Y101.836 E17.87687
G1 X108.304 Y101.996 E17.90356
G1 X107.774 Y102.078 E17.93025
G1 X107.488 Y102.089 E17.9445
G1 X82.162 Y102.078 E19.20486
G1 X81.47 Y102.011 E19.23946
G1 X80.233 Y101.768 E19.30219
G1 X79.716 Y101.625 E19.32889
G1 X79.379 Y101.485 E19.34705
G1 X78.258 Y100.951 E19.40884
G1 X77.793 Y100.685 E19.4355
G1 X77.56 Y100.514 E19.44988
G1 X76.75 Y99.867 E19.50148
G1 X76.3 Y99.439 E19.53238
G1 X75.848 Y98.928 E19.56633
G1 X75.527 Y98.506 E19.59272
G1 X75.101 Y97.851 E19.6316
G1 X74.842 Y97.379 E19.6584
G1 X74.54 Y96.715 E19.6947
G1 X74.348 Y96.187 E19.72266
G1 X74.126 Y95.387 E19.76397
G1 X74.011 Y94.763 E19.79555
G1 X73.928 Y93.884 E19.83949
G1 X73.917 Y93.348 E19.86617
G1 X73.956 Y92.986 E19.88429
G1 X74.213 Y91.353 E19.96656
G1 X74.335 Y90.831 E19.99323
G1 X74.527 Y90.348 E20.0191
G1 X75.072 Y89.219 E20.08149
G1 X75.495 Y88.545 E20.12109
G1 X76.091 Y87.795 E20.16876
G1 X76.534 Y87.33 E20.20072
G0 F2400 X76.797 Y87.63
G1 F1200 X77.414 Y87.088 E20.24159
G1 X77.818 Y86.786 E20.2667
G1 X78.461 Y86.38 E20.30454
G1 X78.886 Y86.155 E20.32847
G1 X79.553 Y85.863 E20.36471
G1 X80 Y85.705 E20.3883
G1 X80.754 Y85.501 E20.42717
G1 X81.256 Y85.407 E20.45259
G1 X101.093 Y83.326 E21.4452
G1 X101.676 Y83.319 E21.47422
G1 X102.754 Y83.403 E21.52803
G1 X103.326 Y83.5 E21.5569
G1 X104.384 Y83.781 E21.61138
G1 X105.006 Y84.018 E21.6445
G1 X106.245 Y84.644 E21.71359
G1 X106.801 Y85.001 E21.74647
G1 X107.646 Y85.677 E21.80032
G1 X108.109 Y86.132 E21.83263
G1 X108.978 Y87.179 E21.90034
G1 X109.343 Y87.724 E21.93298
G1 X109.851 Y88.682 E21.98695
G1 X110.096 Y89.284 E22.01929
G1 X110.478 Y90.592 E22.0871
G1 X110.591 Y91.184 E22.1171
G1 X110.678 Y92.093 E22.16254
G1 X110.693 Y92.4 E22.17784
G1 X110.69 Y98.492 E22.48101
G1 X110.65 Y98.996 E22.50617
G1 X110.531 Y99.487 E22.53131
G1 X110.336 Y99.953 E22.55645
G1 X110.07 Y100.383 E22.58161
G1 X109.739 Y100.766 E22.6068
G1 X109.353 Y101.092 E22.63195
G1 X108.92 Y101.353 E22.65711
G1 X108.451 Y101.542 E22.68227
G1 X107.958 Y101.656 E22.70745
G1 X107.489 Y101.69 E22.73086
G1 X82.163 Y101.679 E23.99122
G1 X81.547 Y101.619 E24.02202
G1 X80.31 Y101.376 E24.08475
G1 X79.823 Y101.24 E24.10992
G1 X79.551 Y101.125 E24.12461
G1 X78.43 Y100.591 E24.18641
G1 X77.809 Y100.202 E24.22287
G1 X76.999 Y99.555 E24.27446
G1 X76.599 Y99.175 E24.30192
G1 X76.147 Y98.664 E24.33587
G1 X75.861 Y98.289 E24.35934
G1 X75.435 Y97.634 E24.39823
G1 X75.205 Y97.214 E24.42206
G1 X74.903 Y96.55 E24.45836
G1 X74.733 Y96.081 E24.48318
G1 X74.511 Y95.281 E24.5245
G1 X74.408 Y94.726 E24.55259
G1 X74.325 Y93.847 E24.59653
G1 X74.318 Y93.341 E24.62171
G1 X74.35 Y93.049 E24.63633
G1 X74.607 Y91.416 E24.7186
G1 X74.725 Y90.924 E24.74378
G1 X74.886 Y90.522 E24.76533
G1 X75.431 Y89.393 E24.82772
G1 X75.808 Y88.793 E24.86298
G1 X76.404 Y88.043 E24.91066
G1 X76.797 Y87.63 E24.93903
G1 F1500 E23.93903
G0 F2400 X78.57 Y89.421
G0 X79.468 Y90.335
G0 X79.618 Y90.72
;TYPE:WALL-INNER
G1 F1500 E24.93903
G1 F1200 X79.884 Y90.468 E24.95726
G1 X80.06 Y90.326 E24.96852
G1 X80.24 Y90.195 E24.9796
G1 X80.385 Y90.1 E24.98822
G1 X80.582 Y89.985 E24.99958
G1 X80.755 Y89.895 E25.00928
G1 X80.922 Y89.819 E25.01841
G1 X81.121 Y89.741 E25.02905
G1 X81.317 Y89.675 E25.03934
G1 X81.524 Y89.616 E25.05005
G1 X81.713 Y89.573 E25.0597
G1 X81.912 Y89.539 E25.06975
G1 X82.116 Y89.513 E25.07998
G1 X82.306 Y89.5 E25.08946
G1 X82.563 Y89.495 E25.10225
G1 X98.173 Y87.852 E25.88338
G1 X98.209 Y87.849 E25.88518
G1 X98.46 Y87.822 E25.89774
G1 X98.721 Y87.794 E25.9108
G1 X98.958 Y87.769 E25.92266
G1 X98.731 Y87.897
G1 X98.485 Y88.054
G1 X98.248 Y88.224 E25.93338
G1 X98.22 Y88.247 E25.93513
G1 X98.024 Y88.404 E25.94763
G1 X97.805 Y88.599 E25.96222
G1 X97.6 Y88.807 E25.97676
G1 X97.406 Y89.021 E25.99113
G1 X97.224 Y89.249 E26.00565
G1 X97.055 Y89.484 E26.02006
G1 X96.897 Y89.73 E26.03461
G1 X96.754 Y89.983 E26.04907
G1 X96.625 Y90.244 E26.06356
G1 X96.51 Y90.512 E26.07807
G1 X96.41 Y90.783 E26.09245
G1 X96.323 Y91.062 E26.10699
G1 X96.253 Y91.349 E26.12169
G1 X96.2 Y91.632 E26.13602
G1 X96.16 Y91.915 E26.15024
G1 X96.135 Y92.209 E26.16493
G1 X96.129 Y92.499 E26.17936
G1 X96.135 Y92.79 E26.19385
G1 X96.16 Y93.083 E26.20848
G1 X96.2 Y93.367 E26.22275
G1 X96.253 Y93.65 E26.23708
G1 X96.323 Y93.937 E26.25178
G1 X96.41 Y94.216 E26.26633
G1 X96.51 Y94.488 E26.28075
G1 X96.625 Y94.755 E26.29522
G1 X96.754 Y95.015 E26.30966
G1 X96.897 Y95.268 E26.32412
G1 X97.055 Y95.515 E26.33872
G1 X97.224 Y95.75 E26.35312
G1 X97.406 Y95.978 E26.36764
G1 X97.6 Y96.192 E26.38201
G1 X97.805 Y96.4 E26.39655
G1 X98.024 Y96.595 E26.41114
G1 X98.248 Y96.775 E26.42544
G1 X98.485 Y96.945 E26.43996
G1 X98.731 Y97.102 E26.45448
G1 X98.751 Y97.113 E26.45561
G1 X98.985 Y97.246 E26.46901
G1 X99.244 Y97.374 E26.48339
G1 X99.549 Y97.503 E26.49987
G1 X99.244 Y97.503
G1 X98.985 Y97.503
G1 X98.716 Y97.503 E26.51095
G1 X82.523 Y97.503 E27.3168
G1 X82.105 Y97.483 E27.33763
G1 X81.893 Y97.456 E27.34827
G1 X81.485 Y97.372 E27.369
G1 X81.104 Y97.251 E27.38889
G1 X80.904 Y97.172 E27.39959
G1 X80.551 Y96.996 E27.41922
G1 X80.383 Y96.898 E27.4289
G1 X80.042 Y96.66 E27.44959
G1 X79.878 Y96.526 E27.46013
G1 X79.738 Y96.398 E27.46957
G1 X79.588 Y96.248 E27.48013
G1 X79.455 Y96.1 E27.49003
G1 X79.328 Y95.945 E27.50001
G1 X79.208 Y95.778 E27.51024
G1 X79.093 Y95.603 E27.52066
G1 X78.994 Y95.435 E27.53036
G1 X78.906 Y95.264 E27.53994
G1 X78.806 Y95.045 E27.55192
G1 X78.738 Y94.873 E27.56112
G1 X78.676 Y94.686 E27.57092
G1 X78.617 Y94.478 E27.58168
G1 X78.57 Y94.27 E27.5923
G1 X78.512 Y93.867 E27.61256
G1 X78.501 Y93.705 E27.62064
G1 X78.503 Y93.287 E27.64144
G1 X78.516 Y93.108 E27.65037
G1 X78.542 Y92.904 E27.66061
G1 X78.582 Y92.68 E27.67193
G1 X78.689 Y92.277 E27.69268
G1 X78.829 Y91.903 E27.71256
G1 X79.003 Y91.552 E27.73205
G1 X79.221 Y91.201 E27.75261
G1 X79.326 Y91.058 E27.76144
G1 X79.458 Y90.897 E27.7718
G1 X79.618 Y90.72 E27.78368
G0 F2400 X100.424 Y97.394
G0 X101.5 Y97.511
G0 X103.756 Y97.374
G1 F1200 X104.015 Y97.246 E27.79805
G1 X104.249 Y97.113 E27.81145
G1 X104.269 Y97.102 E27.81259
G1 X104.515 Y96.945 E27.82711
G1 X104.752 Y96.775 E27.84162
G1 X104.976 Y96.595 E27.85592
G1 X105.195 Y96.4 E27.87052
G1 X105.4 Y96.192 E27.88505
G1 X105.594 Y95.978 E27.89943
G1 X105.776 Y95.75 E27.91394
G1 X105.945 Y95.515 E27.92835
G1 X106.103 Y95.268 E27.94294
G1 X106.114 Y95.248 E27.94408
G1 X106.246 Y95.015 E27.9574
G1 X106.375 Y94.755 E27.97185
G1 X106.504 Y94.45 E27.98833
G1 X106.504 Y94.755
G1 X106.504 Y95.015
G1 X106.504 Y95.283 E27.99939
G1 X106.504 Y97.503 E28.10987
G1 X104.284 Y97.503 E28.22035
G1 X104.015 Y97.503 E28.22917
G1 X103.756 Y97.503 E28.23378
G1 X103.451 Y97.503 E28.2471
G1 X103.756 Y97.374
G0 F2400 X103.588 Y97.012
G1 F1200 X103.828 Y96.893 E28.26043
G1 X104.064 Y96.76 E28.27391
G1 X104.291 Y96.615 E28.28732
G1 X104.51 Y96.457 E28.30076
G1 X104.718 Y96.29 E28.31403
G1 X104.92 Y96.11 E28.3275
G1 X105.11 Y95.918 E28.34094
G1 X105.29 Y95.719 E28.35429
G1 X105.458 Y95.509 E28.36768
G1 X105.615 Y95.291 E28.38105
G1 X105.761 Y95.063 E28.39452
G1 X105.893 Y94.828 E28.40793
G1 X106.013 Y94.587 E28.42133
G1 X106.119 Y94.34 E28.43471
G1 X106.212 Y94.088 E28.44808
G1 X106.292 Y93.83 E28.46152
G1 X106.357 Y93.566 E28.47505
G1 X106.406 Y93.303 E28.48836
G1 X106.443 Y93.038 E28.50168
G1 X106.466 Y92.769 E28.51511
G1 X106.472 Y92.499 E28.52855
G1 X106.466 Y92.23 E28.54194
G1 X106.443 Y91.96 E28.55543
G1 X106.406 Y91.696 E28.5687
G1 X106.357 Y91.433 E28.58201
G1 X106.292 Y91.169 E28.59554
G1 X106.212 Y90.911 E28.60898
G1 X106.119 Y90.66 E28.6223
G1 X106.013 Y90.411 E28.63577
G1 X105.893 Y90.17 E28.64917
G1 X105.761 Y89.936 E28.66254
G1 X105.615 Y89.708 E28.67601
G1 X105.458 Y89.49 E28.68938
G1 X105.29 Y89.28 E28.70277
G1 X105.11 Y89.081 E28.71612
G1 X104.92 Y88.889 E28.72956
G1 X104.718 Y88.709 E28.74303
G1 X104.51 Y88.542 E28.7563
G1 X104.291 Y88.384 E28.76974
G1 X104.064 Y88.239 E28.78315
G1 X103.828 Y88.106 E28.79663
G1 X103.588 Y87.987 E28.80996
G1 X103.341 Y87.88 E28.82335
G1 X103.087 Y87.787 E28.83681
G1 X102.828 Y87.708 E28.85029
G1 X102.568 Y87.644 E28.86362
G1 X102.305 Y87.593 E28.87695
G1 X102.037 Y87.556 E28.89041
G1 X101.77 Y87.534 E28.90374
G1 X101.5 Y87.527 E28.91718
G1 X101.23 Y87.534 E28.93063
G1 X100.963 Y87.556 E28.94396
G1 X100.695 Y87.593 E28.95742
G1 X100.432 Y87.644 E28.97075
