;FLAVOR:Marlin
;TIME:613
;Filament used: 0.403888m
;Layer height: 0.15
;Generated with Cura_SteamEngine 2.7.0
M190 S60
M104 S220
M109 S220
G21 ;metric values
G90 ;absolute positioning
M82 ;set extruder to absolute mode
M107 ;start with the fan off
G92 E0 ;zero the extruded length
G1 F200 E3 ;extrude 3mm of feed stock
G92 E0 ;zero the extruded length again
G1 F9000
M301 P26.92 I2.54 D71.46 ;set PID tuning for E0
M117 Printing...
;LAYER_COUNT:119
;LAYER:0
M107
G0 F2400 X86.083 Y86.177 Z0.3
;TYPE:SKIRT
G1 F1200 X86.928 Y85.417 E0.05656
G1 X87.414 Y85.034 E0.08735
G1 X87.83 Y84.777 E0.11169
G1 X88.505 Y84.407 E0.14999
G1 X89.066 Y84.145 E0.18081
G1 X89.48 Y84.005 E0.20256
G1 X90.544 Y83.698 E0.25767
G1 X91.149 Y83.565 E0.28849
G1 X91.878 Y83.51 E0.32488
G1 X93.133 Y83.511 E0.38733
G1 X93.751 Y83.551 E0.41815
G1 X94.289 Y83.653 E0.4454
G1 X95.011 Y83.833 E0.48243
G1 X95.882 Y84.142 E0.52842
G1 X96.727 Y84.537 E0.57484
G1 X97.27 Y84.835 E0.60567
G1 X97.624 Y85.083 E0.62718
G1 X98.405 Y85.685 E0.67625
G1 X98.87 Y86.094 E0.70707
G1 X99.159 Y86.41 E0.72838
G1 X99.685 Y87.04 E0.76922
G1 X100.05 Y87.54 E0.80003
G1 X100.274 Y87.933 E0.82254
G1 X100.757 Y88.879 E0.8754
G1 X101.003 Y89.448 E0.90625
G1 X101.115 Y89.806 E0.92492
G1 X101.299 Y90.485 E0.95993
G1 X101.422 Y91.091 E0.9907
G1 X101.462 Y91.546 E1.01343
G1 X101.509 Y92.713 E1.07156
G1 X101.494 Y93.332 E1.10237
G1 X101.392 Y93.978 E1.13492
G1 X101.141 Y95.072 E1.19078
G1 X100.963 Y95.666 E1.22163
G1 X100.698 Y96.256 E1.25382
G1 X100.198 Y97.194 E1.30672
G1 X99.872 Y97.72 E1.33752
G1 X99.488 Y98.194 E1.36787
G1 X98.729 Y99.015 E1.42352
G1 X98.28 Y99.441 E1.45432
G1 X97.961 Y99.685 E1.4743
G1 X97.388 Y100.087 E1.50914
G1 X96.86 Y100.409 E1.53992
G1 X96.472 Y100.591 E1.56124
G1 X95.419 Y101.028 E1.61798
G1 X94.833 Y101.228 E1.64879
G1 X94.074 Y101.369 E1.68721
G1 X92.768 Y101.504 E1.75255
G1 X92.149 Y101.527 E1.78338
G1 X91.607 Y101.482 E1.81044
G1 X90.889 Y101.381 E1.84653
G1 X90.283 Y101.256 E1.87732
G1 X89.862 Y101.119 E1.89935
G1 X88.774 Y100.708 E1.95723
G1 X88.21 Y100.452 E1.98806
G1 X87.544 Y100.022 E2.02751
G1 X84.886 Y97.977 E2.1944
G1 X84.421 Y97.569 E2.22519
G1 X84.012 Y97.104 E2.25601
G1 X83.667 Y96.59 E2.28682
G1 X83.39 Y96.036 E2.31764
G1 X83.188 Y95.451 E2.34844
G1 X83.062 Y94.845 E2.37924
G1 X83.015 Y94.228 E2.41004
G1 X83.049 Y93.609 E2.44089
G1 X83.121 Y93.174 E2.46283
G1 X83.696 Y90.482 E2.59982
G1 X83.899 Y89.79 E2.63571
G1 X84.247 Y88.868 E2.68475
G1 X84.503 Y88.305 E2.71553
G1 X84.766 Y87.868 E2.74091
G1 X85.322 Y87.049 E2.79018
G1 X85.702 Y86.561 E2.82096
G1 X86.083 Y86.177 E2.84788
G0 F2400 X86.35 Y86.474
G1 F1200 X87.195 Y85.714 E2.90443
G1 X87.661 Y85.348 E2.93392
G1 X88.021 Y85.127 E2.95495
G1 X88.696 Y84.757 E2.99325
G1 X89.234 Y84.508 E3.02275
G1 X89.591 Y84.388 E3.0415
G1 X90.655 Y84.081 E3.09661
G1 X91.234 Y83.956 E3.12609
G1 X91.878 Y83.909 E3.15822
G1 X93.133 Y83.91 E3.22068
G1 X93.724 Y83.95 E3.25016
G1 X94.193 Y84.041 E3.27393
G1 X94.915 Y84.221 E3.31096
G1 X95.713 Y84.504 E3.3531
G1 X96.558 Y84.899 E3.39952
G1 X97.077 Y85.185 E3.42901
G1 X97.38 Y85.399 E3.44747
G1 X98.161 Y86.001 E3.49654
G1 X98.605 Y86.394 E3.52605
G1 X98.852 Y86.666 E3.54433
G1 X99.378 Y87.296 E3.58518
G1 X99.727 Y87.776 E3.61471
G1 X99.919 Y88.115 E3.6341
G1 X100.402 Y89.061 E3.68696
G1 X100.635 Y89.605 E3.71641
G1 X100.73 Y89.91 E3.73231
G1 X100.914 Y90.589 E3.76732
G1 X101.03 Y91.17 E3.7968
G1 X101.063 Y91.562 E3.81638
G1 X101.11 Y92.729 E3.8745
G1 X101.094 Y93.322 E3.90402
G1 X101.003 Y93.889 E3.9326
G1 X100.752 Y94.983 E3.98846
G1 X100.58 Y95.551 E4.01799
G1 X100.346 Y96.068 E4.04624
G1 X99.846 Y97.006 E4.09913
G1 X99.533 Y97.509 E4.12862
G1 X99.195 Y97.923 E4.15521
G1 X98.436 Y98.744 E4.21086
G1 X98.005 Y99.151 E4.24036
G1 X97.732 Y99.359 E4.25744
G1 X97.159 Y99.761 E4.29227
G1 X96.652 Y100.067 E4.32174
G1 X96.319 Y100.222 E4.34002
G1 X95.266 Y100.659 E4.39676
G1 X94.705 Y100.849 E4.42623
G1 X94.033 Y100.972 E4.46023
G1 X92.727 Y101.107 E4.52557
G1 X92.135 Y101.128 E4.55505
G1 X91.663 Y101.087 E4.57863
G1 X90.945 Y100.986 E4.61471
G1 X90.364 Y100.864 E4.64426
G1 X90.003 Y100.745 E4.66317
G1 X88.915 Y100.334 E4.72105
G1 X88.376 Y100.088 E4.75054
G1 X87.788 Y99.706 E4.78543
G1 X85.13 Y97.661 E4.95233
G1 X84.685 Y97.269 E4.98184
G1 X84.298 Y96.82 E5.01134
G1 X83.974 Y96.324 E5.04082
G1 X83.72 Y95.788 E5.07034
G1 X83.54 Y95.223 E5.09985
G1 X83.438 Y94.639 E5.12935
G1 X83.416 Y94.047 E5.15883
G1 X83.511 Y93.258 E5.19838
G1 X84.086 Y90.566 E5.33537
G1 X84.272 Y89.931 E5.3683
G1 X84.62 Y89.009 E5.41735
G1 X84.866 Y88.47 E5.44683
G1 X85.096 Y88.092 E5.46885
G1 X85.652 Y87.273 E5.51811
G1 X86.017 Y86.806 E5.54761
G1 X86.35 Y86.474 E5.57101
G0 F2400 X86.616 Y86.77
G1 F1200 X87.461 Y86.01 E5.62757
G1 X87.907 Y85.663 E5.65569
G1 X88.213 Y85.477 E5.67351
G1 X88.888 Y85.107 E5.71182
G1 X89.402 Y84.871 E5.73997
G1 X89.702 Y84.772 E5.75569
G1 X90.766 Y84.465 E5.8108
G1 X91.318 Y84.347 E5.83889
G1 X91.877 Y84.308 E5.86678
G1 X93.132 Y84.309 E5.92923
G1 X93.696 Y84.349 E5.95737
G1 X94.096 Y84.428 E5.97766
G1 X94.818 Y84.608 E6.01469
G1 X95.544 Y84.865 E6.05302
G1 X96.389 Y85.26 E6.09944
G1 X96.883 Y85.535 E6.12757
G1 X97.137 Y85.716 E6.1431
G1 X97.918 Y86.318 E6.19217
G1 X98.34 Y86.693 E6.22026
G1 X98.546 Y86.922 E6.23559
G1 X99.072 Y87.552 E6.27644
G1 X99.403 Y88.01 E6.30456
G1 X99.564 Y88.296 E6.32089
G1 X100.047 Y89.242 E6.37375
G1 X100.345 Y90.014 E6.41493
G1 X100.529 Y90.693 E6.44994
G1 X100.638 Y91.248 E6.47809
G1 X100.665 Y91.578 E6.49457
G1 X100.712 Y92.745 E6.55269
G1 X100.695 Y93.31 E6.58082
G1 X100.614 Y93.8 E6.60554
G1 X100.363 Y94.894 E6.66139
G1 X100.198 Y95.435 E6.68954
G1 X99.994 Y95.881 E6.71395
G1 X99.494 Y96.819 E6.76685
G1 X99.194 Y97.297 E6.79493
G1 X98.902 Y97.652 E6.81781
G1 X98.143 Y98.473 E6.87345
G1 X97.731 Y98.86 E6.90158
G1 X97.503 Y99.032 E6.91579
G1 X96.93 Y99.434 E6.95063
G1 X96.446 Y99.725 E6.97873
G1 X96.166 Y99.854 E6.99407
G1 X95.113 Y100.291 E7.05081
G1 X94.577 Y100.47 E7.07893
G1 X93.992 Y100.575 E7.10851
G1 X92.686 Y100.71 E7.17385
G1 X92.121 Y100.728 E7.20198
G1 X91.718 Y100.692 E7.22212
G1 X91 Y100.591 E7.2582
G1 X90.447 Y100.473 E7.28634
G1 X90.144 Y100.372 E7.30223
G1 X89.056 Y99.961 E7.36011
G1 X88.543 Y99.724 E7.38824
G1 X88.031 Y99.39 E7.41866
G1 X85.373 Y97.345 E7.58555
G1 X84.951 Y96.969 E7.61368
G1 X84.585 Y96.538 E7.64182
G1 X84.284 Y96.06 E7.66993
G1 X84.054 Y95.543 E7.69809
G1 X83.899 Y95 E7.72619
G1 X83.822 Y94.44 E7.75433
G1 X83.824 Y93.875 E7.78244
G1 X83.901 Y93.341 E7.80929
G1 X84.476 Y90.649 E7.94628
G1 X84.646 Y90.072 E7.97622
G1 X84.994 Y89.15 E8.02526
G1 X85.23 Y88.637 E8.05336
G1 X85.426 Y88.316 E8.07208
G1 X85.982 Y87.497 E8.12134
G1 X86.332 Y87.053 E8.14948
G1 X86.616 Y86.77 E8.16943
G0 F2400 X86.883 Y87.067
G1 F1200 X87.728 Y86.307 E8.22599
G1 X88.153 Y85.979 E8.25271
G1 X88.405 Y85.827 E8.26735
G1 X89.08 Y85.457 E8.30566
G1 X89.812 Y85.155 E8.34507
G1 X90.876 Y84.848 E8.40018
G1 X91.401 Y84.738 E8.42687
G1 X91.877 Y84.707 E8.45061
G1 X93.132 Y84.708 E8.51307
G1 X93.667 Y84.748 E8.53976
G1 X94 Y84.815 E8.55667
G1 X94.722 Y84.995 E8.5937
G1 X95.375 Y85.227 E8.62819
G1 X96.22 Y85.622 E8.6746
G1 X96.893 Y86.032 E8.71382
G1 X97.674 Y86.634 E8.7629
G1 X98.24 Y87.177 E8.80193
G1 X98.766 Y87.807 E8.84277
G1 X99.208 Y88.477 E8.88272
G1 X99.691 Y89.423 E8.93558
G1 X99.96 Y90.119 E8.97271
G1 X100.144 Y90.798 E9.00772
G1 X100.245 Y91.324 E9.03438
G1 X100.266 Y91.594 E9.04785
G1 X100.313 Y92.761 E9.10598
G1 X100.295 Y93.297 E9.13267
G1 X100.225 Y93.711 E9.15356
G1 X99.974 Y94.805 E9.20942
G1 X99.815 Y95.317 E9.2361
G1 X99.642 Y95.693 E9.2567
G1 X99.142 Y96.631 E9.30959
G1 X98.855 Y97.084 E9.33628
G1 X98.609 Y97.381 E9.35547
G1 X97.85 Y98.202 E9.41112
G1 X97.274 Y98.705 E9.44917
G1 X96.701 Y99.107 E9.48401
G1 X96.014 Y99.485 E9.52303
G1 X94.961 Y99.922 E9.57976
G1 X94.451 Y100.09 E9.60649
G1 X93.951 Y100.178 E9.63175
G1 X92.645 Y100.313 E9.69709
G1 X92.109 Y100.328 E9.72378
G1 X91.774 Y100.297 E9.74052
G1 X91.056 Y100.196 E9.7766
G1 X90.285 Y99.999 E9.8162
G1 X89.197 Y99.588 E9.87408
G1 X88.711 Y99.361 E9.90078
G1 X88.274 Y99.073 E9.92682
G1 X85.616 Y97.028 E10.09372
G1 X85.217 Y96.671 E10.12036
G1 X84.875 Y96.258 E10.14705
G1 X84.598 Y95.798 E10.17377
G1 X84.393 Y95.303 E10.20043
G1 X84.264 Y94.783 E10.2271
G1 X84.213 Y94.249 E10.25379
G1 X84.242 Y93.713 E10.28051
G1 X84.291 Y93.424 E10.29509
G1 X84.866 Y90.732 E10.43208
G1 X85.019 Y90.213 E10.45901
G1 X85.367 Y89.291 E10.50805
G1 X85.593 Y88.805 E10.53473
G1 X85.756 Y88.541 E10.55017
G1 X86.312 Y87.722 E10.59943
G1 X86.646 Y87.302 E10.62614
G1 X86.883 Y87.067 E10.64274
G0 F2400 X87.15 Y87.364
G1 F1200 X87.995 Y86.604 E10.6993
G1 X88.597 Y86.177 E10.73603
G1 X89.272 Y85.807 E10.77434
G1 X89.923 Y85.538 E10.80939
G1 X90.987 Y85.231 E10.86451
G1 X91.482 Y85.13 E10.88965
G1 X91.877 Y85.106 E10.90934
G1 X93.132 Y85.107 E10.9718
G1 X93.636 Y85.147 E10.99696
G1 X93.903 Y85.202 E11.01052
G1 X94.625 Y85.382 E11.04755
G1 X95.206 Y85.588 E11.07823
G1 X96.051 Y85.983 E11.12465
G1 X96.65 Y86.348 E11.15956
G1 X97.431 Y86.95 E11.20863
G1 X97.933 Y87.433 E11.2433
G1 X98.459 Y88.063 E11.28414
G1 X98.853 Y88.659 E11.3197
G1 X99.336 Y89.605 E11.37256
G1 X99.575 Y90.223 E11.40553
G1 X99.759 Y90.902 E11.44054
G1 X99.867 Y91.61 E11.47618
G1 X99.914 Y92.777 E11.53431
G1 X99.895 Y93.282 E11.55946
G1 X99.836 Y93.622 E11.57663
G1 X99.585 Y94.716 E11.63249
G1 X99.433 Y95.198 E11.65764
G1 X99.29 Y95.505 E11.67449
G1 X98.79 Y96.443 E11.72739
G1 X98.518 Y96.869 E11.75254
G1 X98.316 Y97.11 E11.76819
G1 X97.557 Y97.931 E11.82383
G1 X97.045 Y98.379 E11.85769
G1 X96.472 Y98.781 E11.89253
G1 X95.861 Y99.117 E11.92723
G1 X94.808 Y99.554 E11.98396
G1 X94.327 Y99.71 E12.00913
G1 X93.91 Y99.781 E12.03018
G1 X92.604 Y99.916 E12.09552
G1 X92.099 Y99.928 E12.12066
G1 X91.829 Y99.902 E12.13416
G1 X91.111 Y99.801 E12.17024
G1 X90.426 Y99.626 E12.20542
G1 X89.338 Y99.215 E12.2633
G1 X88.881 Y98.999 E12.28846
G1 X88.518 Y98.757 E12.31017
G1 X85.86 Y96.712 E12.47707
G1 X85.485 Y96.373 E12.50222
G1 X85.168 Y95.979 E12.52739
G1 X84.917 Y95.541 E12.55251
G1 X84.738 Y95.068 E12.57768
G1 X84.636 Y94.573 E12.60283
G1 X84.613 Y94.067 E12.62804
G1 X84.682 Y93.508 E12.65607
G1 X85.257 Y90.816 E12.79306
G1 X85.392 Y90.354 E12.81701
G1 X85.74 Y89.432 E12.86606
G1 X86.086 Y88.765 E12.90345
G1 X86.642 Y87.946 E12.95271
G1 X86.959 Y87.551 E12.97792
G1 X87.15 Y87.364 E12.99122
G1 F1500 E11.99122
G0 F2400 X88.981 Y89.072
G0 X89.04 Y89.127
G0 X91.912 Y91.805
G0 X91.97 Y91.86
G0 X92.142 Y92.02
;TYPE:SUPPORT
G1 F1500 E12.99122
G1 F1200 X92.224 Y91.97 E12.996
G1 X92.342 Y91.921 E13.00236
G1 X92.469 Y91.903 E13.00874
G1 X92.579 Y91.908 E13.01422
G1 X92.662 Y91.923 E13.01842
G1 X92.744 Y91.953 E13.02276
G1 X92.834 Y92.003 E13.02789
G1 X92.917 Y92.068 E13.03313
G1 X92.986 Y92.152 E13.03854
G1 X93.036 Y92.235 E13.04337
G1 X93.069 Y92.317 E13.04776
G1 X93.09 Y92.402 E13.05212
G1 X93.098 Y92.483 E13.05617
G1 X93.092 Y92.588 E13.06141
G1 X93.067 Y92.696 E13.06692
G1 X93.018 Y92.8 E13.07264
G1 X92.968 Y92.873 E13.07705
G1 X92.881 Y92.962 E13.08324
G1 X92.775 Y93.033 E13.08959
G1 X92.676 Y93.071 E13.09487
G1 X92.573 Y93.093 E13.10011
G1 X92.463 Y93.098 E13.10559
G1 X92.361 Y93.081 E13.11073
G1 X92.249 Y93.045 E13.11659
G1 X92.153 Y92.987 E13.12217
G1 X92.084 Y92.93 E13.12663
G1 X92.03 Y92.87 E13.13064
G1 X91.976 Y92.787 E13.13557
G1 X91.935 Y92.698 E13.14045
G1 X91.917 Y92.633 E13.1438
G1 X91.905 Y92.531 E13.14891
G1 X91.908 Y92.43 E13.15394
G1 X91.921 Y92.348 E13.15807
G1 X91.948 Y92.27 E13.16218
G1 X91.993 Y92.183 E13.16706
G1 X92.068 Y92.085 E13.1732
G1 X92.142 Y92.02 E13.1781
G1 F1500 E12.1781
G0 F2400 X92.008 Y91.827
G0 X91.346 Y90.753
G0 X91.337 Y90.287
;TYPE:WALL-INNER
G1 F1500 E13.1781
G1 F1200 X91.017 Y90.489 E13.19693
G1 X90.74 Y90.727 E13.21511
G1 X90.588 Y90.895 E13.22638
G1 X90.378 Y91.181 E13.24404
G1 X90.204 Y91.515 E13.26278
G1 X90.08 Y91.874 E13.28168
G1 X90.016 Y92.245 E13.30042
G1 X90.004 Y92.619 E13.31904
G1 X90.051 Y92.998 E13.33805
G1 X90.156 Y93.362 E13.3569
G1 X90.311 Y93.704 E13.37558
G1 X90.518 Y94.022 E13.39447
G1 X90.772 Y94.303 E13.41332
G1 X91.061 Y94.542 E13.43198
G1 X91.372 Y94.729 E13.45004
G1 X91.58 Y94.821 E13.46136
G1 X91.916 Y94.929 E13.47892
G1 X92.273 Y94.988 E13.49693
G1 X92.503 Y94.998 E13.50839
G1 X92.859 Y94.972 E13.52615
G1 X93.224 Y94.891 E13.54476
G1 X93.569 Y94.759 E13.56314
G1 X93.766 Y94.65 E13.57434
G1 X94.041 Y94.465 E13.59084
G1 X94.215 Y94.315 E13.60227
G1 X94.459 Y94.051 E13.62016
G1 X94.668 Y93.74 E13.63881
G1 X94.826 Y93.412 E13.65693
G1 X94.897 Y93.196 E13.66824
G1 X94.974 Y92.851 E13.68583
G1 X94.999 Y92.472 E13.70474
G1 X94.966 Y92.093 E13.72367
G1 X94.875 Y91.727 E13.74244
G1 X94.733 Y91.379 E13.76114
G1 X94.539 Y91.056 E13.77989
G1 X94.308 Y90.776 E13.79796
G1 X94.14 Y90.618 E13.80943
G1 X93.86 Y90.405 E13.82694
G1 X93.529 Y90.223 E13.84574
G1 X93.171 Y90.092 E13.86471
G1 X92.801 Y90.021 E13.88346
G1 X92.445 Y90.003 E13.9012
G1 X92.219 Y90.018 E13.91247
G1 X91.877 Y90.08 E13.92977
G1 X91.663 Y90.149 E13.94096
G1 X91.337 Y90.287 E13.95858
G0 F2400 X90.958 Y89.635
G1 F1200 X91.222 Y89.508 E13.97315
G1 X91.502 Y89.403 E13.98804
G1 X91.775 Y89.328 E14.00213
G1 X92.084 Y89.273 E14.01775
G1 X92.345 Y89.249 E14.03079
G1 X92.658 Y89.251 E14.04637
G1 X92.939 Y89.276 E14.06041
G1 X93.067 Y89.297 E14.06686
G1 X93.375 Y89.367 E14.08258
G1 X93.644 Y89.455 E14.09666
G1 X93.791 Y89.514 E14.10455
G1 X94.039 Y89.634 E14.11826
G1 X94.163 Y89.704 E14.12534
G1 X94.417 Y89.873 E14.14053
G1 X94.64 Y90.052 E14.15476
G1 X94.851 Y90.252 E14.16923
G1 X95.054 Y90.485 E14.1846
G1 X95.215 Y90.707 E14.19825
G1 X95.366 Y90.961 E14.21296
G1 X95.495 Y91.229 E14.22776
G1 X95.596 Y91.498 E14.24206
G1 X95.674 Y91.785 E14.25686
G1 X95.727 Y92.071 E14.27133
G1 X95.751 Y92.348 E14.28517
G1 X95.749 Y92.658 E14.3006
G1 X95.705 Y93.061 E14.32077
G1 X95.633 Y93.372 E14.33666
G1 X95.542 Y93.653 E14.35136
G1 X95.494 Y93.772 E14.35774
G1 X95.365 Y94.043 E14.37268
G1 X95.297 Y94.16 E14.37942
G1 X95.123 Y94.424 E14.39515
G1 X94.955 Y94.634 E14.40853
G1 X94.736 Y94.863 E14.4243
G1 X94.521 Y95.05 E14.43848
G1 X94.294 Y95.213 E14.45239
G1 X94.034 Y95.37 E14.46751
G1 X93.769 Y95.496 E14.48211
G1 X93.511 Y95.592 E14.49581
G1 X93.212 Y95.674 E14.51124
G1 X92.91 Y95.728 E14.5265
G1 X92.654 Y95.751 E14.5393
G1 X92.336 Y95.748 E14.55512
G1 X92.066 Y95.724 E14.56861
G1 X91.78 Y95.67 E14.5831
G1 X91.466 Y95.583 E14.59931
G1 X91.229 Y95.494 E14.61191
G1 X90.933 Y95.351 E14.62827
G1 X90.568 Y95.117 E14.64985
G1 X90.356 Y94.947 E14.66337
G1 X90.253 Y94.852 E14.67034
G1 X89.971 Y94.548 E14.69098
G1 X89.774 Y94.275 E14.70773
G1 X89.623 Y94.022 E14.72239
G1 X89.566 Y93.907 E14.72878
G1 X89.452 Y93.638 E14.74332
G1 X89.359 Y93.348 E14.75848
G1 X89.297 Y93.075 E14.77241
G1 X89.26 Y92.795 E14.78646
G1 X89.248 Y92.504 E14.80096
G1 X89.263 Y92.187 E14.81675
G1 X89.298 Y91.923 E14.83001
G1 X89.363 Y91.639 E14.8445
G1 X89.457 Y91.35 E14.85963
G1 X89.503 Y91.234 E14.86584
G1 X89.642 Y90.945 E14.8818
G1 X89.783 Y90.709 E14.89548
G1 X89.963 Y90.463 E14.91065
G1 X90.036 Y90.375 E14.91634
G1 X90.257 Y90.145 E14.93221
G1 X90.473 Y89.955 E14.94653
G1 X90.719 Y89.778 E14.96161
G1 X90.958 Y89.635 E14.97547
G0 F2400 X90.775 Y89.28
G1 F1200 X91.064 Y89.141 E14.99143
G1 X91.371 Y89.026 E15.00774
G1 X91.692 Y88.937 E15.02432
G1 X92.024 Y88.878 E15.0411
G1 X92.332 Y88.85 E15.05649
G1 X92.673 Y88.852 E15.07346
G1 X92.994 Y88.881 E15.0895
G1 X93.144 Y88.905 E15.09706
G1 X93.482 Y88.982 E15.11432
G1 X93.786 Y89.082 E15.13024
G1 X93.939 Y89.143 E15.13844
G1 X94.231 Y89.284 E15.15458
G1 X94.37 Y89.363 E15.16253
G1 X94.656 Y89.553 E15.17962
G1 X94.901 Y89.749 E15.19523
G1 X95.139 Y89.976 E15.2116
G1 X95.366 Y90.235 E15.22874
G1 X95.547 Y90.485 E15.2441
G1 X95.717 Y90.772 E15.2607
G1 X95.863 Y91.075 E15.27744
G1 X95.977 Y91.378 E15.29355
G1 X96.062 Y91.69 E15.30964
G1 X96.124 Y92.027 E15.32669
G1 X96.15 Y92.327 E15.34168
G1 X96.148 Y92.674 E15.35895
G1 X96.118 Y92.997 E15.37509
G1 X96.096 Y93.141 E15.38234
G1 X96.014 Y93.491 E15.40023
