;FLAVOR:Marlin
;TIME:3407
;Filament used: 2.85854m
;Layer height: 0.15
;Generated with Cura_SteamEngine 2.7.0
M190 S60
M104 S220
M109 S220
G21 ;metric values
G90 ;absolute positioning
M82 ;set extruder to absolute mode
M107 ;start with the fan off
G92 E0 ;zero the extruded length
G1 F200 E3 ;extrude 3mm of feed stock
G92 E0 ;zero the extruded length again
G1 F9000
M301 P26.92 I2.54 D71.46 ;set PID tuning for E0
M117 Printing...
;LAYER_COUNT:86
;LAYER:0
M107
G0 F2400 X67.475 Y93.282 Z0.3
;TYPE:SKIRT
G1 F1200 X92.51 Y73.264 E1.59519
G1 X93.017 Y72.91 E1.62597
G1 X93.566 Y72.623 E1.65679
G1 X94.148 Y72.41 E1.68764
G1 X94.751 Y72.274 E1.7184
G1 X95.505 Y72.214 E1.75604
G1 X116.491 Y72.214 E2.80042
G1 X117.109 Y72.254 E2.83124
G1 X117.716 Y72.373 E2.86202
G1 X118.303 Y72.57 E2.89283
G1 X118.86 Y72.84 E2.92364
G1 X119.378 Y73.18 E2.95447
G1 X119.847 Y73.584 E2.98528
G1 X120.26 Y74.045 E3.01608
G1 X120.611 Y74.555 E3.04689
G1 X120.893 Y75.106 E3.0777
G1 X121.101 Y75.689 E3.1085
G1 X121.233 Y76.294 E3.13932
G1 X121.287 Y77.01 E3.17505
G1 X121.286 Y86.995 E3.67196
G1 X121.246 Y87.613 E3.70278
G1 X121.127 Y88.221 E3.73361
G1 X120.93 Y88.808 E3.76442
G1 X120.66 Y89.365 E3.79523
G1 X120.32 Y89.882 E3.82602
G1 X119.916 Y90.351 E3.85683
G1 X119.426 Y90.787 E3.88947
G1 X116.068 Y93.386 E4.10079
G1 X111.958 Y96.902 E4.36995
G1 X108.052 Y100.643 E4.63911
G1 X106.228 Y102.545 E4.77026
G1 X102.59 Y106.676 E5.04419
G1 X100.214 Y109.504 E5.22801
G1 X99.786 Y109.952 E5.25884
G1 X99.316 Y110.331 E5.28889
G1 X98.109 Y111.187 E5.36253
G1 X97.344 Y111.63 E5.40652
G1 X96.67 Y111.941 E5.44346
G1 X96.007 Y112.189 E5.47869
G1 X95.019 Y112.478 E5.52992
G1 X94.124 Y112.65 E5.57527
G1 X92.918 Y112.764 E5.63556
G1 X92.3 Y112.782 E5.66633
G1 X91.965 Y112.759 E5.68304
G1 X72.072 Y110.666 E6.67849
G1 X71.203 Y110.492 E6.72259
G1 X70.147 Y110.177 E6.77743
G1 X69.566 Y109.962 E6.80826
G1 X69.192 Y109.775 E6.82907
G1 X68.433 Y109.354 E6.87226
G1 X67.873 Y108.991 E6.90548
G1 X67.35 Y108.597 E6.93806
G1 X66.881 Y108.193 E6.96887
G1 X66.608 Y107.903 E6.98869
G1 X65.68 Y106.83 E7.05929
G1 X65.307 Y106.337 E7.09005
G1 X64.974 Y105.746 E7.12381
G1 X64.425 Y104.587 E7.18763
G1 X64.196 Y104.012 E7.21843
G1 X64.108 Y103.704 E7.23437
G1 X63.946 Y103.06 E7.26742
G1 X63.818 Y102.295 E7.30602
G1 X63.737 Y101.339 E7.35377
G1 X63.725 Y100.72 E7.38458
G1 X63.754 Y100.363 E7.4024
G1 X63.877 Y99.338 E7.45378
G1 X64.047 Y98.524 E7.49516
G1 X64.262 Y97.811 E7.53222
G1 X64.575 Y97.03 E7.5741
G1 X65.016 Y96.159 E7.62268
G1 X65.496 Y95.397 E7.6675
G1 X66.074 Y94.647 E7.71462
G1 X66.633 Y94.039 E7.75572
G1 X67.23 Y93.492 E7.79602
G1 X67.475 Y93.282 E7.81208
G0 F2400 X67.724 Y93.594
G1 F1200 X92.759 Y73.576 E9.40727
G1 X93.246 Y73.238 E9.43677
G1 X93.774 Y72.968 E9.46628
G1 X94.333 Y72.772 E9.49576
G1 X94.914 Y72.653 E9.52528
G1 X95.505 Y72.613 E9.55475
G1 X116.491 Y72.613 E10.59913
G1 X117.082 Y72.653 E10.62861
G1 X117.663 Y72.772 E10.65812
G1 X118.222 Y72.968 E10.6876
G1 X118.75 Y73.238 E10.71712
G1 X119.237 Y73.576 E10.74662
G1 X119.674 Y73.977 E10.77613
G1 X120.053 Y74.432 E10.8056
G1 X120.368 Y74.935 E10.83514
G1 X120.611 Y75.475 E10.86461
G1 X120.78 Y76.043 E10.8941
G1 X120.871 Y76.629 E10.92361
G1 X120.888 Y77.01 E10.94259
G1 X120.887 Y86.995 E11.4395
G1 X120.847 Y87.587 E11.46903
G1 X120.728 Y88.167 E11.49849
G1 X120.532 Y88.727 E11.52802
G1 X120.262 Y89.255 E11.55753
G1 X119.924 Y89.741 E11.58699
G1 X119.523 Y90.178 E11.61651
G1 X119.182 Y90.472 E11.63891
G1 X115.814 Y93.079 E11.85087
G1 X111.677 Y96.618 E12.1218
G1 X107.782 Y100.348 E12.39019
G1 X105.935 Y102.274 E12.52298
G1 X102.285 Y106.419 E12.79784
G1 X99.908 Y109.248 E12.98173
G1 X99.497 Y109.675 E13.01122
G1 X99.086 Y110.006 E13.03748
G1 X97.879 Y110.862 E13.11112
G1 X97.177 Y111.267 E13.15145
G1 X96.503 Y111.578 E13.18839
G1 X95.895 Y111.806 E13.22071
G1 X94.907 Y112.095 E13.27194
G1 X94.087 Y112.252 E13.31349
G1 X92.881 Y112.366 E13.37377
G1 X92.007 Y112.362 E13.41727
G1 X72.114 Y110.269 E14.41272
G1 X71.317 Y110.11 E14.45316
G1 X70.261 Y109.795 E14.508
G1 X69.706 Y109.587 E14.5375
G1 X69.385 Y109.426 E14.55537
G1 X68.626 Y109.005 E14.59856
G1 X68.113 Y108.672 E14.629
G1 X67.59 Y108.278 E14.66158
G1 X67.142 Y107.89 E14.69108
G1 X66.91 Y107.642 E14.70798
G1 X65.982 Y106.569 E14.77858
G1 X65.626 Y106.096 E14.80804
G1 X65.334 Y105.575 E14.83776
G1 X64.785 Y104.416 E14.90158
G1 X64.495 Y103.607 E14.94435
G1 X64.333 Y102.963 E14.9774
G1 X64.216 Y102.261 E15.01282
G1 X64.135 Y101.305 E15.06056
G1 X64.125 Y100.713 E15.09003
G1 X64.15 Y100.41 E15.10516
G1 X64.273 Y99.385 E15.15653
G1 X64.429 Y98.64 E15.19441
G1 X64.644 Y97.927 E15.23147
G1 X64.931 Y97.21 E15.26991
G1 X65.372 Y96.339 E15.31849
G1 X65.812 Y95.641 E15.35956
G1 X66.39 Y94.891 E15.40668
G1 X66.903 Y94.333 E15.4444
G1 X67.5 Y93.786 E15.48469
G1 X67.724 Y93.594 E15.49938
G0 F2400 X67.973 Y93.905
G1 F1200 X93.008 Y73.887 E17.09457
G1 X93.474 Y73.567 E17.1227
G1 X93.979 Y73.315 E17.15079
G1 X94.516 Y73.136 E17.17896
G1 X95.072 Y73.036 E17.20707
G1 X95.505 Y73.012 E17.22865
G1 X116.491 Y73.012 E18.27303
G1 X117.055 Y73.052 E18.30117
G1 X117.607 Y73.171 E18.32927
G1 X118.137 Y73.367 E18.35739
G1 X118.635 Y73.635 E18.38554
G1 X119.089 Y73.971 E18.41364
G1 X119.492 Y74.368 E18.4418
G1 X119.834 Y74.818 E18.46992
G1 X120.11 Y75.311 E18.49804
G1 X120.313 Y75.838 E18.52615
G1 X120.44 Y76.389 E18.55429
G1 X120.489 Y77.01 E18.58529
G1 X120.488 Y86.995 E19.08219
G1 X120.448 Y87.559 E19.11033
G1 X120.329 Y88.112 E19.13848
G1 X120.133 Y88.642 E19.1666
G1 X119.864 Y89.139 E19.19473
G1 X119.528 Y89.594 E19.22288
G1 X118.937 Y90.156 E19.26346
G1 X115.569 Y92.763 E19.47542
G1 X111.415 Y96.316 E19.74745
G1 X107.488 Y100.077 E20.01805
G1 X105.652 Y101.991 E20.15004
G1 X101.984 Y106.158 E20.42631
G1 X99.603 Y108.991 E20.61047
G1 X99.21 Y109.397 E20.63859
G1 X98.855 Y109.68 E20.66119
G1 X97.648 Y110.536 E20.73482
G1 X97.01 Y110.905 E20.7715
G1 X96.336 Y111.216 E20.80844
G1 X95.783 Y111.423 E20.83783
G1 X94.795 Y111.712 E20.88906
G1 X94.049 Y111.855 E20.92686
G1 X92.843 Y111.969 E20.98714
G1 X92.049 Y111.965 E21.02666
G1 X72.156 Y109.872 E22.02211
G1 X71.431 Y109.727 E22.0589
G1 X70.375 Y109.412 E22.11374
G1 X69.846 Y109.213 E22.14187
G1 X69.579 Y109.077 E22.15678
G1 X68.82 Y108.656 E22.19997
G1 X68.353 Y108.353 E22.22768
G1 X67.83 Y107.959 E22.26026
G1 X67.212 Y107.381 E22.30237
G1 X66.284 Y106.308 E22.37297
G1 X65.945 Y105.856 E22.40109
G1 X65.695 Y105.404 E22.4268
G1 X65.146 Y104.245 E22.49062
G1 X64.882 Y103.509 E22.52953
G1 X64.72 Y102.865 E22.56258
G1 X64.613 Y102.228 E22.59472
G1 X64.532 Y101.272 E22.64247
G1 X64.546 Y100.458 E22.68298
G1 X64.669 Y99.433 E22.73436
G1 X64.811 Y98.755 E22.76883
G1 X65.026 Y98.042 E22.80589
G1 X65.287 Y97.39 E22.84084
G1 X65.728 Y96.519 E22.88943
G1 X66.128 Y95.885 E22.92673
G1 X66.706 Y95.135 E22.97386
G1 X67.172 Y94.627 E23.00816
G1 X67.769 Y94.08 E23.04846
G1 X67.973 Y93.905 E23.06183
G0 F2400 X68.222 Y94.217
G1 F1200 X93.257 Y74.199 E24.65703
G1 X93.7 Y73.896 E24.68374
G1 X94.183 Y73.663 E24.71042
G1 X94.695 Y73.503 E24.73712
G1 X95.225 Y73.422 E24.7638
G1 X95.505 Y73.411 E24.77775
G1 X116.491 Y73.411 E25.82212
G1 X117.026 Y73.451 E25.84882
G1 X117.549 Y73.57 E25.87552
G1 X118.048 Y73.765 E25.90218
G1 X118.513 Y74.033 E25.92889
G1 X118.933 Y74.366 E25.95556
G1 X119.298 Y74.758 E25.98222
G1 X119.602 Y75.2 E26.00891
G1 X119.836 Y75.682 E26.03558
G1 X119.996 Y76.194 E26.06227
G1 X120.079 Y76.724 E26.08897
G1 X120.09 Y77.01 E26.10321
G1 X120.089 Y86.995 E26.60012
G1 X120.049 Y87.53 E26.62682
G1 X119.93 Y88.053 E26.65351
G1 X119.735 Y88.552 E26.68017
G1 X119.467 Y89.017 E26.70688
G1 X119.134 Y89.437 E26.73356
G1 X118.693 Y89.841 E26.76332
G1 X115.305 Y92.464 E26.97655
G1 X111.152 Y96.016 E27.24851
G1 X107.206 Y99.795 E27.52041
G1 X105.347 Y101.734 E27.65409
G1 X101.681 Y105.897 E27.93014
G1 X99.297 Y108.734 E28.11456
G1 X98.923 Y109.118 E28.14124
G1 X98.624 Y109.355 E28.16022
G1 X97.417 Y110.211 E28.23386
G1 X96.843 Y110.543 E28.26686
G1 X96.169 Y110.854 E28.3038
G1 X95.671 Y111.04 E28.33026
G1 X94.683 Y111.329 E28.38149
G1 X94.012 Y111.458 E28.41549
G1 X92.806 Y111.572 E28.47577
G1 X92.09 Y111.568 E28.51141
G1 X72.197 Y109.475 E29.50686
G1 X71.545 Y109.345 E29.53994
G1 X70.489 Y109.03 E29.59478
G1 X69.772 Y108.728 E29.6335
G1 X69.013 Y108.307 E29.67669
G1 X68.593 Y108.035 E29.7016
G1 X68.07 Y107.641 E29.73418
G1 X67.514 Y107.12 E29.7721
G1 X66.586 Y106.047 E29.8427
G1 X66.266 Y105.617 E29.86937
G1 X66.055 Y105.234 E29.89114
G1 X65.506 Y104.075 E29.95496
G1 X65.269 Y103.412 E29.99
G1 X65.107 Y102.768 E30.02304
G1 X65.011 Y102.194 E30.05201
G1 X64.93 Y101.238 E30.09975
G1 X64.943 Y100.505 E30.13624
G1 X65.066 Y99.48 E30.18761
G1 X65.193 Y98.87 E30.21862
G1 X65.408 Y98.157 E30.25568
G1 X65.643 Y97.57 E30.28715
G1 X66.084 Y96.699 E30.33573
G1 X66.444 Y96.128 E30.36932
G1 X67.022 Y95.378 E30.41645
G1 X67.442 Y94.921 E30.44733
G1 X68.039 Y94.374 E30.48763
G1 X68.222 Y94.217 E30.49963
G0 F2400 X68.472 Y94.529
G1 F1200 X93.507 Y74.511 E32.09482
G1 X93.925 Y74.227 E32.11997
G1 X94.383 Y74.013 E32.14513
G1 X94.869 Y73.874 E32.17028
G1 X95.505 Y73.81 E32.2021
G1 X116.491 Y73.81 E33.24647
G1 X116.995 Y73.85 E33.27163
G1 X117.486 Y73.969 E33.29678
G1 X117.953 Y74.163 E33.32194
G1 X118.383 Y74.429 E33.34711
G1 X118.766 Y74.759 E33.37226
G1 X119.092 Y75.146 E33.39745
G1 X119.353 Y75.579 E33.42261
G1 X119.543 Y76.047 E33.44774
G1 X119.656 Y76.54 E33.47291
G1 X119.691 Y77.01 E33.49637
G1 X119.69 Y86.995 E33.99328
G1 X119.65 Y87.499 E34.01844
G1 X119.531 Y87.991 E34.04363
G1 X119.336 Y88.457 E34.06877
G1 X119.071 Y88.887 E34.0939
G1 X118.74 Y89.27 E34.1191
G1 X118.449 Y89.525 E34.13835
G1 X115.063 Y92.147 E34.35147
G1 X110.88 Y95.724 E34.62537
G1 X106.937 Y99.501 E34.8971
G1 X105.053 Y101.465 E35.03254
G1 X101.38 Y105.637 E35.30916
G1 X98.992 Y108.478 E35.49385
G1 X98.637 Y108.838 E35.51901
G1 X98.393 Y109.029 E35.53443
G1 X97.186 Y109.885 E35.60807
G1 X96.676 Y110.181 E35.63742
G1 X96.002 Y110.492 E35.67436
G1 X95.559 Y110.657 E35.69789
G1 X94.571 Y110.946 E35.74911
G1 X93.974 Y111.061 E35.77937
G1 X92.768 Y111.175 E35.83965
G1 X92.132 Y111.171 E35.87131
G1 X72.239 Y109.078 E36.86676
G1 X71.659 Y108.962 E36.89619
G1 X70.603 Y108.647 E36.95103
G1 X69.966 Y108.379 E36.98542
G1 X69.207 Y107.958 E37.02862
G1 X68.834 Y107.716 E37.05074
G1 X68.311 Y107.322 E37.08333
G1 X67.816 Y106.859 E37.11706
G1 X66.888 Y105.786 E37.18766
G1 X66.588 Y105.379 E37.21282
G1 X66.416 Y105.063 E37.23073
G1 X65.867 Y103.904 E37.29455
G1 X65.656 Y103.315 E37.32568
G1 X65.494 Y102.671 E37.35873
G1 X65.408 Y102.16 E37.38452
G1 X65.327 Y101.204 E37.43227
G1 X65.339 Y100.553 E37.46467
G1 X65.462 Y99.528 E37.51604
G1 X65.575 Y98.985 E37.54365
G1 X65.79 Y98.272 E37.58071
G1 X65.999 Y97.751 E37.60864
G1 X66.44 Y96.88 E37.65723
G1 X66.76 Y96.372 E37.68711
G1 X67.338 Y95.622 E37.73423
G1 X67.711 Y95.216 E37.76167
G1 X68.308 Y94.669 E37.80196
G1 X68.472 Y94.529 E37.81269
G1 F1500 E36.81269
G0 F2400 X71.417 Y95.424
G0 X71.494 Y95.447
G0 X88.94 Y100.756
G0 X89.016 Y100.78
G0 X89.24 Y100.849
;TYPE:SUPPORT
G1 F1500 E37.81269
G1 F1200 X89.336 Y100.599 E37.82602
G1 X89.436 Y100.388 E37.83764
G1 X89.571 Y100.147 E37.85139
G1 X89.712 Y99.937 E37.86397
G1 X89.854 Y99.755 E37.87546
G1 X89.824 Y100.763 E37.92565
G1 X89.84 Y101.299 E37.95233
G1 X89.139 Y102.754 E38.03271
G1 X89.107 Y102.609 E38.0401
G1 X89.07 Y102.345 E38.05336
G1 X89.052 Y102.089 E38.06614
G1 X89.053 Y101.823 E38.07937
G1 X89.072 Y101.593 E38.09086
G1 X89.109 Y101.341 E38.10353
G1 X89.167 Y101.091 E38.11631
G1 X89.24 Y100.849 E38.12888
G0 F2400 X89.278 Y101.327
G1 F1200 X89.649 Y101.327 E38.14735
G1 F1500 E37.14735
G0 F2400 X88.912 Y101.153
G0 X87.663 Y100.869
G0 X87.247 Y100.984
;TYPE:WALL-INNER
G1 F1500 E38.14735
G1 F1200 X87.188 Y101.374 E38.16698
G1 X87.158 Y101.764 E38.18644
G1 X87.157 Y102.159 E38.2061
G1 X87.185 Y102.548 E38.22551
G1 X87.24 Y102.937 E38.24506
G1 X87.324 Y103.321 E38.26462
G1 X87.437 Y103.698 E38.28421
G1 X87.576 Y104.063 E38.30365
G1 X87.742 Y104.42 E38.32324
G1 X87.934 Y104.762 E38.34276
G1 X88.147 Y105.089 E38.36218
G1 X88.387 Y105.401 E38.38177
G1 X88.647 Y105.694 E38.40126
G1 X88.931 Y105.968 E38.4209
G1 X89.231 Y106.219 E38.44037
G1 X89.306 Y106.273 E38.44497
G1 X89.55 Y106.448 E38.45991
G1 X89.883 Y106.653 E38.47937
G1 X90.055 Y106.742 E38.48901
G1 X89.876 Y106.724
G1 X89.525 Y106.687 E38.49013
G1 X89.227 Y106.656 E38.50217
G1 X73.569 Y105.006 E39.28571
G1 X73.234 Y104.994 E39.30239
G1 X72.99 Y104.97 E39.31459
G1 X72.693 Y104.92 E39.32958
G1 X72.432 Y104.858 E39.34293
G1 X72.2 Y104.787 E39.35501
G1 X71.935 Y104.685 E39.36914
G1 X71.683 Y104.566 E39.383
G1 X71.451 Y104.439 E39.39617
G1 X71.232 Y104.299 E39.4091
G1 X71.002 Y104.128 E39.42337
G1 X70.801 Y103.957 E39.4365
G1 X70.61 Y103.77 E39.4498
G1 X70.436 Y103.575 E39.46281
G1 X70.26 Y103.351 E39.47698
G1 X70.111 Y103.129 E39.49029
G1 X69.97 Y102.887 E39.50423
G1 X69.859 Y102.665 E39.51658
G1 X69.752 Y102.405 E39.53057
G1 X69.665 Y102.149 E39.54403
G1 X69.59 Y101.864 E39.55869
G1 X69.545 Y101.628 E39.57065
G1 X69.512 Y101.35 E39.58458
G1 X69.498 Y101.079 E39.59809
G1 X69.502 Y100.812 E39.61137
G1 X69.523 Y100.552 E39.62436
G1 X69.568 Y100.253 E39.6394
G1 X69.619 Y100.014 E39.65156
G1 X69.689 Y99.774 E39.66401
G1 X69.799 Y99.475 E39.67986
G1 X69.895 Y99.257 E39.69172
G1 X70.028 Y99.006 E39.70585
G1 X70.163 Y98.789 E39.71857
G1 X70.326 Y98.563 E39.73244
G1 X70.509 Y98.339 E39.74683
G1 X70.685 Y98.154 E39.75954
G1 X70.867 Y97.985 E39.7719
G1 X95.849 Y77.996 E41.36413
G1 X115.504 Y77.996 E42.34227
G1 X115.504 Y86.004 E42.74079
G1 X97.504 Y86.004 E43.63657
G1 X97.504 Y99.17 E44.29178
G1 X97.504 Y99.193 E44.29293
G1 X97.504 Y99.535 E44.30995
G1 X97.504 Y99.891 E44.32766
G1 X97.504 Y99.967 E44.33145
G1 X97.475 Y99.891
G1 X97.31 Y99.535 E44.33248
G1 X97.119 Y99.193 E44.34687
G1 X97.107 Y99.174 E44.34797
G1 X96.903 Y98.865 E44.3664
G1 X96.664 Y98.554 E44.38591
G1 X96.404 Y98.261 E44.40541
G1 X96.121 Y97.987 E44.42501
G1 X95.821 Y97.736 E44.44448
G1 X95.501 Y97.506 E44.46409
G1 X95.168 Y97.301 E44.48355
G1 X94.82 Y97.121 E44.50305
G1 X94.459 Y96.965 E44.52262
G1 X94.088 Y96.839 E44.54212
G1 X93.711 Y96.739 E44.56153
G1 X93.326 Y96.665 E44.58104
G1 X92.933 Y96.621 E44.60072
G1 X92.541 Y96.606 E44.62024
G1 X92.147 Y96.62 E44.63986
G1 X91.76 Y96.662 E44.65923
G1 X91.374 Y96.731 E44.67875
G1 X90.993 Y96.829 E44.69833
G1 X90.621 Y96.956 E44.71789
G1 X90.261 Y97.107 E44.73731
G1 X89.911 Y97.285 E44.75686
G1 X89.576 Y97.488 E44.77635
G1 X89.256 Y97.715 E44.79587
G1 X88.953 Y97.967 E44.81549
G1 X88.67 Y98.238 E44.83499
G1 X88.408 Y98.529 E44.85447
G1 X88.167 Y98.837 E44.87394
G1 X87.948 Y99.166 E44.8936
G1 X87.755 Y99.509 E44.91319
G1 X87.589 Y99.862 E44.9326
G1 X87.447 Y100.229 E44.95219
G1 X87.334 Y100.602 E44.97158
G1 X87.247 Y100.984 E44.99108
G0 F2400 X87.639 Y101.058
G1 F1200 X87.585 Y101.419 E45.00924
G1 X87.557 Y101.78 E45.02726
G1 X87.556 Y102.145 E45.04543
G1 X87.582 Y102.506 E45.06344
G1 X87.633 Y102.866 E45.08153
G1 X87.711 Y103.221 E45.09962
G1 X87.815 Y103.57 E45.11775
G1 X87.944 Y103.908 E45.13575
G1 X88.097 Y104.238 E45.15385
G1 X88.275 Y104.555 E45.17194
G1 X88.473 Y104.858 E45.18996
G1 X88.695 Y105.147 E45.20809
G1 X88.935 Y105.418 E45.22611
G1 X89.198 Y105.671 E45.24427
G1 X89.476 Y105.904 E45.26232
G1 X89.771 Y106.116 E45.2804
G1 X90.079 Y106.305 E45.29838
G1 X90.402 Y106.472 E45.31648
G1 X90.735 Y106.615 E45.33451
G1 X91.079 Y106.734 E45.35263
G1 X91.429 Y106.826 E45.37064
G1 X91.786 Y106.894 E45.38872
G1 X92.148 Y106.935 E45.40685
G1 X92.512 Y106.949 E45.42498
G1 X92.875 Y106.936 E45.44306
G1 X93.235 Y106.897 E45.46108
G1 X93.591 Y106.833 E45.47908
G1 X93.944 Y106.743 E45.49721
G1 X94.288 Y106.625 E45.51531
G1 X94.623 Y106.485 E45.53337
G1 X94.947 Y106.32 E45.55147
G1 X95.257 Y106.132 E45.56951
G1 X95.552 Y105.922 E45.58753
G1 X95.832 Y105.691 E45.6056
G1 X96.095 Y105.439 E45.62372
G1 X96.337 Y105.17 E45.64173
G1 X96.561 Y104.882 E45.65989
G1 X96.762 Y104.579 E45.67798
G1 X96.941 Y104.263 E45.69606
G1 X97.095 Y103.935 E45.71409
