; G-Code generated by Simplify3D(R) Version 3.1.0
; 3 7, 2017 at 7:45:39 ODP.
; Settings Summary
;   processName,wing2per
;   applyToModels,cessna_152_battery_cover
;   profileName,Default (modified)
;   profileVersion,2016-04-14 15:44:02
;   baseProfile,Default
;   printMaterial,
;   printQuality,
;   printExtruders,
;   extruderName,Primary Extruder
;   extruderToolheadNumber,0
;   extruderDiameter,0.4
;   extruderAutoWidth,0
;   extruderWidth,0.42
;   extrusionMultiplier,1.02
;   extruderUseRetract,1
;   extruderRetractionDistance,0.8
;   extruderExtraRestartDistance,0.12
;   extruderRetractionZLift,0
;   extruderRetractionSpeed,1800
;   extruderUseCoasting,1
;   extruderCoastingDistance,0.2
;   extruderUseWipe,1
;   extruderWipeDistance,2
;   primaryExtruder,0
;   layerHeight,0.25
;   topSolidLayers,0
;   bottomSolidLayers,0
;   perimeterOutlines,2
;   printPerimetersInsideOut,1
;   startPointOption,3
;   startPointOriginX,200
;   startPointOriginY,0
;   startPointOriginZ,-300
;   sequentialIslands,0
;   spiralVaseMode,0
;   firstLayerHeightPercentage,90
;   firstLayerWidthPercentage,110
;   firstLayerUnderspeed,0.5
;   useRaft,0
;   raftExtruder,0
;   raftLayers,3
;   raftOffset,3
;   raftSeparationDistance,0.14
;   raftInfill,85
;   disableRaftBaseLayers,0
;   useSkirt,1
;   skirtExtruder,0
;   skirtLayers,1
;   skirtOutlines,1
;   skirtOffset,1.4
;   usePrimePillar,0
;   primePillarExtruder,999
;   primePillarWidth,12
;   primePillarLocation,7
;   primePillarSpeedMultiplier,1
;   useOozeShield,0
;   oozeShieldExtruder,999
;   oozeShieldOffset,2
;   oozeShieldOutlines,1
;   oozeShieldSidewallShape,1
;   oozeShieldSidewallAngle,30
;   oozeShieldSpeedMultiplier,1
;   infillExtruder,0
;   internalInfillPattern,Rectilinear
;   externalInfillPattern,Rectilinear
;   infillPercentage,0
;   outlineOverlapPercentage,15
;   infillExtrusionWidthPercentage,100
;   minInfillLength,5
;   infillLayerInterval,1
;   infillAngles,45,-45
;   overlapInfillAngles,0
;   generateSupport,0
;   supportExtruder,0
;   supportInfillPercentage,30
;   supportExtraInflation,0
;   denseSupportLayers,0
;   denseSupportInfillPercentage,70
;   supportLayerInterval,1
;   supportHorizontalPartOffset,0.3
;   supportUpperSeparationLayers,1
;   supportLowerSeparationLayers,1
;   supportType,0
;   supportGridSpacing,4
;   maxOverhangAngle,45
;   supportAngles,0
;   temperatureName,Primary Extruder,Heated Bed
;   temperatureNumber,0,1
;   temperatureSetpointCount,1,1
;   temperatureSetpointLayers,1,1
;   temperatureSetpointTemperatures,230,55
;   temperatureStabilizeAtStartup,1,1
;   temperatureHeatedBed,0,1
;   temperatureRelayBetweenLayers,0,0
;   temperatureRelayBetweenLoops,0,0
;   fanLayers,1
;   fanSpeeds,0
;   blipFanToFullPower,1
;   adjustSpeedForCooling,1
;   minSpeedLayerTime,15
;   minCoolingSpeedSlowdown,30
;   increaseFanForCooling,0
;   minFanLayerTime,45
;   maxCoolingFanSpeed,100
;   increaseFanForBridging,0
;   bridgingFanSpeed,100
;   use5D,1
;   relativeEdistances,0
;   allowEaxisZeroing,1
;   independentExtruderAxes,0
;   includeM10123,0
;   stickySupport,1
;   applyToolheadOffsets,0
;   gcodeXoffset,0
;   gcodeYoffset,0
;   gcodeZoffset,0
;   overrideMachineDefinition,1
;   machineTypeOverride,0
;   strokeXoverride,195
;   strokeYoverride,195
;   strokeZoverride,150
;   originOffsetXoverride,0
;   originOffsetYoverride,0
;   originOffsetZoverride,0
;   homeXdirOverride,-1
;   homeYdirOverride,-1
;   homeZdirOverride,-1
;   flipXoverride,1
;   flipYoverride,-1
;   flipZoverride,1
;   toolheadOffsets,0,0|0,0|0,0|0,0|0,0|0,0
;   overrideFirmwareConfiguration,1
;   firmwareTypeOverride,RepRap (Marlin/Repetier/Sprinter)
;   GPXconfigOverride,r2
;   baudRateOverride,115200
;   overridePrinterModels,0
;   printerModelsOverride
;   startingGcode,G28,
;   layerChangeGcode,
;   retractionGcode,
;   toolChangeGcode,
;   endingGcode,M104 S0 ; turn off extruder,M140 S0 ; turn off bed,G28 X0 ; home X axis,M84 ; disable motors,M107 ; turn off fan
;   exportFileFormat,gcode
;   celebration,0
;   celebrationSong,Random Song
;   postProcessing,
;   defaultSpeed,3600
;   outlineUnderspeed,0.7
;   solidInfillUnderspeed,0.8
;   supportUnderspeed,0.8
;   rapidXYspeed,7800
;   rapidZspeed,1002
;   minBridgingArea,5
;   bridgingExtraInflation,0
;   bridgingExtrusionMultiplier,1
;   bridgingSpeedMultiplier,0.3
;   filamentDiameter,1.75
;   filamentPricePerKg,1000
;   filamentDensity,1.25
;   useMinPrintHeight,1
;   minPrintHeight,0
;   useMaxPrintHeight,1
;   maxPrintHeight,1
;   useDiaphragm,0
;   diaphragmLayerInterval,20
;   robustSlicing,1
;   mergeAllIntoSolid,0
;   onlyRetractWhenCrossingOutline,0
;   retractBetweenLayers,0
;   useRetractionMinTravel,0
;   retractionMinTravel,3
;   retractWhileWiping,0
;   onlyWipeOutlines,1
;   avoidCrossingOutline,0
;   maxMovementDetourFactor,3
;   toolChangeRetractionDistance,0
;   toolChangeExtraRestartDistance,0
;   toolChangeRetractionSpeed,360
;   allowThinWallGapFill,1
;   thinWallAllowedOverlapPercentage,10
;   horizontalSizeCompensation,0
G90
M82
M106 S0
M140 S55
M190 S55
M104 S230 T0
M109 S230 T0
G28
G92 E0
G1 E-0.8000 F1800
G1 Z0.225 F1002
; layer 1, Z = 0.225
T0
; tool H0.250 W0.462
; skirt
G1 X62.692 Y83.482 F7800
G1 E0.1200 F540
G92 E0
G1 X62.770 Y83.450 E0.0041 F1800
G1 X132.230 Y83.450 E3.4063
G1 X132.308 Y83.482 E3.4104
G1 X133.187 Y84.361 E3.4713
G1 X133.219 Y84.438 E3.4753
G1 X133.219 Y89.745 E3.7353
G1 X133.196 Y89.811 E3.7387
G1 X132.574 Y90.621 E3.7887
G1 X132.516 Y90.659 E3.7921
G1 X129.893 Y91.356 E3.9250
G1 X129.891 Y91.356 E3.9251
G1 X129.860 Y91.364 E3.9267
G1 X129.858 Y91.364 E3.9268
G1 X127.212 Y91.950 E4.0595
G1 X127.210 Y91.951 E4.0596
G1 X127.179 Y91.957 E4.0612
G1 X127.177 Y91.957 E4.0613
G1 X124.881 Y92.367 E4.1755
G1 X124.859 Y92.370 E4.1765
G1 X124.857 Y92.371 E4.1766
G1 X122.014 Y92.795 E4.3174
G1 X121.998 Y92.798 E4.3182
G1 X118.730 Y93.217 E4.4795
G1 X118.716 Y93.219 E4.4801
G1 X115.191 Y93.607 E4.6538
G1 X115.177 Y93.608 E4.6544
G1 X111.560 Y93.941 E4.8323
G1 X111.544 Y93.942 E4.8330
G1 X107.977 Y94.195 E5.0081
G1 X107.956 Y94.197 E5.0091
G1 X102.717 Y94.432 E5.2659
G1 X102.696 Y94.433 E5.2668
G1 X99.239 Y94.499 E5.4362
G1 X99.223 Y94.500 E5.4369
G1 X95.750 Y94.499 E5.6069
G1 X95.730 Y94.499 E5.6078
G1 X90.539 Y94.371 E5.8621
G1 X90.538 Y94.371 E5.8622
G1 X90.514 Y94.370 E5.8633
G1 X90.513 Y94.370 E5.8634
G1 X85.234 Y94.077 E6.1224
G1 X85.232 Y94.077 E6.1224
G1 X85.209 Y94.076 E6.1236
G1 X85.207 Y94.076 E6.1237
G1 X79.803 Y93.606 E6.3893
G1 X79.785 Y93.604 E6.3902
G1 X76.259 Y93.216 E6.5638
G1 X76.245 Y93.214 E6.5645
G1 X72.981 Y92.795 E6.7257
G1 X72.964 Y92.792 E6.7264
G1 X70.124 Y92.368 E6.8670
G1 X70.123 Y92.367 E6.8671
G1 X70.102 Y92.364 E6.8681
G1 X67.811 Y91.955 E6.9820
G1 X67.809 Y91.954 E6.9821
G1 X67.784 Y91.950 E6.9834
G1 X67.783 Y91.949 E6.9835
G1 X65.933 Y91.554 E7.0761
G1 X65.931 Y91.554 E7.0762
G1 X65.899 Y91.546 E7.0778
G1 X65.897 Y91.546 E7.0779
G1 X62.491 Y90.664 E7.2502
G1 X62.432 Y90.626 E7.2537
G1 X61.804 Y89.814 E7.3040
G1 X61.781 Y89.748 E7.3074
G1 X61.781 Y84.438 E7.5674
G1 X61.813 Y84.361 E7.5715
G1 X62.570 Y83.604 E7.6240
G1 X62.692 Y83.482 F1800
G92 E0
G1 E-0.8000 F1800
G1 X66.210 Y101.323 F7800
G1 E0.1200 F1800
G92 E0
G1 X69.234 Y100.687 E0.1514 F1800
G1 X69.237 Y100.686 E0.1515
G1 X69.271 Y100.680 E0.1532
G1 X69.273 Y100.680 E0.1533
G1 X73.301 Y100.025 E0.3532
G1 X73.303 Y100.025 E0.3533
G1 X73.328 Y100.021 E0.3545
G1 X73.330 Y100.021 E0.3546
G1 X78.219 Y99.394 E0.5960
G1 X78.238 Y99.392 E0.5969
G1 X81.743 Y99.027 E0.7694
G1 X81.755 Y99.026 E0.7700
G1 X83.533 Y98.868 E0.8574
G1 X83.551 Y98.867 E0.8582
G1 X88.802 Y98.517 E1.1159
G1 X88.824 Y98.515 E1.1169
G1 X92.296 Y98.377 E1.2871
G1 X92.316 Y98.376 E1.2880
G1 X97.486 Y98.301 E1.5412
G1 X97.505 Y98.301 E1.5420
G1 X100.956 Y98.334 E1.7110
G1 X100.976 Y98.335 E1.7119
G1 X106.165 Y98.515 E1.9662
G1 X106.181 Y98.516 E1.9669
G1 X107.932 Y98.613 E2.0527
G1 X107.945 Y98.614 E2.0533
G1 X111.458 Y98.868 E2.2258
G1 X111.480 Y98.869 E2.2268
G1 X116.755 Y99.391 E2.4864
G1 X116.756 Y99.391 E2.4865
G1 X116.778 Y99.394 E2.4875
G1 X116.780 Y99.394 E2.4876
G1 X121.670 Y100.021 E2.7291
G1 X121.672 Y100.021 E2.7292
G1 X121.697 Y100.025 E2.7304
G1 X121.699 Y100.025 E2.7305
G1 X125.727 Y100.680 E2.9304
G1 X125.729 Y100.680 E2.9305
G1 X125.763 Y100.686 E2.9322
G1 X125.766 Y100.687 E2.9323
G1 X128.787 Y101.322 E3.0836
G1 X128.789 Y101.323 E3.0837
G1 X128.818 Y101.329 E3.0851
G1 X128.820 Y101.330 E3.0852
G1 X130.475 Y101.745 E3.1688
G1 X130.490 Y101.749 E3.1695
G1 X132.491 Y102.292 E3.2710
G1 X132.548 Y102.331 E3.2744
G1 X133.166 Y103.139 E3.3242
G1 X133.188 Y103.204 E3.3276
G1 X133.188 Y108.369 E3.5806
G1 X133.156 Y108.447 E3.5847
G1 X132.277 Y109.326 E3.6456
G1 X132.200 Y109.358 E3.6497
G1 X62.800 Y109.358 E7.0489
G1 X62.723 Y109.326 E7.0530
G1 X61.844 Y108.447 E7.1138
G1 X61.812 Y108.369 E7.1179
G1 X61.812 Y103.200 E7.3711
G1 X61.834 Y103.134 E7.3745
G1 X62.461 Y102.323 E7.4248
G1 X62.519 Y102.284 E7.4282
G1 X66.041 Y101.366 E7.6064
G1 X66.170 Y101.332 F1800
G1 X66.172 Y101.332 F1800
G1 X66.207 Y101.323 F1800
G1 X66.210 Y101.323 F1800
G92 E0
G1 E-0.8000 F1800
; inner perimeter
G1 X125.327 Y102.948 F7800
G1 E0.1200 F1800
G92 E0
G1 X126.402 Y103.156 E0.0536 F1530
G1 X128.283 Y103.569 E0.1479
G1 X129.901 Y103.976 E0.2297
G1 X130.885 Y104.243 E0.2796
G1 X130.885 Y107.055 E0.4173
G1 X112.600 Y107.055 E1.3129
G1 X112.600 Y101.281 E1.5957
G1 X113.030 Y101.319 E1.6169
G1 X116.509 Y101.681 E1.7882
G1 X118.188 Y101.880 E1.8710
G1 X121.356 Y102.303 E2.0276
G1 X122.797 Y102.518 E2.0989
G1 X125.130 Y102.914 E2.2148
G1 X125.327 Y102.948 F1530
G92 E0
G1 E-0.8000 F1800
G1 X111.111 Y101.151 F7800
G1 E0.1200 F1800
G92 E0
G1 X111.111 Y107.055 E0.2891 F1530
G1 X83.896 Y107.055 E1.6221
G1 X83.896 Y101.151 E1.9113
G1 X87.208 Y100.912 E2.0740
G1 X88.932 Y100.816 E2.1585
G1 X92.373 Y100.679 E2.3272
G1 X94.081 Y100.637 E2.4109
G1 X97.500 Y100.604 E2.5784
G1 X100.919 Y100.637 E2.7458
G1 X102.628 Y100.679 E2.8295
G1 X106.068 Y100.816 E2.9982
G1 X107.792 Y100.912 E3.0828
G1 X110.911 Y101.137 E3.2359
G1 X111.111 Y101.151 F1530
G92 E0
G1 E-0.8000 F1800
G1 X82.407 Y101.280 F7800
G1 E0.1200 F1800
G92 E0
G1 X82.407 Y107.055 E0.2828 F1530
G1 X64.115 Y107.055 E1.1788
G1 X64.115 Y104.243 E1.3165
G1 X65.172 Y103.957 E1.3701
G1 X66.717 Y103.569 E1.4482
G1 X68.598 Y103.156 E1.5425
G1 X69.673 Y102.948 E1.5961
G1 X72.203 Y102.518 E1.7218
G1 X73.644 Y102.303 E1.7932
G1 X76.812 Y101.880 E1.9497
G1 X78.491 Y101.681 E2.0325
G1 X81.970 Y101.319 E2.2038
G1 X82.207 Y101.298 E2.2155
G1 X82.407 Y101.280 F1530
G92 E0
G1 E-0.8000 F1800
; outer perimeter
G1 X125.410 Y102.493 F7800
G1 E0.1200 F1800
G92 E0
G1 X126.495 Y102.704 E0.0541 F1260
G1 X128.389 Y103.120 E0.1491
G1 X130.018 Y103.529 E0.2314
G1 X131.347 Y103.889 E0.2988
G1 X131.347 Y107.517 E0.4765
G1 X63.653 Y107.517 E3.7922
G1 X63.653 Y103.889 E3.9698
G1 X65.056 Y103.510 E4.0410
G1 X66.612 Y103.119 E4.1196
G1 X68.505 Y102.704 E4.2145
G1 X69.590 Y102.493 E4.2687
G1 X72.130 Y102.062 E4.3949
G1 X73.579 Y101.845 E4.4666
G1 X76.754 Y101.422 E4.6235
G1 X78.440 Y101.222 E4.7067
G1 X81.926 Y100.859 E4.8783
G1 X83.686 Y100.703 E4.9649
G1 X87.179 Y100.451 E5.1364
G1 X88.910 Y100.354 E5.2213
G1 X92.358 Y100.217 E5.3903
G1 X94.073 Y100.175 E5.4744
G1 X97.500 Y100.142 E5.6422
G1 X100.927 Y100.175 E5.8101
G1 X102.642 Y100.217 E5.8941
G1 X106.090 Y100.354 E6.0631
G1 X107.821 Y100.451 E6.1481
G1 X111.314 Y100.703 E6.3196
G1 X113.074 Y100.859 E6.4061
G1 X116.560 Y101.222 E6.5778
G1 X118.246 Y101.422 E6.6609
G1 X121.421 Y101.845 E6.8178
G1 X122.870 Y102.062 E6.8896
G1 X125.213 Y102.460 E7.0060
G1 X125.410 Y102.493 F1260
G92 E0
G1 E-0.8000 F1800
G1 X126.495 Y102.704 F3600
G1 X127.369 Y102.896 F3600
; inner perimeter
; outer perimeter
G1 X112.138 Y100.947 F7800
G1 E0.1200 F1800
G92 E0
G1 X111.573 Y100.942 E0.0277 F1260
G1 X111.573 Y107.325 E0.3403
G1 X112.138 Y107.326 E0.3680
G1 X112.138 Y101.147 E0.6706
G1 X112.138 Y100.947 F1260
G92 E0
G1 E-0.8000 F1800
G1 X111.573 Y100.942 F3600
G1 X111.573 Y102.377 F3600
; inner perimeter
; outer perimeter
G1 X83.434 Y100.942 F7800
G1 E0.1200 F1800
G92 E0
G1 X82.869 Y100.947 E0.0277 F1260
G1 X82.869 Y107.326 E0.3401
G1 X83.434 Y107.325 E0.3678
G1 X83.434 Y101.142 E0.6706
G1 X83.434 Y100.942 F1260
G92 E0
G1 E-0.8000 F1800
G1 X82.869 Y100.947 F3600
G1 X82.869 Y102.382 F3600
; inner perimeter
G1 X130.916 Y85.753 F7800
G1 E0.1200 F1800
G92 E0
G1 X130.916 Y88.701 E0.1444 F1530
G1 X129.327 Y89.123 E0.2249
G1 X127.690 Y89.502 E0.3072
G1 X126.749 Y89.694 E0.3543
G1 X124.497 Y90.096 E0.4663
G1 X121.688 Y90.516 E0.6054
G1 X118.450 Y90.931 E0.7653
G1 X114.952 Y91.316 E0.9377
G1 X112.554 Y91.537 E1.0556
G1 X112.554 Y85.753 E1.3389
G1 X130.716 Y85.753 E2.2284
G1 X130.916 Y85.753 F1530
G92 E0
G1 E-0.8000 F1800
G1 X111.065 Y85.753 F7800
G1 E0.1200 F1800
G92 E0
G1 X111.065 Y91.667 E0.2897 F1530
G1 X107.829 Y91.897 E0.4486
G1 X106.089 Y91.993 E0.5339
G1 X102.634 Y92.130 E0.7033
G1 X99.208 Y92.197 E0.8711
G1 X95.766 Y92.196 E1.0397
G1 X92.339 Y92.129 E1.2076
G1 X90.620 Y92.070 E1.2918
G1 X87.140 Y91.895 E1.4625
G1 X85.384 Y91.779 E1.5487
G1 X83.941 Y91.669 E1.6196
G1 X83.941 Y85.753 E1.9094
G1 X110.865 Y85.753 E3.2281
G1 X111.065 Y85.753 F1530
G92 E0
G1 E-0.8000 F1800
G1 X82.452 Y85.753 F7800
G1 E0.1200 F1800
G92 E0
G1 X82.452 Y91.537 E0.2833 F1530
G1 X80.021 Y91.314 E0.4029
G1 X76.525 Y90.928 E0.5752
G1 X73.289 Y90.512 E0.7350
G1 X70.485 Y90.093 E0.8738
G1 X68.240 Y89.692 E0.9855
G1 X66.438 Y89.307 E1.0758
G1 X65.663 Y89.121 E1.1148
G1 X64.240 Y88.748 E1.1869
G1 X64.084 Y88.706 E1.1948
G1 X64.084 Y85.753 E1.3394
G1 X82.252 Y85.753 E2.2293
G1 X82.452 Y85.753 F1530
G92 E0
G1 E-0.8000 F1800
; outer perimeter
G1 X131.378 Y85.291 F7800
G1 E0.1200 F1800
G92 E0
G1 X131.378 Y89.056 E0.1844 F1260
G1 X129.439 Y89.572 E0.2827
G1 X127.789 Y89.953 E0.3657
G1 X126.836 Y90.148 E0.4133
G1 X124.572 Y90.552 E0.5259
G1 X121.752 Y90.973 E0.6656
G1 X118.505 Y91.390 E0.8259
G1 X114.999 Y91.776 E0.9987
G1 X111.402 Y92.106 E1.1756
G1 X107.858 Y92.358 E1.3496
G1 X106.111 Y92.455 E1.4353
G1 X102.647 Y92.592 E1.6051
G1 X99.212 Y92.659 E1.7734
G1 X95.762 Y92.658 E1.9424
G1 X92.326 Y92.591 E2.1107
G1 X90.600 Y92.531 E2.1953
G1 X87.114 Y92.356 E2.3663
G1 X85.351 Y92.240 E2.4528
G1 X83.571 Y92.104 E2.5402
G1 X79.975 Y91.773 E2.7171
G1 X76.470 Y91.387 E2.8898
G1 X73.225 Y90.970 E3.0500
G1 X70.410 Y90.549 E3.1895
G1 X68.151 Y90.145 E3.3019
G1 X66.336 Y89.758 E3.3928
G1 X65.550 Y89.569 E3.4324
G1 X64.121 Y89.195 E3.5047
G1 X63.622 Y89.058 E3.5301
G1 X63.622 Y85.291 E3.7146
G1 X131.178 Y85.291 E7.0234
G1 X131.378 Y85.291 F1260
G92 E0
G1 E-0.8000 F1800
G1 X131.378 Y87.291 F3600
; inner perimeter
; outer perimeter
G1 X112.092 Y85.482 F7800
G1 E0.1200 F1800
G92 E0
G1 X111.527 Y85.482 E0.0277 F1260
G1 X111.527 Y91.871 E0.3406
G1 X112.092 Y91.866 E0.3683
G1 X112.092 Y85.682 E0.6712
G1 X112.092 Y85.482 F1260
G92 E0
G1 E-0.8000 F1800
G1 X111.527 Y85.482 F3600
G1 X111.527 Y86.917 F3600
; inner perimeter
; outer perimeter
G1 X83.479 Y85.482 F7800
G1 E0.1200 F1800
G92 E0
G1 X82.914 Y85.482 E0.0277 F1260
G1 X82.914 Y91.866 E0.3404
G1 X83.479 Y91.871 E0.3681
G1 X83.479 Y85.682 E0.6712
G1 X83.479 Y85.482 F1260
G92 E0
G1 E-0.8000 F1800
G1 X82.914 Y85.482 F3600
G1 X82.914 Y86.917 F3600
; layer 2, Z = 0.475
; tool H0.250 W0.420
; inner perimeter
G1 X130.979 Y85.690 F7800
G1 Z0.475 F1002
G1 E0.1200 F1800
G92 E0
G1 X130.979 Y88.752 E0.1363 F2932
G1 X129.343 Y89.187 E0.2117
G1 X127.704 Y89.566 E0.2866
G1 X126.761 Y89.759 E0.3294
G1 X124.508 Y90.161 E0.4314
G1 X121.699 Y90.580 E0.5578
G1 X118.459 Y90.996 E0.7033
G1 X114.960 Y91.382 E0.8600
G1 X112.433 Y91.613 E0.9730
G1 X112.433 Y85.690 E1.2367
G1 X130.779 Y85.690 E2.0536
G1 X130.979 Y85.690 F2932
G92 E0
G1 E-0.8000 F1800
G1 X111.070 Y85.690 F7800
G1 E0.1200 F1800
G92 E0
G1 X111.070 Y91.732 E0.2690 F2932
G1 X107.834 Y91.962 E0.4135
G1 X106.093 Y92.059 E0.4911
G1 X102.636 Y92.196 E0.6452
G1 X99.209 Y92.262 E0.7978
G1 X95.699 Y92.261 E0.9541
G1 X92.270 Y92.193 E1.1068
