; G-Code generated by Simplify3D(R) Version 3.1.0
; 3 8, 2017 at 6:47:18 DOP.
; Settings Summary
;   processName,wing2per
;   applyToModels,cessna_152_fuselage_2
;   profileName,Default (modified)
;   profileVersion,2016-04-14 15:44:02
;   baseProfile,Default
;   printMaterial,
;   printQuality,
;   printExtruders,
;   extruderName,Primary Extruder
;   extruderToolheadNumber,0
;   extruderDiameter,0.4
;   extruderAutoWidth,0
;   extruderWidth,0.42
;   extrusionMultiplier,1.02
;   extruderUseRetract,1
;   extruderRetractionDistance,0.8
;   extruderExtraRestartDistance,0.12
;   extruderRetractionZLift,0
;   extruderRetractionSpeed,1800
;   extruderUseCoasting,1
;   extruderCoastingDistance,0.2
;   extruderUseWipe,1
;   extruderWipeDistance,2
;   primaryExtruder,0
;   layerHeight,0.25
;   topSolidLayers,0
;   bottomSolidLayers,0
;   perimeterOutlines,2
;   printPerimetersInsideOut,1
;   startPointOption,3
;   startPointOriginX,100
;   startPointOriginY,0
;   startPointOriginZ,-300
;   sequentialIslands,0
;   spiralVaseMode,0
;   firstLayerHeightPercentage,90
;   firstLayerWidthPercentage,110
;   firstLayerUnderspeed,0.5
;   useRaft,0
;   raftExtruder,0
;   raftLayers,3
;   raftOffset,3
;   raftSeparationDistance,0.14
;   raftInfill,85
;   disableRaftBaseLayers,0
;   useSkirt,1
;   skirtExtruder,0
;   skirtLayers,1
;   skirtOutlines,1
;   skirtOffset,1.4
;   usePrimePillar,0
;   primePillarExtruder,999
;   primePillarWidth,12
;   primePillarLocation,7
;   primePillarSpeedMultiplier,1
;   useOozeShield,0
;   oozeShieldExtruder,999
;   oozeShieldOffset,2
;   oozeShieldOutlines,1
;   oozeShieldSidewallShape,1
;   oozeShieldSidewallAngle,30
;   oozeShieldSpeedMultiplier,1
;   infillExtruder,0
;   internalInfillPattern,Rectilinear
;   externalInfillPattern,Rectilinear
;   infillPercentage,0
;   outlineOverlapPercentage,15
;   infillExtrusionWidthPercentage,100
;   minInfillLength,5
;   infillLayerInterval,1
;   infillAngles,45,-45
;   overlapInfillAngles,0
;   generateSupport,0
;   supportExtruder,0
;   supportInfillPercentage,30
;   supportExtraInflation,0
;   denseSupportLayers,0
;   denseSupportInfillPercentage,70
;   supportLayerInterval,1
;   supportHorizontalPartOffset,0.3
;   supportUpperSeparationLayers,1
;   supportLowerSeparationLayers,1
;   supportType,0
;   supportGridSpacing,4
;   maxOverhangAngle,45
;   supportAngles,0
;   temperatureName,Primary Extruder,Heated Bed
;   temperatureNumber,0,1
;   temperatureSetpointCount,1,1
;   temperatureSetpointLayers,1,1
;   temperatureSetpointTemperatures,230,50
;   temperatureStabilizeAtStartup,1,1
;   temperatureHeatedBed,0,1
;   temperatureRelayBetweenLayers,0,0
;   temperatureRelayBetweenLoops,0,0
;   fanLayers,1
;   fanSpeeds,0
;   blipFanToFullPower,1
;   adjustSpeedForCooling,1
;   minSpeedLayerTime,15
;   minCoolingSpeedSlowdown,30
;   increaseFanForCooling,0
;   minFanLayerTime,45
;   maxCoolingFanSpeed,100
;   increaseFanForBridging,0
;   bridgingFanSpeed,100
;   use5D,1
;   relativeEdistances,0
;   allowEaxisZeroing,1
;   independentExtruderAxes,0
;   includeM10123,0
;   stickySupport,1
;   applyToolheadOffsets,0
;   gcodeXoffset,0
;   gcodeYoffset,0
;   gcodeZoffset,0
;   overrideMachineDefinition,1
;   machineTypeOverride,0
;   strokeXoverride,195
;   strokeYoverride,195
;   strokeZoverride,150
;   originOffsetXoverride,0
;   originOffsetYoverride,0
;   originOffsetZoverride,0
;   homeXdirOverride,-1
;   homeYdirOverride,-1
;   homeZdirOverride,-1
;   flipXoverride,1
;   flipYoverride,-1
;   flipZoverride,1
;   toolheadOffsets,0,0|0,0|0,0|0,0|0,0|0,0
;   overrideFirmwareConfiguration,1
;   firmwareTypeOverride,RepRap (Marlin/Repetier/Sprinter)
;   GPXconfigOverride,r2
;   baudRateOverride,115200
;   overridePrinterModels,0
;   printerModelsOverride
;   startingGcode,G28,
;   layerChangeGcode,
;   retractionGcode,
;   toolChangeGcode,
;   endingGcode,M104 S0 ; turn off extruder,M140 S0 ; turn off bed,G28 X0 ; home X axis,M84 ; disable motors,M107 ; turn off fan
;   exportFileFormat,gcode
;   celebration,0
;   celebrationSong,Random Song
;   postProcessing,
;   defaultSpeed,3600
;   outlineUnderspeed,0.7
;   solidInfillUnderspeed,0.8
;   supportUnderspeed,0.8
;   rapidXYspeed,7800
;   rapidZspeed,1002
;   minBridgingArea,5
;   bridgingExtraInflation,0
;   bridgingExtrusionMultiplier,1
;   bridgingSpeedMultiplier,0.3
;   filamentDiameter,1.75
;   filamentPricePerKg,1000
;   filamentDensity,1.25
;   useMinPrintHeight,1
;   minPrintHeight,0
;   useMaxPrintHeight,1
;   maxPrintHeight,1
;   useDiaphragm,0
;   diaphragmLayerInterval,20
;   robustSlicing,1
;   mergeAllIntoSolid,0
;   onlyRetractWhenCrossingOutline,0
;   retractBetweenLayers,0
;   useRetractionMinTravel,0
;   retractionMinTravel,3
;   retractWhileWiping,0
;   onlyWipeOutlines,1
;   avoidCrossingOutline,0
;   maxMovementDetourFactor,3
;   toolChangeRetractionDistance,0
;   toolChangeExtraRestartDistance,0
;   toolChangeRetractionSpeed,360
;   allowThinWallGapFill,1
;   thinWallAllowedOverlapPercentage,10
;   horizontalSizeCompensation,0
G90
M82
M106 S0
M140 S50
M190 S50
M104 S230 T0
M109 S230 T0
G28
G92 E0
G1 E-0.8000 F1800
G1 Z0.225 F1002
; layer 1, Z = 0.225
T0
; tool H0.250 W0.462
; skirt
G1 X42.280 Y51.329 F7800
G1 E0.1200 F540
G92 E0
G1 X42.324 Y51.296 E0.0027 F1800
G1 X42.327 Y51.294 E0.0029
G1 X44.654 Y49.691 E0.1413
G1 X44.657 Y49.690 E0.1414
G1 X44.696 Y49.664 E0.1437
G1 X44.699 Y49.663 E0.1439
G1 X47.187 Y48.167 E0.2861
G1 X47.189 Y48.165 E0.2862
G1 X47.226 Y48.145 E0.2883
G1 X47.229 Y48.143 E0.2884
G1 X49.801 Y46.786 E0.4309
G1 X49.804 Y46.785 E0.4310
G1 X49.841 Y46.767 E0.4331
G1 X49.844 Y46.766 E0.4332
G1 X52.424 Y45.581 E0.5722
G1 X52.427 Y45.580 E0.5724
G1 X52.468 Y45.563 E0.5746
G1 X52.471 Y45.562 E0.5747
G1 X54.976 Y44.587 E0.7064
G1 X54.978 Y44.587 E0.7065
G1 X55.013 Y44.574 E0.7083
G1 X55.015 Y44.573 E0.7084
G1 X57.457 Y43.759 E0.8345
G1 X57.458 Y43.759 E0.8346
G1 X57.483 Y43.751 E0.8359
G1 X57.485 Y43.750 E0.8360
G1 X59.879 Y43.043 E0.9582
G1 X59.893 Y43.039 E0.9589
G1 X62.972 Y42.191 E1.1153
G1 X63.069 Y42.209 E1.1201
G1 X64.250 Y43.109 E1.1928
G1 X64.294 Y43.197 E1.1977
G1 X64.294 Y46.850 E1.3765
G1 X66.306 Y46.850 E1.4751
G1 X66.383 Y46.882 E1.4792
G1 X67.262 Y47.761 E1.5401
G1 X67.294 Y47.838 E1.5442
G1 X67.294 Y91.439 E3.6797
G1 X127.706 Y91.439 E6.6387
G1 X127.706 Y47.838 E8.7742
G1 X127.738 Y47.761 E8.7783
G1 X128.617 Y46.882 E8.8392
G1 X128.694 Y46.850 E8.8433
G1 X130.706 Y46.850 E8.9419
G1 X130.706 Y43.197 E9.1208
G1 X130.750 Y43.109 E9.1256
G1 X131.932 Y42.209 E9.1983
G1 X132.028 Y42.191 E9.2031
G1 X135.125 Y43.045 E9.3605
G1 X135.139 Y43.049 E9.3612
G1 X137.534 Y43.756 E9.4834
G1 X137.535 Y43.757 E9.4835
G1 X137.560 Y43.765 E9.4848
G1 X137.562 Y43.765 E9.4849
G1 X140.004 Y44.581 E9.6110
G1 X140.006 Y44.581 E9.6111
G1 X140.041 Y44.594 E9.6129
G1 X140.043 Y44.595 E9.6130
G1 X142.529 Y45.562 E9.7437
G1 X142.532 Y45.563 E9.7438
G1 X142.573 Y45.580 E9.7460
G1 X142.576 Y45.581 E9.7462
G1 X145.156 Y46.766 E9.8852
G1 X145.159 Y46.767 E9.8854
G1 X145.196 Y46.785 E9.8874
G1 X145.199 Y46.786 E9.8875
G1 X147.771 Y48.143 E10.0300
G1 X147.774 Y48.145 E10.0301
G1 X147.811 Y48.165 E10.0322
G1 X147.813 Y48.167 E10.0323
G1 X150.301 Y49.663 E10.1745
G1 X150.304 Y49.664 E10.1747
G1 X150.343 Y49.690 E10.1770
G1 X150.346 Y49.691 E10.1771
G1 X152.673 Y51.294 E10.3155
G1 X152.676 Y51.296 E10.3157
G1 X152.720 Y51.329 E10.3184
G1 X152.723 Y51.332 E10.3186
G1 X154.805 Y53.004 E10.4494
G1 X154.808 Y53.006 E10.4495
G1 X154.846 Y53.039 E10.4520
G1 X154.849 Y53.041 E10.4522
G1 X156.687 Y54.734 E10.5746
G1 X156.689 Y54.736 E10.5747
G1 X156.722 Y54.769 E10.5770
G1 X156.725 Y54.772 E10.5772
G1 X158.325 Y56.441 E10.6905
G1 X158.327 Y56.443 E10.6906
G1 X158.355 Y56.475 E10.6927
G1 X158.357 Y56.477 E10.6928
G1 X159.727 Y58.079 E10.7961
G1 X159.728 Y58.081 E10.7962
G1 X159.753 Y58.111 E10.7981
G1 X159.755 Y58.114 E10.7982
G1 X160.902 Y59.606 E10.8904
G1 X160.904 Y59.608 E10.8906
G1 X160.928 Y59.642 E10.8926
G1 X160.930 Y59.645 E10.8928
G1 X161.894 Y61.056 E10.9765
G1 X161.895 Y61.058 E10.9766
G1 X161.918 Y61.093 E10.9787
G1 X161.920 Y61.096 E10.9788
G1 X162.737 Y62.448 E11.0562
G1 X162.738 Y62.450 E11.0563
G1 X162.757 Y62.483 E11.0582
G1 X162.759 Y62.486 E11.0583
G1 X163.466 Y63.801 E11.1315
G1 X163.467 Y63.803 E11.1316
G1 X163.480 Y63.830 E11.1331
G1 X163.481 Y63.832 E11.1332
G1 X164.119 Y65.141 E11.2045
G1 X164.120 Y65.143 E11.2046
G1 X164.135 Y65.175 E11.2063
G1 X164.136 Y65.177 E11.2065
G1 X165.261 Y67.791 E11.3458
G1 X165.261 Y67.793 E11.3459
G1 X165.272 Y67.819 E11.3473
G1 X165.273 Y67.821 E11.3474
G1 X166.324 Y70.537 E11.4901
G1 X166.324 Y70.539 E11.4901
G1 X166.332 Y70.560 E11.4912
G1 X166.333 Y70.561 E11.4913
G1 X166.842 Y72.003 E11.5662
G1 X166.842 Y72.005 E11.5663
G1 X166.851 Y72.032 E11.5677
G1 X166.852 Y72.034 E11.5678
G1 X167.321 Y73.548 E11.6454
G1 X167.322 Y73.550 E11.6455
G1 X167.332 Y73.587 E11.6474
G1 X167.333 Y73.589 E11.6475
G1 X167.741 Y75.189 E11.7284
G1 X167.742 Y75.192 E11.7286
G1 X167.752 Y75.236 E11.7308
G1 X167.753 Y75.239 E11.7309
G1 X168.078 Y76.932 E11.8153
G1 X168.078 Y76.935 E11.8155
G1 X168.085 Y76.975 E11.8175
G1 X168.086 Y76.978 E11.8177
G1 X168.328 Y78.767 E11.9061
G1 X168.329 Y78.769 E11.9062
G1 X168.333 Y78.806 E11.9080
G1 X168.333 Y78.809 E11.9081
G1 X168.495 Y80.702 E12.0012
G1 X168.495 Y80.704 E12.0013
G1 X168.497 Y80.737 E12.0029
G1 X168.498 Y80.739 E12.0030
G1 X168.582 Y82.746 E12.1014
G1 X168.582 Y82.748 E12.1015
G1 X168.582 Y82.777 E12.1029
G1 X168.582 Y82.779 E12.1030
G1 X168.590 Y84.906 E12.2072
G1 X168.590 Y84.908 E12.2073
G1 X168.589 Y84.929 E12.2083
G1 X168.534 Y87.164 E12.3177
G1 X168.533 Y87.180 E12.3185
G1 X168.427 Y89.508 E12.4326
G1 X168.426 Y89.523 E12.4333
G1 X168.114 Y94.400 E12.6726
G1 X168.113 Y94.415 E12.6732
G1 X167.904 Y96.956 E12.7981
G1 X167.903 Y96.971 E12.7988
G1 X167.641 Y99.563 E12.9264
G1 X167.639 Y99.582 E12.9272
G1 X167.310 Y102.219 E13.0573
G1 X167.307 Y102.242 E13.0584
G1 X166.898 Y104.911 E13.1906
G1 X166.894 Y104.933 E13.1916
G1 X165.915 Y110.298 E13.4586
G1 X165.913 Y110.311 E13.4592
G1 X164.847 Y115.680 E13.7273
G1 X164.844 Y115.693 E13.7279
G1 X164.268 Y118.367 E13.8619
G1 X164.268 Y118.369 E13.8619
G1 X164.263 Y118.390 E13.8630
G1 X164.262 Y118.392 E13.8631
G1 X163.608 Y121.045 E13.9969
G1 X163.608 Y121.048 E13.9971
G1 X163.599 Y121.079 E13.9987
G1 X163.598 Y121.082 E13.9988
G1 X162.828 Y123.704 E14.1326
G1 X162.828 Y123.707 E14.1328
G1 X162.814 Y123.748 E14.1349
G1 X162.813 Y123.751 E14.1351
G1 X161.892 Y126.324 E14.2690
G1 X161.890 Y126.327 E14.2691
G1 X161.875 Y126.367 E14.2712
G1 X161.874 Y126.370 E14.2714
G1 X160.818 Y128.857 E14.4037
G1 X160.817 Y128.860 E14.4038
G1 X160.798 Y128.900 E14.4060
G1 X160.797 Y128.903 E14.4062
G1 X159.623 Y131.272 E14.5357
G1 X159.621 Y131.275 E14.5358
G1 X159.599 Y131.316 E14.5381
G1 X159.598 Y131.319 E14.5383
G1 X158.320 Y133.539 E14.6637
G1 X158.318 Y133.542 E14.6639
G1 X158.291 Y133.586 E14.6664
G1 X158.289 Y133.589 E14.6666
G1 X156.922 Y135.627 E14.7868
G1 X156.920 Y135.631 E14.7870
G1 X156.887 Y135.676 E14.7898
G1 X156.885 Y135.679 E14.7900
G1 X155.405 Y137.566 E14.9074
G1 X155.403 Y137.569 E14.9076
G1 X155.366 Y137.613 E14.9104
G1 X155.363 Y137.616 E14.9106
G1 X153.749 Y139.380 E15.0277
G1 X153.746 Y139.383 E15.0279
G1 X153.708 Y139.422 E15.0306
G1 X153.705 Y139.425 E15.0308
G1 X151.935 Y141.095 E15.1500
G1 X151.932 Y141.097 E15.1502
G1 X151.895 Y141.131 E15.1526
G1 X151.892 Y141.133 E15.1528
G1 X149.942 Y142.741 E15.2766
G1 X149.939 Y142.743 E15.2767
G1 X149.900 Y142.773 E15.2792
G1 X149.897 Y142.775 E15.2794
G1 X147.770 Y144.304 E15.4076
G1 X147.768 Y144.306 E15.4078
G1 X147.726 Y144.334 E15.4103
G1 X147.723 Y144.336 E15.4104
G1 X145.424 Y145.765 E15.5430
G1 X145.421 Y145.767 E15.5432
G1 X145.377 Y145.792 E15.5457
G1 X145.374 Y145.794 E15.5459
G1 X142.909 Y147.104 E15.6826
G1 X142.905 Y147.106 E15.6828
G1 X142.859 Y147.129 E15.6853
G1 X142.856 Y147.130 E15.6855
G1 X140.234 Y148.299 E15.8261
G1 X140.231 Y148.300 E15.8262
G1 X140.194 Y148.316 E15.8282
G1 X140.192 Y148.317 E15.8283
G1 X137.526 Y149.339 E15.9682
G1 X137.524 Y149.340 E15.9683
G1 X137.494 Y149.351 E15.9699
G1 X137.491 Y149.351 E15.9700
G1 X134.887 Y150.223 E16.1045
G1 X134.885 Y150.224 E16.1046
G1 X134.858 Y150.232 E16.1060
G1 X134.856 Y150.233 E16.1061
G1 X132.401 Y150.954 E16.2314
G1 X132.399 Y150.954 E16.2315
G1 X132.375 Y150.961 E16.2327
G1 X132.373 Y150.962 E16.2328
G1 X130.206 Y151.519 E16.3424
G1 X130.204 Y151.519 E16.3425
G1 X130.181 Y151.525 E16.3437
G1 X130.179 Y151.525 E16.3438
G1 X128.212 Y151.963 E16.4425
G1 X128.211 Y151.963 E16.4425
G1 X128.187 Y151.968 E16.4438
G1 X128.185 Y151.969 E16.4438
G1 X123.960 Y152.765 E16.6544
G1 X123.869 Y152.741 E16.6590
G1 X122.784 Y151.842 E16.7280
G1 X122.744 Y151.757 E16.7326
G1 X122.743 Y103.169 E19.1125
G1 X121.418 Y103.125 E19.1774
G1 X121.414 Y103.125 E19.1776
G1 X121.358 Y103.121 E19.1803
G1 X121.354 Y103.120 E19.1805
G1 X119.985 Y102.972 E19.2480
G1 X119.978 Y102.972 E19.2483
G1 X119.884 Y102.955 E19.2530
G1 X119.878 Y102.954 E19.2533
G1 X118.494 Y102.624 E19.3230
G1 X118.482 Y102.621 E19.3236
G1 X118.308 Y102.556 E19.3327
G1 X118.297 Y102.551 E19.3333
G1 X117.516 Y102.145 E19.3764
G1 X117.417 Y102.119 E19.3814
G1 X117.396 Y102.111 E19.3825
G1 X117.106 Y101.964 E19.3984
G1 X117.087 Y101.952 E19.3996
G1 X116.502 Y101.473 E19.4366
G1 X116.457 Y101.460 E19.4388
G1 X116.432 Y101.448 E19.4402
G1 X116.095 Y101.233 E19.4598
G1 X116.074 Y101.215 E19.4611
G1 X115.649 Y100.750 E19.4920
G1 X115.619 Y100.741 E19.4936
G1 X115.590 Y100.727 E19.4951
G1 X115.207 Y100.465 E19.5179
G1 X115.183 Y100.442 E19.5194
G1 X115.006 Y100.216 E19.5335
G1 X79.994 Y100.216 E21.2484
G1 X79.817 Y100.443 E21.2625
G1 X79.793 Y100.465 E21.2641
G1 X79.410 Y100.727 E21.2868
G1 X79.381 Y100.741 E21.2884
G1 X79.350 Y100.750 E21.2900
G1 X78.926 Y101.215 E21.3208
G1 X78.905 Y101.233 E21.3222
G1 X78.568 Y101.448 E21.3417
G1 X78.543 Y101.460 E21.3431
G1 X78.498 Y101.473 E21.3454
G1 X77.913 Y101.952 E21.3824
G1 X77.894 Y101.964 E21.3835
G1 X77.604 Y102.111 E21.3994
G1 X77.583 Y102.119 E21.4005
G1 X77.484 Y102.145 E21.4055
G1 X76.707 Y102.549 E21.4485
G1 X76.695 Y102.554 E21.4491
G1 X76.528 Y102.617 E21.4578
G1 X76.517 Y102.621 E21.4584
G1 X75.215 Y102.944 E21.5241
G1 X75.208 Y102.945 E21.5244
G1 X75.110 Y102.963 E21.5293
G1 X75.103 Y102.964 E21.5297
G1 X73.714 Y103.117 E21.5981
G1 X73.710 Y103.118 E21.5983
G1 X73.653 Y103.122 E21.6011
G1 X73.650 Y103.122 E21.6013
G1 X72.257 Y103.170 E21.6695
G1 X72.256 Y151.757 E24.0493
G1 X72.216 Y151.842 E24.0539
G1 X71.131 Y152.742 E24.1229
G1 X71.040 Y152.765 E24.1275
G1 X66.782 Y151.962 E24.3397
G1 X66.780 Y151.962 E24.3398
G1 X66.756 Y151.956 E24.3410
G1 X66.754 Y151.956 E24.3411
G1 X64.788 Y151.517 E24.4398
G1 X64.787 Y151.517 E24.4399
G1 X64.763 Y151.511 E24.4411
G1 X64.761 Y151.511 E24.4411
G1 X62.593 Y150.952 E24.5508
G1 X62.591 Y150.951 E24.5509
G1 X62.566 Y150.945 E24.5522
G1 X62.564 Y150.944 E24.5523
G1 X60.125 Y150.226 E24.6768
G1 X60.123 Y150.226 E24.6769
G1 X60.097 Y150.217 E24.6783
G1 X60.095 Y150.217 E24.6784
G1 X57.509 Y149.351 E24.8119
G1 X57.506 Y149.351 E24.8121
G1 X57.476 Y149.340 E24.8137
G1 X57.474 Y149.339 E24.8138
G1 X54.808 Y148.317 E24.9536
G1 X54.806 Y148.316 E24.9537
G1 X54.769 Y148.300 E24.9557
G1 X54.766 Y148.299 E24.9558
G1 X52.145 Y147.130 E25.0964
G1 X52.141 Y147.129 E25.0966
G1 X52.095 Y147.106 E25.0991
G1 X52.091 Y147.104 E25.0993
G1 X49.626 Y145.794 E25.2361
G1 X49.623 Y145.792 E25.2362
G1 X49.579 Y145.767 E25.2387
G1 X49.576 Y145.765 E25.2389
G1 X47.277 Y144.336 E25.3715
G1 X47.274 Y144.334 E25.3716
G1 X47.233 Y144.306 E25.3741
G1 X47.230 Y144.304 E25.3743
G1 X45.103 Y142.775 E25.5025
G1 X45.100 Y142.773 E25.5027
G1 X45.061 Y142.743 E25.5052
G1 X45.058 Y142.741 E25.5053
G1 X43.108 Y141.133 E25.6291
G1 X43.105 Y141.131 E25.6293
G1 X43.068 Y141.097 E25.6318
G1 X43.065 Y141.095 E25.6319
G1 X41.295 Y139.425 E25.7511
G1 X41.292 Y139.422 E25.7513
G1 X41.254 Y139.383 E25.7540
G1 X41.251 Y139.380 E25.7542
