; G-Code generated by Simplify3D(R) Version 3.1.0
; 4 4, 2017 at 11:06:55 DOP.
; Settings Summary
;   processName,thick
;   applyToModels,cessna_152_spinner
;   profileName,Default (modified)
;   profileVersion,2016-04-14 15:44:02
;   baseProfile,Default
;   printMaterial,
;   printQuality,
;   printExtruders,
;   extruderName,Primary Extruder
;   extruderToolheadNumber,0
;   extruderDiameter,0.4
;   extruderAutoWidth,0
;   extruderWidth,0.42
;   extrusionMultiplier,1.02
;   extruderUseRetract,1
;   extruderRetractionDistance,0.8
;   extruderExtraRestartDistance,0
;   extruderRetractionZLift,0
;   extruderRetractionSpeed,1800
;   extruderUseCoasting,1
;   extruderCoastingDistance,0.2
;   extruderUseWipe,1
;   extruderWipeDistance,2
;   primaryExtruder,0
;   layerHeight,0.2
;   topSolidLayers,4
;   bottomSolidLayers,4
;   perimeterOutlines,3
;   printPerimetersInsideOut,1
;   startPointOption,3
;   startPointOriginX,200
;   startPointOriginY,0
;   startPointOriginZ,-300
;   sequentialIslands,0
;   spiralVaseMode,0
;   firstLayerHeightPercentage,90
;   firstLayerWidthPercentage,110
;   firstLayerUnderspeed,0.5
;   useRaft,0
;   raftExtruder,0
;   raftLayers,3
;   raftOffset,3
;   raftSeparationDistance,0.14
;   raftInfill,85
;   disableRaftBaseLayers,0
;   useSkirt,1
;   skirtExtruder,0
;   skirtLayers,1
;   skirtOutlines,1
;   skirtOffset,1.4
;   usePrimePillar,0
;   primePillarExtruder,999
;   primePillarWidth,12
;   primePillarLocation,7
;   primePillarSpeedMultiplier,1
;   useOozeShield,0
;   oozeShieldExtruder,999
;   oozeShieldOffset,2
;   oozeShieldOutlines,1
;   oozeShieldSidewallShape,1
;   oozeShieldSidewallAngle,30
;   oozeShieldSpeedMultiplier,1
;   infillExtruder,0
;   internalInfillPattern,Rectilinear
;   externalInfillPattern,Rectilinear
;   infillPercentage,5
;   outlineOverlapPercentage,15
;   infillExtrusionWidthPercentage,100
;   minInfillLength,5
;   infillLayerInterval,1
;   infillAngles,45,-45
;   overlapInfillAngles,0
;   generateSupport,1
;   supportExtruder,0
;   supportInfillPercentage,30
;   supportExtraInflation,0
;   denseSupportLayers,0
;   denseSupportInfillPercentage,70
;   supportLayerInterval,1
;   supportHorizontalPartOffset,0.3
;   supportUpperSeparationLayers,1
;   supportLowerSeparationLayers,1
;   supportType,0
;   supportGridSpacing,1
;   maxOverhangAngle,45
;   supportAngles,0
;   temperatureName,Primary Extruder,Heated Bed
;   temperatureNumber,0,1
;   temperatureSetpointCount,1,1
;   temperatureSetpointLayers,1,1
;   temperatureSetpointTemperatures,230,50
;   temperatureStabilizeAtStartup,1,1
;   temperatureHeatedBed,0,1
;   temperatureRelayBetweenLayers,0,0
;   temperatureRelayBetweenLoops,0,0
;   fanLayers,1,2,3
;   fanSpeeds,0,60,90
;   blipFanToFullPower,1
;   adjustSpeedForCooling,1
;   minSpeedLayerTime,15
;   minCoolingSpeedSlowdown,30
;   increaseFanForCooling,0
;   minFanLayerTime,45
;   maxCoolingFanSpeed,100
;   increaseFanForBridging,0
;   bridgingFanSpeed,100
;   use5D,1
;   relativeEdistances,0
;   allowEaxisZeroing,1
;   independentExtruderAxes,0
;   includeM10123,0
;   stickySupport,1
;   applyToolheadOffsets,0
;   gcodeXoffset,0
;   gcodeYoffset,0
;   gcodeZoffset,0
;   overrideMachineDefinition,1
;   machineTypeOverride,0
;   strokeXoverride,195
;   strokeYoverride,195
;   strokeZoverride,150
;   originOffsetXoverride,0
;   originOffsetYoverride,0
;   originOffsetZoverride,0
;   homeXdirOverride,-1
;   homeYdirOverride,-1
;   homeZdirOverride,-1
;   flipXoverride,1
;   flipYoverride,-1
;   flipZoverride,1
;   toolheadOffsets,0,0|0,0|0,0|0,0|0,0|0,0
;   overrideFirmwareConfiguration,1
;   firmwareTypeOverride,RepRap (Marlin/Repetier/Sprinter)
;   GPXconfigOverride,r2
;   baudRateOverride,115200
;   overridePrinterModels,0
;   printerModelsOverride
;   startingGcode,G28,
;   layerChangeGcode,
;   retractionGcode,
;   toolChangeGcode,
;   endingGcode,M104 S0 ; turn off extruder,M140 S0 ; turn off bed,G28 X0 ; home X axis,M84 ; disable motors,M107 ; turn off fan
;   exportFileFormat,gcode
;   celebration,0
;   celebrationSong,Random Song
;   postProcessing,
;   defaultSpeed,3600
;   outlineUnderspeed,0.7
;   solidInfillUnderspeed,0.8
;   supportUnderspeed,0.8
;   rapidXYspeed,7800
;   rapidZspeed,1002
;   minBridgingArea,5
;   bridgingExtraInflation,0
;   bridgingExtrusionMultiplier,1
;   bridgingSpeedMultiplier,0.3
;   filamentDiameter,1.75
;   filamentPricePerKg,1000
;   filamentDensity,1.25
;   useMinPrintHeight,0
;   minPrintHeight,0
;   useMaxPrintHeight,0
;   maxPrintHeight,1
;   useDiaphragm,0
;   diaphragmLayerInterval,20
;   robustSlicing,1
;   mergeAllIntoSolid,0
;   onlyRetractWhenCrossingOutline,0
;   retractBetweenLayers,0
;   useRetractionMinTravel,0
;   retractionMinTravel,3
;   retractWhileWiping,0
;   onlyWipeOutlines,1
;   avoidCrossingOutline,0
;   maxMovementDetourFactor,3
;   toolChangeRetractionDistance,0
;   toolChangeExtraRestartDistance,0
;   toolChangeRetractionSpeed,360
;   allowThinWallGapFill,1
;   thinWallAllowedOverlapPercentage,30
;   horizontalSizeCompensation,0
G90
M82
M106 S0
M140 S50
M190 S50
M104 S230 T0
M109 S230 T0
G28
G92 E0
G1 E-0.8000 F1800
G1 Z0.180 F1002
; layer 1, Z = 0.18
T0
; tool H0.200 W0.462
; skirt
G1 X86.154 Y73.442 F7800
G1 E0.0000 F540
G92 E0
G1 X86.193 Y73.397 E0.0023 F1800
G1 X86.196 Y73.394 E0.0025
G1 X86.720 Y72.842 E0.0323
G1 X86.722 Y72.840 E0.0324
G1 X86.750 Y72.812 E0.0340
G1 X86.752 Y72.810 E0.0341
G1 X87.304 Y72.286 E0.0639
G1 X87.307 Y72.283 E0.0641
G1 X87.352 Y72.244 E0.0664
G1 X87.355 Y72.241 E0.0666
G1 X88.515 Y71.302 E0.1251
G1 X88.520 Y71.298 E0.1253
G1 X88.583 Y71.252 E0.1284
G1 X88.588 Y71.249 E0.1286
G1 X89.849 Y70.430 E0.1875
G1 X89.853 Y70.427 E0.1877
G1 X89.921 Y70.388 E0.1908
G1 X89.926 Y70.385 E0.1910
G1 X91.266 Y69.703 E0.2499
G1 X91.270 Y69.701 E0.2501
G1 X91.342 Y69.669 E0.2532
G1 X91.348 Y69.667 E0.2534
G1 X92.751 Y69.128 E0.3123
G1 X92.756 Y69.126 E0.3125
G1 X92.831 Y69.102 E0.3156
G1 X92.836 Y69.100 E0.3158
G1 X94.288 Y68.711 E0.3747
G1 X94.293 Y68.710 E0.3749
G1 X94.370 Y68.694 E0.3780
G1 X94.376 Y68.693 E0.3782
G1 X95.860 Y68.457 E0.4371
G1 X95.866 Y68.457 E0.4373
G1 X95.944 Y68.448 E0.4404
G1 X95.950 Y68.448 E0.4407
G1 X97.441 Y68.370 E0.4992
G1 X97.445 Y68.370 E0.4993
G1 X97.504 Y68.369 E0.5016
G1 X97.508 Y68.369 E0.5018
G1 X98.269 Y68.389 E0.5316
G1 X98.272 Y68.389 E0.5318
G1 X98.312 Y68.391 E0.5333
G1 X98.314 Y68.391 E0.5334
G1 X99.073 Y68.451 E0.5632
G1 X99.078 Y68.451 E0.5634
G1 X99.136 Y68.458 E0.5657
G1 X99.140 Y68.459 E0.5659
G1 X100.615 Y68.692 E0.6244
G1 X100.621 Y68.693 E0.6246
G1 X100.698 Y68.710 E0.6277
G1 X100.703 Y68.711 E0.6279
G1 X102.155 Y69.100 E0.6868
G1 X102.160 Y69.102 E0.6870
G1 X102.235 Y69.126 E0.6901
G1 X102.240 Y69.128 E0.6903
G1 X103.643 Y69.667 E0.7492
G1 X103.648 Y69.669 E0.7494
G1 X103.721 Y69.701 E0.7525
G1 X103.725 Y69.703 E0.7527
G1 X105.065 Y70.385 E0.8116
G1 X105.070 Y70.388 E0.8118
G1 X105.138 Y70.427 E0.8149
G1 X105.142 Y70.430 E0.8151
G1 X106.403 Y71.249 E0.8740
G1 X106.407 Y71.252 E0.8743
G1 X106.471 Y71.298 E0.8773
G1 X106.476 Y71.302 E0.8776
G1 X107.644 Y72.248 E0.9365
G1 X107.648 Y72.251 E0.9367
G1 X107.706 Y72.304 E0.9398
G1 X107.710 Y72.308 E0.9400
G1 X108.773 Y73.370 E0.9989
G1 X108.777 Y73.374 E0.9991
G1 X108.830 Y73.433 E1.0022
G1 X108.833 Y73.437 E1.0024
G1 X109.779 Y74.605 E1.0613
G1 X109.783 Y74.610 E1.0615
G1 X109.829 Y74.673 E1.0646
G1 X109.832 Y74.678 E1.0648
G1 X110.651 Y75.938 E1.1237
G1 X110.653 Y75.943 E1.1239
G1 X110.693 Y76.011 E1.1270
G1 X110.695 Y76.016 E1.1272
G1 X111.378 Y77.355 E1.1861
G1 X111.380 Y77.360 E1.1863
G1 X111.412 Y77.432 E1.1894
G1 X111.414 Y77.438 E1.1896
G1 X111.953 Y78.841 E1.2485
G1 X111.955 Y78.846 E1.2487
G1 X111.979 Y78.921 E1.2518
G1 X111.981 Y78.926 E1.2520
G1 X112.370 Y80.378 E1.3109
G1 X112.371 Y80.383 E1.3111
G1 X112.387 Y80.460 E1.3142
G1 X112.388 Y80.466 E1.3145
G1 X112.624 Y81.950 E1.3733
G1 X112.624 Y81.956 E1.3736
G1 X112.633 Y82.034 E1.3767
G1 X112.633 Y82.040 E1.3769
G1 X112.711 Y83.531 E1.4354
G1 X112.711 Y83.535 E1.4355
G1 X112.712 Y83.594 E1.4378
G1 X112.712 Y83.598 E1.4380
G1 X112.692 Y84.359 E1.4679
G1 X112.692 Y84.362 E1.4680
G1 X112.690 Y84.401 E1.4695
G1 X112.690 Y84.404 E1.4696
G1 X112.630 Y85.163 E1.4995
G1 X112.630 Y85.168 E1.4996
G1 X112.623 Y85.226 E1.5019
G1 X112.622 Y85.230 E1.5021
G1 X112.388 Y86.705 E1.5606
G1 X112.387 Y86.711 E1.5608
G1 X112.371 Y86.788 E1.5639
G1 X112.370 Y86.793 E1.5641
G1 X111.981 Y88.245 E1.6230
G1 X111.979 Y88.250 E1.6232
G1 X111.955 Y88.325 E1.6263
G1 X111.953 Y88.330 E1.6265
G1 X111.414 Y89.733 E1.6854
G1 X111.412 Y89.738 E1.6856
G1 X111.380 Y89.810 E1.6887
G1 X111.378 Y89.815 E1.6889
G1 X110.695 Y91.155 E1.7478
G1 X110.693 Y91.159 E1.7481
G1 X110.653 Y91.228 E1.7511
G1 X110.651 Y91.232 E1.7514
G1 X109.832 Y92.493 E1.8103
G1 X109.829 Y92.497 E1.8105
G1 X109.783 Y92.561 E1.8136
G1 X109.779 Y92.566 E1.8138
G1 X108.833 Y93.734 E1.8727
G1 X108.830 Y93.738 E1.8729
G1 X108.777 Y93.796 E1.8760
G1 X108.773 Y93.800 E1.8762
G1 X107.710 Y94.863 E1.9351
G1 X107.706 Y94.867 E1.9353
G1 X107.648 Y94.920 E1.9384
G1 X107.644 Y94.923 E1.9386
G1 X106.476 Y95.869 E1.9975
G1 X106.471 Y95.873 E1.9977
G1 X106.407 Y95.919 E2.0008
G1 X106.403 Y95.922 E2.0010
G1 X105.142 Y96.741 E2.0599
G1 X105.138 Y96.743 E2.0601
G1 X105.069 Y96.783 E2.0632
G1 X105.065 Y96.785 E2.0634
G1 X103.725 Y97.468 E2.1223
G1 X103.721 Y97.470 E2.1225
G1 X103.648 Y97.502 E2.1256
G1 X103.643 Y97.504 E2.1258
G1 X102.240 Y98.043 E2.1847
G1 X102.235 Y98.045 E2.1849
G1 X102.160 Y98.069 E2.1880
G1 X102.155 Y98.071 E2.1883
G1 X100.703 Y98.460 E2.2471
G1 X100.698 Y98.461 E2.2474
G1 X100.621 Y98.477 E2.2504
G1 X100.615 Y98.478 E2.2507
G1 X99.131 Y98.714 E2.3096
G1 X99.125 Y98.714 E2.3098
G1 X99.047 Y98.722 E2.3129
G1 X99.041 Y98.723 E2.3131
G1 X97.550 Y98.801 E2.3716
G1 X97.546 Y98.801 E2.3717
G1 X97.487 Y98.802 E2.3741
G1 X97.483 Y98.802 E2.3742
G1 X96.722 Y98.782 E2.4041
G1 X96.719 Y98.782 E2.4042
G1 X96.679 Y98.780 E2.4057
G1 X96.677 Y98.780 E2.4058
G1 X95.917 Y98.720 E2.4357
G1 X95.913 Y98.720 E2.4358
G1 X95.855 Y98.713 E2.4381
G1 X95.851 Y98.712 E2.4383
G1 X94.376 Y98.478 E2.4968
G1 X94.370 Y98.477 E2.4970
G1 X94.293 Y98.461 E2.5001
G1 X94.288 Y98.460 E2.5003
G1 X92.836 Y98.071 E2.5592
G1 X92.831 Y98.069 E2.5594
G1 X92.756 Y98.045 E2.5625
G1 X92.751 Y98.043 E2.5627
G1 X91.348 Y97.504 E2.6216
G1 X91.342 Y97.502 E2.6219
G1 X91.270 Y97.470 E2.6249
G1 X91.266 Y97.468 E2.6252
G1 X89.926 Y96.785 E2.6841
G1 X89.921 Y96.783 E2.6843
G1 X89.853 Y96.743 E2.6874
G1 X89.849 Y96.741 E2.6876
G1 X88.588 Y95.922 E2.7465
G1 X88.583 Y95.919 E2.7467
G1 X88.520 Y95.873 E2.7498
G1 X88.515 Y95.869 E2.7500
G1 X87.347 Y94.923 E2.8089
G1 X87.343 Y94.920 E2.8091
G1 X87.285 Y94.867 E2.8122
G1 X87.281 Y94.863 E2.8124
G1 X86.218 Y93.800 E2.8713
G1 X86.214 Y93.796 E2.8715
G1 X86.161 Y93.738 E2.8746
G1 X86.158 Y93.734 E2.8748
G1 X85.212 Y92.566 E2.9337
G1 X85.208 Y92.561 E2.9339
G1 X85.162 Y92.497 E2.9370
G1 X85.159 Y92.493 E2.9372
G1 X84.340 Y91.232 E2.9961
G1 X84.338 Y91.228 E2.9963
G1 X84.298 Y91.159 E2.9994
G1 X84.295 Y91.155 E2.9996
G1 X83.618 Y89.824 E3.0581
G1 X83.616 Y89.821 E3.0583
G1 X83.591 Y89.767 E3.0606
G1 X83.589 Y89.763 E3.0608
G1 X83.298 Y89.059 E3.0906
G1 X83.297 Y89.057 E3.0907
G1 X83.283 Y89.020 E3.0923
G1 X83.282 Y89.018 E3.0924
G1 X83.028 Y88.300 E3.1222
G1 X83.026 Y88.296 E3.1224
G1 X83.009 Y88.239 E3.1247
G1 X83.008 Y88.235 E3.1249
G1 X82.621 Y86.793 E3.1834
G1 X82.620 Y86.788 E3.1836
G1 X82.604 Y86.711 E3.1867
G1 X82.603 Y86.705 E3.1869
G1 X82.367 Y85.221 E3.2458
G1 X82.367 Y85.215 E3.2460
G1 X82.358 Y85.137 E3.2491
G1 X82.358 Y85.131 E3.2493
G1 X82.279 Y83.630 E3.3082
G1 X82.279 Y83.625 E3.3084
G1 X82.279 Y83.546 E3.3115
G1 X82.279 Y83.541 E3.3117
G1 X82.358 Y82.040 E3.3706
G1 X82.358 Y82.034 E3.3708
G1 X82.367 Y81.956 E3.3739
G1 X82.367 Y81.950 E3.3741
G1 X82.603 Y80.466 E3.4330
G1 X82.604 Y80.460 E3.4332
G1 X82.620 Y80.383 E3.4363
G1 X82.621 Y80.378 E3.4365
G1 X83.010 Y78.926 E3.4954
G1 X83.012 Y78.921 E3.4957
G1 X83.036 Y78.846 E3.4987
G1 X83.038 Y78.841 E3.4990
G1 X83.577 Y77.438 E3.5579
G1 X83.579 Y77.432 E3.5581
G1 X83.611 Y77.360 E3.5612
G1 X83.613 Y77.355 E3.5614
G1 X84.295 Y76.016 E3.6203
G1 X84.298 Y76.011 E3.6205
G1 X84.338 Y75.943 E3.6236
G1 X84.340 Y75.939 E3.6238
G1 X85.159 Y74.678 E3.6827
G1 X85.162 Y74.673 E3.6829
G1 X85.208 Y74.610 E3.6860
G1 X85.212 Y74.605 E3.6862
G1 X86.028 Y73.597 E3.7370
G1 X86.151 Y73.445 F1800
G1 X86.154 Y73.442 F1800
G92 E0
G1 E-0.8000 F1800
G1 X93.468 Y104.613 F7800
G1 E0.0000 F1800
G92 E0
G1 X94.265 Y104.423 E0.0321 F1800
G1 X94.267 Y104.422 E0.0322
G1 X94.306 Y104.414 E0.0337
G1 X94.308 Y104.414 E0.0338
G1 X95.114 Y104.265 E0.0659
G1 X95.117 Y104.265 E0.0661
G1 X95.155 Y104.258 E0.0676
G1 X95.158 Y104.258 E0.0677
G1 X95.970 Y104.152 E0.0998
G1 X95.973 Y104.151 E0.0999
G1 X96.012 Y104.147 E0.1014
G1 X96.015 Y104.147 E0.1015
G1 X96.832 Y104.083 E0.1336
G1 X96.834 Y104.083 E0.1338
G1 X96.873 Y104.081 E0.1353
G1 X96.876 Y104.081 E0.1354
G1 X97.695 Y104.059 E0.1675
G1 X97.698 Y104.059 E0.1676
G1 X97.737 Y104.059 E0.1691
G1 X97.740 Y104.059 E0.1692
G1 X98.559 Y104.081 E0.2014
G1 X98.562 Y104.081 E0.2015
G1 X98.601 Y104.083 E0.2030
G1 X98.603 Y104.083 E0.2031
G1 X99.420 Y104.147 E0.2352
G1 X99.423 Y104.147 E0.2353
G1 X99.462 Y104.151 E0.2368
G1 X99.465 Y104.152 E0.2370
G1 X100.277 Y104.258 E0.2691
G1 X100.280 Y104.258 E0.2692
G1 X100.318 Y104.265 E0.2707
G1 X100.321 Y104.265 E0.2708
G1 X101.127 Y104.414 E0.3029
G1 X101.129 Y104.414 E0.3030
G1 X101.168 Y104.422 E0.3045
G1 X101.170 Y104.423 E0.3047
G1 X101.967 Y104.613 E0.3367
G1 X101.970 Y104.614 E0.3369
G1 X102.008 Y104.624 E0.3384
G1 X102.010 Y104.625 E0.3385
G1 X102.796 Y104.856 E0.3706
G1 X102.798 Y104.857 E0.3707
G1 X102.836 Y104.869 E0.3722
G1 X102.838 Y104.870 E0.3723
G1 X103.611 Y105.142 E0.4044
G1 X103.613 Y105.143 E0.4045
G1 X103.650 Y105.157 E0.4061
G1 X103.652 Y105.158 E0.4062
G1 X104.409 Y105.470 E0.4383
G1 X104.412 Y105.471 E0.4384
G1 X104.448 Y105.487 E0.4399
G1 X104.450 Y105.488 E0.4400
G1 X105.190 Y105.839 E0.4721
G1 X105.192 Y105.840 E0.4722
G1 X105.227 Y105.858 E0.4737
G1 X105.230 Y105.859 E0.4738
G1 X105.950 Y106.248 E0.5059
G1 X105.952 Y106.249 E0.5060
G1 X105.986 Y106.269 E0.5076
G1 X105.989 Y106.270 E0.5077
G1 X106.687 Y106.696 E0.5397
G1 X106.690 Y106.698 E0.5398
G1 X106.723 Y106.719 E0.5414
G1 X106.725 Y106.721 E0.5415
G1 X107.400 Y107.182 E0.5735
G1 X107.403 Y107.184 E0.5736
G1 X107.435 Y107.207 E0.5752
G1 X107.437 Y107.209 E0.5753
G1 X108.087 Y107.705 E0.6073
G1 X108.089 Y107.707 E0.6075
G1 X108.120 Y107.731 E0.6090
G1 X108.122 Y107.733 E0.6091
G1 X108.745 Y108.263 E0.6411
G1 X108.747 Y108.264 E0.6413
G1 X108.776 Y108.291 E0.6428
G1 X108.778 Y108.293 E0.6429
G1 X109.373 Y108.854 E0.6749
G1 X109.375 Y108.856 E0.6750
G1 X109.403 Y108.884 E0.6766
G1 X109.405 Y108.886 E0.6767
G1 X109.969 Y109.477 E0.7087
G1 X109.971 Y109.479 E0.7088
G1 X109.997 Y109.508 E0.7104
G1 X109.999 Y109.510 E0.7105
G1 X110.531 Y110.130 E0.7425
G1 X110.533 Y110.132 E0.7426
G1 X110.558 Y110.163 E0.7442
G1 X110.560 Y110.165 E0.7443
G1 X111.059 Y110.812 E0.7763
G1 X111.060 Y110.814 E0.7764
G1 X111.084 Y110.846 E0.7779
G1 X111.085 Y110.848 E0.7780
G1 X111.549 Y111.520 E0.8101
G1 X111.551 Y111.523 E0.8102
G1 X111.573 Y111.556 E0.8117
G1 X111.574 Y111.558 E0.8118
G1 X112.002 Y112.253 E0.8438
G1 X112.004 Y112.256 E0.8439
G1 X112.024 Y112.290 E0.8455
G1 X112.025 Y112.292 E0.8456
G1 X112.416 Y113.009 E0.8776
G1 X112.417 Y113.012 E0.8777
G1 X112.435 Y113.047 E0.8792
G1 X112.437 Y113.049 E0.8793
G1 X112.789 Y113.785 E0.9113
G1 X112.791 Y113.788 E0.9114
G1 X112.807 Y113.824 E0.9130
G1 X112.808 Y113.826 E0.9131
G1 X113.122 Y114.580 E0.9451
G1 X113.123 Y114.582 E0.9452
G1 X113.137 Y114.619 E0.9467
G1 X113.138 Y114.622 E0.9468
G1 X113.411 Y115.391 E0.9788
G1 X113.412 Y115.393 E0.9789
G1 X113.425 Y115.431 E0.9805
G1 X113.425 Y115.434 E0.9806
G1 X113.658 Y116.216 E1.0126
G1 X113.659 Y116.218 E1.0127
G1 X113.669 Y116.257 E1.0142
G1 X113.670 Y116.259 E1.0143
G1 X113.861 Y117.052 E1.0463
G1 X113.862 Y117.055 E1.0464
