;FLAVOR:Marlin
;TIME:1007
;Filament used: 0.333023m
;Layer height: 0.2
;Generated with Cura_SteamEngine 2.7.0
M190 S60
M104 S220
M109 S220
G21 ;metric values
G90 ;absolute positioning
M82 ;set extruder to absolute mode
M107 ;start with the fan off
G92 E0 ;zero the extruded length
G1 F200 E3 ;extrude 3mm of feed stock
G92 E0 ;zero the extruded length again
G1 F9000
M117 Printing...
;LAYER_COUNT:31
;LAYER:0
M107
M204 S5000
G0 F2400 X64.43 Y87.683 Z0.3
M204 S200
;TYPE:SKIRT
G1 F1200 X64.888 Y87.378 E0.02738
G1 X65.551 Y87.082 E0.06352
G1 X65.995 Y86.933 E0.08682
G1 X66.528 Y86.796 E0.11421
G1 X67.115 Y86.737 E0.14357
G1 X116.773 Y85.614 E2.61546
G1 X117.323 Y85.641 E2.64286
G1 X117.863 Y85.748 E2.67026
G1 X118.382 Y85.932 E2.69766
G1 X118.868 Y86.189 E2.72502
G1 X119.493 Y86.677 E2.76448
G1 X119.61 Y86.79 E2.77258
G1 X119.977 Y87.2 E2.79996
G1 X120.281 Y87.659 E2.82736
G1 X120.515 Y88.157 E2.85474
G1 X120.674 Y88.684 E2.88214
G1 X120.766 Y89.429 E2.91949
G1 X120.863 Y93.61 E3.12762
G1 X120.836 Y94.16 E3.15502
G1 X120.729 Y94.7 E3.18242
G1 X120.546 Y95.219 E3.2098
G1 X120.289 Y95.705 E3.23716
G1 X119.8 Y96.331 E3.27669
G1 X119.688 Y96.447 E3.28472
G1 X119.278 Y96.814 E3.3121
G1 X118.819 Y97.118 E3.3395
G1 X118.321 Y97.352 E3.36688
G1 X117.795 Y97.512 E3.39425
G1 X117.047 Y97.604 E3.43175
G1 X66.748 Y98.742 E5.93554
G1 X66.198 Y98.715 E5.96295
G1 X65.658 Y98.608 E5.99034
G1 X65.139 Y98.424 E6.01775
G1 X64.653 Y98.167 E6.04511
G1 X64.028 Y97.679 E6.08457
G1 X63.911 Y97.566 E6.09266
G1 X63.544 Y97.156 E6.12005
G1 X63.24 Y96.697 E6.14745
G1 X63.006 Y96.199 E6.17483
G1 X62.847 Y95.672 E6.20222
G1 X62.755 Y94.925 E6.23968
G1 X62.722 Y93.473 E6.31196
G1 X62.749 Y92.923 E6.33936
G1 X62.784 Y92.745 E6.34839
G1 X62.71 Y92.339 E6.36893
G1 X62.689 Y91.836 E6.39398
G1 X62.711 Y90.942 E6.43848
G1 X62.765 Y90.394 E6.46589
G1 X62.897 Y89.86 E6.49326
G1 X63.105 Y89.35 E6.52067
G1 X63.414 Y88.834 E6.5506
G1 X63.67 Y88.475 E6.57255
G1 X64.022 Y88.051 E6.59997
G1 X64.43 Y87.683 E6.62731
M204 S5000
G0 F2400 X64.72 Y87.964
M204 S200
G1 F1200 X65.159 Y87.684 E6.65323
G1 X65.678 Y87.46 E6.68136
G1 X66.122 Y87.311 E6.70466
G1 X66.627 Y87.184 E6.73058
G1 X67.124 Y87.136 E6.75543
G1 X116.782 Y86.013 E9.22731
G1 X117.302 Y86.041 E9.25323
G1 X117.811 Y86.148 E9.27911
G1 X118.298 Y86.333 E9.30504
G1 X118.751 Y86.589 E9.33093
G1 X119.215 Y86.964 E9.36062
G1 X119.332 Y87.077 E9.36872
G1 X119.678 Y87.466 E9.39463
G1 X119.96 Y87.904 E9.42055
G1 X120.172 Y88.38 E9.44648
G1 X120.308 Y88.882 E9.47236
G1 X120.367 Y89.438 E9.50019
G1 X120.464 Y93.619 E9.70831
G1 X120.436 Y94.139 E9.73423
G1 X120.329 Y94.649 E9.76016
G1 X120.145 Y95.136 E9.78607
G1 X119.889 Y95.589 E9.81197
G1 X119.513 Y96.054 E9.84173
G1 X119.401 Y96.17 E9.84975
G1 X119.012 Y96.516 E9.87566
G1 X118.574 Y96.798 E9.90158
G1 X118.099 Y97.009 E9.92745
G1 X117.597 Y97.146 E9.95334
G1 X117.038 Y97.205 E9.98132
G1 X66.739 Y98.343 E12.48511
G1 X66.219 Y98.315 E12.51103
G1 X65.71 Y98.208 E12.53691
G1 X65.223 Y98.023 E12.56284
G1 X64.77 Y97.767 E12.58873
G1 X64.306 Y97.392 E12.61842
G1 X64.189 Y97.279 E12.62652
G1 X63.843 Y96.89 E12.65243
G1 X63.561 Y96.452 E12.67835
G1 X63.349 Y95.976 E12.70428
G1 X63.213 Y95.474 E12.73016
G1 X63.154 Y94.916 E12.75809
G1 X63.121 Y93.464 E12.83037
G1 X63.149 Y92.944 E12.85628
G1 X63.192 Y92.738 E12.86675
G1 X63.157 Y92.616 E12.87307
G1 X63.088 Y91.846 E12.91154
G1 X63.11 Y90.952 E12.95605
G1 X63.163 Y90.434 E12.98196
G1 X63.294 Y89.93 E13.00788
G1 X63.501 Y89.452 E13.0338
G1 X63.739 Y89.066 E13.05637
G1 X63.995 Y88.707 E13.07831
G1 X64.329 Y88.307 E13.10424
G1 X64.72 Y87.964 E13.13013
M204 S5000
G0 F2400 X65.008 Y88.248
M204 S200
G1 F1200 X65.426 Y87.995 E13.15444
G1 X65.805 Y87.839 E13.17484
G1 X66.249 Y87.69 E13.19814
G1 X66.723 Y87.572 E13.22245
G1 X67.133 Y87.535 E13.24294
G1 X116.791 Y86.412 E15.71483
G1 X117.279 Y86.441 E15.73915
G1 X117.756 Y86.549 E15.76349
G1 X118.209 Y86.733 E15.78783
G1 X118.626 Y86.988 E15.81215
G1 X118.938 Y87.251 E15.83246
G1 X119.055 Y87.364 E15.84055
G1 X119.378 Y87.731 E15.86488
G1 X119.637 Y88.146 E15.88923
G1 X119.824 Y88.598 E15.91357
G1 X119.936 Y89.074 E15.93791
G1 X119.968 Y89.448 E15.95659
G1 X120.065 Y93.629 E16.16471
G1 X120.037 Y94.117 E16.18904
G1 X119.929 Y94.594 E16.21338
G1 X119.745 Y95.047 E16.23771
G1 X119.49 Y95.464 E16.26203
G1 X119.226 Y95.777 E16.28241
G1 X119.114 Y95.893 E16.29044
G1 X118.747 Y96.216 E16.31477
G1 X118.332 Y96.474 E16.33908
G1 X117.881 Y96.662 E16.3634
G1 X117.405 Y96.774 E16.38774
G1 X117.029 Y96.806 E16.40651
G1 X66.73 Y97.944 E18.91031
G1 X66.242 Y97.915 E18.93464
G1 X65.765 Y97.807 E18.95898
G1 X65.312 Y97.623 E18.98331
G1 X64.895 Y97.368 E19.00763
G1 X64.583 Y97.105 E19.02794
G1 X64.466 Y96.992 E19.03604
G1 X64.143 Y96.625 E19.06037
G1 X63.884 Y96.21 E19.08471
G1 X63.697 Y95.758 E19.10905
G1 X63.585 Y95.282 E19.13339
G1 X63.553 Y94.907 E19.15212
G1 X63.52 Y93.455 E19.2244
G1 X63.549 Y92.967 E19.24873
G1 X63.603 Y92.73 E19.26082
G1 X63.517 Y92.359 E19.27977
G1 X63.487 Y91.855 E19.3049
G1 X63.509 Y90.961 E19.3494
G1 X63.561 Y90.475 E19.37373
G1 X63.691 Y90.004 E19.39804
G1 X63.897 Y89.56 E19.4224
G1 X64.064 Y89.297 E19.43791
G1 X64.32 Y88.938 E19.45985
G1 X64.636 Y88.565 E19.48418
G1 X65.008 Y88.248 E19.5085
M204 S5000
G0 F2400 X65.932 Y88.217
M204 S200
G1 F1200 X66.376 Y88.068 E19.53181
G1 X66.818 Y87.961 E19.55444
G1 X67.142 Y87.934 E19.57062
G1 X116.8 Y86.811 E22.04251
G1 X117.254 Y86.84 E22.06515
G1 X117.696 Y86.949 E22.0878
G1 X118.113 Y87.133 E22.11048
G1 X118.49 Y87.387 E22.13311
G1 X118.661 Y87.538 E22.14446
G1 X118.778 Y87.651 E22.15255
G1 X119.076 Y87.995 E22.1752
G1 X119.31 Y88.385 E22.19784
G1 X119.472 Y88.811 E22.22052
G1 X119.569 Y89.457 E22.25303
G1 X119.666 Y93.638 E22.46115
G1 X119.637 Y94.092 E22.48379
G1 X119.529 Y94.534 E22.50644
G1 X119.345 Y94.95 E22.52907
G1 X119.091 Y95.328 E22.55174
G1 X118.939 Y95.5 E22.56316
G1 X118.827 Y95.616 E22.57118
G1 X118.484 Y95.914 E22.5938
G1 X118.093 Y96.148 E22.61647
G1 X117.668 Y96.31 E22.63911
G1 X117.02 Y96.407 E22.67171
G1 X66.721 Y97.545 E25.17551
G1 X66.267 Y97.516 E25.19815
G1 X65.825 Y97.407 E25.2208
G1 X65.408 Y97.223 E25.24349
G1 X65.031 Y96.969 E25.26611
G1 X64.86 Y96.818 E25.27746
G1 X64.743 Y96.705 E25.28556
G1 X64.445 Y96.361 E25.30821
G1 X64.211 Y95.971 E25.33084
G1 X64.049 Y95.545 E25.35352
G1 X63.952 Y94.898 E25.38608
G1 X63.919 Y93.446 E25.45836
G1 X63.948 Y92.992 E25.481
G1 X64.016 Y92.715 E25.49519
G1 X63.964 Y92.564 E25.50314
G1 X63.892 Y92.114 E25.52582
G1 X63.886 Y91.865 E25.53821
G1 X63.908 Y90.971 E25.58272
G1 X63.959 Y90.519 E25.60535
G1 X64.088 Y90.083 E25.62798
G1 X64.389 Y89.529 E25.65936
G1 X64.645 Y89.17 E25.6813
G1 X64.941 Y88.824 E25.70396
G1 X65.292 Y88.535 E25.72659
G1 X65.689 Y88.312 E25.74925
G1 X65.932 Y88.217 E25.76223
M204 S5000
G0 F2400 X66.503 Y88.446
M204 S200
G1 F1200 X66.91 Y88.351 E25.78303
G1 X67.151 Y88.333 E25.79506
G1 X116.809 Y87.21 E28.26694
G1 X117.227 Y87.24 E28.2878
G1 X117.631 Y87.349 E28.30862
G1 X118.007 Y87.533 E28.32946
G1 X118.384 Y87.825 E28.35319
G1 X118.501 Y87.938 E28.36128
G1 X118.773 Y88.256 E28.38211
G1 X118.979 Y88.62 E28.40292
G1 X119.113 Y89.017 E28.42377
G1 X119.17 Y89.466 E28.4463
G1 X119.267 Y93.647 E28.65442
G1 X119.237 Y94.065 E28.67528
G1 X119.128 Y94.469 E28.6961
G1 X118.945 Y94.845 E28.71691
G1 X118.652 Y95.223 E28.74071
G1 X118.54 Y95.339 E28.74874
G1 X118.222 Y95.611 E28.76956
G1 X117.858 Y95.817 E28.79038
G1 X117.461 Y95.951 E28.81123
G1 X117.011 Y96.008 E28.8338
G1 X66.712 Y97.146 E31.3376
G1 X66.294 Y97.116 E31.35845
G1 X65.89 Y97.007 E31.37928
G1 X65.514 Y96.823 E31.40011
G1 X65.137 Y96.531 E31.42384
G1 X65.02 Y96.418 E31.43193
G1 X64.748 Y96.1 E31.45276
G1 X64.542 Y95.736 E31.47357
G1 X64.408 Y95.339 E31.49443
G1 X64.351 Y94.889 E31.517
G1 X64.318 Y93.437 E31.58928
G1 X64.348 Y93.019 E31.61013
G1 X64.43 Y92.714 E31.62585
G1 X64.426 Y92.705 E31.62634
G1 X64.316 Y92.302 E31.64713
G1 X64.285 Y91.875 E31.66844
G1 X64.307 Y90.981 E31.71294
G1 X64.357 Y90.565 E31.73379
G1 X64.485 Y90.167 E31.7546
G1 X64.714 Y89.761 E31.77779
G1 X64.97 Y89.402 E31.79974
G1 X65.244 Y89.086 E31.82055
G1 X65.574 Y88.827 E31.84143
G1 X66.059 Y88.595 E31.86818
G1 X66.503 Y88.446 E31.89149
M204 S5000
G0 F2400 X66.186 Y88.973
M204 S200
G1 F1200 X66.63 Y88.824 E31.9148
G1 X67.16 Y88.731 E31.94158
G1 X116.818 Y87.608 E34.41346
G1 X117.196 Y87.64 E34.43234
G1 X117.558 Y87.75 E34.45117
G1 X117.889 Y87.933 E34.46999
G1 X118.107 Y88.112 E34.48403
G1 X118.224 Y88.225 E34.49212
G1 X118.467 Y88.515 E34.51095
G1 X118.644 Y88.85 E34.52981
G1 X118.746 Y89.214 E34.54862
G1 X118.772 Y89.475 E34.56167
G1 X118.869 Y93.656 E34.7698
G1 X118.837 Y94.034 E34.78868
G1 X118.728 Y94.396 E34.80749
G1 X118.545 Y94.727 E34.82631
G1 X118.365 Y94.945 E34.84038
G1 X118.253 Y95.061 E34.84841
G1 X117.963 Y95.305 E34.86727
G1 X117.628 Y95.481 E34.8861
G1 X117.264 Y95.584 E34.90493
G1 X117.002 Y95.61 E34.91803
G1 X66.703 Y96.748 E37.42182
G1 X66.325 Y96.716 E37.4407
G1 X65.963 Y96.606 E37.45953
G1 X65.632 Y96.423 E37.47835
G1 X65.414 Y96.244 E37.49239
G1 X65.297 Y96.131 E37.50048
G1 X65.054 Y95.841 E37.51931
G1 X64.877 Y95.506 E37.53817
G1 X64.775 Y95.142 E37.55698
G1 X64.749 Y94.88 E37.57008
G1 X64.716 Y93.428 E37.64236
G1 X64.748 Y93.051 E37.66119
G1 X64.857 Y92.688 E37.68005
G1 X64.859 Y92.685 E37.68023
G1 X64.753 Y92.427 E37.69411
G1 X64.684 Y91.885 E37.7213
G1 X64.706 Y90.991 E37.76581
G1 X64.755 Y90.615 E37.78468
G1 X64.881 Y90.259 E37.80347
G1 X65.039 Y89.992 E37.81891
G1 X65.295 Y89.633 E37.84085
G1 X65.546 Y89.35 E37.85968
G1 X65.851 Y89.126 E37.87851
G1 X66.186 Y88.973 E37.89684
M204 S5000
G0 F2400 X66.313 Y89.352
M204 S200
G1 F1200 X66.757 Y89.203 E37.92015
G1 X67.169 Y89.13 E37.94097
G1 X116.827 Y88.007 E40.41285
G1 X117.16 Y88.04 E40.42951
G1 X117.475 Y88.15 E40.44611
G1 X117.83 Y88.399 E40.46769
G1 X117.947 Y88.512 E40.47579
G1 X118.157 Y88.771 E40.49238
G1 X118.3 Y89.072 E40.50896
G1 X118.373 Y89.485 E40.52983
G1 X118.47 Y93.666 E40.73796
G1 X118.437 Y93.998 E40.75456
G1 X118.327 Y94.313 E40.77117
G1 X118.078 Y94.668 E40.79275
G1 X117.966 Y94.784 E40.80077
G1 X117.707 Y94.995 E40.8174
G1 X117.406 Y95.138 E40.83398
G1 X116.993 Y95.211 E40.85485
G1 X66.694 Y96.349 E43.35865
G1 X66.361 Y96.316 E43.3753
G1 X66.046 Y96.206 E43.3919
G1 X65.691 Y95.957 E43.41348
G1 X65.574 Y95.844 E43.42158
G1 X65.364 Y95.585 E43.43817
G1 X65.221 Y95.284 E43.45476
G1 X65.148 Y94.871 E43.47563
G1 X65.115 Y93.419 E43.54791
G1 X65.148 Y93.087 E43.56451
G1 X65.258 Y92.772 E43.58111
G1 X65.314 Y92.685 E43.58626
G1 X65.196 Y92.482 E43.59795
G1 X65.102 Y92.162 E43.61455
G1 X65.082 Y91.895 E43.62787
G1 X65.104 Y91.001 E43.67237
G1 X65.152 Y90.67 E43.68902
G1 X65.364 Y90.224 E43.71359
G1 X65.62 Y89.865 E43.73554
G1 X65.844 Y89.618 E43.75213
G1 X66.121 Y89.432 E43.76874
G1 X66.313 Y89.352 E43.77909
M204 S5000
G1 F1500 E41.77909
G0 F2400 X65.84 Y90.929
G0 X65.817 Y92.676
M204 S200
G1 F1500 E43.77909
G1 F1200 X65.814 Y92.674 E43.77927
G1 X65.633 Y92.458 E43.79329
G1 X65.519 Y92.2 E43.80733
G1 X65.481 Y91.904 E43.82218
G1 X65.503 Y91.01 E43.86668
G1 X65.55 Y90.732 E43.88071
G1 X65.688 Y90.456 E43.89607
G1 X65.944 Y90.097 E43.91801
G1 X66.139 Y89.892 E43.93209
G1 X66.439 Y89.73 E43.94906
G1 X66.883 Y89.581 E43.97237
G1 X67.178 Y89.529 E43.98728
G1 X116.836 Y88.406 E46.45916
G1 X117.116 Y88.44 E46.4732
G1 X117.376 Y88.55 E46.48725
G1 X117.552 Y88.686 E46.49832
G1 X117.669 Y88.799 E46.50641
G1 X117.842 Y89.022 E46.52046
G1 X117.946 Y89.284 E46.53449
G1 X117.974 Y89.494 E46.54503
G1 X118.071 Y93.675 E46.75315
G1 X118.037 Y93.955 E46.76719
G1 X117.927 Y94.214 E46.78119
G1 X117.791 Y94.391 E46.7923
G1 X117.679 Y94.507 E46.80033
G1 X117.457 Y94.68 E46.81433
G1 X117.195 Y94.784 E46.82836
G1 X116.984 Y94.812 E46.83895
G1 X66.685 Y95.95 E49.34275
G1 X66.405 Y95.916 E49.35679
G1 X66.145 Y95.806 E49.37083
G1 X65.969 Y95.67 E49.3819
G1 X65.852 Y95.557 E49.39
G1 X65.679 Y95.334 E49.40404
G1 X65.575 Y95.072 E49.41807
G1 X65.547 Y94.862 E49.42862
G1 X65.514 Y93.41 E49.50089
G1 X65.548 Y93.13 E49.51493
G1 X65.658 Y92.87 E49.52898
G1 X65.817 Y92.676 E49.54146
M204 S5000
G1 F1500 E47.54146
G0 F2400 X66.496 Y92.649
G0 X66.576 Y92.646
G0 X66.904 Y92.634
G0 X66.984 Y92.631
G0 X67.013 Y92.63
G0 X67.177 Y92.845
M204 S200
G1 F1500 E49.54146
G1 F1200 X70.981 Y92.677 E49.73095
G1 X71.127 Y92.584 E49.73957
G1 X71.164 Y92.423 E49.74779
G1 X71.122 Y92.291 E49.75468
G1 X71.023 Y92.201 E49.76134
G1 X70.803 Y92.152 E49.77256
G1 X67.14 Y92.459 E49.95549
G1 X67.033 Y92.531 E49.96191
G1 X66.833 Y92.618 E49.97276
G1 X66.615 Y92.627 E49.98362
G1 X66.441 Y92.575 E49.99266
G1 X66.221 Y92.47 E50.00479
G1 X66.045 Y92.341 E50.01565
G1 X65.926 Y92.159 E50.02647
G1 X65.88 Y91.914 E50.03888
G1 X65.902 Y91.02 E50.08338
G1 X65.947 Y90.807 E50.09421
G1 X66.013 Y90.687 E50.10103
G1 X66.269 Y90.328 E50.12297
G1 X66.426 Y90.177 E50.13381
G1 X66.566 Y90.108 E50.14158
G1 X67.01 Y89.959 E50.16489
G1 X67.187 Y89.928 E50.17383
G1 X116.845 Y88.805 E52.64571
G1 X117.061 Y88.84 E52.6566
G1 X117.275 Y88.973 E52.66914
G1 X117.392 Y89.086 E52.67724
G1 X117.519 Y89.264 E52.68812
G1 X117.575 Y89.503 E52.70034
G1 X117.672 Y93.684 E52.90846
G1 X117.637 Y93.899 E52.9193
G1 X117.504 Y94.114 E52.93188
G1 X117.392 Y94.23 E52.93991
G1 X117.214 Y94.357 E52.95079
G1 X116.975 Y94.413 E52.96301
G1 X66.676 Y95.551 E55.4668
G1 X66.46 Y95.516 E55.47769
G1 X66.246 Y95.383 E55.49023
G1 X66.129 Y95.27 E55.49832
G1 X66.002 Y95.092 E55.50921
G1 X65.946 Y94.853 E55.52142
G1 X65.913 Y93.401 E55.5937
G1 X65.948 Y93.185 E55.60459
G1 X66.057 Y92.997 E55.6154
G1 X66.215 Y92.867 E55.62559
G1 X66.422 Y92.749 E55.63744
G1 X66.628 Y92.677 E55.6483
G1 X66.846 Y92.684 E55.65916
G1 X67.027 Y92.755 E55.66883
G1 X67.177 Y92.845 E55.67754
M204 S5000
G0 F2400 X67.075 Y93.248
M204 S200
G1 F1200 X71.106 Y93.07 E55.87834
G1 X71.41 Y92.876 E55.89629
G1 X71.498 Y92.753 E55.90381
G1 X71.578 Y92.407 E55.92149
G1 X71.47 Y92.07 E55.9391
G1 X71.211 Y91.833 E55.95657
G1 X70.831 Y91.749 E55.97594
G1 X67.004 Y92.07 E56.16706
G1 X66.81 Y92.2 E56.17868
G1 X66.69 Y92.234 E56.18489
G1 X66.613 Y92.214 E56.18884
G1 X66.393 Y92.109 E56.20098
G1 X66.303 Y92.023 E56.20717
G1 X66.279 Y91.924 E56.21224
G1 X66.301 Y91.03 E56.25674
G1 X66.338 Y90.919 E56.26257
G1 X66.594 Y90.56 E56.28451
G1 X66.693 Y90.486 E56.29066
G1 X67.137 Y90.337 E56.31397
G1 X67.196 Y90.327 E56.31695
G1 X116.854 Y89.204 E58.78883
G1 X116.998 Y89.26 E58.79652
G1 X117.115 Y89.373 E58.80462
G1 X117.176 Y89.512 E58.81217
G1 X117.273 Y93.693 E59.02029
G1 X117.217 Y93.837 E59.02798
G1 X117.105 Y93.953 E59.03601
G1 X116.966 Y94.014 E59.04356
G1 X66.667 Y95.152 E61.54736
G1 X66.523 Y95.096 E61.55505
G1 X66.406 Y94.983 E61.56314
G1 X66.345 Y94.844 E61.57069
G1 X66.312 Y93.392 E61.64297
G1 X66.348 Y93.272 E61.64921
G1 X66.413 Y93.213 E61.65358
G1 X66.62 Y93.095 E61.66543
G1 X66.742 Y93.07 E61.67163
G1 X66.822 Y93.097 E61.67583
G1 X67.075 Y93.248 E61.6905
M204 S5000
G1 F1500 E59.6905
G0 F2400 X67.216 Y92.799
G0 X67.215 Y92.795
G0 X67.227 Y92.875
G0 X67.626 Y95.513
G0 X67.638 Y95.592
G0 X68.115 Y98.737
M204 S200
G1 F1500 E61.6905
G1 F1200 X117.773 Y97.614 E64.16238
G1 X118.323 Y97.641 E64.18979
G1 X118.863 Y97.748 E64.21718
G1 X119.382 Y97.932 E64.24459
G1 X119.868 Y98.189 E64.27194
G1 X120.493 Y98.677 E64.31141
G1 X120.61 Y98.79 E64.3195
G1 X120.977 Y99.2 E64.34689
G1 X121.281 Y99.659 E64.37428
G1 X121.515 Y100.157 E64.40167
G1 X121.674 Y100.684 E64.42906
G1 X121.766 Y101.429 E64.46642
G1 X121.863 Y105.61 E64.67454
G1 X121.836 Y106.16 E64.70195
G1 X121.729 Y106.7 E64.72934
G1 X121.546 Y107.219 E64.75673
G1 X121.289 Y107.705 E64.78409
G1 X120.8 Y108.331 E64.82362
G1 X120.688 Y108.447 E64.83164
G1 X120.278 Y108.814 E64.85903
G1 X119.819 Y109.118 E64.88643
G1 X119.321 Y109.352 E64.91381
G1 X118.795 Y109.512 E64.94117
G1 X118.047 Y109.604 E64.97868
G1 X67.748 Y110.742 E67.48247
G1 X67.198 Y110.715 E67.50987
G1 X66.658 Y110.608 E67.53727
G1 X66.139 Y110.424 E67.56467
G1 X65.653 Y110.167 E67.59203
G1 X65.028 Y109.679 E67.63149
G1 X64.911 Y109.566 E67.63959
