;Generated from 30mm-wsupports-indexe.stl 252c5cdc83a9bbd2b3a2a8618aa62af3e3d678a6
;Generated with Cura_SteamEngine 15.04
M140 S55.0
M109 T0 S210.0
T0
M190 S55.0

;Basic settings: Layer height: 0.15 Walls: 1.2 Fill: 50
;Print time: ?print_time?
;Filament used: ?filament_amount?m ?filament_weight?g
;Filament cost: ?filament_cost?
;M190 S55 ;Uncomment to add your own bed temperature line
;M109 S210 ;Uncomment to add your own temperature line
G21        ;metric values
G90        ;absolute positioning
M82        ;set extruder to absolute mode
M107       ;start with the fan off
G28 X0 Y0  ;move X/Y to min endstops
G28 Z0     ;move Z to min endstops
G1 Z5.0 F9000 ;move the platform down 15mm
G92 E0                  ;zero the extruded length
G1 F200 E3              ;extrude 3mm of feed stock
G92 E0                  ;zero the extruded length again
G1 F9000
;Put printing message on LCD screen
M117 Printing...

;Layer count: 42
;LAYER:0
M107
G0 F9000 X83.944 Y82.475 Z0.300
;TYPE:SKIRT
G1 F1200 X85.213 Y81.828 E0.07106
G1 X85.804 Y81.529 E0.10411
G1 X87.192 Y81.311 E0.17420
G1 X87.563 Y81.251 E0.19295
G1 X112.430 Y81.251 E1.43357
G1 X113.555 Y81.428 E1.49039
G1 X114.208 Y81.533 E1.52339
G1 X115.460 Y82.171 E1.59349
G1 X116.052 Y82.471 E1.62660
G1 X117.525 Y83.944 E1.73053
G1 X118.172 Y85.213 E1.80160
G1 X118.471 Y85.804 E1.83464
G1 X118.689 Y87.192 E1.90474
G1 X118.749 Y87.563 E1.92349
G1 X118.749 Y112.430 E3.16411
G1 X118.572 Y113.555 E3.22092
G1 X118.467 Y114.208 E3.25392
G1 X117.824 Y115.469 E3.32454
G1 X117.529 Y116.052 E3.35714
G1 X116.056 Y117.525 E3.46106
G1 X114.787 Y118.172 E3.53213
G1 X114.196 Y118.471 E3.56517
G1 X112.808 Y118.689 E3.63527
G1 X112.437 Y118.749 E3.65402
G1 X87.570 Y118.749 E4.89464
G1 X86.445 Y118.572 E4.95146
G1 X85.792 Y118.467 E4.98445
G1 X84.540 Y117.829 E5.05456
G1 X83.948 Y117.529 E5.08767
G1 X82.475 Y116.056 E5.19160
G1 X81.828 Y114.787 E5.26266
G1 X81.529 Y114.196 E5.29570
G1 X81.309 Y112.794 E5.36651
G1 X81.251 Y112.437 E5.38455
G1 X81.251 Y87.570 E6.62517
G1 X81.428 Y86.445 E6.68199
G1 X81.533 Y85.792 E6.71498
G1 X82.176 Y84.531 E6.78560
G1 X82.471 Y83.948 E6.81820
G1 X83.944 Y82.475 E6.92213
G0 F9000 X84.182 Y82.802
G1 F1200 X85.394 Y82.184 E6.99000
G1 X85.928 Y81.914 E7.01986
G1 X87.268 Y81.704 E7.08752
G1 X87.595 Y81.651 E7.10405
G1 X112.399 Y81.651 E8.34153
G1 X113.492 Y81.823 E8.39673
G1 X114.082 Y81.918 E8.42654
G1 X115.280 Y82.528 E8.49361
G1 X115.814 Y82.799 E8.52349
G1 X117.198 Y84.182 E8.62110
G1 X117.816 Y85.394 E8.68898
G1 X118.086 Y85.928 E8.71883
G1 X118.294 Y87.256 E8.78589
G1 X118.349 Y87.595 E8.80303
G1 X118.349 Y112.399 E10.04050
G1 X118.177 Y113.492 E10.09570
G1 X118.082 Y114.082 E10.12552
G1 X117.468 Y115.288 E10.19303
G1 X117.201 Y115.814 E10.22246
G1 X115.818 Y117.198 E10.32008
G1 X114.606 Y117.816 E10.38795
G1 X114.072 Y118.086 E10.41780
G1 X112.732 Y118.296 E10.48547
G1 X112.405 Y118.349 E10.50200
G1 X87.601 Y118.349 E11.73948
G1 X86.508 Y118.177 E11.79468
G1 X85.918 Y118.082 E11.82449
G1 X84.712 Y117.468 E11.89201
G1 X84.186 Y117.201 E11.92144
G1 X82.802 Y115.818 E12.01905
G1 X82.184 Y114.606 E12.08693
G1 X81.914 Y114.072 E12.11678
G1 X81.704 Y112.732 E12.18445
G1 X81.651 Y112.405 E12.20097
G1 X81.651 Y87.601 E13.43845
G1 X81.823 Y86.508 E13.49365
G1 X81.918 Y85.918 E13.52347
G1 X82.532 Y84.712 E13.59098
G1 X82.799 Y84.186 E13.62041
G1 X84.182 Y82.802 E13.71803
G1 F2400 E9.21803
G0 F9000 X89.536 Y85.887
;TYPE:WALL-INNER
G1 F2400 E13.71803
G1 F1200 X89.465 Y85.851 E13.72200
G1 X96.461 Y85.851 E14.07103
G1 X94.725 Y86.388 E14.16169
G1 X92.812 Y87.297 E14.26735
G1 X91.106 Y88.439 E14.36978
G1 X90.894 Y88.587 E14.38268
G1 X90.333 Y89.107 E14.42084
G1 X90.485 Y88.808 E14.43757
G1 X90.614 Y88.000 E14.47839
G1 X90.485 Y87.193 E14.51917
G1 X90.114 Y86.465 E14.55993
G1 X89.536 Y85.887 E14.60071
G0 F9000 X90.206 Y88.000
G0 X89.784 Y89.296
G0 X88.808 Y90.485
G1 F1200 X89.064 Y90.355 E14.61504
G1 X88.011 Y91.676 E14.69932
G1 X86.953 Y93.471 E14.80327
G1 X86.763 Y93.865 E14.82509
G1 X86.077 Y95.613 E14.91878
G1 X86.006 Y95.858 E14.93150
G1 X85.851 Y96.538 E14.96630
G1 X85.851 Y89.465 E15.31917
G1 X85.887 Y89.536 E15.32314
G1 X86.465 Y90.114 E15.36392
G1 X87.193 Y90.485 E15.40469
G1 X88.000 Y90.614 E15.44546
G1 X88.808 Y90.485 E15.48628
G0 F9000 X86.395 Y95.959
G0 X85.800 Y100.004
G0 X85.851 Y103.440
G1 F1200 X86.006 Y104.134 E15.52176
G1 X86.074 Y104.382 E15.53459
G1 X86.763 Y106.132 E15.62842
G1 X86.949 Y106.522 E15.64998
G1 X87.903 Y108.172 E15.74506
G1 X89.069 Y109.648 E15.83891
G1 X88.808 Y109.515 E15.85352
G1 X88.000 Y109.386 E15.89434
G1 X87.193 Y109.515 E15.93512
G1 X86.465 Y109.886 E15.97588
G1 X85.887 Y110.464 E16.01666
G1 X85.851 Y110.535 E16.02063
G1 X85.851 Y103.440 E16.37460
G0 F9000 X88.236 Y107.946
G0 X90.485 Y111.192
G1 F1200 X90.336 Y110.899 E16.39100
G1 X90.713 Y111.249 E16.41667
G1 X90.902 Y111.420 E16.42938
G1 X92.621 Y112.594 E16.53324
G1 X94.511 Y113.521 E16.63826
G1 X94.746 Y113.620 E16.65098
G1 X96.463 Y114.149 E16.74062
G1 X89.465 Y114.149 E17.08975
G1 X89.536 Y114.113 E17.09372
G1 X90.114 Y113.535 E17.13450
G1 X90.485 Y112.807 E17.17527
G1 X90.614 Y112.000 E17.21604
G1 X90.485 Y111.192 E17.25686
G0 F9000 X96.630 Y113.781
G0 X101.135 Y114.151
G0 X103.539 Y114.149
G1 F1200 X105.275 Y113.612 E17.34752
G1 X107.188 Y112.703 E17.45319
G1 X108.894 Y111.561 E17.55561
G1 X109.106 Y111.413 E17.56851
G1 X109.667 Y110.893 E17.60667
G1 X109.515 Y111.192 E17.62340
G1 X109.386 Y112.000 E17.66422
G1 X109.515 Y112.807 E17.70500
G1 X109.886 Y113.535 E17.74576
G1 X110.464 Y114.113 E17.78654
G1 X110.535 Y114.149 E17.79051
G1 X103.539 Y114.149 E18.13955
G0 F9000 X106.989 Y112.353
G0 X111.192 Y109.515
G1 F1200 X110.936 Y109.645 E18.15387
G1 X111.989 Y108.324 E18.23815
G1 X113.047 Y106.529 E18.34210
G1 X113.237 Y106.135 E18.36393
G1 X113.923 Y104.387 E18.45761
G1 X113.994 Y104.142 E18.47034
G1 X114.149 Y103.462 E18.50513
G1 X114.149 Y110.535 E18.85800
G1 X114.113 Y110.464 E18.86198
G1 X113.535 Y109.886 E18.90276
G1 X112.807 Y109.515 E18.94352
G1 X112.000 Y109.386 E18.98429
G1 X111.192 Y109.515 E19.02512
G0 F9000 X113.605 Y104.041
G0 X114.200 Y99.996
G0 X114.149 Y96.560
G1 F1200 X113.994 Y95.866 E19.06059
G1 X113.926 Y95.618 E19.07342
G1 X113.237 Y93.868 E19.16725
G1 X113.051 Y93.478 E19.18881
G1 X112.097 Y91.828 E19.28390
G1 X110.931 Y90.352 E19.37774
G1 X111.192 Y90.485 E19.39235
G1 X112.000 Y90.614 E19.43318
G1 X112.807 Y90.485 E19.47395
G1 X113.535 Y90.114 E19.51471
G1 X114.113 Y89.536 E19.55549
G1 X114.149 Y89.465 E19.55947
G1 X114.149 Y96.560 E19.91344
G0 F9000 X111.764 Y92.054
G0 X109.515 Y88.808
G1 F1200 X109.664 Y89.101 E19.92984
G1 X109.287 Y88.751 E19.95550
G1 X109.098 Y88.580 E19.96822
G1 X107.379 Y87.406 E20.07207
G1 X105.489 Y86.479 E20.17709
G1 X105.254 Y86.380 E20.18982
G1 X103.537 Y85.851 E20.27945
G1 X110.535 Y85.851 E20.62858
G1 X110.464 Y85.887 E20.63255
G1 X109.886 Y86.465 E20.67334
G1 X109.515 Y87.193 E20.71410
G1 X109.386 Y88.000 E20.75487
G1 X109.515 Y88.808 E20.79569
G0 F9000 X109.900 Y88.683
G1 F1200 X110.213 Y89.298 E20.83012
G1 X110.702 Y89.787 E20.86462
G1 X111.317 Y90.100 E20.89905
G1 X112.000 Y90.209 E20.93356
G1 X112.682 Y90.100 E20.96801
G1 X113.297 Y89.787 E21.00244
G1 X113.786 Y89.298 E21.03694
G1 X114.099 Y88.683 E21.07137
G1 X114.208 Y88.000 E21.10588
G1 X114.099 Y87.318 E21.14033
G1 X113.786 Y86.703 E21.17476
G1 X113.297 Y86.214 E21.20926
G1 X112.682 Y85.901 E21.24369
G1 X112.000 Y85.792 E21.27815
G1 X111.317 Y85.901 E21.31265
G1 X110.702 Y86.214 E21.34708
G1 X110.213 Y86.703 E21.38158
G1 X109.900 Y87.318 E21.41601
G1 X109.791 Y88.000 E21.45047
G1 X109.900 Y88.683 E21.48497
G0 F9000 X109.017 Y89.046
G1 F1200 X108.850 Y88.895 E21.49621
G1 X107.167 Y87.746 E21.59787
G1 X105.325 Y86.844 E21.70020
G1 X105.117 Y86.756 E21.71147
G1 X103.370 Y86.218 E21.80266
G1 X103.155 Y86.156 E21.81383
G1 X101.140 Y85.849 E21.91552
G1 X100.915 Y85.835 E21.92676
G1 X99.089 Y85.836 E22.01786
G1 X98.865 Y85.847 E22.02905
G1 X97.041 Y86.123 E22.12109
G1 X96.648 Y86.212 E22.14119
G1 X94.870 Y86.762 E22.23404
G1 X93.010 Y87.646 E22.33679
G1 X91.332 Y88.769 E22.43752
G1 X91.145 Y88.899 E22.44888
G1 X89.647 Y90.287 E22.55077
G1 X89.496 Y90.454 E22.56200
G1 X88.341 Y91.903 E22.65445
G1 X87.306 Y93.660 E22.75618
G1 X87.130 Y94.026 E22.77644
G1 X86.456 Y95.742 E22.86842
G1 X85.989 Y97.737 E22.97064
G1 X85.950 Y97.957 E22.98179
G1 X85.813 Y99.779 E23.07295
G1 X85.800 Y100.004 E23.08419
G1 X85.952 Y102.055 E23.18680
G1 X86.394 Y104.037 E23.28811
G1 X86.454 Y104.255 E23.29939
G1 X87.130 Y105.972 E23.39145
G1 X87.304 Y106.336 E23.41158
G1 X88.235 Y107.947 E23.50441
G1 X89.493 Y109.541 E23.60571
G1 X89.642 Y109.711 E23.61699
G1 X90.983 Y110.954 E23.70822
G1 X91.150 Y111.105 E23.71945
G1 X92.833 Y112.254 E23.82111
G1 X94.675 Y113.156 E23.92344
G1 X94.883 Y113.244 E23.93471
G1 X96.630 Y113.782 E24.02590
G1 X96.845 Y113.844 E24.03707
G1 X98.860 Y114.151 E24.13876
G1 X99.085 Y114.165 E24.15000
G1 X100.911 Y114.164 E24.24110
G1 X101.135 Y114.153 E24.25229
G1 X102.959 Y113.877 E24.34433
G1 X103.352 Y113.788 E24.36443
G1 X105.130 Y113.238 E24.45728
G1 X106.990 Y112.354 E24.56003
G1 X108.668 Y111.231 E24.66076
G1 X108.855 Y111.101 E24.67212
G1 X110.353 Y109.713 E24.77401
G1 X110.504 Y109.546 E24.78524
G1 X111.659 Y108.097 E24.87769
G1 X112.694 Y106.340 E24.97942
G1 X112.870 Y105.974 E24.99968
G1 X113.544 Y104.258 E25.09166
G1 X114.011 Y102.263 E25.19388
G1 X114.050 Y102.043 E25.20503
G1 X114.187 Y100.221 E25.29619
G1 X114.200 Y99.996 E25.30743
G1 X114.048 Y97.945 E25.41004
G1 X113.606 Y95.963 E25.51135
G1 X113.546 Y95.745 E25.52263
G1 X112.870 Y94.028 E25.61469
G1 X112.696 Y93.664 E25.63482
G1 X111.765 Y92.053 E25.72765
G1 X110.507 Y90.459 E25.82895
G1 X110.358 Y90.289 E25.84023
G1 X109.017 Y89.046 E25.93146
G0 F9000 X110.704 Y86.217
G0 X112.101 Y85.451
G1 F1200 X112.887 Y85.575 E25.97115
G1 X113.558 Y85.916 E26.00871
G1 X114.084 Y86.442 E26.04582
G1 X114.425 Y87.111 E26.08328
G1 X114.542 Y87.858 E26.12100
G1 X114.549 Y112.101 E27.33049
G1 X114.425 Y112.887 E27.37019
G1 X114.084 Y113.558 E27.40774
G1 X113.558 Y114.084 E27.44485
G1 X112.889 Y114.425 E27.48231
G1 X112.142 Y114.542 E27.52004
G1 X87.899 Y114.549 E28.72953
G1 X87.113 Y114.425 E28.76922
G1 X86.442 Y114.084 E28.80678
G1 X85.916 Y113.558 E28.84389
G1 X85.575 Y112.889 E28.88135
G1 X85.458 Y112.142 E28.91907
G1 X85.451 Y87.899 E30.12856
G1 X85.575 Y87.113 E30.16826
G1 X85.916 Y86.442 E30.20581
G1 X86.442 Y85.916 E30.24292
G1 X87.111 Y85.575 E30.28038
G1 X87.858 Y85.458 E30.31811
G1 X112.101 Y85.451 E31.52760
G0 F9000 X97.042 Y86.124
G0 X94.871 Y86.762
G0 X90.209 Y88.000
G1 F1200 X90.100 Y87.318 E31.56205
G1 X89.787 Y86.703 E31.59648
G1 X89.298 Y86.214 E31.63098
G1 X88.683 Y85.901 E31.66541
G1 X88.000 Y85.792 E31.69992
G1 X87.318 Y85.901 E31.73437
G1 X86.703 Y86.214 E31.76880
G1 X86.214 Y86.703 E31.80330
G1 X85.901 Y87.318 E31.83773
G1 X85.792 Y88.000 E31.87219
G1 X85.901 Y88.683 E31.90669
G1 X86.214 Y89.298 E31.94112
G1 X86.703 Y89.787 E31.97562
G1 X87.318 Y90.100 E32.01005
G1 X88.000 Y90.209 E32.04451
G1 X88.683 Y90.100 E32.07901
G1 X89.298 Y89.787 E32.11344
G1 X89.787 Y89.298 E32.14794
G1 X90.100 Y88.683 E32.18237
G1 X90.209 Y88.000 E32.21688
G0 F9000 X88.343 Y91.904
G0 X86.395 Y95.959
G0 X85.800 Y100.004
G0 X86.455 Y104.254
G0 X88.000 Y109.791
G1 F1200 X87.318 Y109.900 E32.25133
G1 X86.703 Y110.213 E32.28576
G1 X86.214 Y110.702 E32.32026
G1 X85.901 Y111.317 E32.35469
G1 X85.792 Y112.000 E32.38920
G1 X85.901 Y112.682 E32.42365
G1 X86.214 Y113.297 E32.45808
G1 X86.703 Y113.786 E32.49258
G1 X87.318 Y114.099 E32.52701
G1 X88.000 Y114.208 E32.56147
G1 X88.683 Y114.099 E32.59597
G1 X89.298 Y113.786 E32.63040
G1 X89.787 Y113.297 E32.66490
G1 X90.100 Y112.682 E32.69933
G1 X90.209 Y112.000 E32.73379
G1 X90.100 Y111.317 E32.76829
G1 X89.787 Y110.702 E32.80272
G1 X89.298 Y110.213 E32.83722
G1 X88.683 Y109.900 E32.87165
G1 X88.000 Y109.791 E32.90616
G0 F9000 X91.151 Y111.104
G0 X94.883 Y113.243
G0 X99.085 Y114.165
G0 X103.351 Y113.788
G0 X106.989 Y112.353
G0 X109.791 Y112.000
G1 F1200 X109.900 Y112.682 E32.94061
G1 X110.213 Y113.297 E32.97504
G1 X110.702 Y113.786 E33.00954
G1 X111.317 Y114.099 E33.04397
G1 X112.000 Y114.208 E33.07848
G1 X112.682 Y114.099 E33.11293
G1 X113.297 Y113.786 E33.14736
G1 X113.786 Y113.297 E33.18186
G1 X114.099 Y112.682 E33.21629
G1 X114.208 Y112.000 E33.25075
G1 X114.099 Y111.317 E33.28525
G1 X113.786 Y110.702 E33.31968
G1 X113.297 Y110.213 E33.35418
G1 X112.682 Y109.900 E33.38861
G1 X112.000 Y109.791 E33.42307
G1 X111.317 Y109.900 E33.45757
G1 X110.702 Y110.213 E33.49200
G1 X110.213 Y110.702 E33.52650
G1 X109.900 Y111.317 E33.56093
G1 X109.791 Y112.000 E33.59544
G0 F9000 X110.196 Y112.000
;TYPE:WALL-OUTER
G1 F1200 X110.285 Y112.557 E33.62358
G1 X110.541 Y113.059 E33.65169
G1 X110.940 Y113.458 E33.67984
G1 X111.442 Y113.714 E33.70796
G1 X112.000 Y113.803 E33.73615
G1 X112.557 Y113.714 E33.76429
G1 X113.059 Y113.458 E33.79240
G1 X113.458 Y113.059 E33.82055
G1 X113.714 Y112.557 E33.84867
G1 X113.803 Y112.000 E33.87681
G1 X113.714 Y111.442 E33.90500
G1 X113.458 Y110.940 E33.93311
G1 X113.059 Y110.541 E33.96126
G1 X112.557 Y110.285 E33.98938
G1 X112.000 Y110.196 E34.01752
G1 X111.442 Y110.285 E34.04571
G1 X110.940 Y110.541 E34.07382
G1 X110.541 Y110.940 E34.10197
G1 X110.285 Y111.442 E34.13009
G1 X110.196 Y112.000 E34.15828
G0 F9000 X109.901 Y111.954
G0 X108.602 Y111.154
G0 X108.443 Y110.900
G1 F1200 X108.604 Y110.788 E34.16806
G1 X110.068 Y109.432 E34.26762
G1 X111.328 Y107.870 E34.36774
G1 X112.341 Y106.151 E34.46729
G1 X112.503 Y105.814 E34.48594
G1 X113.165 Y104.129 E34.57626
G1 X113.619 Y102.184 E34.67590
G1 X113.653 Y101.993 E34.68558
G1 X113.788 Y100.194 E34.77559
G1 X113.799 Y99.999 E34.78533
G1 X113.651 Y98.004 E34.88514
G1 X113.218 Y96.060 E34.98450
G1 X113.166 Y95.872 E34.99423
G1 X112.503 Y94.187 E35.08457
G1 X112.342 Y93.851 E35.10316
G1 X111.433 Y92.278 E35.19380
G1 X110.199 Y90.715 E35.29315
G1 X110.071 Y90.568 E35.30287
G1 X108.747 Y89.341 E35.39293
G1 X108.602 Y89.210 E35.40268
G1 X106.956 Y88.086 E35.50212
G1 X105.160 Y87.209 E35.60183
G1 X104.980 Y87.133 E35.61158
G1 X103.255 Y86.601 E35.70164
G1 X103.069 Y86.547 E35.71131
G1 X101.097 Y86.247 E35.81082
G1 X100.903 Y86.235 E35.82052
G1 X99.099 Y86.236 E35.91052
G1 X98.905 Y86.246 E35.92021
G1 X97.115 Y86.516 E36.01053
G1 X96.751 Y86.599 E36.02915
G1 X95.016 Y87.135 E36.11975
G1 X93.208 Y87.995 E36.21963
G1 X91.557 Y89.100 E36.31875
G1 X91.396 Y89.212 E36.32853
G1 X89.932 Y90.568 E36.42809
G1 X88.672 Y92.130 E36.52821
G1 X87.659 Y93.849 E36.62776
G1 X87.497 Y94.186 E36.64641
G1 X86.835 Y95.871 E36.73673
G1 X86.381 Y97.816 E36.83638
G1 X86.347 Y98.007 E36.84606
G1 X86.212 Y99.806 E36.93606
G1 X86.201 Y100.001 E36.94580
G1 X86.349 Y101.996 E37.04561
G1 X86.782 Y103.940 E37.14497
G1 X86.834 Y104.128 E37.15470
G1 X87.497 Y105.813 E37.24504
G1 X87.658 Y106.149 E37.26363
G1 X88.567 Y107.722 E37.35427
G1 X89.801 Y109.285 E37.45362
G1 X89.929 Y109.432 E37.46334
G1 X91.253 Y110.659 E37.55340
G1 X91.398 Y110.790 E37.56315
G1 X93.044 Y111.914 E37.66259
G1 X94.840 Y112.791 E37.76231
G1 X95.020 Y112.867 E37.77205
G1 X96.745 Y113.399 E37.86211
G1 X96.931 Y113.453 E37.87178
G1 X98.903 Y113.753 E37.97129
G1 X99.097 Y113.765 E37.98099
G1 X100.901 Y113.764 E38.07099
G1 X101.095 Y113.754 E38.08068
G1 X102.885 Y113.484 E38.17100
G1 X103.249 Y113.401 E38.18962
G1 X104.984 Y112.865 E38.28022
G1 X106.792 Y112.005 E38.38011
G1 X108.443 Y110.900 E38.47922
G0 F9000 X108.602 Y111.154
G0 X110.704 Y113.783
G0 X112.106 Y114.649
G0 X112.131 Y114.949
G1 F1200 X87.869 Y114.949 E39.68966
G1 X86.984 Y114.810 E39.73435
G1 X86.205 Y114.413 E39.77797
G1 X85.587 Y113.795 E39.82157
G1 X85.190 Y113.016 E39.86519
G1 X85.051 Y112.131 E39.90989
G1 X85.051 Y87.869 E41.12032
G1 X85.190 Y86.984 E41.16502
G1 X85.587 Y86.205 E41.20864
G1 X86.205 Y85.587 E41.25224
G1 X86.984 Y85.190 E41.29586
G1 X87.869 Y85.051 E41.34056
G1 X112.131 Y85.051 E42.55099
G1 X113.016 Y85.190 E42.59569
G1 X113.795 Y85.587 E42.63931
G1 X114.413 Y86.205 E42.68291
G1 X114.810 Y86.984 E42.72653
