;Generated from 30mm-wsupports.stl 96bdb4934ad271bbfc458a04bdefc97d79a3fbed
;Generated with Cura_SteamEngine 15.04
M140 S55.0
M109 T0 S210.0
T0
M190 S55.0

;Basic settings: Layer height: 0.15 Walls: 1.2 Fill: 50
;Print time: ?print_time?
;Filament used: ?filament_amount?m ?filament_weight?g
;Filament cost: ?filament_cost?
;M190 S55 ;Uncomment to add your own bed temperature line
;M109 S210 ;Uncomment to add your own temperature line
G21        ;metric values
G90        ;absolute positioning
M82        ;set extruder to absolute mode
M107       ;start with the fan off
;G28 X0 Y0  ;move X/Y to min endstops
;G28 Z0     ;move Z to min endstops
;G1 Z5.0 F9000 ;move the platform down 15mm
G92 E0                  ;zero the extruded length
G1 F200 E3              ;extrude 3mm of feed stock
G92 E0                  ;zero the extruded length again
G1 F9000
;Put printing message on LCD screen
M117 Printing...

;Layer count: 42
;LAYER:0
M107
G0 F9000 X83.230 Y81.492 Z0.300
;TYPE:SKIRT
G1 F1200 X84.670 Y80.758 E0.08064
G1 X85.430 Y80.372 E0.12316
G1 X87.020 Y80.123 E0.20346
G1 X87.467 Y80.051 E0.22604
G1 X112.523 Y80.051 E1.47609
G1 X113.743 Y80.242 E1.53770
G1 X114.585 Y80.378 E1.58025
G1 X116.002 Y81.101 E1.65962
G1 X116.765 Y81.487 E1.70228
G1 X118.508 Y83.230 E1.82526
G1 X119.242 Y84.670 E1.90589
G1 X119.628 Y85.430 E1.94842
G1 X119.874 Y87.001 E2.02775
G1 X119.949 Y87.467 E2.05130
G1 X119.949 Y112.523 E3.30135
G1 X119.758 Y113.743 E3.36296
G1 X119.622 Y114.585 E3.40551
G1 X118.893 Y116.014 E3.48554
G1 X118.513 Y116.765 E3.52753
G1 X116.770 Y118.508 E3.65051
G1 X115.330 Y119.242 E3.73115
G1 X114.570 Y119.628 E3.77367
G1 X112.980 Y119.877 E3.85397
G1 X112.533 Y119.949 E3.87655
G1 X87.477 Y119.949 E5.12660
G1 X86.257 Y119.758 E5.18821
G1 X85.415 Y119.622 E5.23076
G1 X83.986 Y118.893 E5.31080
G1 X83.235 Y118.513 E5.35279
G1 X81.492 Y116.770 E5.47577
G1 X80.758 Y115.330 E5.55640
G1 X80.372 Y114.570 E5.59893
G1 X80.123 Y112.980 E5.67922
G1 X80.051 Y112.533 E5.70181
G1 X80.051 Y87.477 E6.95186
G1 X80.242 Y86.257 E7.01347
G1 X80.378 Y85.415 E7.05602
G1 X81.107 Y83.986 E7.13605
G1 X81.487 Y83.235 E7.17804
G1 X83.230 Y81.492 E7.30102
G0 F9000 X83.468 Y81.819
G1 F1200 X84.851 Y81.114 E7.37847
G1 X85.555 Y80.758 E7.41783
G1 X87.082 Y80.518 E7.49494
G1 X87.499 Y80.451 E7.51601
G1 X112.492 Y80.451 E8.76292
G1 X113.681 Y80.638 E8.82297
G1 X114.459 Y80.763 E8.86228
G1 X115.833 Y81.463 E8.93921
G1 X116.527 Y81.815 E8.97804
G1 X118.181 Y83.468 E9.09470
G1 X118.886 Y84.851 E9.17214
G1 X119.242 Y85.555 E9.21150
G1 X119.479 Y87.065 E9.28776
G1 X119.549 Y87.499 E9.30969
G1 X119.549 Y112.492 E10.55660
G1 X119.362 Y113.681 E10.61665
G1 X119.237 Y114.459 E10.65596
G1 X118.537 Y115.833 E10.73289
G1 X118.185 Y116.527 E10.77171
G1 X116.532 Y118.181 E10.88838
G1 X115.149 Y118.886 E10.96582
G1 X114.445 Y119.242 E11.00518
G1 X112.918 Y119.482 E11.08230
G1 X112.501 Y119.549 E11.10337
G1 X87.508 Y119.549 E12.35028
G1 X86.319 Y119.362 E12.41032
G1 X85.541 Y119.237 E12.44964
G1 X84.167 Y118.537 E12.52657
G1 X83.473 Y118.185 E12.56539
G1 X81.819 Y116.532 E12.68206
G1 X81.114 Y115.149 E12.75950
G1 X80.758 Y114.445 E12.79886
G1 X80.518 Y112.918 E12.87598
G1 X80.451 Y112.501 E12.89705
G1 X80.451 Y87.508 E14.14395
G1 X80.638 Y86.319 E14.20400
G1 X80.763 Y85.541 E14.24331
G1 X81.463 Y84.167 E14.32025
G1 X81.815 Y83.473 E14.35907
G1 X83.468 Y81.819 E14.47573
G0 F9000 X83.706 Y82.147
G1 F1200 X85.032 Y81.471 E14.54999
G1 X85.679 Y81.143 E14.58618
G1 X87.144 Y80.913 E14.66016
G1 X87.531 Y80.851 E14.67972
G1 X112.461 Y80.851 E15.92348
G1 X113.618 Y81.033 E15.98191
G1 X114.334 Y81.148 E16.01809
G1 X115.641 Y81.815 E16.09130
G1 X115.641 Y81.814 E16.09135
G1 X116.290 Y82.143 E16.12765
G1 X117.853 Y83.706 E16.23793
G1 X118.529 Y85.032 E16.31218
G1 X118.857 Y85.679 E16.34837
G1 X119.084 Y87.128 E16.42154
G1 X119.149 Y87.531 E16.44191
G1 X119.149 Y112.461 E17.68567
G1 X118.967 Y113.618 E17.74411
G1 X118.852 Y114.334 E17.78029
G1 X118.185 Y115.641 E17.85349
G1 X118.186 Y115.641 E17.85354
G1 X117.857 Y116.290 E17.88984
G1 X116.294 Y117.853 E18.00012
G1 X114.968 Y118.529 E18.07438
G1 X114.321 Y118.857 E18.11057
G1 X112.856 Y119.087 E18.18455
G1 X112.469 Y119.149 E18.20410
G1 X87.539 Y119.149 E19.44787
G1 X86.382 Y118.967 E19.50630
G1 X85.666 Y118.852 E19.54248
G1 X84.359 Y118.185 E19.61569
G1 X84.359 Y118.186 E19.61574
G1 X83.710 Y117.857 E19.65204
G1 X82.147 Y116.294 E19.76232
G1 X81.471 Y114.968 E19.83657
G1 X81.143 Y114.321 E19.87276
G1 X80.913 Y112.856 E19.94675
G1 X80.851 Y112.469 E19.96630
G1 X80.851 Y87.539 E21.21006
G1 X81.033 Y86.382 E21.26849
G1 X81.148 Y85.666 E21.30467
G1 X81.815 Y84.359 E21.37788
G1 X81.814 Y84.359 E21.37793
G1 X82.143 Y83.710 E21.41423
G1 X83.706 Y82.147 E21.52451
G0 F9000 X83.944 Y82.475
G1 F1200 X85.213 Y81.828 E21.59557
G1 X85.804 Y81.529 E21.62862
G1 X87.192 Y81.311 E21.69871
G1 X87.563 Y81.251 E21.71746
G1 X112.430 Y81.251 E22.95808
G1 X113.555 Y81.428 E23.01490
G1 X114.208 Y81.533 E23.04790
G1 X115.460 Y82.171 E23.11800
G1 X116.052 Y82.471 E23.15111
G1 X117.525 Y83.944 E23.25504
G1 X118.172 Y85.213 E23.32611
G1 X118.471 Y85.804 E23.35915
G1 X118.689 Y87.192 E23.42925
G1 X118.749 Y87.563 E23.44800
G1 X118.749 Y112.430 E24.68862
G1 X118.572 Y113.555 E24.74543
G1 X118.467 Y114.208 E24.77843
G1 X117.824 Y115.469 E24.84905
G1 X117.529 Y116.052 E24.88165
G1 X116.056 Y117.525 E24.98557
G1 X114.787 Y118.172 E25.05664
G1 X114.196 Y118.471 E25.08968
G1 X112.808 Y118.689 E25.15978
G1 X112.437 Y118.749 E25.17853
G1 X87.570 Y118.749 E26.41915
G1 X86.445 Y118.572 E26.47597
G1 X85.792 Y118.467 E26.50896
G1 X84.540 Y117.829 E26.57907
G1 X83.948 Y117.529 E26.61218
G1 X82.475 Y116.056 E26.71611
G1 X81.828 Y114.787 E26.78717
G1 X81.529 Y114.196 E26.82021
G1 X81.309 Y112.794 E26.89102
G1 X81.251 Y112.437 E26.90906
G1 X81.251 Y87.570 E28.14968
G1 X81.428 Y86.445 E28.20650
G1 X81.533 Y85.792 E28.23949
G1 X82.176 Y84.531 E28.31011
G1 X82.471 Y83.948 E28.34271
G1 X83.944 Y82.475 E28.44664
G0 F9000 X84.182 Y82.802
G1 F1200 X85.394 Y82.184 E28.51451
G1 X85.928 Y81.914 E28.54436
G1 X87.268 Y81.704 E28.61203
G1 X87.595 Y81.651 E28.62856
G1 X112.399 Y81.651 E29.86604
G1 X113.492 Y81.823 E29.92124
G1 X114.082 Y81.918 E29.95105
G1 X115.280 Y82.528 E30.01812
G1 X115.814 Y82.799 E30.04800
G1 X117.198 Y84.182 E30.14561
G1 X117.816 Y85.394 E30.21349
G1 X118.086 Y85.928 E30.24334
G1 X118.294 Y87.256 E30.31040
G1 X118.349 Y87.595 E30.32754
G1 X118.349 Y112.399 E31.56501
G1 X118.177 Y113.492 E31.62021
G1 X118.082 Y114.082 E31.65003
G1 X117.468 Y115.288 E31.71754
G1 X117.201 Y115.814 E31.74697
G1 X115.818 Y117.198 E31.84459
G1 X114.606 Y117.816 E31.91246
G1 X114.072 Y118.086 E31.94231
G1 X112.732 Y118.296 E32.00998
G1 X112.405 Y118.349 E32.02651
G1 X87.601 Y118.349 E33.26399
G1 X86.508 Y118.177 E33.31919
G1 X85.918 Y118.082 E33.34900
G1 X84.712 Y117.468 E33.41652
G1 X84.186 Y117.201 E33.44595
G1 X82.802 Y115.818 E33.54356
G1 X82.184 Y114.606 E33.61144
G1 X81.914 Y114.072 E33.64129
G1 X81.704 Y112.732 E33.70896
G1 X81.651 Y112.405 E33.72548
G1 X81.651 Y87.601 E34.96296
G1 X81.823 Y86.508 E35.01816
G1 X81.918 Y85.918 E35.04798
G1 X82.532 Y84.712 E35.11549
G1 X82.799 Y84.186 E35.14492
G1 X84.182 Y82.802 E35.24254
G1 F2400 E30.74254
G0 F9000 X89.536 Y85.887
;TYPE:WALL-INNER
G1 F2400 E35.24254
G1 F1200 X89.465 Y85.851 E35.24651
G1 X96.461 Y85.851 E35.59554
G1 X94.725 Y86.388 E35.68620
G1 X92.812 Y87.297 E35.79186
G1 X91.106 Y88.439 E35.89429
G1 X90.894 Y88.587 E35.90719
G1 X90.333 Y89.107 E35.94535
G1 X90.485 Y88.808 E35.96208
G1 X90.614 Y88.000 E36.00290
G1 X90.485 Y87.193 E36.04368
G1 X90.114 Y86.465 E36.08444
G1 X89.536 Y85.887 E36.12522
G0 F9000 X90.206 Y88.000
G0 X89.784 Y89.296
G0 X88.808 Y90.485
G1 F1200 X89.064 Y90.355 E36.13955
G1 X88.011 Y91.676 E36.22383
G1 X86.953 Y93.471 E36.32778
G1 X86.763 Y93.865 E36.34960
G1 X86.077 Y95.613 E36.44328
G1 X86.006 Y95.858 E36.45601
G1 X85.851 Y96.538 E36.49081
G1 X85.851 Y89.465 E36.84368
G1 X85.887 Y89.536 E36.84765
G1 X86.465 Y90.114 E36.88843
G1 X87.193 Y90.485 E36.92920
G1 X88.000 Y90.614 E36.96997
G1 X88.808 Y90.485 E37.01079
G0 F9000 X86.395 Y95.959
G0 X85.800 Y100.004
G0 X85.851 Y103.440
G1 F1200 X86.006 Y104.134 E37.04627
G1 X86.074 Y104.382 E37.05910
G1 X86.763 Y106.132 E37.15293
G1 X86.949 Y106.522 E37.17449
G1 X87.903 Y108.172 E37.26957
G1 X89.069 Y109.648 E37.36342
G1 X88.808 Y109.515 E37.37803
G1 X88.000 Y109.386 E37.41885
G1 X87.193 Y109.515 E37.45962
G1 X86.465 Y109.886 E37.50039
G1 X85.887 Y110.464 E37.54117
G1 X85.851 Y110.535 E37.54514
G1 X85.851 Y103.440 E37.89911
G0 F9000 X88.236 Y107.946
G0 X90.485 Y111.192
G1 F1200 X90.336 Y110.899 E37.91551
G1 X90.713 Y111.249 E37.94118
G1 X90.902 Y111.420 E37.95389
G1 X92.621 Y112.594 E38.05775
G1 X94.511 Y113.521 E38.16277
G1 X94.746 Y113.620 E38.17549
G1 X96.463 Y114.149 E38.26513
G1 X89.465 Y114.149 E38.61426
G1 X89.536 Y114.113 E38.61823
G1 X90.114 Y113.535 E38.65901
G1 X90.485 Y112.807 E38.69978
G1 X90.614 Y112.000 E38.74055
G1 X90.485 Y111.192 E38.78137
G0 F9000 X96.630 Y113.781
G0 X101.135 Y114.151
G0 X103.539 Y114.149
G1 F1200 X105.275 Y113.612 E38.87203
G1 X107.188 Y112.703 E38.97769
G1 X108.894 Y111.561 E39.08012
G1 X109.106 Y111.413 E39.09302
G1 X109.667 Y110.893 E39.13118
G1 X109.515 Y111.192 E39.14791
G1 X109.386 Y112.000 E39.18873
G1 X109.515 Y112.807 E39.22951
G1 X109.886 Y113.535 E39.27027
G1 X110.464 Y114.113 E39.31105
G1 X110.535 Y114.149 E39.31502
G1 X103.539 Y114.149 E39.66406
G0 F9000 X106.989 Y112.353
G0 X111.192 Y109.515
G1 F1200 X110.936 Y109.645 E39.67838
G1 X111.989 Y108.324 E39.76266
G1 X113.047 Y106.529 E39.86661
G1 X113.237 Y106.135 E39.88844
G1 X113.923 Y104.387 E39.98212
G1 X113.994 Y104.142 E39.99485
G1 X114.149 Y103.462 E40.02964
G1 X114.149 Y110.535 E40.38251
G1 X114.113 Y110.464 E40.38649
G1 X113.535 Y109.886 E40.42727
G1 X112.807 Y109.515 E40.46803
G1 X112.000 Y109.386 E40.50880
G1 X111.192 Y109.515 E40.54963
G0 F9000 X113.605 Y104.041
G0 X114.200 Y99.996
G0 X114.149 Y96.560
G1 F1200 X113.994 Y95.866 E40.58510
G1 X113.926 Y95.618 E40.59793
G1 X113.237 Y93.868 E40.69176
G1 X113.051 Y93.478 E40.71332
G1 X112.097 Y91.828 E40.80841
G1 X110.931 Y90.352 E40.90225
G1 X111.192 Y90.485 E40.91686
G1 X112.000 Y90.614 E40.95769
G1 X112.807 Y90.485 E40.99846
G1 X113.535 Y90.114 E41.03922
G1 X114.113 Y89.536 E41.08000
G1 X114.149 Y89.465 E41.08398
G1 X114.149 Y96.560 E41.43795
G0 F9000 X111.764 Y92.054
G0 X109.515 Y88.808
G1 F1200 X109.664 Y89.101 E41.45435
G1 X109.287 Y88.751 E41.48001
G1 X109.098 Y88.580 E41.49273
G1 X107.379 Y87.406 E41.59658
G1 X105.489 Y86.479 E41.70160
G1 X105.254 Y86.380 E41.71433
G1 X103.537 Y85.851 E41.80396
G1 X110.535 Y85.851 E42.15309
G1 X110.464 Y85.887 E42.15706
G1 X109.886 Y86.465 E42.19785
G1 X109.515 Y87.193 E42.23861
G1 X109.386 Y88.000 E42.27938
G1 X109.515 Y88.808 E42.32020
G0 F9000 X109.900 Y88.683
G1 F1200 X110.213 Y89.298 E42.35463
G1 X110.702 Y89.787 E42.38913
G1 X111.317 Y90.100 E42.42356
G1 X112.000 Y90.209 E42.45807
G1 X112.682 Y90.100 E42.49252
G1 X113.297 Y89.787 E42.52695
G1 X113.786 Y89.298 E42.56145
G1 X114.099 Y88.683 E42.59588
G1 X114.208 Y88.000 E42.63039
G1 X114.099 Y87.318 E42.66484
G1 X113.786 Y86.703 E42.69927
G1 X113.297 Y86.214 E42.73377
G1 X112.682 Y85.901 E42.76820
G1 X112.000 Y85.792 E42.80266
G1 X111.317 Y85.901 E42.83716
G1 X110.702 Y86.214 E42.87159
G1 X110.213 Y86.703 E42.90609
G1 X109.900 Y87.318 E42.94052
G1 X109.791 Y88.000 E42.97498
G1 X109.900 Y88.683 E43.00948
G0 F9000 X109.017 Y89.046
G1 F1200 X108.850 Y88.895 E43.02072
G1 X107.167 Y87.746 E43.12238
G1 X105.325 Y86.844 E43.22471
G1 X105.117 Y86.756 E43.23598
G1 X103.370 Y86.218 E43.32717
G1 X103.155 Y86.156 E43.33834
G1 X101.140 Y85.849 E43.44003
G1 X100.915 Y85.835 E43.45127
G1 X99.089 Y85.836 E43.54237
G1 X98.865 Y85.847 E43.55356
G1 X97.041 Y86.123 E43.64560
G1 X96.648 Y86.212 E43.66570
G1 X94.870 Y86.762 E43.75855
G1 X93.010 Y87.646 E43.86129
G1 X91.332 Y88.769 E43.96203
G1 X91.145 Y88.899 E43.97339
G1 X89.647 Y90.287 E44.07528
G1 X89.496 Y90.454 E44.08651
G1 X88.341 Y91.903 E44.17896
G1 X87.306 Y93.660 E44.28069
G1 X87.130 Y94.026 E44.30095
G1 X86.456 Y95.742 E44.39293
G1 X85.989 Y97.737 E44.49515
G1 X85.950 Y97.957 E44.50630
G1 X85.813 Y99.779 E44.59746
G1 X85.800 Y100.004 E44.60870
G1 X85.952 Y102.055 E44.71131
G1 X86.394 Y104.037 E44.81262
G1 X86.454 Y104.255 E44.82390
G1 X87.130 Y105.972 E44.91596
G1 X87.304 Y106.336 E44.93609
G1 X88.235 Y107.947 E45.02892
G1 X89.493 Y109.541 E45.13022
G1 X89.642 Y109.711 E45.14150
G1 X90.983 Y110.954 E45.23272
G1 X91.150 Y111.105 E45.24396
G1 X92.833 Y112.254 E45.34562
G1 X94.675 Y113.156 E45.44795
G1 X94.883 Y113.244 E45.45922
G1 X96.630 Y113.782 E45.55041
G1 X96.845 Y113.844 E45.56158
G1 X98.860 Y114.151 E45.66327
G1 X99.085 Y114.165 E45.67451
G1 X100.911 Y114.164 E45.76561
G1 X101.135 Y114.153 E45.77680
G1 X102.959 Y113.877 E45.86884
G1 X103.352 Y113.788 E45.88894
G1 X105.130 Y113.238 E45.98179
G1 X106.990 Y112.354 E46.08454
G1 X108.668 Y111.231 E46.18527
G1 X108.855 Y111.101 E46.19663
G1 X110.353 Y109.713 E46.29852
G1 X110.504 Y109.546 E46.30975
G1 X111.659 Y108.097 E46.40220
G1 X112.694 Y106.340 E46.50393
G1 X112.870 Y105.974 E46.52419
G1 X113.544 Y104.258 E46.61617
G1 X114.011 Y102.263 E46.71839
G1 X114.050 Y102.043 E46.72954
G1 X114.187 Y100.221 E46.82070
G1 X114.200 Y99.996 E46.83194
G1 X114.048 Y97.945 E46.93455
G1 X113.606 Y95.963 E47.03586
G1 X113.546 Y95.745 E47.04714
G1 X112.870 Y94.028 E47.13920
G1 X112.696 Y93.664 E47.15933
G1 X111.765 Y92.053 E47.25216
G1 X110.507 Y90.459 E47.35346
G1 X110.358 Y90.289 E47.36474
G1 X109.017 Y89.046 E47.45597
G0 F9000 X110.704 Y86.217
G0 X112.101 Y85.451
G1 F1200 X112.887 Y85.575 E47.49566
G1 X113.558 Y85.916 E47.53322
G1 X114.084 Y86.442 E47.57033
G1 X114.425 Y87.111 E47.60779
G1 X114.542 Y87.858 E47.64551
G1 X114.549 Y112.101 E48.85500
G1 X114.425 Y112.887 E48.89470
G1 X114.084 Y113.558 E48.93225
G1 X113.558 Y114.084 E48.96936
G1 X112.889 Y114.425 E49.00682
G1 X112.142 Y114.542 E49.04455
G1 X87.899 Y114.549 E50.25404
G1 X87.113 Y114.425 E50.29373
G1 X86.442 Y114.084 E50.33129
G1 X85.916 Y113.558 E50.36840
G1 X85.575 Y112.889 E50.40586
G1 X85.458 Y112.142 E50.44358
G1 X85.451 Y87.899 E51.65307
G1 X85.575 Y87.113 E51.69277
G1 X85.916 Y86.442 E51.73032
G1 X86.442 Y85.916 E51.76743
G1 X87.111 Y85.575 E51.80489
G1 X87.858 Y85.458 E51.84262
G1 X112.101 Y85.451 E53.05211
G0 F9000 X97.042 Y86.124
G0 X94.871 Y86.762
G0 X90.209 Y88.000
G1 F1200 X90.100 Y87.318 E53.08656
G1 X89.787 Y86.703 E53.12099
G1 X89.298 Y86.214 E53.15549
G1 X88.683 Y85.901 E53.18992
G1 X88.000 Y85.792 E53.22443
G1 X87.318 Y85.901 E53.25888
G1 X86.703 Y86.214 E53.29331
G1 X86.214 Y86.703 E53.32781
G1 X85.901 Y87.318 E53.36224
G1 X85.792 Y88.000 E53.39670
G1 X85.901 Y88.683 E53.43120
G1 X86.214 Y89.298 E53.46563
G1 X86.703 Y89.787 E53.50013
G1 X87.318 Y90.100 E53.53456
G1 X88.000 Y90.209 E53.56902
G1 X88.683 Y90.100 E53.60352
G1 X89.298 Y89.787 E53.63795
G1 X89.787 Y89.298 E53.67245
G1 X90.100 Y88.683 E53.70688
G1 X90.209 Y88.000 E53.74139
G0 F9000 X88.343 Y91.904
G0 X86.395 Y95.959
G0 X85.800 Y100.004
G0 X86.455 Y104.254
G0 X88.000 Y109.791
G1 F1200 X87.318 Y109.900 E53.77584
G1 X86.703 Y110.213 E53.81027
G1 X86.214 Y110.702 E53.84477
G1 X85.901 Y111.317 E53.87920
G1 X85.792 Y112.000 E53.91371
G1 X85.901 Y112.682 E53.94816
G1 X86.214 Y113.297 E53.98259
G1 X86.703 Y113.786 E54.01709
G1 X87.318 Y114.099 E54.05152
G1 X88.000 Y114.208 E54.08598
G1 X88.683 Y114.099 E54.12048
G1 X89.298 Y113.786 E54.15491
G1 X89.787 Y113.297 E54.18941
G1 X90.100 Y112.682 E54.22384
G1 X90.209 Y112.000 E54.25830
G1 X90.100 Y111.317 E54.29280
G1 X89.787 Y110.702 E54.32723
G1 X89.298 Y110.213 E54.36173
G1 X88.683 Y109.900 E54.39616
G1 X88.000 Y109.791 E54.43067
G0 F9000 X91.151 Y111.104
G0 X94.883 Y113.243
G0 X99.085 Y114.165
G0 X103.351 Y113.788
G0 X106.989 Y112.353
G0 X109.791 Y112.000
G1 F1200 X109.900 Y112.682 E54.46512
G1 X110.213 Y113.297 E54.49955
G1 X110.702 Y113.786 E54.53405
G1 X111.317 Y114.099 E54.56848
G1 X112.000 Y114.208 E54.60299
G1 X112.682 Y114.099 E54.63744
