;Generated from 40mm-wsupports.stl f5e114b99b692eb65c2f3df9884e89d8b5c68301
;Generated with Cura_SteamEngine 15.04
M140 S55.0
M109 T0 S210.0
T0
M190 S55.0

;Basic settings: Layer height: 0.15 Walls: 1.2 Fill: 50
;Print time: ?print_time?
;Filament used: ?filament_amount?m ?filament_weight?g
;Filament cost: ?filament_cost?
;M190 S55 ;Uncomment to add your own bed temperature line
;M109 S210 ;Uncomment to add your own temperature line
G21        ;metric values
G90        ;absolute positioning
M82        ;set extruder to absolute mode
M107       ;start with the fan off
G28 X0 Y0  ;move X/Y to min endstops
G28 Z0     ;move Z to min endstops
G1 Z5.0 F9000 ;move the platform down 15mm
G92 E0                  ;zero the extruded length
G1 F200 E3              ;extrude 3mm of feed stock
G92 E0                  ;zero the extruded length again
G1 F9000
;Put printing message on LCD screen
M117 Printing...

;Layer count: 51
;LAYER:0
M107
G0 F9000 X78.692 Y78.688 Z0.300
G0 X78.378 Y79.095
;TYPE:SKIRT
G1 F1200 X78.692 Y78.688 E0.02565
G1 X79.777 Y77.855 E0.09389
G1 X80.185 Y77.541 E0.11958
G1 X81.443 Y77.021 E0.18749
G1 X81.924 Y76.820 E0.21350
G1 X83.461 Y76.618 E0.29084
G1 X84.218 Y76.600 E0.32861
G1 X116.409 Y76.600 E1.93463
G1 X117.575 Y76.753 E1.99330
G1 X118.083 Y76.825 E2.01890
G1 X119.343 Y77.345 E2.08690
G1 X119.819 Y77.545 E2.11266
G1 X120.905 Y78.378 E2.18095
G1 X121.312 Y78.692 E2.20659
G1 X122.142 Y79.773 E2.27459
G1 X122.459 Y80.185 E2.30052
G1 X122.979 Y81.443 E2.36843
G1 X123.180 Y81.924 E2.39444
G1 X123.382 Y83.461 E2.47178
G1 X123.400 Y84.218 E2.50956
G1 X123.400 Y116.409 E4.11557
G1 X123.247 Y117.575 E4.17425
G1 X123.175 Y118.083 E4.19984
G1 X122.655 Y119.343 E4.26785
G1 X122.455 Y119.819 E4.29361
G1 X121.622 Y120.905 E4.36189
G1 X121.308 Y121.312 E4.38754
G1 X120.223 Y122.145 E4.45578
G1 X119.815 Y122.459 E4.48147
G1 X118.557 Y122.979 E4.54938
G1 X118.076 Y123.180 E4.57539
G1 X116.539 Y123.382 E4.65273
G1 X115.782 Y123.400 E4.69050
G1 X83.591 Y123.400 E6.29652
G1 X82.425 Y123.247 E6.35519
G1 X81.917 Y123.175 E6.38079
G1 X80.657 Y122.655 E6.44879
G1 X80.181 Y122.455 E6.47455
G1 X79.095 Y121.622 E6.54284
G1 X78.688 Y121.308 E6.56848
G1 X77.855 Y120.223 E6.63673
G1 X77.541 Y119.815 E6.66241
G1 X77.015 Y118.542 E6.73113
G1 X76.820 Y118.076 E6.75633
G1 X76.618 Y116.539 E6.83367
G1 X76.600 Y115.782 E6.87145
G1 X76.600 Y83.591 E8.47746
G1 X76.753 Y82.425 E8.53614
G1 X76.825 Y81.917 E8.56173
G1 X77.345 Y80.657 E8.62974
G1 X77.545 Y80.181 E8.65550
G1 X78.378 Y79.095 E8.72378
G1 F2400 E4.22378
G0 F9000 X81.684 Y81.686
;TYPE:WALL-INNER
G1 F2400 E8.72378
G1 F1200 X82.307 Y81.208 E8.76296
G1 X83.028 Y80.911 E8.80186
G1 X83.778 Y80.812 E8.83960
G1 X84.280 Y80.800 E8.86465
G1 X116.138 Y80.800 E10.45406
G1 X116.970 Y80.909 E10.49592
G1 X117.695 Y81.209 E10.53506
G1 X118.314 Y81.684 E10.57399
G1 X118.792 Y82.307 E10.61317
G1 X119.089 Y83.028 E10.65207
G1 X119.188 Y83.778 E10.68981
G1 X119.200 Y84.280 E10.71486
G1 X119.200 Y116.138 E12.30427
G1 X119.091 Y116.970 E12.34613
G1 X118.791 Y117.695 E12.38527
G1 X118.316 Y118.314 E12.42420
G1 X117.693 Y118.792 E12.46338
G1 X116.972 Y119.089 E12.50228
G1 X116.222 Y119.188 E12.54002
G1 X115.720 Y119.200 E12.56507
G1 X83.862 Y119.200 E14.15448
G1 X83.030 Y119.091 E14.19634
G1 X82.305 Y118.791 E14.23548
G1 X81.686 Y118.316 E14.27441
G1 X81.208 Y117.693 E14.31359
G1 X80.911 Y116.972 E14.35249
G1 X80.812 Y116.222 E14.39023
G1 X80.800 Y115.720 E14.41529
G1 X80.800 Y83.862 E16.00469
G1 X80.909 Y83.030 E16.04655
G1 X81.209 Y82.305 E16.08570
G1 X81.684 Y81.686 E16.12462
G0 F9000 X81.806 Y82.406
G1 F1200 X81.421 Y83.162 E16.16695
G1 X81.287 Y84.000 E16.20929
G1 X81.421 Y84.839 E16.25168
G1 X81.806 Y85.595 E16.29400
G1 X82.406 Y86.195 E16.33634
G1 X83.162 Y86.580 E16.37866
G1 X84.000 Y86.714 E16.42100
G1 X84.839 Y86.580 E16.46339
G1 X85.595 Y86.195 E16.50571
G1 X86.195 Y85.595 E16.54805
G1 X86.580 Y84.839 E16.59037
G1 X86.714 Y84.000 E16.63276
G1 X86.580 Y83.162 E16.67510
G1 X86.195 Y82.406 E16.71743
G1 X85.595 Y81.806 E16.75976
G1 X84.839 Y81.421 E16.80209
G1 X84.000 Y81.287 E16.84448
G1 X83.162 Y81.421 E16.88682
G1 X82.406 Y81.806 E16.92914
G1 X81.806 Y82.406 E16.97147
G0 F9000 X81.809 Y84.712
G0 X82.646 Y85.866
G0 X84.000 Y86.306
G0 X86.480 Y86.394
G1 F1200 X84.858 Y88.230 E17.09370
G1 X83.503 Y90.230 E17.21422
G1 X83.307 Y90.562 E17.23346
G1 X82.306 Y92.594 E17.34647
G1 X81.509 Y94.911 E17.46871
G1 X81.028 Y97.251 E17.58789
G1 X80.984 Y97.473 E17.59919
G1 X80.822 Y99.868 E17.71895
G1 X80.818 Y99.994 E17.72523
G1 X80.821 Y100.124 E17.73172
G1 X80.968 Y102.341 E17.84257
G1 X81.463 Y104.931 E17.97413
G1 X82.233 Y107.218 E18.09452
G1 X82.315 Y107.427 E18.10572
G1 X83.307 Y109.435 E18.21746
G1 X84.742 Y111.622 E18.34796
G1 X86.367 Y113.490 E18.47148
G1 X88.157 Y115.077 E18.59083
G1 X88.328 Y115.224 E18.60208
G1 X90.362 Y116.585 E18.72418
G1 X92.521 Y117.658 E18.84446
G1 X94.822 Y118.460 E18.96603
G1 X95.040 Y118.531 E18.97747
G1 X97.433 Y119.009 E19.09921
G1 X99.831 Y119.175 E19.21914
G1 X100.056 Y119.182 E19.23037
G1 X102.288 Y119.034 E19.34197
G1 X102.666 Y118.991 E19.36095
G1 X104.860 Y118.553 E19.47257
G1 X105.076 Y118.496 E19.48371
G1 X107.170 Y117.784 E19.59405
G1 X107.381 Y117.706 E19.60528
G1 X109.389 Y116.714 E19.71702
G1 X109.722 Y116.531 E19.73597
G1 X111.579 Y115.288 E19.84746
G1 X111.757 Y115.155 E19.85854
G1 X113.421 Y113.693 E19.96905
G1 X113.585 Y113.543 E19.98014
G1 X115.195 Y111.707 E20.10197
G1 X116.542 Y109.704 E20.22239
G1 X116.658 Y109.510 E20.23367
G1 X117.646 Y107.502 E20.34532
G1 X117.790 Y107.150 E20.36429
G1 X118.515 Y105.011 E20.47697
G1 X119.002 Y102.608 E20.59929
G1 X119.171 Y100.222 E20.71863
G1 X119.184 Y99.996 E20.72992
G1 X119.025 Y97.555 E20.85196
G1 X118.563 Y95.191 E20.97214
G1 X118.510 Y94.972 E20.98338
G1 X117.790 Y92.853 E21.09503
G1 X117.649 Y92.502 E21.11390
G1 X116.659 Y90.495 E21.22555
G1 X116.547 Y90.302 E21.23668
G1 X115.317 Y88.466 E21.34694
G1 X115.188 Y88.283 E21.35811
G1 X113.709 Y86.599 E21.46993
G1 X113.445 Y86.326 E21.48887
G1 X111.738 Y84.830 E21.60211
G1 X109.748 Y83.487 E21.72189
G1 X109.556 Y83.366 E21.73321
G1 X107.368 Y82.290 E21.85486
G1 X105.051 Y81.496 E21.97705
G1 X102.697 Y81.016 E22.09691
G1 X102.474 Y80.978 E22.10819
G1 X100.063 Y80.819 E22.22874
G1 X99.840 Y80.824 E22.23987
G1 X97.633 Y80.969 E22.35021
G1 X97.412 Y80.994 E22.36131
G1 X95.186 Y81.438 E22.47455
G1 X92.711 Y82.258 E22.60463
G1 X90.543 Y83.317 E22.72501
G1 X90.345 Y83.425 E22.73626
G1 X88.483 Y84.671 E22.84804
G1 X88.181 Y84.902 E22.86701
G1 X86.480 Y86.394 E22.97989
G0 F9000 X92.863 Y82.630
G0 X97.670 Y81.368
G0 X102.623 Y81.410
G0 X107.214 Y82.661
G0 X113.286 Y84.000
G1 F1200 X113.420 Y84.839 E23.02228
G1 X113.805 Y85.595 E23.06460
G1 X114.405 Y86.195 E23.10694
G1 X115.161 Y86.580 E23.14926
G1 X116.000 Y86.714 E23.19165
G1 X116.838 Y86.580 E23.23399
G1 X117.594 Y86.195 E23.27632
G1 X118.194 Y85.595 E23.31865
G1 X118.579 Y84.839 E23.36098
G1 X118.713 Y84.000 E23.40336
G1 X118.579 Y83.162 E23.44570
G1 X118.194 Y82.406 E23.48803
G1 X117.594 Y81.806 E23.53036
G1 X116.838 Y81.421 E23.57269
G1 X116.000 Y81.287 E23.61503
G1 X115.161 Y81.421 E23.65742
G1 X114.405 Y81.806 E23.69974
G1 X113.805 Y82.406 E23.74208
G1 X113.420 Y83.162 E23.78440
G1 X113.286 Y84.000 E23.82674
G0 F9000 X118.126 Y95.084
G0 X118.771 Y100.196
G0 X118.128 Y104.906
G0 X116.203 Y109.490
G0 X116.000 Y113.286
G1 F1200 X115.161 Y113.420 E23.86913
G1 X114.405 Y113.805 E23.91146
G1 X113.805 Y114.405 E23.95379
G1 X113.420 Y115.161 E23.99611
G1 X113.286 Y116.000 E24.03850
G1 X113.420 Y116.838 E24.08084
G1 X113.805 Y117.594 E24.12317
G1 X114.405 Y118.194 E24.16550
G1 X115.161 Y118.579 E24.20783
G1 X116.000 Y118.713 E24.25022
G1 X116.838 Y118.579 E24.29256
G1 X117.594 Y118.194 E24.33488
G1 X118.194 Y117.594 E24.37722
G1 X118.579 Y116.838 E24.41954
G1 X118.713 Y116.000 E24.46188
G1 X118.579 Y115.161 E24.50427
G1 X118.194 Y114.405 E24.54659
G1 X117.594 Y113.805 E24.58893
G1 X116.838 Y113.420 E24.63125
G1 X116.000 Y113.286 E24.67359
G0 F9000 X104.959 Y118.112
G0 X99.852 Y118.775
G0 X94.949 Y118.079
G0 X90.564 Y116.238
G0 X86.714 Y116.000
G1 F1200 X86.580 Y115.161 E24.71598
G1 X86.195 Y114.405 E24.75831
G1 X85.595 Y113.805 E24.80064
G1 X84.839 Y113.420 E24.84297
G1 X84.000 Y113.286 E24.88536
G1 X83.162 Y113.420 E24.92770
G1 X82.406 Y113.805 E24.97002
G1 X81.806 Y114.405 E25.01235
G1 X81.421 Y115.161 E25.05468
G1 X81.287 Y116.000 E25.09707
G1 X81.421 Y116.838 E25.13941
G1 X81.806 Y117.594 E25.18173
G1 X82.406 Y118.194 E25.22407
G1 X83.162 Y118.579 E25.26639
G1 X84.000 Y118.713 E25.30873
G1 X84.839 Y118.579 E25.35112
G1 X85.595 Y118.194 E25.39345
G1 X86.195 Y117.594 E25.43578
G1 X86.580 Y116.838 E25.47811
G1 X86.714 Y116.000 E25.52045
G0 F9000 X86.309 Y116.000
G1 F1200 X86.195 Y115.286 E25.55652
G1 X85.868 Y114.643 E25.59251
G1 X85.357 Y114.132 E25.62856
G1 X84.714 Y113.805 E25.66455
G1 X84.000 Y113.691 E25.70062
G1 X83.287 Y113.805 E25.73665
G1 X82.644 Y114.132 E25.77264
G1 X82.133 Y114.643 E25.80869
G1 X81.806 Y115.286 E25.84468
G1 X81.692 Y116.000 E25.88075
G1 X81.806 Y116.713 E25.91678
G1 X82.133 Y117.356 E25.95277
G1 X82.644 Y117.867 E25.98882
G1 X83.287 Y118.194 E26.02481
G1 X84.000 Y118.308 E26.06083
G1 X84.714 Y118.194 E26.09691
G1 X85.357 Y117.867 E26.13290
G1 X85.868 Y117.356 E26.16895
G1 X86.195 Y116.713 E26.20494
G1 X86.309 Y116.000 E26.24096
G0 F9000 X88.420 Y114.775
G1 F1200 X88.570 Y114.905 E26.25086
G1 X90.563 Y116.238 E26.37049
G1 X92.690 Y117.296 E26.48901
G1 X92.871 Y117.375 E26.49886
G1 X94.948 Y118.080 E26.60829
G1 X95.141 Y118.143 E26.61842
G1 X97.486 Y118.612 E26.73773
G1 X99.851 Y118.775 E26.85600
G1 X100.049 Y118.782 E26.86588
G1 X102.252 Y118.636 E26.97603
G1 X102.604 Y118.595 E26.99371
G1 X104.770 Y118.163 E27.10390
G1 X107.037 Y117.407 E27.22312
G1 X107.222 Y117.338 E27.23297
G1 X109.204 Y116.360 E27.34324
G1 X109.514 Y116.189 E27.36090
G1 X111.348 Y114.961 E27.47102
G1 X113.154 Y113.395 E27.59028
G1 X113.299 Y113.263 E27.60006
G1 X114.877 Y111.463 E27.71948
G1 X116.204 Y109.490 E27.83811
G1 X116.306 Y109.319 E27.84804
G1 X117.281 Y107.337 E27.95824
G1 X117.415 Y107.010 E27.97587
G1 X118.128 Y104.906 E28.08671
G1 X118.605 Y102.554 E28.20644
G1 X118.772 Y100.196 E28.32437
G1 X118.783 Y99.998 E28.33427
G1 X118.627 Y97.607 E28.45381
G1 X118.172 Y95.276 E28.57230
G1 X118.126 Y95.084 E28.58215
G1 X117.415 Y92.992 E28.69238
G1 X117.283 Y92.665 E28.70997
G1 X116.306 Y90.684 E28.82017
G1 X114.988 Y88.692 E28.93934
G1 X114.874 Y88.531 E28.94918
G1 X113.415 Y86.870 E29.05948
G1 X113.169 Y86.616 E29.07712
G1 X111.493 Y85.148 E29.18827
G1 X109.529 Y83.822 E29.30650
G1 X109.361 Y83.716 E29.31641
G1 X107.215 Y82.660 E29.43573
G1 X104.946 Y81.883 E29.55539
G1 X102.623 Y81.409 E29.67367
G1 X102.427 Y81.375 E29.68359
G1 X100.054 Y81.220 E29.80224
G1 X99.857 Y81.223 E29.81207
G1 X97.669 Y81.367 E29.92146
G1 X97.474 Y81.390 E29.93126
G1 X95.288 Y81.826 E30.04247
G1 X92.862 Y82.629 E30.16996
G1 X90.727 Y83.672 E30.28850
G1 X90.553 Y83.767 E30.29839
G1 X88.716 Y84.997 E30.40869
G1 X86.763 Y86.678 E30.53725
G1 X85.175 Y88.476 E30.65693
G1 X83.841 Y90.445 E30.77558
G1 X83.659 Y90.752 E30.79339
G1 X82.676 Y92.748 E30.90439
G1 X81.896 Y95.016 E31.02405
G1 X81.420 Y97.331 E31.14196
G1 X81.381 Y97.526 E31.15188
G1 X81.222 Y99.889 E31.27004
G1 X81.218 Y99.996 E31.27538
G1 X81.221 Y100.106 E31.28087
G1 X81.366 Y102.300 E31.39057
G1 X81.415 Y102.650 E31.40820
G1 X81.850 Y104.828 E31.51901
G1 X82.608 Y107.081 E31.63760
G1 X82.681 Y107.264 E31.64743
G1 X83.659 Y109.246 E31.75769
G1 X85.066 Y111.386 E31.88547
G1 X85.188 Y111.541 E31.89531
G1 X86.651 Y113.207 E32.00592
G1 X88.420 Y114.775 E32.12386
G0 F9000 X83.840 Y119.600
G1 F1200 X82.935 Y119.481 E32.16940
G1 X82.115 Y119.145 E32.21361
G1 X81.400 Y118.600 E32.25846
G1 X80.861 Y117.899 E32.30258
G1 X80.527 Y117.091 E32.34620
G1 X80.412 Y116.246 E32.38874
G1 X80.400 Y115.744 E32.41380
G1 X80.400 Y83.840 E34.00549
G1 X80.518 Y82.941 E34.05073
G1 X80.520 Y82.926 E34.05148
G1 X80.855 Y82.115 E34.09526
G1 X81.400 Y81.400 E34.14011
G1 X82.101 Y80.861 E34.18423
G1 X82.909 Y80.527 E34.22785
G1 X83.754 Y80.412 E34.27040
G1 X84.270 Y80.400 E34.29615
G1 X116.160 Y80.400 E35.88714
G1 X117.065 Y80.519 E35.93268
G1 X117.885 Y80.855 E35.97689
G1 X118.600 Y81.400 E36.02175
G1 X119.139 Y82.101 E36.06586
G1 X119.473 Y82.909 E36.10948
G1 X119.588 Y83.754 E36.15203
G1 X119.600 Y84.256 E36.17708
G1 X119.600 Y116.160 E37.76878
G1 X119.482 Y117.059 E37.81401
G1 X119.480 Y117.074 E37.81477
G1 X119.145 Y117.885 E37.85855
G1 X118.600 Y118.600 E37.90340
G1 X117.899 Y119.139 E37.94751
G1 X117.091 Y119.473 E37.99113
G1 X116.246 Y119.588 E38.03368
G1 X115.730 Y119.600 E38.05943
G1 X83.840 Y119.600 E39.65043
G0 F9000 X102.603 Y118.594
G0 X107.221 Y117.337
G0 X113.691 Y116.000
G1 F1200 X113.805 Y116.713 E39.68645
G1 X114.132 Y117.356 E39.72244
G1 X114.643 Y117.867 E39.75850
G1 X115.286 Y118.194 E39.79449
G1 X116.000 Y118.308 E39.83056
G1 X116.713 Y118.194 E39.86658
G1 X117.356 Y117.867 E39.90257
G1 X117.867 Y117.356 E39.93862
G1 X118.194 Y116.713 E39.97461
G1 X118.308 Y116.000 E40.01064
G1 X118.194 Y115.286 E40.04671
G1 X117.867 Y114.643 E40.08270
G1 X117.356 Y114.132 E40.11875
G1 X116.713 Y113.805 E40.15474
G1 X116.000 Y113.691 E40.19077
G1 X115.286 Y113.805 E40.22684
G1 X114.643 Y114.132 E40.26283
G1 X114.132 Y114.643 E40.29888
G1 X113.805 Y115.286 E40.33487
G1 X113.691 Y116.000 E40.37094
G0 F9000 X118.128 Y104.906
G0 X118.783 Y99.998
G0 X118.126 Y95.084
G0 X116.206 Y90.514
G0 X116.000 Y86.309
G1 F1200 X116.713 Y86.195 E40.40697
G1 X117.356 Y85.868 E40.44296
G1 X117.867 Y85.357 E40.47901
G1 X118.194 Y84.714 E40.51500
G1 X118.308 Y84.000 E40.55107
G1 X118.194 Y83.287 E40.58710
G1 X117.867 Y82.644 E40.62309
G1 X117.356 Y82.133 E40.65914
G1 X116.713 Y81.806 E40.69513
G1 X116.000 Y81.692 E40.73115
G1 X115.286 Y81.806 E40.76723
G1 X114.643 Y82.133 E40.80322
G1 X114.132 Y82.644 E40.83927
G1 X113.805 Y83.287 E40.87526
G1 X113.691 Y84.000 E40.91128
G1 X113.805 Y84.714 E40.94736
G1 X114.132 Y85.357 E40.98334
G1 X114.643 Y85.868 E41.01940
G1 X115.286 Y86.195 E41.05539
G1 X116.000 Y86.309 E41.09146
G0 F9000 X104.945 Y81.883
G0 X99.857 Y81.224
G0 X95.289 Y81.827
G0 X90.553 Y83.768
G0 X86.309 Y84.000
G1 F1200 X86.195 Y83.287 E41.12748
G1 X85.868 Y82.644 E41.16347
G1 X85.357 Y82.133 E41.19953
G1 X84.714 Y81.806 E41.23552
G1 X84.000 Y81.692 E41.27159
G1 X83.287 Y81.806 E41.30761
G1 X82.644 Y82.133 E41.34360
G1 X82.133 Y82.644 E41.37966
G1 X81.806 Y83.287 E41.41565
G1 X81.692 Y84.000 E41.45167
G1 X81.806 Y84.714 E41.48774
G1 X82.133 Y85.357 E41.52373
G1 X82.644 Y85.868 E41.55979
G1 X83.287 Y86.195 E41.59577
G1 X84.000 Y86.309 E41.63180
G1 X84.714 Y86.195 E41.66787
G1 X85.357 Y85.868 E41.70386
G1 X85.868 Y85.357 E41.73991
G1 X86.195 Y84.714 E41.77590
G1 X86.309 Y84.000 E41.81198
G0 F9000 X85.904 Y84.000
;TYPE:WALL-OUTER
G1 F1200 X85.810 Y83.412 E41.84168
G1 X85.540 Y82.882 E41.87136
G1 X85.119 Y82.461 E41.90106
G1 X84.589 Y82.191 E41.93074
G1 X84.000 Y82.097 E41.96050
G1 X83.412 Y82.191 E41.99020
G1 X82.882 Y82.461 E42.01988
G1 X82.461 Y82.882 E42.04958
G1 X82.191 Y83.412 E42.07926
G1 X82.097 Y84.000 E42.10897
G1 X82.191 Y84.589 E42.13872
G1 X82.461 Y85.119 E42.16840
G1 X82.882 Y85.540 E42.19810
G1 X83.412 Y85.810 E42.22778
G1 X84.000 Y85.904 E42.25749
G1 X84.589 Y85.810 E42.28724
G1 X85.119 Y85.540 E42.31692
G1 X85.540 Y85.119 E42.34662
G1 X85.810 Y84.589 E42.37630
G1 X85.904 Y84.000 E42.40605
G0 F9000 X86.198 Y84.047
G0 X88.489 Y85.297
G0 X88.688 Y85.521
G1 F1200 X87.046 Y86.962 E42.51505
G1 X85.492 Y88.721 E42.63214
G1 X84.179 Y90.659 E42.74893
G1 X83.046 Y92.902 E42.87430
G1 X82.283 Y95.122 E42.99142
G1 X81.812 Y97.410 E43.10796
G1 X81.778 Y97.579 E43.11656
G1 X81.621 Y99.910 E43.23312
G1 X81.618 Y99.999 E43.23756
G1 X81.620 Y100.087 E43.24195
G1 X81.764 Y102.259 E43.35055
G1 X81.810 Y102.583 E43.36688
G1 X82.237 Y104.725 E43.47585
G1 X82.984 Y106.943 E43.59261
G1 X83.047 Y107.101 E43.60110
G1 X84.012 Y109.056 E43.70987
G1 X85.389 Y111.151 E43.83494
G1 X86.935 Y112.924 E43.95230
