;FLAVOR:Marlin
;TIME:16222
;Filament used: 16.2755m
;Layer height: 0.2
;Generated with Cura_SteamEngine 2.7.0
M190 S60
M104 S220
M109 S220
G21 ;metric values
G90 ;absolute positioning
M82 ;set extruder to absolute mode
M107 ;start with the fan off
G92 E0 ;zero the extruded length
G1 F200 E3 ;extrude 3mm of feed stock
G92 E0 ;zero the extruded length again
G1 F9000
M301 P26.92 I2.54 D71.46 ;set PID tuning for E0
M117 Printing...
;LAYER_COUNT:249
;LAYER:0
M107
M204 S5000
G0 F2400 X56.082 Y57.215 Z0.3
M204 S200
;TYPE:SKIRT
G1 F1200 X56.544 Y56.803 E0.03081
G1 X57.055 Y56.454 E0.0616
G1 X57.607 Y56.173 E0.09243
G1 X58.191 Y55.966 E0.12326
G1 X58.796 Y55.836 E0.15406
G1 X59.5 Y55.784 E0.18919
G1 X91.332 Y55.781 E1.77332
G1 X91.949 Y55.821 E1.80409
G1 X92.557 Y55.94 E1.83492
G1 X93.144 Y56.136 E1.86572
G1 X93.701 Y56.407 E1.89655
G1 X94.218 Y56.747 E1.92734
G1 X94.723 Y57.185 E1.96061
G1 X129.081 Y91.537 E4.37848
G1 X129.49 Y92.002 E4.4093
G1 X129.835 Y92.516 E4.4401
G1 X130.111 Y93.07 E4.47091
G1 X130.314 Y93.655 E4.50172
G1 X130.439 Y94.262 E4.53256
G1 X130.486 Y94.929 E4.56584
G1 X130.484 Y123.559 E5.99063
G1 X130.444 Y124.177 E6.02144
G1 X130.325 Y124.785 E6.05228
G1 X130.128 Y125.372 E6.08309
G1 X129.858 Y125.929 E6.11389
G1 X129.518 Y126.446 E6.14469
G1 X129.114 Y126.915 E6.17549
G1 X128.653 Y127.329 E6.20633
G1 X128.143 Y127.679 E6.23711
G1 X127.592 Y127.961 E6.26791
G1 X127.009 Y128.17 E6.29874
G1 X126.404 Y128.301 E6.32954
G1 X125.689 Y128.355 E6.36523
G1 X80.99 Y128.364 E8.58969
G1 X75.546 Y128.518 E8.86072
G1 X70.173 Y128.975 E9.12908
G1 X64.822 Y129.737 E9.39806
G1 X61.399 Y130.387 E9.57145
G1 X60.785 Y130.463 E9.60224
G1 X60.166 Y130.459 E9.63305
G1 X59.552 Y130.375 E9.66389
G1 X58.955 Y130.214 E9.69466
G1 X58.383 Y129.976 E9.72549
G1 X57.847 Y129.667 E9.75628
G1 X57.355 Y129.291 E9.7871
G1 X56.915 Y128.855 E9.81792
G1 X56.535 Y128.366 E9.84874
G1 X56.333 Y128.041 E9.86778
G1 X55.142 Y125.941 E9.98793
G1 X54.872 Y125.384 E10.01873
G1 X54.676 Y124.797 E10.04953
G1 X54.557 Y124.189 E10.08036
G1 X54.518 Y123.575 E10.11098
G1 X54.514 Y60.773 E13.23635
G1 X54.554 Y60.155 E13.26717
G1 X54.673 Y59.548 E13.29795
G1 X54.87 Y58.961 E13.32877
G1 X55.14 Y58.404 E13.35957
G1 X55.48 Y57.887 E13.39037
G1 X55.892 Y57.408 E13.42181
G1 X56.082 Y57.215 E13.43529
M204 S5000
G0 F2400 X56.177 Y57.688
M204 S200
G1 F1200 X56.367 Y57.495 E13.44876
G1 X56.81 Y57.102 E13.47824
G1 X57.302 Y56.772 E13.50772
G1 X57.834 Y56.511 E13.53721
G1 X58.397 Y56.324 E13.56673
G1 X58.979 Y56.214 E13.59621
G1 X59.5 Y56.183 E13.62218
G1 X91.332 Y56.18 E15.20632
G1 X91.923 Y56.22 E15.23579
G1 X92.504 Y56.339 E15.26531
G1 X93.063 Y56.535 E15.29479
G1 X93.591 Y56.805 E15.3243
G1 X94.078 Y57.143 E15.3538
G1 X94.441 Y57.468 E15.37805
G1 X128.799 Y91.82 E17.79592
G1 X129.189 Y92.266 E17.8254
G1 X129.515 Y92.761 E17.8549
G1 X129.772 Y93.295 E17.88439
G1 X129.955 Y93.859 E17.9139
G1 X130.06 Y94.442 E17.94338
G1 X130.087 Y94.929 E17.96765
G1 X130.085 Y123.559 E19.39244
G1 X130.045 Y124.151 E19.42197
G1 X129.926 Y124.731 E19.45143
G1 X129.73 Y125.291 E19.48096
G1 X129.46 Y125.819 E19.51047
G1 X129.122 Y126.305 E19.53993
G1 X128.721 Y126.742 E19.56945
G1 X128.265 Y127.121 E19.59896
G1 X127.763 Y127.436 E19.62845
G1 X127.223 Y127.679 E19.65792
G1 X126.654 Y127.848 E19.68746
G1 X126.069 Y127.939 E19.71692
G1 X125.689 Y127.956 E19.73585
G1 X80.978 Y127.965 E21.96091
G1 X75.519 Y128.119 E22.23269
G1 X70.134 Y128.577 E22.50165
G1 X64.76 Y129.343 E22.77179
G1 X61.325 Y129.995 E22.94579
G1 X60.736 Y130.066 E22.97531
G1 X60.144 Y130.057 E23.00477
G1 X59.558 Y129.969 E23.03426
G1 X58.989 Y129.802 E23.06377
G1 X58.447 Y129.561 E23.09329
G1 X57.943 Y129.249 E23.12279
G1 X57.486 Y128.872 E23.15228
G1 X57.083 Y128.437 E23.18179
G1 X56.68 Y127.844 E23.21747
G1 X55.489 Y125.744 E23.33761
G1 X55.232 Y125.21 E23.3671
G1 X55.049 Y124.646 E23.39661
G1 X54.944 Y124.063 E23.42609
G1 X54.917 Y123.575 E23.45041
G1 X54.913 Y60.773 E26.57579
G1 X54.953 Y60.182 E26.60527
G1 X55.072 Y59.601 E26.63478
G1 X55.268 Y59.042 E26.66426
G1 X55.538 Y58.514 E26.69377
G1 X55.876 Y58.027 E26.72327
G1 X56.177 Y57.688 E26.74583
M204 S5000
G0 F2400 X56.651 Y57.775
M204 S200
G1 F1200 X57.075 Y57.401 E26.77397
G1 X57.547 Y57.091 E26.80207
G1 X58.059 Y56.851 E26.83021
G1 X58.599 Y56.685 E26.85833
G1 X59.157 Y56.597 E26.88644
G1 X59.5 Y56.582 E26.90352
G1 X91.332 Y56.579 E28.48766
G1 X91.895 Y56.619 E28.51575
G1 X92.448 Y56.738 E28.5439
G1 X92.978 Y56.934 E28.57202
G1 X93.475 Y57.202 E28.60012
G1 X93.93 Y57.538 E28.62827
G1 X94.159 Y57.75 E28.6438
G1 X128.517 Y92.102 E31.06167
G1 X128.887 Y92.529 E31.08979
G1 X129.194 Y93.003 E31.11789
G1 X129.43 Y93.517 E31.14604
G1 X129.592 Y94.058 E31.17414
G1 X129.676 Y94.617 E31.20227
G1 X129.688 Y94.929 E31.21781
G1 X129.686 Y123.559 E32.6426
G1 X129.646 Y124.123 E32.67074
G1 X129.527 Y124.676 E32.69889
G1 X129.331 Y125.206 E32.72701
G1 X129.062 Y125.703 E32.75513
G1 X128.726 Y126.157 E32.78324
G1 X128.33 Y126.56 E32.81136
G1 X127.88 Y126.902 E32.83948
G1 X127.387 Y127.178 E32.8676
G1 X126.859 Y127.382 E32.89577
G1 X126.309 Y127.509 E32.92386
G1 X125.689 Y127.557 E32.95481
G1 X80.967 Y127.566 E35.18042
G1 X75.51 Y127.72 E35.4521
G1 X70.078 Y128.182 E35.7234
G1 X64.695 Y128.949 E35.994
G1 X61.251 Y129.603 E36.16845
G1 X60.689 Y129.669 E36.19661
G1 X60.124 Y129.655 E36.22474
G1 X59.567 Y129.561 E36.25285
G1 X59.028 Y129.39 E36.28099
G1 X58.519 Y129.145 E36.3091
G1 X58.05 Y128.83 E36.33722
G1 X57.629 Y128.452 E36.36537
G1 X57.266 Y128.019 E36.39349
G1 X57.027 Y127.647 E36.4155
G1 X55.836 Y125.547 E36.53564
G1 X55.593 Y125.037 E36.56376
G1 X55.424 Y124.498 E36.59187
G1 X55.333 Y123.94 E36.62
G1 X55.316 Y123.575 E36.63819
G1 X55.312 Y60.773 E39.76356
G1 X55.352 Y60.209 E39.7917
G1 X55.471 Y59.657 E39.8198
G1 X55.667 Y59.127 E39.84792
G1 X55.935 Y58.629 E39.87606
G1 X56.461 Y57.968 E39.9181
G1 X56.651 Y57.775 E39.93158
M204 S5000
G0 F2400 X56.935 Y58.055
M204 S200
G1 F1200 X57.339 Y57.702 E39.95828
G1 X57.79 Y57.413 E39.98494
G1 X58.28 Y57.194 E40.01165
G1 X58.797 Y57.05 E40.03836
G1 X59.5 Y56.981 E40.07351
G1 X91.332 Y56.978 E41.65764
G1 X91.866 Y57.018 E41.68429
G1 X92.389 Y57.137 E41.71099
G1 X92.889 Y57.332 E41.73769
G1 X93.353 Y57.599 E41.76433
G1 X93.877 Y58.032 E41.79816
G1 X128.235 Y92.384 E44.21603
G1 X128.585 Y92.79 E44.24271
G1 X128.87 Y93.244 E44.26939
G1 X129.085 Y93.735 E44.29606
G1 X129.225 Y94.253 E44.32276
G1 X129.289 Y94.929 E44.35656
G1 X129.287 Y123.559 E45.78134
G1 X129.247 Y124.094 E45.80804
G1 X129.128 Y124.617 E45.83473
G1 X128.933 Y125.116 E45.8614
G1 X128.665 Y125.581 E45.8881
G1 X128.332 Y126.001 E45.91478
G1 X127.94 Y126.367 E45.94147
G1 X127.498 Y126.67 E45.96814
G1 X127.015 Y126.904 E45.99485
G1 X126.504 Y127.064 E46.02149
G1 X125.974 Y127.147 E46.04819
G1 X125.689 Y127.158 E46.06238
G1 X80.991 Y127.167 E48.2868
G1 X75.465 Y127.323 E48.56192
G1 X70.042 Y127.784 E48.83277
G1 X64.626 Y128.556 E49.10502
G1 X61.176 Y129.211 E49.27978
G1 X60.643 Y129.271 E49.30647
G1 X60.107 Y129.252 E49.33316
G1 X59.58 Y129.153 E49.35985
G1 X59.074 Y128.977 E49.38651
G1 X58.599 Y128.728 E49.4132
G1 X58.167 Y128.411 E49.43986
G1 X57.786 Y128.033 E49.46657
G1 X57.374 Y127.45 E49.5021
G1 X56.183 Y125.35 E49.62224
G1 X55.954 Y124.866 E49.64889
G1 X55.8 Y124.352 E49.67559
G1 X55.715 Y123.575 E49.71449
G1 X55.711 Y60.773 E52.83986
G1 X55.751 Y60.239 E52.86651
G1 X55.87 Y59.716 E52.89321
G1 X56.065 Y59.216 E52.91991
G1 X56.332 Y58.751 E52.9466
G1 X56.745 Y58.248 E52.97899
G1 X56.935 Y58.055 E52.99247
M204 S5000
G0 F2400 X57.22 Y58.335
M204 S200
G1 F1200 X57.602 Y58.004 E53.01762
G1 X58.031 Y57.737 E53.04277
G1 X58.497 Y57.541 E53.06792
G1 X58.988 Y57.421 E53.09308
G1 X59.5 Y57.38 E53.11864
G1 X91.332 Y57.377 E54.70277
G1 X91.836 Y57.417 E54.72794
G1 X92.327 Y57.536 E54.75308
G1 X92.794 Y57.73 E54.77824
G1 X93.224 Y57.996 E54.80341
G1 X93.595 Y58.314 E54.82772
G1 X127.953 Y92.666 E57.24559
G1 X128.281 Y93.051 E57.27076
G1 X128.544 Y93.482 E57.29589
G1 X128.736 Y93.95 E57.32107
G1 X128.853 Y94.442 E57.34623
G1 X128.89 Y94.929 E57.37054
G1 X128.888 Y123.559 E58.79532
G1 X128.848 Y124.063 E58.82049
G1 X128.729 Y124.555 E58.84568
G1 X128.534 Y125.021 E58.87081
G1 X128.269 Y125.451 E58.89595
G1 X127.938 Y125.834 E58.92114
G1 X127.552 Y126.16 E58.94629
G1 X127.119 Y126.421 E58.97145
G1 X126.65 Y126.611 E58.99663
G1 X126.158 Y126.724 E59.02175
G1 X125.689 Y126.759 E59.04516
G1 X80.98 Y126.768 E61.27012
G1 X75.454 Y126.924 E61.54524
G1 X69.988 Y127.389 E61.81824
G1 X64.561 Y128.162 E62.09104
G1 X61.102 Y128.819 E62.26626
G1 X60.599 Y128.874 E62.29144
G1 X60.094 Y128.849 E62.3166
G1 X59.599 Y128.744 E62.34178
G1 X59.127 Y128.563 E62.36694
G1 X58.69 Y128.31 E62.39207
G1 X58.297 Y127.991 E62.41726
G1 X57.96 Y127.615 E62.44239
G1 X57.721 Y127.254 E62.46393
G1 X56.53 Y125.154 E62.58408
G1 X56.317 Y124.696 E62.60921
G1 X56.178 Y124.209 E62.63442
G1 X56.114 Y123.575 E62.66613
G1 X56.11 Y60.773 E65.7915
G1 X56.15 Y60.269 E65.81666
G1 X56.269 Y59.778 E65.8418
G1 X56.463 Y59.311 E65.86697
G1 X56.729 Y58.881 E65.89213
G1 X57.03 Y58.528 E65.91522
G1 X57.22 Y58.335 E65.9287
M204 S5000
G1 F1500 E63.9287
G0 F2400 X59.911 Y59.902
G0 X59.911 Y61.178
G0 X59.967 Y61.234
G0 X59.897 Y61.164
M204 S200
;TYPE:WALL-INNER
G1 F1500 E65.9287
G1 F1200 X91.094 Y61.164 E67.48123
G1 X125.104 Y95.174 E69.87482
G1 X125.103 Y122.971 E71.25815
G1 X62.243 Y122.971 E74.38641
G1 X60.803 Y124.493 E74.49068
G1 X60.618 Y124.689 E74.50409
G1 X60.486 Y124.454 E74.5121
G1 X59.896 Y123.412 E74.57169
G1 X59.897 Y61.164 E77.66949
M204 S5000
G0 F2400 X59.967 Y61.234
G0 X73.37 Y70.137
G0 X73.454 Y70.19
M204 S200
G1 F1200 X73.245 Y70.553 E77.69033
G1 X73.068 Y70.932 E77.71115
G1 X72.924 Y71.325 E77.73198
G1 X72.817 Y71.73 E77.75283
G1 X72.744 Y72.141 E77.7736
G1 X72.707 Y72.552 E77.79414
G1 X72.703 Y72.775 E77.80524
G1 X72.721 Y73.186 E77.82571
G1 X72.776 Y73.601 E77.84654
G1 X72.866 Y74.009 E77.86733
G1 X72.992 Y74.409 E77.8882
G1 X73.153 Y74.795 E77.90902
G1 X73.345 Y75.167 E77.92985
G1 X73.571 Y75.52 E77.95071
G1 X73.824 Y75.852 E77.97148
G1 X74.107 Y76.161 E77.99234
G1 X74.416 Y76.444 E78.01319
G1 X74.748 Y76.697 E78.03396
G1 X75.101 Y76.923 E78.05482
G1 X75.473 Y77.115 E78.07565
G1 X75.859 Y77.276 E78.09647
G1 X76.259 Y77.402 E78.11734
G1 X76.667 Y77.492 E78.13813
G1 X77.082 Y77.547 E78.15896
G1 X77.5 Y77.565 E78.17978
G1 X77.918 Y77.547 E78.2006
G1 X78.333 Y77.492 E78.22144
G1 X78.741 Y77.402 E78.24223
G1 X79.141 Y77.276 E78.2631
G1 X79.527 Y77.115 E78.28391
G1 X79.899 Y76.923 E78.30475
G1 X80.252 Y76.697 E78.32561
G1 X80.584 Y76.444 E78.34638
G1 X80.893 Y76.161 E78.36723
G1 X81.176 Y75.852 E78.38808
G1 X81.429 Y75.52 E78.40886
G1 X81.655 Y75.167 E78.42972
G1 X81.847 Y74.795 E78.45055
G1 X82.008 Y74.409 E78.47136
G1 X82.134 Y74.009 E78.49223
G1 X82.224 Y73.601 E78.51303
G1 X82.279 Y73.186 E78.53386
G1 X82.297 Y72.768 E78.55468
G1 X82.279 Y72.35 E78.5755
G1 X82.224 Y71.935 E78.59633
G1 X82.134 Y71.527 E78.61713
G1 X82.011 Y71.133 E78.63767
G1 X81.929 Y70.925 E78.64879
G1 X81.755 Y70.553 E78.66923
G1 X81.546 Y70.19 E78.69008
G1 X81.306 Y69.848 E78.71087
G1 X81.042 Y69.531 E78.7314
G1 X80.887 Y69.37 E78.74252
G1 X80.584 Y69.092 E78.76299
G1 X80.251 Y68.838 E78.78383
G1 X79.9 Y68.614 E78.80455
G1 X79.528 Y68.419 E78.82545
G1 X79.14 Y68.259 E78.84634
G1 X78.741 Y68.134 E78.86715
G1 X78.333 Y68.044 E78.88794
G1 X77.918 Y67.989 E78.90877
G1 X77.5 Y67.971 E78.92959
G1 X77.082 Y67.989 E78.95041
G1 X76.667 Y68.044 E78.97125
G1 X76.259 Y68.134 E78.99204
G1 X75.86 Y68.259 E79.01285
G1 X75.476 Y68.418 E79.03353
G1 X75.278 Y68.517 E79.04455
G1 X74.922 Y68.722 E79.06499
G1 X74.579 Y68.962 E79.08582
G1 X74.26 Y69.23 E79.10656
G1 X73.962 Y69.526 E79.12746
G1 X73.694 Y69.848 E79.14831
G1 X73.454 Y70.19 E79.1691
M204 S5000
G0 F2400 X73.37 Y70.137
G0 X72.886 Y71.313
G0 X72.668 Y72.55
G0 X72.737 Y73.607
G0 X77.074 Y103.89
G0 X77.082 Y103.989
M204 S200
G1 F1200 X76.667 Y104.044 E79.18994
G1 X76.259 Y104.134 E79.21073
G1 X75.86 Y104.259 E79.23154
G1 X75.476 Y104.418 E79.25222
G1 X75.278 Y104.517 E79.26324
G1 X74.922 Y104.722 E79.28368
G1 X74.579 Y104.962 E79.30451
G1 X74.26 Y105.23 E79.32525
G1 X73.962 Y105.526 E79.34615
G1 X73.694 Y105.848 E79.367
G1 X73.454 Y106.19 E79.38779
G1 X73.245 Y106.553 E79.40864
G1 X73.068 Y106.932 E79.42945
G1 X72.924 Y107.325 E79.45028
G1 X72.817 Y107.73 E79.47113
G1 X72.744 Y108.141 E79.4919
G1 X72.707 Y108.552 E79.51244
G1 X72.703 Y108.775 E79.52354
G1 X72.721 Y109.186 E79.54401
G1 X72.776 Y109.601 E79.56485
G1 X72.866 Y110.009 E79.58564
G1 X72.992 Y110.409 E79.60651
G1 X73.153 Y110.795 E79.62732
G1 X73.345 Y111.167 E79.64815
G1 X73.571 Y111.52 E79.66901
G1 X73.824 Y111.852 E79.68979
G1 X74.107 Y112.161 E79.71064
G1 X74.416 Y112.444 E79.73149
G1 X74.748 Y112.697 E79.75226
G1 X75.101 Y112.923 E79.77312
G1 X75.473 Y113.115 E79.79396
G1 X75.859 Y113.276 E79.81477
G1 X76.259 Y113.402 E79.83564
G1 X76.667 Y113.492 E79.85643
G1 X77.082 Y113.547 E79.87727
G1 X77.5 Y113.565 E79.89809
G1 X77.918 Y113.547 E79.91891
G1 X78.333 Y113.492 E79.93974
G1 X78.741 Y113.402 E79.96053
G1 X79.141 Y113.276 E79.9814
G1 X79.527 Y113.115 E80.00222
G1 X79.899 Y112.923 E80.02305
G1 X80.252 Y112.697 E80.04391
G1 X80.584 Y112.444 E80.06468
G1 X80.893 Y112.161 E80.08553
G1 X81.176 Y111.852 E80.10639
G1 X81.429 Y111.52 E80.12716
G1 X81.655 Y111.167 E80.14802
G1 X81.847 Y110.795 E80.16885
G1 X82.008 Y110.409 E80.18967
G1 X82.134 Y110.009 E80.21054
G1 X82.224 Y109.601 E80.23133
G1 X82.279 Y109.186 E80.25216
G1 X82.297 Y108.768 E80.27298
G1 X82.279 Y108.35 E80.2938
G1 X82.224 Y107.935 E80.31464
G1 X82.134 Y107.527 E80.33543
G1 X82.011 Y107.133 E80.35597
G1 X81.929 Y106.925 E80.3671
G1 X81.755 Y106.553 E80.38753
G1 X81.546 Y106.19 E80.40838
G1 X81.306 Y105.848 E80.42917
G1 X81.042 Y105.531 E80.4497
G1 X80.887 Y105.37 E80.46082
G1 X80.584 Y105.092 E80.48129
G1 X80.251 Y104.838 E80.50213
G1 X79.9 Y104.614 E80.52285
G1 X79.528 Y104.419 E80.54375
G1 X79.14 Y104.259 E80.56464
G1 X78.741 Y104.134 E80.58545
G1 X78.333 Y104.044 E80.60624
G1 X77.918 Y103.989 E80.62707
G1 X77.5 Y103.971 E80.6479
G1 X77.082 Y103.989 E80.66872
M204 S5000
G0 F2400 X77.074 Y103.89
G0 X78.339 Y104.005
G0 X108.645 Y108.128
G0 X108.744 Y108.141
M204 S200
G1 F1200 X108.707 Y108.552 E80.68925
G1 X108.703 Y108.775 E80.70035
G1 X108.721 Y109.186 E80.72083
G1 X108.776 Y109.601 E80.74166
G1 X108.866 Y110.009 E80.76245
G1 X108.992 Y110.409 E80.78332
G1 X109.153 Y110.795 E80.80414
G1 X109.345 Y111.167 E80.82497
G1 X109.571 Y111.52 E80.84583
G1 X109.824 Y111.852 E80.8666
G1 X110.107 Y112.161 E80.88745
G1 X110.416 Y112.444 E80.90831
G1 X110.748 Y112.697 E80.92908
G1 X111.101 Y112.923 E80.94994
G1 X111.473 Y113.115 E80.97077
G1 X111.859 Y113.276 E80.99158
G1 X112.259 Y113.402 E81.01245
G1 X112.667 Y113.492 E81.03325
G1 X113.082 Y113.547 E81.05408
G1 X113.5 Y113.565 E81.0749
G1 X113.918 Y113.547 E81.09572
G1 X114.333 Y113.492 E81.11656
G1 X114.741 Y113.402 E81.13735
G1 X115.141 Y113.276 E81.15822
G1 X115.527 Y113.115 E81.17903
G1 X115.899 Y112.923 E81.19987
G1 X116.252 Y112.697 E81.22072
G1 X116.584 Y112.444 E81.2415
G1 X116.893 Y112.161 E81.26235
G1 X117.176 Y111.852 E81.2832
G1 X117.429 Y111.52 E81.30397
G1 X117.655 Y111.167 E81.32483
G1 X117.847 Y110.795 E81.34567
G1 X118.008 Y110.409 E81.36648
G1 X118.134 Y110.009 E81.38735
G1 X118.224 Y109.601 E81.40814
G1 X118.279 Y109.186 E81.42898
G1 X118.297 Y108.768 E81.4498
G1 X118.279 Y108.35 E81.47062
G1 X118.224 Y107.935 E81.49145
G1 X118.134 Y107.527 E81.51224
G1 X118.011 Y107.133 E81.53278
G1 X117.929 Y106.925 E81.54391
G1 X117.755 Y106.553 E81.56435
G1 X117.546 Y106.19 E81.58519
G1 X117.306 Y105.848 E81.60599
G1 X117.042 Y105.531 E81.62652
G1 X116.887 Y105.37 E81.63764
G1 X116.584 Y105.092 E81.6581
G1 X116.251 Y104.838 E81.67895
G1 X115.9 Y104.614 E81.69967
G1 X115.528 Y104.419 E81.72057
G1 X115.14 Y104.259 E81.74146
G1 X114.741 Y104.134 E81.76226
G1 X114.333 Y104.044 E81.78306
G1 X113.918 Y103.989 E81.80389
G1 X113.5 Y103.971 E81.82471
G1 X113.082 Y103.989 E81.84553
G1 X112.667 Y104.044 E81.86636
