;FLAVOR:RepRap
;TIME:5964
;Filament used: 4.28059m
;Layer height: 0.15
;Generated with Cura_SteamEngine 2.5.0-BETA
M190 S55
M104 S210
M109 S210
G21 ;metric values
G90 ;absolute positioning
M82 ;set extruder to absolute mode
M107 ;start with the fan off
G92 E0 ;zero the extruded length
G1 F200 E3 ;extrude 3mm of feed stock
G92 E0 ;zero the extruded length again
G1 F9000
M117 Printing...
;LAYER_COUNT:170
;LAYER:0
M107
G0 F1200 X81.923 Y93.254 Z0.3
G0 X82.242 Y92.993
;TYPE:SKIRT
G1 X83.474 Y92.069 E0.07683
G1 X84.02 Y91.715 E0.1093
G1 X89.634 Y88.591 E0.42982
G1 X94.189 Y85.697 E0.69906
G1 X96.576 Y84.029 E0.84434
G1 X97.105 Y83.708 E0.87521
G1 X97.672 Y83.458 E0.90613
G1 X98.266 Y83.282 E0.93704
G1 X98.877 Y83.185 E0.9679
G1 X99.325 Y83.164 E0.99028
G1 X114.07 Y83.164 E1.72591
G1 X114.688 Y83.204 E1.75681
G1 X115.296 Y83.323 E1.78771
G1 X115.883 Y83.52 E1.8186
G1 X116.44 Y83.79 E1.84949
G1 X116.958 Y84.13 E1.8804
G1 X117.428 Y84.534 E1.91132
G1 X117.841 Y84.995 E1.9422
G1 X118.192 Y85.505 E1.97309
G1 X118.579 Y86.319 E2.01805
G1 X120.093 Y90.469 E2.23845
G1 X121.713 Y94.384 E2.44983
G1 X121.913 Y94.971 E2.48077
G1 X122.035 Y95.578 E2.51165
G1 X122.078 Y96.22 E2.54376
G1 X122.079 Y108.442 E3.15351
G1 X122.039 Y109.06 E3.18441
G1 X121.92 Y109.667 E3.21527
G1 X121.724 Y110.255 E3.24619
G1 X121.453 Y110.812 E3.2771
G1 X121.113 Y111.33 E3.30801
G1 X120.709 Y111.799 E3.33889
G1 X120.022 Y112.381 E3.38381
G1 X116.415 Y114.893 E3.60311
G1 X116.082 Y115.105 E3.6228
G1 X113.877 Y116.385 E3.75
G1 X113.554 Y116.557 E3.76826
G1 X108.762 Y118.87 E4.03372
G1 X108.188 Y119.102 E4.06461
G1 X107.588 Y119.259 E4.09555
G1 X106.974 Y119.338 E4.12644
G1 X106.355 Y119.336 E4.15732
G1 X105.741 Y119.255 E4.18822
G1 X105.421 Y119.18 E4.20462
G1 X86.877 Y114.162 E5.16305
G1 X86.511 Y114.047 E5.18219
G1 X85.627 Y113.73 E5.22905
G1 X84.986 Y113.446 E5.26402
G1 X83.836 Y112.832 E5.32906
G1 X83.31 Y112.506 E5.35994
G1 X83.028 Y112.288 E5.37772
G1 X81.721 Y111.201 E5.46253
G1 X81.271 Y110.776 E5.49341
G1 X81.026 Y110.489 E5.51224
G1 X80.143 Y109.373 E5.58323
G1 X79.708 Y108.72 E5.62238
G1 X79.224 Y107.846 E5.67222
G1 X78.973 Y107.32 E5.7013
G1 X78.671 Y106.573 E5.7415
G1 X78.438 Y105.828 E5.78044
G1 X78.078 Y104.228 E5.86226
G1 X77.971 Y103.49 E5.89947
G1 X77.924 Y102.778 E5.93506
G1 X77.933 Y102.036 E5.97209
G1 X78.074 Y100.452 E6.05142
G1 X78.169 Y99.84 E6.08232
G1 X78.266 Y99.47 E6.10141
G1 X78.712 Y98.016 E6.17728
G1 X78.931 Y97.437 E6.20817
G1 X79.084 Y97.131 E6.22523
G1 X79.792 Y95.829 E6.29917
G1 X80.122 Y95.305 E6.33007
G1 X80.376 Y94.985 E6.35045
G1 X81.489 Y93.696 E6.43542
G1 X81.923 Y93.254 E6.46632
G1 X82.242 Y92.993 E6.48688
G0 X82.482 Y93.313
G1 X83.714 Y92.389 E6.56371
G1 X84.214 Y92.064 E6.59347
G1 X89.845 Y88.93 E6.91498
G1 X94.416 Y86.026 E7.18516
G1 X96.805 Y84.357 E7.33055
G1 X97.313 Y84.051 E7.36014
G1 X97.857 Y83.816 E7.3897
G1 X98.428 Y83.656 E7.41929
G1 X99.015 Y83.575 E7.44885
G1 X99.325 Y83.564 E7.46432
G1 X114.07 Y83.564 E8.19996
G1 X114.662 Y83.604 E8.22956
G1 X115.242 Y83.723 E8.2591
G1 X115.802 Y83.919 E8.2887
G1 X116.33 Y84.189 E8.31828
G1 X116.817 Y84.527 E8.34786
G1 X117.254 Y84.928 E8.37745
G1 X117.634 Y85.383 E8.40702
G1 X117.948 Y85.886 E8.43661
G1 X118.204 Y86.457 E8.46783
G1 X119.726 Y90.632 E8.68953
G1 X121.343 Y94.537 E8.90039
G1 X121.533 Y95.099 E8.92999
G1 X121.645 Y95.681 E8.95956
G1 X121.678 Y96.22 E8.9865
G1 X121.679 Y108.442 E9.59626
G1 X121.639 Y109.033 E9.62581
G1 X121.52 Y109.614 E9.6554
G1 X121.324 Y110.174 E9.685
G1 X121.054 Y110.702 E9.71458
G1 X120.716 Y111.189 E9.74416
G1 X120.316 Y111.626 E9.77371
G1 X119.794 Y112.053 E9.80736
G1 X116.187 Y114.565 E10.02665
G1 X115.881 Y114.759 E10.04473
G1 X113.676 Y116.039 E10.17193
G1 X113.38 Y116.197 E10.18867
G1 X108.588 Y118.51 E10.45414
G1 X108.037 Y118.731 E10.48375
G1 X107.463 Y118.876 E10.51329
G1 X106.873 Y118.943 E10.54291
G1 X106.281 Y118.929 E10.57246
G1 X105.526 Y118.794 E10.61072
G1 X86.982 Y113.776 E11.56916
G1 X86.646 Y113.671 E11.58672
G1 X85.762 Y113.354 E11.63358
G1 X85.175 Y113.093 E11.66563
G1 X84.025 Y112.479 E11.73066
G1 X83.522 Y112.166 E11.76022
G1 X83.283 Y111.981 E11.7753
G1 X81.976 Y110.894 E11.86011
G1 X81.547 Y110.485 E11.88968
G1 X81.339 Y110.241 E11.90568
G1 X80.456 Y109.125 E11.97668
G1 X80.058 Y108.527 E12.01251
G1 X79.574 Y107.653 E12.06236
G1 X79.344 Y107.17 E12.08905
G1 X79.042 Y106.423 E12.12924
G1 X78.828 Y105.74 E12.16495
G1 X78.468 Y104.14 E12.24677
G1 X78.371 Y103.464 E12.28084
G1 X78.324 Y102.752 E12.31644
G1 X78.331 Y102.072 E12.35037
G1 X78.472 Y100.488 E12.42971
G1 X78.565 Y99.902 E12.45931
G1 X78.648 Y99.588 E12.47551
G1 X79.094 Y98.134 E12.55139
G1 X79.436 Y97.322 E12.59535
G1 X80.144 Y96.02 E12.66929
G1 X80.461 Y95.519 E12.69887
G1 X80.679 Y95.246 E12.7163
G1 X81.792 Y93.957 E12.80126
G1 X82.209 Y93.536 E12.83082
G1 X82.482 Y93.313 E12.84841
G0 X82.722 Y93.633
G1 X83.954 Y92.709 E12.92524
G1 X84.409 Y92.414 E12.95229
G1 X90.041 Y89.28 E13.27385
G1 X94.638 Y86.359 E13.54558
G1 X97.034 Y84.685 E13.6914
G1 X97.519 Y84.395 E13.71959
G1 X98.04 Y84.176 E13.74779
G1 X98.587 Y84.033 E13.77599
G1 X99.325 Y83.964 E13.81297
G1 X114.07 Y83.964 E14.54861
G1 X114.634 Y84.004 E14.57681
G1 X115.187 Y84.123 E14.60503
G1 X115.717 Y84.319 E14.63323
G1 X116.214 Y84.587 E14.6614
G1 X116.669 Y84.923 E14.68962
G1 X117.072 Y85.32 E14.71784
G1 X117.414 Y85.77 E14.74604
G1 X117.69 Y86.263 E14.77423
G1 X117.828 Y86.594 E14.79212
G1 X119.348 Y90.761 E15.01341
G1 X120.974 Y94.69 E15.22555
G1 X121.153 Y95.226 E15.25374
G1 X121.254 Y95.783 E15.28198
G1 X121.278 Y96.22 E15.30382
G1 X121.279 Y108.442 E15.91358
G1 X121.239 Y109.006 E15.94179
G1 X121.12 Y109.558 E15.96996
G1 X120.924 Y110.089 E15.9982
G1 X120.656 Y110.586 E16.02637
G1 X120.32 Y111.041 E16.05459
G1 X119.923 Y111.443 E16.08277
G1 X119.565 Y111.724 E16.10548
G1 X115.958 Y114.236 E16.32477
G1 X115.68 Y114.413 E16.34121
G1 X113.475 Y115.693 E16.46841
G1 X113.206 Y115.836 E16.48361
G1 X108.414 Y118.149 E16.74908
G1 X107.889 Y118.358 E16.77727
G1 X107.339 Y118.491 E16.8055
G1 X106.776 Y118.546 E16.83372
G1 X106.212 Y118.52 E16.86189
G1 X105.63 Y118.408 E16.89146
G1 X87.086 Y113.39 E17.8499
G1 X86.781 Y113.294 E17.86585
G1 X85.897 Y112.977 E17.9127
G1 X85.363 Y112.741 E17.94183
G1 X84.213 Y112.127 E18.00687
G1 X83.539 Y111.673 E18.04741
G1 X82.232 Y110.586 E18.13222
G1 X81.653 Y109.993 E18.17357
G1 X80.77 Y108.877 E18.24457
G1 X80.408 Y108.333 E18.27717
G1 X79.924 Y107.459 E18.32701
G1 X79.715 Y107.02 E18.35127
G1 X79.413 Y106.273 E18.39147
G1 X79.219 Y105.652 E18.42393
G1 X78.859 Y104.052 E18.50575
G1 X78.77 Y103.437 E18.53675
G1 X78.723 Y102.725 E18.57235
G1 X78.73 Y102.107 E18.60318
G1 X78.871 Y100.523 E18.68252
G1 X79.031 Y99.705 E18.72411
G1 X79.477 Y98.251 E18.79998
G1 X79.787 Y97.513 E18.83992
G1 X80.495 Y96.211 E18.91386
G1 X80.799 Y95.735 E18.94203
G1 X80.981 Y95.508 E18.95655
G1 X82.094 Y94.219 E19.04151
G1 X82.493 Y93.818 E19.06974
G1 X82.722 Y93.633 E19.08442
G0 X82.962 Y93.953
G1 X84.194 Y93.029 E19.16125
G1 X84.603 Y92.763 E19.1856
G1 X90.252 Y89.619 E19.50813
G1 X94.865 Y86.688 E19.7808
G1 X97.263 Y85.013 E19.92674
G1 X97.724 Y84.739 E19.95349
G1 X98.221 Y84.537 E19.98026
G1 X98.742 Y84.411 E20.007
G1 X99.325 Y84.364 E20.03618
G1 X114.07 Y84.364 E20.77181
G1 X114.605 Y84.404 E20.79858
G1 X115.128 Y84.523 E20.82534
G1 X115.627 Y84.718 E20.85206
G1 X116.092 Y84.986 E20.87884
G1 X116.512 Y85.319 E20.90558
G1 X116.878 Y85.711 E20.93234
G1 X117.181 Y86.153 E20.95907
G1 X117.452 Y86.731 E20.99092
G1 X118.976 Y90.911 E21.21289
G1 X120.604 Y94.843 E21.42521
G1 X120.772 Y95.353 E21.452
G1 X120.862 Y95.881 E21.47872
G1 X120.878 Y96.22 E21.49565
G1 X120.879 Y108.442 E22.10541
G1 X120.839 Y108.977 E22.13217
G1 X120.72 Y109.499 E22.15889
G1 X120.525 Y109.999 E22.18566
G1 X120.258 Y110.464 E22.21241
G1 X119.924 Y110.884 E22.23918
G1 X119.336 Y111.396 E22.27808
G1 X115.729 Y113.908 E22.49738
G1 X115.479 Y114.067 E22.51216
G1 X113.274 Y115.347 E22.63936
G1 X113.032 Y115.476 E22.65304
G1 X108.24 Y117.789 E22.9185
G1 X107.741 Y117.986 E22.94527
G1 X107.218 Y118.106 E22.97204
G1 X106.684 Y118.147 E22.99876
G1 X106.149 Y118.108 E23.02552
G1 X105.735 Y118.022 E23.04662
G1 X87.191 Y113.004 E24.00506
G1 X86.916 Y112.918 E24.01943
G1 X86.032 Y112.601 E24.06628
G1 X85.551 Y112.388 E24.09253
G1 X84.401 Y111.774 E24.15757
G1 X83.795 Y111.366 E24.19401
G1 X82.488 Y110.279 E24.27883
G1 X81.967 Y109.745 E24.31605
G1 X81.084 Y108.629 E24.38704
G1 X80.758 Y108.139 E24.41641
G1 X80.274 Y107.265 E24.46625
G1 X80.085 Y106.87 E24.4881
G1 X79.783 Y106.123 E24.52829
G1 X79.609 Y105.564 E24.5575
G1 X79.249 Y103.964 E24.63932
G1 X79.169 Y103.411 E24.6672
G1 X79.122 Y102.699 E24.7028
G1 X79.128 Y102.143 E24.73054
G1 X79.269 Y100.559 E24.80988
G1 X79.413 Y99.822 E24.84734
G1 X79.859 Y98.368 E24.92322
G1 X80.138 Y97.704 E24.95915
G1 X80.846 Y96.402 E25.03309
G1 X81.284 Y95.769 E25.07149
G1 X82.397 Y94.48 E25.15646
G1 X82.962 Y93.953 E25.195
G0 X83.202 Y94.273
G1 X84.434 Y93.349 E25.27184
G1 X84.798 Y93.113 E25.29348
G1 X90.448 Y89.969 E25.61606
G1 X95.087 Y87.022 E25.89025
G1 X97.492 Y85.341 E26.03664
G1 X97.928 Y85.085 E26.06187
G1 X98.399 Y84.901 E26.0871
G1 X98.893 Y84.793 E26.11232
G1 X99.325 Y84.764 E26.13392
G1 X114.07 Y84.764 E26.86956
G1 X114.574 Y84.804 E26.89478
G1 X115.065 Y84.923 E26.91998
G1 X115.532 Y85.117 E26.94521
G1 X115.962 Y85.383 E26.97044
G1 X116.345 Y85.713 E26.99566
G1 X116.671 Y86.1 E27.02091
G1 X116.932 Y86.533 E27.04613
G1 X117.076 Y86.868 E27.06432
G1 X118.598 Y91.04 E27.28588
G1 X120.235 Y94.996 E27.49948
G1 X120.391 Y95.477 E27.52471
G1 X120.478 Y96.22 E27.56203
G1 X120.479 Y108.442 E28.17179
G1 X120.439 Y108.946 E28.19701
G1 X120.32 Y109.437 E28.22221
G1 X120.126 Y109.904 E28.24744
G1 X119.86 Y110.334 E28.27267
G1 X119.53 Y110.717 E28.29789
G1 X119.108 Y111.068 E28.32528
G1 X115.501 Y113.58 E28.54457
G1 X115.279 Y113.722 E28.55772
G1 X113.074 Y115.002 E28.68492
G1 X112.858 Y115.116 E28.6971
G1 X108.066 Y117.429 E28.96257
G1 X107.595 Y117.612 E28.98778
G1 X107.101 Y117.719 E29.013
G1 X106.596 Y117.746 E29.03823
G1 X106.093 Y117.694 E29.06345
G1 X105.839 Y117.636 E29.07645
G1 X87.295 Y112.618 E30.03489
G1 X87.051 Y112.541 E30.04766
G1 X86.167 Y112.224 E30.09451
G1 X85.74 Y112.035 E30.11781
G1 X84.59 Y111.421 E30.18284
G1 X84.051 Y111.058 E30.21526
G1 X82.744 Y109.971 E30.30008
G1 X82.281 Y109.497 E30.33313
G1 X81.398 Y108.381 E30.40413
G1 X81.108 Y107.945 E30.43025
G1 X80.624 Y107.071 E30.4801
G1 X80.456 Y106.72 E30.49951
G1 X80.154 Y105.973 E30.53971
G1 X79.999 Y105.476 E30.56568
G1 X79.639 Y103.876 E30.6475
G1 X79.568 Y103.385 E30.67225
G1 X79.521 Y102.673 E30.70785
G1 X79.527 Y102.178 E30.73255
G1 X79.668 Y100.594 E30.81189
G1 X79.796 Y99.94 E30.84514
G1 X80.242 Y98.486 E30.92101
G1 X80.49 Y97.895 E30.95299
G1 X81.198 Y96.593 E31.02693
G1 X81.587 Y96.031 E31.06103
G1 X82.7 Y94.742 E31.14599
G1 X83.202 Y94.273 E31.18027
G1 F1500 E24.68027
G0 F1200 X102.822 Y89.545
G0 X106.349 Y89.533
G0 X106.349 Y89.798
;TYPE:SUPPORT
G1 F1500 E31.18027
G1 F1200 X106.149 Y89.798 E31.19025
G1 X106.149 Y88.154 E31.27227
G1 X107.249 Y88.154 E31.32714
G1 X107.249 Y90.039 E31.42119
G1 X107.049 Y90.039 E31.43117
G1 X107.049 Y90.923 E31.47527
G1 X106.349 Y90.923 E31.51019
G1 X106.349 Y89.798 E31.56632
G1 F1500 E25.06632
G0 F1200 X106.614 Y89.798
G0 X106.614 Y90.661
G0 X106.509 Y90.661
G1 F1500 E31.56632
G1 F1200 X106.889 Y90.661 E31.58528
G0 X106.66 Y90.763
G1 X106.66 Y88.314 E31.70746
G1 F1500 E25.20746
G0 F1200 X105.335 Y89.533
G0 X105.335 Y90.812
G0 X104.473 Y91.744
;TYPE:WALL-INNER
G1 F1500 E31.70746
G1 F1200 X104.474 Y91.198 E31.7347
G1 X104.949 Y91.198 E31.7584
G1 X104.949 Y94.581 E31.92717
G1 X99.109 Y97.952 E32.26359
G1 X99.109 Y106.715 E32.70078
G1 X106.699 Y111.097 E33.13802
G1 X114.289 Y106.715 E33.57526
G1 X114.289 Y97.952 E34.01245
G1 X108.449 Y94.581 E34.34887
G1 X108.449 Y91.439 E34.50562
G1 X108.725 Y91.438 E34.51939
G1 X108.925 Y91.438 E34.52937
G1 X108.925 Y91.638 E34.53583
G1 X108.925 Y92.546 E34.58113
G1 X116.289 Y96.797 E35.00534
G1 X116.289 Y107.87 E35.55778
G1 X106.559 Y113.488 E36.11831
G1 X88.52 Y108.612 E37.05058
G1 X87.857 Y108.395 E37.08539
G1 X87.235 Y108.115 E37.11942
G1 X86.642 Y107.77 E37.15364
G1 X86.098 Y107.372 E37.18727
G1 X85.596 Y106.918 E37.22104
G1 X85.148 Y106.417 E37.25457
G1 X84.736 Y105.851 E37.2895
G1 X84.407 Y105.279 E37.32242
G1 X84.129 Y104.649 E37.35677
G1 X83.919 Y104 E37.39081
G1 X83.779 Y103.343 E37.42432
G1 X83.711 Y102.667 E37.45821
G1 X83.713 Y101.99 E37.49199
G1 X83.784 Y101.308 E37.5262
G1 X83.928 Y100.637 E37.56044
G1 X84.131 Y100.01 E37.59332
G1 X84.409 Y99.389 E37.62726
G1 X84.754 Y98.792 E37.66166
G1 X85.151 Y98.247 E37.6953
G1 X85.606 Y97.739 E37.72933
G1 X86.119 Y97.277 E37.76377
G1 X86.658 Y96.885 E37.79702
G1 X87.238 Y96.55 E37.83044
G1 X87.867 Y96.268 E37.86483
G1 X88.61 Y96.031 E37.90373
G1 X104.473 Y91.744 E38.72353
G0 X94.168 Y99.127
G1 X93.811 Y98.73 E38.75017
G1 X93.414 Y98.373 E38.77681
G1 X92.981 Y98.057 E38.80355
G1 X92.52 Y97.791 E38.8301
G1 X92.034 Y97.573 E38.85668
G1 X91.526 Y97.408 E38.88333
G1 X91.004 Y97.295 E38.90997
G1 X90.472 Y97.24 E38.93665
G1 X89.94 Y97.24 E38.9632
G1 X89.408 Y97.294 E38.98987
G1 X88.885 Y97.406 E39.01656
G1 X88.377 Y97.57 E39.04319
G1 X87.89 Y97.786 E39.06977
G1 X87.425 Y98.053 E39.09652
G1 X86.993 Y98.368 E39.12319
G1 X86.596 Y98.724 E39.1498
G1 X86.24 Y99.12 E39.17636
G1 X85.925 Y99.55 E39.20296
G1 X85.657 Y100.014 E39.22969
G1 X85.44 Y100.5 E39.25624
G1 X85.274 Y101.008 E39.28291
G1 X85.162 Y101.53 E39.30954
G1 X85.106 Y102.061 E39.33618
G1 X85.106 Y102.597 E39.36292
G1 X85.161 Y103.125 E39.38941
G1 X85.271 Y103.648 E39.41607
G1 X85.437 Y104.156 E39.44273
G1 X85.652 Y104.643 E39.46929
G1 X85.92 Y105.108 E39.49607
G1 X86.232 Y105.54 E39.52265
G1 X86.59 Y105.937 E39.54933
G1 X86.986 Y106.293 E39.57589
G1 X87.417 Y106.61 E39.60258
G1 X87.881 Y106.876 E39.62927
G1 X88.367 Y107.094 E39.65584
G1 X88.875 Y107.259 E39.68249
G1 X89.397 Y107.372 E39.70913
G1 X89.929 Y107.427 E39.73582
G1 X90.461 Y107.427 E39.76236
G1 X90.993 Y107.373 E39.78904
G1 X91.516 Y107.261 E39.81572
G1 X92.024 Y107.097 E39.84235
G1 X92.511 Y106.881 E39.86893
G1 X92.975 Y106.614 E39.89564
G1 X93.408 Y106.301 E39.9223
G1 X93.805 Y105.943 E39.94897
G1 X94.162 Y105.546 E39.9756
G1 X94.477 Y105.114 E40.00228
G1 X94.744 Y104.652 E40.0289
G1 X94.961 Y104.166 E40.05545
G1 X95.127 Y103.658 E40.08212
G1 X95.239 Y103.136 E40.10875
G1 X95.295 Y102.605 E40.13539
G1 X95.295 Y102.069 E40.16213
G1 X95.24 Y101.541 E40.18862
G1 X95.13 Y101.018 E40.21528
G1 X94.964 Y100.51 E40.24194
G1 X94.749 Y100.023 E40.2685
G1 X94.481 Y99.558 E40.29528
G1 X94.168 Y99.127 E40.32185
G0 X93.857 Y99.379
G1 X93.528 Y99.013 E40.3464
G1 X93.162 Y98.684 E40.37096
G1 X92.763 Y98.393 E40.39559
G1 X92.338 Y98.148 E40.42007
G1 X91.89 Y97.947 E40.44457
G1 X91.422 Y97.795 E40.46912
G1 X90.941 Y97.691 E40.49367
G1 X90.451 Y97.64 E40.51825
G1 X89.96 Y97.64 E40.54274
G1 X89.47 Y97.69 E40.56731
G1 X88.988 Y97.793 E40.5919
G1 X88.52 Y97.944 E40.61644
G1 X88.071 Y98.143 E40.64094
G1 X87.643 Y98.389 E40.66557
G1 X87.245 Y98.679 E40.69014
G1 X86.879 Y99.007 E40.71466
G1 X86.551 Y99.373 E40.73918
G1 X86.26 Y99.769 E40.76369
G1 X86.014 Y100.196 E40.78828
G1 X85.814 Y100.644 E40.81276
G1 X85.661 Y101.112 E40.83732
G1 X85.558 Y101.593 E40.86186
G1 X85.506 Y102.082 E40.8864
G1 X85.506 Y102.576 E40.91104
G1 X85.557 Y103.063 E40.93547
G1 X85.658 Y103.545 E40.96004
G1 X85.811 Y104.013 E40.98461
G1 X86.009 Y104.462 E41.00909
G1 X86.256 Y104.89 E41.03374
G1 X86.544 Y105.288 E41.05825
G1 X86.873 Y105.654 E41.0828
G1 X87.239 Y105.982 E41.10732
G1 X87.636 Y106.274 E41.13191
G1 X88.063 Y106.519 E41.15647
G1 X88.511 Y106.72 E41.18097
G1 X88.979 Y106.872 E41.20552
G1 X89.46 Y106.976 E41.23007
G1 X89.95 Y107.027 E41.25465
G1 X90.441 Y107.027 E41.27914
G1 X90.931 Y106.977 E41.30372
G1 X91.413 Y106.874 E41.32831
G1 X91.881 Y106.723 E41.35284
G1 X92.33 Y106.524 E41.37734
G1 X92.757 Y106.278 E41.40193
G1 X93.156 Y105.989 E41.42651
G1 X93.522 Y105.66 E41.45106
