;FLAVOR:RepRap
;TIME:10434
;Filament used: 7.8041m
;Layer height: 0.15
;Generated with Cura_SteamEngine 2.5.0-BETA
M190 S55
M104 S210
M109 S210
G21 ;metric values
G90 ;absolute positioning
M82 ;set extruder to absolute mode
M107 ;start with the fan off
G92 E0 ;zero the extruded length
G1 F200 E3 ;extrude 3mm of feed stock
G92 E0 ;zero the extruded length again
G1 F9000
M117 Printing...
;LAYER_COUNT:75
;LAYER:0
M107
G0 F1200 X84.562 Y45.889 Z0.3
;TYPE:SKIRT
G1 X84.902 Y45.371 E0.03091
G1 X85.306 Y44.901 E0.06183
G1 X85.767 Y44.488 E0.09271
G1 X86.277 Y44.137 E0.1236
G1 X86.828 Y43.854 E0.1545
G1 X87.411 Y43.645 E0.1854
G1 X88.017 Y43.513 E0.21634
G1 X88.621 Y43.46 E0.24659
G1 X95.543 Y43.294 E0.59203
G1 X98.34 Y43.094 E0.73193
G1 X98.664 Y43.082 E0.74811
G1 X101.099 Y43.073 E0.86959
G1 X101.385 Y43.081 E0.88387
G1 X106.445 Y43.364 E1.1367
G1 X109.961 Y43.439 E1.31216
G1 X111.339 Y43.461 E1.38092
G1 X111.957 Y43.51 E1.41184
G1 X112.562 Y43.639 E1.44271
G1 X113.147 Y43.845 E1.47365
G1 X113.699 Y44.124 E1.50451
G1 X114.212 Y44.472 E1.53543
G1 X114.675 Y44.883 E1.56632
G1 X115.081 Y45.35 E1.59719
G1 X115.424 Y45.866 E1.6281
G1 X115.698 Y46.422 E1.65903
G1 X115.898 Y47.008 E1.68992
G1 X116.02 Y47.615 E1.72081
G1 X116.064 Y48.26 E1.75306
G1 X116.064 Y151.741 E6.91575
G1 X116.024 Y152.359 E6.94665
G1 X115.905 Y152.967 E6.97756
G1 X115.708 Y153.554 E7.00845
G1 X115.438 Y154.111 E7.03933
G1 X115.098 Y154.629 E7.07024
G1 X114.694 Y155.099 E7.10116
G1 X114.233 Y155.512 E7.13204
G1 X113.723 Y155.863 E7.16293
G1 X113.172 Y156.146 E7.19383
G1 X112.589 Y156.355 E7.22473
G1 X111.983 Y156.487 E7.25567
G1 X111.264 Y156.541 E7.29165
G1 X88.736 Y156.541 E8.41557
G1 X88.118 Y156.501 E8.44647
G1 X87.51 Y156.382 E8.47738
G1 X86.923 Y156.185 E8.50827
G1 X86.366 Y155.915 E8.53915
G1 X85.848 Y155.575 E8.57006
G1 X85.378 Y155.171 E8.60098
G1 X84.965 Y154.71 E8.63186
G1 X84.614 Y154.2 E8.66275
G1 X84.331 Y153.649 E8.69365
G1 X84.122 Y153.066 E8.72455
G1 X83.99 Y152.46 E8.75549
G1 X83.936 Y151.741 E8.79147
G1 X83.936 Y48.259 E13.9542
G1 X83.976 Y47.641 E13.9851
G1 X84.095 Y47.033 E14.01601
G1 X84.292 Y46.446 E14.0469
G1 X84.562 Y45.889 E14.07778
G0 X84.961 Y45.999
G1 X85.299 Y45.512 E14.10736
G1 X85.7 Y45.075 E14.13695
G1 X86.155 Y44.695 E14.16652
G1 X86.658 Y44.381 E14.19611
G1 X87.198 Y44.136 E14.22569
G1 X87.767 Y43.967 E14.2553
G1 X88.63 Y43.86 E14.29869
G1 X95.561 Y43.693 E14.64458
G1 X98.369 Y43.493 E14.78502
G1 X98.666 Y43.482 E14.79985
G1 X101.101 Y43.473 E14.92133
G1 X101.363 Y43.48 E14.93441
G1 X106.444 Y43.765 E15.1883
G1 X109.952 Y43.839 E15.36336
G1 X111.333 Y43.861 E15.43226
G1 X111.924 Y43.91 E15.46185
G1 X112.503 Y44.038 E15.49143
G1 X113.059 Y44.243 E15.521
G1 X113.583 Y44.521 E15.55059
G1 X114.065 Y44.866 E15.58016
G1 X114.496 Y45.274 E15.60977
G1 X114.868 Y45.735 E15.63933
G1 X115.174 Y46.243 E15.66891
G1 X115.41 Y46.787 E15.6985
G1 X115.571 Y47.358 E15.72809
G1 X115.653 Y47.945 E15.75766
G1 X115.664 Y48.26 E15.77339
G1 X115.664 Y151.741 E20.93608
G1 X115.624 Y152.333 E20.96568
G1 X115.505 Y152.913 E20.99522
G1 X115.309 Y153.473 E21.02482
G1 X115.039 Y154.001 E21.05441
G1 X114.701 Y154.488 E21.08398
G1 X114.3 Y154.925 E21.11357
G1 X113.845 Y155.305 E21.14315
G1 X113.342 Y155.619 E21.17273
G1 X112.802 Y155.864 E21.20231
G1 X112.233 Y156.033 E21.23193
G1 X111.648 Y156.124 E21.26146
G1 X111.264 Y156.141 E21.28064
G1 X88.736 Y156.141 E22.40457
G1 X88.144 Y156.101 E22.43417
G1 X87.564 Y155.982 E22.46371
G1 X87.004 Y155.786 E22.49331
G1 X86.476 Y155.516 E22.52289
G1 X85.989 Y155.178 E22.55247
G1 X85.552 Y154.777 E22.58206
G1 X85.172 Y154.322 E22.61163
G1 X84.858 Y153.819 E22.64122
G1 X84.613 Y153.279 E22.6708
G1 X84.444 Y152.71 E22.70041
G1 X84.353 Y152.125 E22.72995
G1 X84.336 Y151.741 E22.74913
G1 X84.336 Y48.259 E27.91187
G1 X84.376 Y47.667 E27.94147
G1 X84.495 Y47.087 E27.97101
G1 X84.691 Y46.527 E28.00061
G1 X84.961 Y45.999 E28.03019
G0 X85.359 Y46.115
G1 X85.695 Y45.66 E28.05841
G1 X86.092 Y45.257 E28.08664
G1 X86.542 Y44.915 E28.11483
G1 X87.035 Y44.639 E28.14302
G1 X87.563 Y44.435 E28.17126
G1 X88.113 Y44.308 E28.19942
G1 X88.64 Y44.26 E28.22582
G1 X95.577 Y44.093 E28.57201
G1 X98.397 Y43.892 E28.71306
G1 X98.667 Y43.882 E28.72654
G1 X101.102 Y43.873 E28.84802
G1 X101.341 Y43.879 E28.85995
G1 X106.442 Y44.165 E29.11484
G1 X109.922 Y44.239 E29.2885
G1 X109.922 Y44.238 E29.28855
G1 X111.327 Y44.26 E29.35865
G1 X111.89 Y44.309 E29.38685
G1 X112.441 Y44.437 E29.41507
G1 X112.968 Y44.641 E29.44326
G1 X113.461 Y44.917 E29.47145
G1 X113.91 Y45.26 E29.49964
G1 X114.307 Y45.663 E29.52786
G1 X114.642 Y46.118 E29.55605
G1 X114.911 Y46.616 E29.58429
G1 X115.106 Y47.147 E29.61251
G1 X115.225 Y47.699 E29.64068
G1 X115.264 Y48.26 E29.66874
G1 X115.264 Y151.741 E34.83143
G1 X115.224 Y152.305 E34.85963
G1 X115.105 Y152.858 E34.88786
G1 X114.909 Y153.388 E34.91605
G1 X114.641 Y153.885 E34.94422
G1 X114.305 Y154.34 E34.97244
G1 X113.908 Y154.743 E35.00066
G1 X113.458 Y155.085 E35.02886
G1 X112.965 Y155.361 E35.05705
G1 X112.437 Y155.565 E35.08529
G1 X111.887 Y155.692 E35.11345
G1 X111.264 Y155.741 E35.14463
G1 X88.736 Y155.741 E36.26855
G1 X88.172 Y155.701 E36.29676
G1 X87.619 Y155.582 E36.32498
G1 X87.089 Y155.386 E36.35317
G1 X86.592 Y155.118 E36.38134
G1 X86.137 Y154.782 E36.40956
G1 X85.734 Y154.385 E36.43779
G1 X85.392 Y153.935 E36.46598
G1 X85.116 Y153.442 E36.49417
G1 X84.912 Y152.914 E36.52241
G1 X84.785 Y152.364 E36.55057
G1 X84.736 Y151.741 E36.58175
G1 X84.736 Y48.259 E41.74449
G1 X84.776 Y47.695 E41.7727
G1 X84.895 Y47.142 E41.80092
G1 X85.091 Y46.612 E41.82911
G1 X85.359 Y46.115 E41.85728
G0 X85.758 Y46.237
G1 X86.091 Y45.817 E41.88402
G1 X86.483 Y45.451 E41.91078
G1 X86.925 Y45.148 E41.93751
G1 X87.408 Y44.913 E41.96431
G1 X87.919 Y44.753 E41.99103
G1 X88.65 Y44.66 E42.02779
G1 X95.595 Y44.493 E42.37438
G1 X98.426 Y44.291 E42.51598
G1 X98.669 Y44.282 E42.52811
G1 X101.104 Y44.273 E42.64959
G1 X101.318 Y44.279 E42.66027
G1 X106.411 Y44.564 E42.91476
G1 X109.915 Y44.639 E43.08962
G1 X109.915 Y44.638 E43.08966
G1 X111.32 Y44.66 E43.15977
G1 X111.854 Y44.709 E43.18652
G1 X112.375 Y44.836 E43.21328
G1 X112.872 Y45.039 E43.24006
G1 X113.332 Y45.314 E43.2668
G1 X113.747 Y45.654 E43.29356
G1 X114.107 Y46.051 E43.3203
G1 X114.403 Y46.498 E43.34705
G1 X114.63 Y46.984 E43.37381
G1 X114.783 Y47.498 E43.40057
G1 X114.864 Y48.26 E43.4388
G1 X114.864 Y151.741 E48.60148
G1 X114.824 Y152.276 E48.62825
G1 X114.705 Y152.799 E48.65501
G1 X114.51 Y153.298 E48.68174
G1 X114.242 Y153.763 E48.70851
G1 X113.909 Y154.183 E48.73525
G1 X113.517 Y154.549 E48.76201
G1 X113.075 Y154.852 E48.78875
G1 X112.592 Y155.087 E48.81554
G1 X112.081 Y155.247 E48.84226
G1 X111.551 Y155.33 E48.86902
G1 X111.264 Y155.341 E48.88335
G1 X88.736 Y155.341 E50.00728
G1 X88.201 Y155.301 E50.03404
G1 X87.678 Y155.182 E50.0608
G1 X87.179 Y154.987 E50.08753
G1 X86.714 Y154.719 E50.11431
G1 X86.294 Y154.386 E50.14105
G1 X85.928 Y153.994 E50.1678
G1 X85.625 Y153.552 E50.19454
G1 X85.39 Y153.069 E50.22134
G1 X85.23 Y152.558 E50.24805
G1 X85.147 Y152.028 E50.27482
G1 X85.136 Y151.741 E50.28915
G1 X85.136 Y48.259 E55.45188
G1 X85.176 Y47.724 E55.47865
G1 X85.295 Y47.201 E55.50541
G1 X85.49 Y46.702 E55.53214
G1 X85.758 Y46.237 E55.55891
G0 X86.155 Y46.367
G1 X86.485 Y45.984 E55.58414
G1 X86.872 Y45.658 E55.60938
G1 X87.305 Y45.397 E55.6346
G1 X87.773 Y45.207 E55.6598
G1 X88.266 Y45.094 E55.68504
G1 X88.659 Y45.06 E55.70472
G1 X95.611 Y44.893 E56.05165
G1 X98.454 Y44.69 E56.19385
G1 X98.67 Y44.682 E56.20464
G1 X101.105 Y44.673 E56.32612
G1 X101.296 Y44.678 E56.33565
G1 X106.409 Y44.964 E56.59114
G1 X109.909 Y45.039 E56.7658
G1 X109.909 Y45.038 E56.76585
G1 X111.314 Y45.06 E56.83595
G1 X111.817 Y45.108 E56.86116
G1 X112.307 Y45.235 E56.88641
G1 X112.77 Y45.437 E56.91161
G1 X113.196 Y45.709 E56.93683
G1 X113.574 Y46.045 E56.96206
G1 X113.894 Y46.437 E56.98731
G1 X114.148 Y46.874 E57.01253
G1 X114.33 Y47.345 E57.03772
G1 X114.436 Y47.84 E57.06297
G1 X114.464 Y48.26 E57.08397
G1 X114.464 Y151.741 E62.24666
G1 X114.424 Y152.245 E62.27188
G1 X114.305 Y152.736 E62.29709
G1 X114.111 Y153.203 E62.32232
G1 X113.845 Y153.633 E62.34754
G1 X113.515 Y154.016 E62.37277
G1 X113.128 Y154.342 E62.39801
G1 X112.695 Y154.603 E62.42324
G1 X112.227 Y154.793 E62.44843
G1 X111.734 Y154.906 E62.47367
G1 X111.264 Y154.941 E62.49718
G1 X88.736 Y154.941 E63.62111
G1 X88.232 Y154.901 E63.64633
G1 X87.741 Y154.782 E63.67154
G1 X87.274 Y154.588 E63.69677
G1 X86.844 Y154.322 E63.72199
G1 X86.461 Y153.992 E63.74721
G1 X86.135 Y153.605 E63.77246
G1 X85.874 Y153.172 E63.79768
G1 X85.684 Y152.704 E63.82288
G1 X85.571 Y152.211 E63.84812
G1 X85.536 Y151.741 E63.87163
G1 X85.536 Y48.259 E69.03437
G1 X85.576 Y47.755 E69.05959
G1 X85.695 Y47.264 E69.0848
G1 X85.889 Y46.797 E69.11003
G1 X86.155 Y46.367 E69.13525
G1 F1500 E62.63525
G0 F1200 X88.078 Y49.135
G0 X88.124 Y49.201
G0 X99.785 Y65.976
G0 X99.831 Y66.042
G0 X99.998 Y66.281
;TYPE:SUPPORT
G1 F1500 E69.13525
G1 F1200 X103.889 Y68.53 E69.35947
G1 X103.889 Y72.971 E69.58103
G1 X99.998 Y75.22 E69.80525
G1 X96.112 Y72.974 E70.02917
G1 X96.112 Y68.527 E70.25103
G1 X99.998 Y66.281 E70.47496
G0 X101.327 Y67.234
G1 X101.327 Y74.268 E70.82589
G0 X100.643 Y74.662
G1 X99.352 Y74.662 E70.8903
G0 X96.272 Y69.329
G1 X103.729 Y69.329 E71.26233
G1 F1500 E64.76233
G0 F1200 X103.51 Y73.535
G0 X103.506 Y73.615
G0 X100.019 Y140.868
G0 X100.015 Y140.948
G0 X99.998 Y141.28
G1 F1500 E71.26233
G1 F1200 X103.889 Y143.529 E71.48654
G1 X103.889 Y147.97 E71.70811
G1 X99.998 Y150.219 E71.93232
G1 X96.112 Y147.973 E72.15625
G1 X96.112 Y143.526 E72.37811
G1 X99.998 Y141.28 E72.60204
G0 X101.327 Y142.233
G1 X101.327 Y149.267 E72.95297
G0 X101.225 Y149.324
G1 X98.768 Y149.324 E73.07555
G0 X96.271 Y143.991
G1 X103.728 Y143.991 E73.44758
G1 F1500 E66.94758
G0 F1200 X104.161 Y143.991
G0 X105.446 Y143.991
G0 X105.826 Y142.386
;TYPE:WALL-INNER
G1 F1500 E73.44758
G1 F1200 X100 Y139.022 E73.78321
G1 X94.174 Y142.386 E74.11885
G1 X94.174 Y149.113 E74.45446
G1 X96.364 Y150.377 E74.58061
G1 X97.01 Y150.75 E74.61783
G1 X96.265 Y150.75 E74.63703
G1 X96.264 Y150.75 E74.63708
G1 X89.727 Y150.75 E74.96321
G1 X89.727 Y49.25 E80.02707
G1 X110.273 Y49.25 E81.05211
G1 X110.273 Y150.75 E86.11597
G1 X103.736 Y150.75 E86.4421
G1 X103.735 Y150.75 E86.44215
G1 X102.99 Y150.75 E86.47932
G1 X103.636 Y150.377 E86.49855
G1 X105.826 Y149.113 E86.6247
G1 X105.826 Y142.386 E86.96032
G0 X100 Y77.478
G1 X105.826 Y74.114 E87.29595
G1 X105.826 Y67.387 E87.63156
G1 X100 Y64.023 E87.9672
G1 X94.174 Y67.387 E88.30283
G1 X94.174 Y74.114 E88.63844
G1 X100 Y77.478 E88.97408
G0 X100 Y77.016
G1 X105.426 Y73.883 E89.28667
G1 X105.426 Y67.618 E89.59923
G1 X100 Y64.485 E89.91182
G1 X94.574 Y67.618 E90.22441
G1 X94.574 Y73.883 E90.53697
G1 X100 Y77.016 E90.84956
G0 X100 Y77.116
G0 X94.54 Y73.903
G0 X89.397 Y48.92
G0 X89.327 Y48.85
G1 X110.673 Y48.85 E91.91452
G1 X110.673 Y151.15 E97.01828
G1 X102.243 Y151.15 E97.43886
G1 X102.242 Y151.15 E97.43891
G1 X101.497 Y151.15 E97.47608
G1 X102.143 Y150.777 E97.49531
G1 X105.426 Y148.882 E97.68443
G1 X105.426 Y142.617 E97.99699
G1 X100 Y139.484 E98.30958
G1 X94.574 Y142.617 E98.62217
G1 X94.574 Y148.882 E98.93473
G1 X97.857 Y150.777 E99.12385
G1 X98.503 Y151.15 E99.16106
G1 X97.758 Y151.15 E99.18027
G1 X97.757 Y151.15 E99.18032
G1 X89.327 Y151.15 E99.60089
G1 X89.327 Y48.85 E104.70466
G0 X88.927 Y48.45
;TYPE:WALL-OUTER
G1 X111.073 Y48.45 E105.80953
G1 X111.073 Y151.55 E110.95321
G1 X100.751 Y151.55 E111.46818
G1 X100.75 Y151.55 E111.46823
G1 X100.005 Y151.55 E111.5054
G1 X100.651 Y151.177 E111.52463
G1 X105.026 Y148.651 E111.77667
G1 X105.026 Y142.848 E112.06618
G1 X100 Y139.946 E112.35572
G1 X94.974 Y142.848 E112.64527
G1 X94.974 Y148.651 E112.93478
G1 X99.349 Y151.177 E113.18682
G1 X99.995 Y151.55 E113.22404
G1 X99.25 Y151.55 E113.24324
G1 X99.249 Y151.55 E113.24329
G1 X88.927 Y151.55 E113.75826
G1 X88.927 Y48.45 E118.90194
G0 X89.127 Y48.45
G0 X89.397 Y48.92
G0 X100.25 Y64.515
G0 X100 Y64.947
G1 X94.974 Y67.849 E119.19148
G1 X94.974 Y73.652 E119.481
G1 X100 Y76.554 E119.77054
G1 X105.026 Y73.652 E120.06009
G1 X105.026 Y67.849 E120.3496
G1 X100 Y64.947 E120.63915
G0 X99.827 Y65.047
G0 X99.578 Y64.614
G0 X99.294 Y64.221
;TYPE:SKIN
G1 X89.906 Y54.834 E121.30148
G1 X89.836 Y54.764
G0 X89.906 Y55.399
G1 X98.935 Y64.428 E121.93853
G1 X99.005 Y64.498
G0 X98.577 Y64.635
G1 X89.906 Y55.965 E122.55028
G1 X89.836 Y55.895
G0 X89.906 Y56.531
G1 X98.218 Y64.843 E123.13674
G1 X98.288 Y64.913
G0 X97.86 Y65.05
G1 X89.906 Y57.096 E123.69793
G1 X89.836 Y57.026
G0 X89.906 Y57.662
G1 X97.5 Y65.256 E124.23373
G1 X97.57 Y65.326
G0 X97.142 Y65.463
G1 X89.906 Y58.228 E124.74424
G1 X89.836 Y58.158
G0 X89.906 Y58.793
G1 X96.783 Y65.671 E125.22948
G1 X96.853 Y65.741
G0 X96.425 Y65.878
G1 X89.906 Y59.359 E125.68943
G1 X89.836 Y59.289
G0 X89.906 Y59.925
G1 X96.066 Y66.085 E126.12405
G1 X96.136 Y66.155
G0 X95.708 Y66.292
G1 X89.906 Y60.49 E126.53341
G1 X89.836 Y60.42
G0 X89.906 Y61.056
G1 X95.349 Y66.499 E126.91745
G1 X95.419 Y66.569
G0 X94.991 Y66.707
G1 X89.906 Y61.622 E127.27622
G1 X89.836 Y61.552
G0 X89.906 Y62.187
G1 X94.632 Y66.913 E127.60967
G1 X94.702 Y66.983
G0 X94.273 Y67.12
G1 X89.906 Y62.753 E127.91778
G1 X89.836 Y62.683
G0 X89.906 Y63.319
G1 X93.993 Y67.406 E128.20614
G1 X94.063 Y67.476
G0 X93.993 Y67.972
G1 X89.906 Y63.884 E128.49454
G1 X89.836 Y63.814
G0 X89.906 Y64.45
G1 X93.993 Y68.537 E128.7829
G1 X94.063 Y68.607
G0 X93.993 Y69.103
G1 X89.906 Y65.016 E129.07126
G1 X89.836 Y64.946
G0 X89.906 Y65.582
G1 X93.993 Y69.669 E129.35962
G1 X94.063 Y69.739
G0 X93.993 Y70.234
G1 X89.906 Y66.147 E129.64798
G1 X89.836 Y66.077
G0 X89.906 Y66.713
G1 X93.993 Y70.8 E129.93634
G1 X94.063 Y70.87
G0 X93.993 Y71.366
G1 X89.906 Y67.279 E130.2247
G1 X89.836 Y67.209
G0 X89.906 Y67.844
G1 X93.993 Y71.931 E130.51306
G1 X94.063 Y72.001
G0 X93.993 Y72.497
G1 X89.906 Y68.41 E130.80142
G1 X89.836 Y68.34
G0 X89.906 Y68.976
G1 X93.993 Y73.063 E131.08978
G1 X94.063 Y73.133
G0 X93.993 Y73.628
G1 X89.906 Y69.541 E131.37814
G1 X89.836 Y69.471
G0 X89.906 Y70.107
G1 X93.993 Y74.194 E131.6665
G1 X94.063 Y74.264
G0 X94.05 Y74.251
G1 X110.092 Y90.294 E132.79838
G1 X110.162 Y90.364
G0 X110.092 Y90.859
G1 X89.906 Y70.673 E134.22261
G1 X89.836 Y70.603
G0 X89.906 Y71.238
G1 X110.092 Y91.425 E135.64688
G1 X110.162 Y91.495
G0 X110.092 Y91.991
G1 X89.906 Y71.804 E137.07115
G1 X89.836 Y71.734
G0 X89.906 Y72.37
G1 X110.092 Y92.556 E138.49538
G1 X110.162 Y92.626
G0 X110.092 Y93.122
G1 X89.906 Y72.935 E139.91964
G1 X89.836 Y72.865
G0 X89.906 Y73.501
G1 X110.092 Y93.688 E141.34391
G1 X110.162 Y93.758
G0 X110.092 Y94.253
G1 X89.906 Y74.067 E142.76814
G1 X89.836 Y73.997
G0 X89.906 Y74.632
G1 X110.092 Y94.819 E144.19241
G1 X110.162 Y94.889
G0 X110.092 Y95.385
G1 X89.906 Y75.198 E145.61667
G1 X89.836 Y75.128
G0 X89.906 Y75.764
G1 X110.092 Y95.95 E147.04091
G1 X110.162 Y96.02
G0 X110.092 Y96.516
G1 X89.906 Y76.33 E148.46514
G1 X89.836 Y76.26
G0 X89.906 Y76.895
G1 X110.092 Y97.082 E149.8894
G1 X110.162 Y97.152
G0 X110.092 Y97.647
G1 X89.906 Y77.461 E151.31364
G1 X89.836 Y77.391
G0 X89.906 Y78.027
G1 X110.092 Y98.213 E152.73787
G1 X110.162 Y98.283
G0 X110.092 Y98.779
G1 X89.906 Y78.592 E154.16213
G1 X89.836 Y78.522
G0 X89.906 Y79.158
G1 X110.092 Y99.344 E155.58636
G1 X110.162 Y99.414
G0 X110.092 Y99.91
G1 X89.906 Y79.724 E157.0106
G1 X89.836 Y79.654
G0 X89.906 Y80.289
G1 X110.092 Y100.476 E158.43486
G1 X110.162 Y100.546
G0 X110.092 Y101.042
G1 X89.906 Y80.855 E159.85913
G1 X89.836 Y80.785
G0 X89.906 Y81.421
G1 X110.092 Y101.607 E161.28336
G1 X110.162 Y101.677
G0 X110.092 Y102.173
G1 X89.906 Y81.986 E162.70763
G1 X89.836 Y81.916
G0 X89.906 Y82.552
G1 X110.092 Y102.739 E164.13189
G1 X110.162 Y102.809
G0 X110.092 Y103.304
G1 X89.906 Y83.118 E165.55612
G1 X89.836 Y83.048
G0 X89.906 Y83.683
G1 X110.092 Y103.87 E166.98039
G1 X110.162 Y103.94
G0 X110.092 Y104.436
G1 X89.906 Y84.249 E168.40466
G1 X89.836 Y84.179
G0 X89.906 Y84.815
G1 X110.092 Y105.001 E169.82889
G1 X110.162 Y105.071
G0 X110.092 Y105.567
G1 X89.906 Y85.381 E171.25312
G1 X89.836 Y85.311
