;FLAVOR:RepRap
;TIME:4914
;Filament used: 3.98076m
;Layer height: 0.15
;Generated with Cura_SteamEngine 2.5.0-BETA
M190 S55
M104 S210
M109 S210
G21 ;metric values
G90 ;absolute positioning
M82 ;set extruder to absolute mode
M107 ;start with the fan off
G92 E0 ;zero the extruded length
G1 F200 E3 ;extrude 3mm of feed stock
G92 E0 ;zero the extruded length again
G1 F9000
M117 Printing...
;LAYER_COUNT:170
;LAYER:0
M107
G0 F1200 X82.124 Y91.221 Z0.3
;TYPE:SKIRT
G1 X83.3 Y90.209 E0.0774
G1 X83.795 Y89.836 E0.10833
G1 X84.106 Y89.648 E0.12646
G1 X85.417 Y88.922 E0.20122
G1 X86.068 Y88.623 E0.23696
G1 X86.788 Y88.355 E0.27529
G1 X87.48 Y88.155 E0.31123
G1 X106.215 Y84.239 E1.26612
G1 X106.828 Y84.151 E1.29702
G1 X107.447 Y84.144 E1.3279
G1 X108.063 Y84.216 E1.35884
G1 X108.663 Y84.366 E1.3897
G1 X109.222 Y84.585 E1.41965
G1 X113.082 Y86.381 E1.63205
G1 X113.439 Y86.566 E1.65211
G1 X115.479 Y87.732 E1.76934
G1 X115.805 Y87.936 E1.78853
G1 X117.532 Y89.116 E1.89288
G1 X117.606 Y89.167 E1.89736
G1 X119.562 Y90.558 E2.01711
G1 X120.042 Y90.949 E2.04799
G1 X120.469 Y91.398 E2.07891
G1 X120.833 Y91.899 E2.1098
G1 X121.131 Y92.442 E2.1407
G1 X121.356 Y93.019 E2.1716
G1 X121.504 Y93.621 E2.20253
G1 X121.58 Y94.47 E2.24506
G1 X121.58 Y105.53 E2.79684
G1 X121.54 Y106.148 E2.82774
G1 X121.421 Y106.756 E2.85865
G1 X121.224 Y107.343 E2.88954
G1 X120.954 Y107.9 E2.92042
G1 X120.614 Y108.418 E2.95133
G1 X120.21 Y108.888 E2.98225
G1 X119.749 Y109.301 E3.01313
G1 X119.18 Y109.687 E3.04744
G1 X109.599 Y115.219 E3.59939
G1 X109.044 Y115.493 E3.63027
G1 X108.458 Y115.694 E3.66118
G1 X107.851 Y115.818 E3.69209
G1 X107.233 Y115.862 E3.723
G1 X106.615 Y115.826 E3.75388
G1 X106.229 Y115.763 E3.77339
G1 X88.903 Y112.188 E4.656
G1 X88.695 Y112.14 E4.66665
G1 X87.064 Y111.727 E4.75059
G1 X86.279 Y111.454 E4.79205
G1 X85.09 Y110.921 E4.85706
G1 X84.309 Y110.479 E4.90183
G1 X83.082 Y109.624 E4.97644
G1 X82.514 Y109.16 E5.01303
G1 X81.934 Y108.607 E5.05301
G1 X81.441 Y108.059 E5.08979
G1 X80.536 Y106.882 E5.16386
G1 X80.099 Y106.203 E5.20415
G1 X79.626 Y105.31 E5.25456
G1 X79.341 Y104.659 E5.29002
G1 X78.923 Y103.473 E5.35276
G1 X78.75 Y102.851 E5.38496
G1 X78.596 Y102.108 E5.42282
G1 X78.519 Y101.607 E5.44811
G1 X78.444 Y100.85 E5.48606
G1 X78.427 Y100.136 E5.52169
G1 X78.503 Y98.626 E5.59712
G1 X78.596 Y97.899 E5.63369
G1 X78.751 Y97.146 E5.67204
G1 X78.897 Y96.599 E5.70029
G1 X79.204 Y95.676 E5.74882
G1 X79.52 Y94.94 E5.78878
G1 X80.246 Y93.573 E5.866
G1 X80.733 Y92.83 E5.91032
G1 X81.503 Y91.865 E5.97191
G1 X82.124 Y91.221 E6.01655
G0 X82.385 Y91.524
G1 X83.561 Y90.512 E6.09395
G1 X84.035 Y90.156 E6.12353
G1 X84.299 Y89.998 E6.13888
G1 X85.61 Y89.272 E6.21364
G1 X86.207 Y88.997 E6.24643
G1 X86.927 Y88.729 E6.28476
G1 X87.562 Y88.546 E6.31773
G1 X106.297 Y84.63 E7.27262
G1 X106.884 Y84.548 E7.30219
G1 X107.477 Y84.546 E7.33178
G1 X108.065 Y84.623 E7.36137
G1 X108.637 Y84.779 E7.39094
G1 X109.053 Y84.948 E7.41335
G1 X112.913 Y86.744 E7.62575
G1 X113.24 Y86.913 E7.64411
G1 X115.28 Y88.079 E7.76134
G1 X115.579 Y88.266 E7.77893
G1 X117.306 Y89.446 E7.88329
G1 X117.374 Y89.493 E7.88741
G1 X119.33 Y90.884 E8.00715
G1 X119.789 Y91.26 E8.03676
G1 X120.193 Y91.693 E8.0663
G1 X120.536 Y92.178 E8.09594
G1 X120.81 Y92.703 E8.12548
G1 X121.011 Y93.261 E8.15507
G1 X121.135 Y93.841 E8.18466
G1 X121.18 Y94.47 E8.21612
G1 X121.18 Y105.53 E8.76791
G1 X121.14 Y106.122 E8.79751
G1 X121.021 Y106.702 E8.82705
G1 X120.825 Y107.262 E8.85665
G1 X120.555 Y107.79 E8.88624
G1 X120.217 Y108.277 E8.91581
G1 X119.816 Y108.714 E8.9454
G1 X119.361 Y109.094 E8.97498
G1 X118.98 Y109.34 E8.9976
G1 X109.399 Y114.872 E9.54956
G1 X108.867 Y115.134 E9.57914
G1 X108.304 Y115.321 E9.60874
G1 X107.722 Y115.431 E9.63829
G1 X107.129 Y115.461 E9.66791
G1 X106.31 Y115.371 E9.70902
G1 X88.984 Y111.796 E10.59163
G1 X88.793 Y111.752 E10.60141
G1 X87.162 Y111.339 E10.68535
G1 X86.442 Y111.089 E10.72337
G1 X85.253 Y110.556 E10.78838
G1 X84.537 Y110.151 E10.82942
G1 X83.31 Y109.296 E10.90403
G1 X82.79 Y108.871 E10.93753
G1 X82.21 Y108.318 E10.97751
G1 X81.758 Y107.815 E11.01125
G1 X80.853 Y106.638 E11.08533
G1 X80.453 Y106.016 E11.12222
G1 X79.98 Y105.123 E11.17264
G1 X79.718 Y104.526 E11.20516
G1 X79.3 Y103.34 E11.2679
G1 X79.142 Y102.77 E11.29741
G1 X78.988 Y102.027 E11.33527
G1 X78.917 Y101.568 E11.35844
G1 X78.842 Y100.811 E11.39639
G1 X78.827 Y100.156 E11.42908
G1 X78.903 Y98.646 E11.50451
G1 X78.987 Y97.98 E11.538
G1 X79.142 Y97.227 E11.57635
G1 X79.277 Y96.725 E11.60228
G1 X79.584 Y95.802 E11.65081
G1 X79.873 Y95.127 E11.68745
G1 X80.599 Y93.76 E11.76467
G1 X81.046 Y93.08 E11.80527
G1 X81.816 Y92.115 E11.86686
G1 X82.385 Y91.524 E11.90779
G0 X82.646 Y91.827
G1 X83.822 Y90.815 E11.98519
G1 X84.493 Y90.348 E12.02598
G1 X85.804 Y89.622 E12.10074
G1 X86.347 Y89.372 E12.13057
G1 X87.067 Y89.104 E12.1689
G1 X87.644 Y88.938 E12.19885
G1 X106.379 Y85.022 E13.15374
G1 X106.939 Y84.945 E13.18194
G1 X107.504 Y84.949 E13.21013
G1 X108.063 Y85.032 E13.23833
G1 X108.605 Y85.193 E13.26654
G1 X108.884 Y85.31 E13.28163
G1 X112.744 Y87.106 E13.49403
G1 X113.042 Y87.26 E13.51077
G1 X115.082 Y88.426 E13.62799
G1 X115.354 Y88.596 E13.644
G1 X117.081 Y89.776 E13.74835
G1 X117.142 Y89.819 E13.75207
G1 X119.098 Y91.21 E13.87182
G1 X119.535 Y91.57 E13.90006
G1 X119.916 Y91.987 E13.92824
G1 X120.235 Y92.454 E13.95646
G1 X120.484 Y92.961 E13.98464
G1 X120.66 Y93.498 E14.01283
G1 X120.758 Y94.055 E14.04105
G1 X120.78 Y94.47 E14.06178
G1 X120.78 Y105.53 E14.61357
G1 X120.74 Y106.094 E14.64178
G1 X120.621 Y106.647 E14.67
G1 X120.425 Y107.177 E14.69819
G1 X120.157 Y107.674 E14.72636
G1 X119.821 Y108.129 E14.75458
G1 X119.424 Y108.532 E14.7828
G1 X118.78 Y108.994 E14.82234
G1 X109.199 Y114.526 E15.3743
G1 X108.691 Y114.773 E15.40248
G1 X108.153 Y114.947 E15.43069
G1 X107.595 Y115.042 E15.45893
G1 X107.03 Y115.058 E15.48713
G1 X106.391 Y114.979 E15.51925
G1 X89.065 Y111.404 E16.40186
G1 X88.891 Y111.365 E16.41075
G1 X87.26 Y110.952 E16.49469
G1 X86.606 Y110.724 E16.52925
G1 X85.417 Y110.191 E16.59425
G1 X84.766 Y109.823 E16.63156
G1 X83.539 Y108.968 E16.70617
G1 X83.066 Y108.581 E16.73666
G1 X82.486 Y108.028 E16.77665
G1 X82.075 Y107.571 E16.80731
G1 X81.17 Y106.394 E16.88138
G1 X80.806 Y105.828 E16.91495
G1 X80.333 Y104.935 E16.96537
G1 X80.095 Y104.393 E16.9949
G1 X79.677 Y103.207 E17.05764
G1 X79.533 Y102.689 E17.08446
G1 X79.379 Y101.946 E17.12232
G1 X79.315 Y101.528 E17.14342
G1 X79.24 Y100.771 E17.18137
G1 X79.226 Y100.176 E17.21106
G1 X79.302 Y98.666 E17.28649
G1 X79.379 Y98.061 E17.31692
G1 X79.534 Y97.308 E17.35527
G1 X79.656 Y96.852 E17.37882
G1 X79.963 Y95.929 E17.42735
G1 X80.226 Y95.315 E17.46068
G1 X80.952 Y93.948 E17.5379
G1 X81.358 Y93.329 E17.57483
G1 X82.128 Y92.364 E17.63642
G1 X82.646 Y91.827 E17.67365
G0 X82.907 Y92.13
G1 X84.083 Y91.118 E17.75105
G1 X84.687 Y90.698 E17.78775
G1 X85.998 Y89.972 E17.86252
G1 X86.486 Y89.747 E17.88933
G1 X87.206 Y89.479 E17.92766
G1 X87.725 Y89.329 E17.95461
G1 X106.46 Y85.413 E18.9095
G1 X106.992 Y85.343 E18.93627
G1 X107.528 Y85.352 E18.96302
G1 X108.057 Y85.441 E18.98978
G1 X108.716 Y85.673 E19.02464
G1 X112.576 Y87.469 E19.23704
G1 X112.843 Y87.608 E19.25206
G1 X114.883 Y88.774 E19.36928
G1 X115.128 Y88.927 E19.38369
G1 X116.855 Y90.107 E19.48805
G1 X116.91 Y90.145 E19.49138
G1 X118.866 Y91.536 E19.61113
G1 X119.279 Y91.879 E19.63791
G1 X119.636 Y92.279 E19.66466
G1 X119.93 Y92.727 E19.69139
G1 X120.154 Y93.215 E19.71818
G1 X120.303 Y93.73 E19.74493
G1 X120.38 Y94.47 E19.78205
G1 X120.38 Y105.53 E20.33383
G1 X120.34 Y106.065 E20.3606
G1 X120.221 Y106.588 E20.38736
G1 X120.026 Y107.087 E20.41409
G1 X119.758 Y107.552 E20.44086
G1 X119.425 Y107.972 E20.4676
G1 X119.033 Y108.338 E20.49436
G1 X118.58 Y108.648 E20.52174
G1 X108.999 Y114.18 E21.0737
G1 X108.516 Y114.412 E21.10043
G1 X108.004 Y114.571 E21.12718
G1 X107.473 Y114.652 E21.15398
G1 X106.937 Y114.652 E21.18072
G1 X106.472 Y114.588 E21.20414
G1 X89.146 Y111.013 E22.08674
G1 X88.989 Y110.977 E22.09478
G1 X87.358 Y110.564 E22.17872
G1 X86.769 Y110.359 E22.20983
G1 X85.58 Y109.826 E22.27484
G1 X84.995 Y109.495 E22.30837
G1 X83.768 Y108.64 E22.38298
G1 X83.342 Y108.292 E22.41043
G1 X82.762 Y107.739 E22.45041
G1 X82.392 Y107.327 E22.47804
G1 X81.487 Y106.15 E22.55211
G1 X81.16 Y105.641 E22.58229
G1 X80.687 Y104.748 E22.63271
G1 X80.473 Y104.26 E22.65929
G1 X80.055 Y103.074 E22.72203
G1 X79.925 Y102.608 E22.74616
G1 X79.771 Y101.865 E22.78402
G1 X79.714 Y101.489 E22.80299
G1 X79.639 Y100.732 E22.84095
G1 X79.626 Y100.196 E22.86769
G1 X79.702 Y98.686 E22.94312
G1 X79.771 Y98.141 E22.97053
G1 X79.926 Y97.388 E23.00889
G1 X80.036 Y96.978 E23.03006
G1 X80.343 Y96.055 E23.07859
G1 X80.58 Y95.502 E23.10861
G1 X81.306 Y94.135 E23.18583
G1 X81.671 Y93.579 E23.21901
G1 X82.441 Y92.614 E23.28061
G1 X82.907 Y92.13 E23.31413
G0 X83.168 Y92.433
G1 X84.344 Y91.421 E23.39153
G1 X84.881 Y91.048 E23.42415
G1 X86.192 Y90.322 E23.49891
G1 X86.626 Y90.122 E23.52276
G1 X87.346 Y89.854 E23.56108
G1 X87.807 Y89.721 E23.58502
G1 X106.542 Y85.805 E24.53991
G1 X107.044 Y85.741 E24.56516
G1 X107.549 Y85.756 E24.59037
G1 X108.046 Y85.852 E24.61562
G1 X108.547 Y86.036 E24.64225
G1 X112.407 Y87.832 E24.85465
G1 X112.645 Y87.955 E24.86802
G1 X114.685 Y89.121 E24.98524
G1 X114.902 Y89.257 E24.99802
G1 X116.629 Y90.437 E25.10237
G1 X116.679 Y90.471 E25.10539
G1 X118.635 Y91.862 E25.22513
G1 X119.022 Y92.187 E25.25035
G1 X119.354 Y92.568 E25.27556
G1 X119.621 Y92.998 E25.30081
G1 X119.818 Y93.463 E25.32601
G1 X119.938 Y93.954 E25.35122
G1 X119.98 Y94.47 E25.37705
G1 X119.98 Y105.53 E25.92884
G1 X119.94 Y106.034 E25.95406
G1 X119.821 Y106.525 E25.97927
G1 X119.627 Y106.992 E26.0045
G1 X119.361 Y107.422 E26.02972
G1 X119.031 Y107.805 E26.05494
G1 X118.644 Y108.131 E26.08019
G1 X118.38 Y108.301 E26.09585
G1 X108.799 Y113.833 E26.64781
G1 X108.343 Y114.051 E26.67302
G1 X107.858 Y114.193 E26.69824
G1 X107.356 Y114.258 E26.72349
G1 X106.851 Y114.243 E26.7487
G1 X106.552 Y114.196 E26.7638
G1 X89.226 Y110.621 E27.6464
G1 X89.087 Y110.589 E27.65352
G1 X87.456 Y110.176 E27.73746
G1 X86.933 Y109.994 E27.76509
G1 X85.744 Y109.461 E27.83009
G1 X85.224 Y109.166 E27.85992
G1 X83.997 Y108.311 E27.93453
G1 X83.618 Y108.002 E27.95893
G1 X83.038 Y107.449 E27.99891
G1 X82.709 Y107.084 E28.02342
G1 X81.804 Y105.907 E28.0975
G1 X81.513 Y105.454 E28.12436
G1 X81.04 Y104.561 E28.17477
G1 X80.85 Y104.127 E28.19841
G1 X80.432 Y102.941 E28.26115
G1 X80.317 Y102.526 E28.28263
G1 X80.163 Y101.783 E28.32049
G1 X80.112 Y101.449 E28.33735
G1 X80.037 Y100.692 E28.3753
G1 X80.025 Y100.216 E28.39905
G1 X80.101 Y98.706 E28.47448
G1 X80.163 Y98.222 E28.49883
G1 X80.318 Y97.469 E28.53718
G1 X80.416 Y97.104 E28.55604
G1 X80.723 Y96.181 E28.60456
G1 X80.933 Y95.69 E28.63121
G1 X81.659 Y94.323 E28.70843
G1 X81.984 Y93.828 E28.73797
G1 X82.754 Y92.863 E28.79956
G1 X83.168 Y92.433 E28.82934
G1 F1500 E22.32934
G0 F1200 X84.902 Y94.262
G0 X85.776 Y95.176
G0 X85.983 Y95.532
;TYPE:WALL-INNER
G1 F1500 E28.82934
G1 F1200 X86.473 Y95.066 E28.86308
G1 X86.982 Y94.67 E28.89525
G1 X87.546 Y94.319 E28.9284
G1 X88.128 Y94.033 E28.96075
G1 X88.743 Y93.803 E28.99351
G1 X89.398 Y93.633 E29.02727
G1 X107.033 Y89.984 E29.92572
G1 X115.79 Y95.041 E30.43022
G1 X115.79 Y104.959 E30.92503
G1 X107.033 Y110.016 E31.42954
G1 X89.398 Y106.367 E32.32799
G1 X88.743 Y106.197 E32.36175
G1 X88.133 Y105.969 E32.39424
G1 X87.541 Y105.678 E32.42715
G1 X86.982 Y105.33 E32.46
G1 X86.47 Y104.932 E32.49235
G1 X85.983 Y104.468 E32.52591
G1 X85.555 Y103.968 E32.55875
G1 X85.187 Y103.437 E32.59098
G1 X84.867 Y102.861 E32.62385
G1 X84.607 Y102.253 E32.65684
G1 X84.409 Y101.623 E32.68979
G1 X84.277 Y100.979 E32.72259
G1 X84.21 Y100.326 E32.75534
G1 X84.21 Y99.674 E32.78787
G1 X84.277 Y99.021 E32.82062
G1 X84.409 Y98.377 E32.85341
G1 X84.607 Y97.747 E32.88636
G1 X84.867 Y97.139 E32.91935
G1 X85.19 Y96.559 E32.95247
G1 X85.556 Y96.031 E32.98452
G1 X85.983 Y95.532 E33.01729
G0 X87.098 Y96.39
G1 X86.74 Y96.785 E33.04388
G1 X86.424 Y97.219 E33.07067
G1 X86.158 Y97.681 E33.09726
G1 X85.94 Y98.167 E33.12384
G1 X85.774 Y98.675 E33.1505
G1 X85.662 Y99.197 E33.17714
G1 X85.606 Y99.729 E33.20383
G1 X85.606 Y100.263 E33.23047
G1 X85.661 Y100.792 E33.257
G1 X85.771 Y101.315 E33.28366
G1 X85.937 Y101.825 E33.31042
G1 X86.153 Y102.31 E33.33691
G1 X86.42 Y102.775 E33.36366
G1 X86.733 Y103.207 E33.39028
G1 X87.091 Y103.604 E33.41695
G1 X87.487 Y103.961 E33.44355
G1 X87.92 Y104.276 E33.47026
G1 X88.381 Y104.543 E33.49684
G1 X88.867 Y104.76 E33.52339
G1 X89.376 Y104.926 E33.5501
G1 X89.897 Y105.038 E33.57669
G1 X90.429 Y105.094 E33.60338
G1 X90.964 Y105.094 E33.63007
G1 X91.493 Y105.039 E33.6566
G1 X92.016 Y104.929 E33.68327
G1 X92.524 Y104.763 E33.70993
G1 X93.011 Y104.548 E33.73649
G1 X93.476 Y104.28 E33.76326
G1 X93.908 Y103.968 E33.78985
G1 X94.305 Y103.61 E33.81652
G1 X94.662 Y103.213 E33.84316
G1 X94.977 Y102.781 E33.86983
G1 X95.244 Y102.319 E33.89645
G1 X95.461 Y101.833 E33.92301
G1 X95.627 Y101.325 E33.94967
G1 X95.739 Y100.803 E33.97631
G1 X95.795 Y100.271 E34.00299
G1 X95.795 Y99.737 E34.02963
G1 X95.74 Y99.208 E34.05617
G1 X95.63 Y98.685 E34.08283
G1 X95.464 Y98.177 E34.1095
G1 X95.249 Y97.69 E34.13605
G1 X94.981 Y97.225 E34.16283
G1 X94.669 Y96.793 E34.18942
G1 X94.311 Y96.396 E34.21609
G1 X93.914 Y96.039 E34.24272
G1 X93.482 Y95.724 E34.2694
G1 X93.02 Y95.457 E34.29602
G1 X92.534 Y95.24 E34.32257
G1 X92.026 Y95.074 E34.34924
G1 X91.504 Y94.962 E34.37587
G1 X90.972 Y94.906 E34.40256
G1 X90.437 Y94.906 E34.42925
G1 X89.908 Y94.961 E34.45578
G1 X89.385 Y95.071 E34.48245
G1 X88.878 Y95.237 E34.50906
G1 X88.39 Y95.452 E34.53567
G1 X87.926 Y95.72 E34.5624
G1 X87.493 Y96.033 E34.58906
G1 X87.098 Y96.39 E34.61562
G0 X89.479 Y95.42
G0 X90.456 Y95.267
G0 X91.447 Y95.319
G0 X92.404 Y95.577
G0 X101.271 Y99.061
G1 X101.207 Y99.688 E34.64706
G1 X101.207 Y100.312 E34.67819
G1 X101.271 Y100.939 E34.70964
G1 X101.403 Y101.554 E34.74102
G1 X101.597 Y102.149 E34.77224
G1 X101.852 Y102.724 E34.80362
G1 X102.166 Y103.268 E34.83496
G1 X102.536 Y103.776 E34.86631
G1 X102.956 Y104.243 E34.89765
G1 X103.423 Y104.663 E34.92898
G1 X103.932 Y105.033 E34.96038
G1 X104.475 Y105.347 E34.99167
G1 X105.05 Y105.602 E35.02305
G1 X105.646 Y105.796 E35.05432
G1 X106.261 Y105.928 E35.08571
G1 X106.885 Y105.993 E35.11701
G1 X107.514 Y105.993 E35.14839
G1 X108.139 Y105.928 E35.17974
G1 X108.754 Y105.796 E35.21112
G1 X109.35 Y105.602 E35.24239
G1 X109.925 Y105.347 E35.27377
G1 X110.468 Y105.033 E35.30506
G1 X110.976 Y104.663 E35.33642
G1 X111.443 Y104.243 E35.36775
G1 X111.863 Y103.776 E35.39909
G1 X112.233 Y103.268 E35.43044
G1 X112.547 Y102.724 E35.46178
G1 X112.803 Y102.149 E35.49318
G1 X112.996 Y101.554 E35.52439
G1 X113.128 Y100.939 E35.55577
G1 X113.193 Y100.314 E35.58712
G1 X113.193 Y99.686 E35.61845
G1 X113.128 Y99.061 E35.6498
G1 X112.996 Y98.446 E35.68118
G1 X112.803 Y97.851 E35.71239
G1 X112.547 Y97.276 E35.74379
G1 X112.233 Y96.732 E35.77513
G1 X111.863 Y96.224 E35.80648
G1 X111.443 Y95.757 E35.83781
G1 X110.976 Y95.337 E35.86915
G1 X110.468 Y94.967 E35.9005
G1 X109.925 Y94.653 E35.9318
G1 X109.35 Y94.398 E35.96318
G1 X108.754 Y94.204 E35.99445
G1 X108.139 Y94.072 E36.02583
G1 X107.514 Y94.007 E36.05718
G1 X106.885 Y94.007 E36.08856
G1 X106.261 Y94.072 E36.11986
G1 X105.646 Y94.204 E36.15124
G1 X105.05 Y94.398 E36.18251
G1 X104.475 Y94.653 E36.21389
G1 X103.932 Y94.967 E36.24519
G1 X103.423 Y95.337 E36.27658
G1 X102.956 Y95.757 E36.30792
G1 X102.536 Y96.224 E36.33925
G1 X102.166 Y96.732 E36.37061
G1 X101.852 Y97.276 E36.40194
G1 X101.597 Y97.851 E36.43332
G1 X101.403 Y98.446 E36.46455
G1 X101.271 Y99.061 E36.49593
G0 X101.667 Y99.124
G1 X101.607 Y99.708 E36.52522
G1 X101.607 Y100.292 E36.55435
G1 X101.667 Y100.876 E36.58364
G1 X101.79 Y101.45 E36.61293
G1 X101.971 Y102.006 E36.6421
G1 X102.209 Y102.542 E36.67136
G1 X102.502 Y103.05 E36.70062
G1 X102.847 Y103.524 E36.72987
G1 X103.239 Y103.96 E36.75912
G1 X103.675 Y104.352 E36.78837
G1 X104.15 Y104.697 E36.81766
G1 X104.657 Y104.99 E36.84687
G1 X105.193 Y105.228 E36.87613
