;FLAVOR:RepRap
;TIME:1208
;Filament used: 0.851078m
;Layer height: 0.15
;Generated with Cura_SteamEngine 2.5.0-BETA
M190 S55
M104 S210
M109 S210
G21 ;metric values
G90 ;absolute positioning
M82 ;set extruder to absolute mode
M107 ;start with the fan off
G92 E0 ;zero the extruded length
G1 F200 E3 ;extrude 3mm of feed stock
G92 E0 ;zero the extruded length again
G1 F9000
M117 Printing...
;LAYER_COUNT:17
;LAYER:0
M107
G0 F1200 X64.49 Y86.76 Z0.3
G0 X64.796 Y86.572
;TYPE:SKIRT
G1 X66.168 Y85.8 E0.07854
G1 X66.726 Y85.531 E0.10945
G1 X67.062 Y85.41 E0.12726
G1 X68.559 Y84.932 E0.20566
G1 X69.16 Y84.783 E0.23656
G1 X69.561 Y84.727 E0.25676
G1 X71.386 Y84.552 E0.34822
G1 X71.846 Y84.53 E0.3712
G1 X128.632 Y84.556 E3.20426
G1 X129.156 Y84.585 E3.23045
G1 X130.489 Y84.732 E3.29735
G1 X131.395 Y84.922 E3.34354
G1 X132.863 Y85.381 E3.42027
G1 X133.441 Y85.603 E3.45116
G1 X133.758 Y85.764 E3.4689
G1 X135.136 Y86.528 E3.54751
G1 X135.658 Y86.863 E3.57845
G1 X135.94 Y87.087 E3.59642
G1 X137.129 Y88.11 E3.67467
G1 X137.571 Y88.544 E3.70558
G1 X137.799 Y88.818 E3.72336
G1 X138.755 Y90.058 E3.80148
G1 X139.101 Y90.572 E3.83239
G1 X139.269 Y90.886 E3.85016
G1 X139.957 Y92.298 E3.92852
G1 X140.192 Y92.872 E3.95946
G1 X140.293 Y93.215 E3.9773
G1 X140.681 Y94.736 E4.05561
G1 X140.795 Y95.344 E4.08648
G1 X140.825 Y95.706 E4.1046
G1 X140.895 Y97.262 E4.18231
G1 X140.883 Y97.882 E4.21324
G1 X140.84 Y98.233 E4.23089
G1 X140.591 Y99.796 E4.30985
G1 X140.455 Y100.4 E4.34074
G1 X140.34 Y100.741 E4.35869
G1 X139.787 Y102.201 E4.43658
G1 X139.531 Y102.765 E4.46748
G1 X139.349 Y103.076 E4.48546
G1 X138.492 Y104.424 E4.56515
G1 X138.209 Y104.823 E4.58956
G1 X134.804 Y109.138 E4.86379
G1 X131.727 Y113.437 E5.12754
G1 X131.335 Y113.917 E5.15846
G1 X130.885 Y114.342 E5.18934
G1 X130.383 Y114.705 E5.22025
G1 X129.839 Y115.001 E5.25114
G1 X129.261 Y115.224 E5.28205
G1 X128.659 Y115.371 E5.31297
G1 X128.044 Y115.439 E5.34384
G1 X127.412 Y115.426 E5.37538
G1 X126.146 Y115.317 E5.43877
G1 X125.491 Y115.215 E5.47184
G1 X120.385 Y114.051 E5.73312
G1 X115.027 Y113.021 E6.00532
G1 X109.712 Y112.308 E6.27286
G1 X104.331 Y111.894 E6.54212
G1 X98.954 Y111.785 E6.81043
G1 X93.562 Y111.981 E7.07962
G1 X88.207 Y112.48 E7.34794
G1 X82.895 Y113.28 E7.61594
G1 X74.2 Y115.118 E8.05932
G1 X73.571 Y115.208 E8.09102
G1 X72.492 Y115.29 E8.14501
G1 X71.872 Y115.297 E8.17594
G1 X71.257 Y115.224 E8.20684
G1 X70.657 Y115.073 E8.23771
G1 X70.081 Y114.846 E8.2686
G1 X69.539 Y114.546 E8.2995
G1 X69.04 Y114.179 E8.33041
G1 X68.592 Y113.75 E8.36135
G1 X68.21 Y113.277 E8.39169
G1 X65.964 Y110.103 E8.58567
G1 X64.343 Y107.961 E8.71969
G1 X61.864 Y104.914 E8.91566
G1 X61.555 Y104.488 E8.94192
G1 X60.693 Y103.153 E9.0212
G1 X60.391 Y102.612 E9.05211
G1 X60.246 Y102.275 E9.07041
G1 X59.684 Y100.817 E9.14837
G1 X59.499 Y100.226 E9.17927
G1 X59.429 Y99.883 E9.19673
G1 X59.17 Y98.334 E9.27508
G1 X59.107 Y97.717 E9.30603
G1 X59.107 Y97.359 E9.32389
G1 X59.167 Y95.788 E9.40232
G1 X59.231 Y95.172 E9.43322
G1 X59.305 Y94.816 E9.45136
G1 X59.683 Y93.291 E9.52974
G1 X59.87 Y92.701 E9.56062
G1 X60.012 Y92.375 E9.57836
G1 X60.685 Y90.968 E9.65617
G1 X60.988 Y90.427 E9.68711
G1 X61.194 Y90.133 E9.70502
G1 X62.15 Y88.876 E9.78381
G1 X62.556 Y88.409 E9.81468
G1 X62.818 Y88.163 E9.83261
G1 X63.997 Y87.136 E9.91062
G1 X64.49 Y86.76 E9.94155
G1 X64.796 Y86.572 E9.95947
G0 X64.992 Y86.92
G1 X66.364 Y86.148 E10.03801
G1 X66.9 Y85.893 E10.06762
G1 X67.184 Y85.791 E10.08268
G1 X68.681 Y85.313 E10.16108
G1 X69.256 Y85.172 E10.19062
G1 X69.599 Y85.125 E10.20789
G1 X71.424 Y84.95 E10.29935
G1 X71.846 Y84.93 E10.32043
G1 X128.632 Y84.956 E13.1535
G1 X129.112 Y84.983 E13.17748
G1 X130.445 Y85.13 E13.24439
G1 X131.276 Y85.303 E13.28674
G1 X132.744 Y85.762 E13.36347
G1 X133.297 Y85.977 E13.39307
G1 X133.565 Y86.114 E13.40809
G1 X134.943 Y86.878 E13.4867
G1 X135.441 Y87.2 E13.51628
G1 X135.679 Y87.391 E13.53151
G1 X136.868 Y88.414 E13.60976
G1 X137.29 Y88.83 E13.63933
G1 X137.483 Y89.062 E13.65438
G1 X138.439 Y90.302 E13.7325
G1 X138.768 Y90.795 E13.76207
G1 X138.909 Y91.062 E13.77713
G1 X139.597 Y92.474 E13.85549
G1 X139.821 Y93.023 E13.88508
G1 X139.905 Y93.313 E13.90014
G1 X140.293 Y94.834 E13.97845
G1 X140.401 Y95.418 E14.00808
G1 X140.426 Y95.724 E14.0234
G1 X140.496 Y97.28 E14.10111
G1 X140.482 Y97.873 E14.1307
G1 X140.445 Y98.17 E14.14563
G1 X140.196 Y99.733 E14.22459
G1 X140.064 Y100.311 E14.25417
G1 X139.966 Y100.6 E14.2694
G1 X139.413 Y102.06 E14.34729
G1 X139.166 Y102.599 E14.37687
G1 X139.011 Y102.862 E14.3921
G1 X138.154 Y104.21 E14.47179
G1 X137.895 Y104.575 E14.49412
G1 X134.494 Y108.884 E14.76799
G1 X131.402 Y113.205 E15.03307
G1 X131.025 Y113.662 E15.06263
G1 X130.59 Y114.065 E15.09221
G1 X130.105 Y114.406 E15.12179
G1 X129.579 Y114.679 E15.15136
G1 X129.02 Y114.878 E15.18096
G1 X128.44 Y115.001 E15.21054
G1 X127.849 Y115.044 E15.2401
G1 X127.447 Y115.028 E15.26018
G1 X126.181 Y114.919 E15.32357
G1 X125.58 Y114.825 E15.35392
G1 X120.466 Y113.66 E15.61559
G1 X115.101 Y112.628 E15.88816
G1 X109.743 Y111.909 E16.15787
G1 X104.351 Y111.494 E16.42767
G1 X98.948 Y111.385 E16.69728
G1 X93.546 Y111.581 E16.96697
G1 X88.165 Y112.082 E17.23659
G1 X82.819 Y112.888 E17.50632
G1 X74.117 Y114.727 E17.95005
G1 X73.54 Y114.809 E17.97913
G1 X72.461 Y114.891 E18.03311
G1 X71.868 Y114.896 E18.0627
G1 X71.28 Y114.822 E18.09226
G1 X70.707 Y114.668 E18.12187
G1 X70.16 Y114.44 E18.15143
G1 X69.649 Y114.139 E18.18102
G1 X69.183 Y113.773 E18.21058
G1 X68.77 Y113.347 E18.24018
G1 X68.536 Y113.046 E18.2592
G1 X66.271 Y109.845 E18.45484
G1 X64.658 Y107.713 E18.58822
G1 X62.174 Y104.661 E18.78454
G1 X61.891 Y104.271 E18.80858
G1 X61.029 Y102.936 E18.88786
G1 X60.741 Y102.417 E18.91747
G1 X60.619 Y102.132 E18.93294
G1 X60.057 Y100.674 E19.0109
G1 X59.823 Y99.817 E19.05522
G1 X59.564 Y98.268 E19.13357
G1 X59.506 Y97.678 E19.16315
G1 X59.507 Y97.374 E19.17831
G1 X59.567 Y95.803 E19.25675
G1 X59.63 Y95.213 E19.28635
G1 X59.693 Y94.912 E19.30169
G1 X60.071 Y93.387 E19.38008
G1 X60.252 Y92.823 E19.40963
G1 X60.373 Y92.547 E19.42467
G1 X61.046 Y91.14 E19.50248
G1 X61.337 Y90.624 E19.53203
G1 X61.513 Y90.375 E19.54724
G1 X62.469 Y89.118 E19.62603
G1 X62.859 Y88.672 E19.65559
G1 X63.081 Y88.464 E19.67077
G1 X64.26 Y87.437 E19.74878
G1 X64.732 Y87.079 E19.77833
G1 X64.992 Y86.92 E19.79354
G0 X65.188 Y87.269
G1 X66.56 Y86.497 E19.87208
G1 X67.305 Y86.173 E19.91261
G1 X68.802 Y85.695 E19.99101
G1 X69.352 Y85.561 E20.01925
G1 X69.637 Y85.523 E20.0336
G1 X71.462 Y85.348 E20.12506
G1 X71.846 Y85.33 E20.14424
G1 X128.632 Y85.356 E22.97731
G1 X129.068 Y85.38 E22.99909
G1 X130.401 Y85.527 E23.066
G1 X131.157 Y85.685 E23.10453
G1 X132.625 Y86.144 E23.18127
G1 X133.371 Y86.464 E23.22176
G1 X134.749 Y87.228 E23.30037
G1 X135.418 Y87.694 E23.34105
G1 X136.607 Y88.717 E23.4193
G1 X137.166 Y89.307 E23.45985
G1 X138.122 Y90.547 E23.53797
G1 X138.55 Y91.237 E23.57847
G1 X139.238 Y92.649 E23.65684
G1 X139.518 Y93.412 E23.69739
G1 X139.906 Y94.933 E23.7757
G1 X140.026 Y95.742 E23.8165
G1 X140.096 Y97.298 E23.89421
G1 X140.05 Y98.107 E23.93464
G1 X139.801 Y99.67 E24.0136
G1 X139.592 Y100.458 E24.05427
G1 X139.039 Y101.918 E24.13216
G1 X138.674 Y102.647 E24.17283
G1 X137.817 Y103.995 E24.25253
G1 X137.581 Y104.327 E24.27285
G1 X134.178 Y108.639 E24.5469
G1 X131.077 Y112.972 E24.81273
G1 X130.716 Y113.407 E24.84093
G1 X130.298 Y113.787 E24.86911
G1 X129.83 Y114.105 E24.89734
G1 X129.322 Y114.353 E24.92555
G1 X128.784 Y114.527 E24.95376
G1 X128.227 Y114.624 E24.98196
G1 X127.481 Y114.629 E25.01918
G1 X126.215 Y114.52 E25.08258
G1 X125.669 Y114.435 E25.11015
G1 X120.541 Y113.266 E25.37255
G1 X115.162 Y112.232 E25.64582
G1 X109.791 Y111.512 E25.91618
G1 X104.372 Y111.095 E26.18733
G1 X98.941 Y110.984 E26.45834
G1 X93.53 Y111.182 E26.72848
G1 X88.103 Y111.686 E27.0004
G1 X82.761 Y112.492 E27.26993
G1 X74.034 Y114.336 E27.71493
G1 X73.51 Y114.41 E27.74133
G1 X72.431 Y114.492 E27.79532
G1 X71.866 Y114.495 E27.82351
G1 X71.306 Y114.419 E27.8517
G1 X70.762 Y114.264 E27.87992
G1 X70.246 Y114.033 E27.90813
G1 X69.767 Y113.733 E27.93633
G1 X69.335 Y113.368 E27.96454
G1 X68.863 Y112.815 E28.00081
G1 X66.604 Y109.623 E28.19591
G1 X64.969 Y107.462 E28.3311
G1 X62.485 Y104.409 E28.52746
G1 X62.227 Y104.054 E28.54936
G1 X61.365 Y102.719 E28.62864
G1 X60.993 Y101.988 E28.66956
G1 X60.431 Y100.53 E28.74752
G1 X60.218 Y99.751 E28.78781
G1 X59.959 Y98.202 E28.86616
G1 X59.907 Y97.389 E28.9068
G1 X59.967 Y95.818 E28.98524
G1 X60.081 Y95.009 E29.026
G1 X60.459 Y93.484 E29.10438
G1 X60.734 Y92.72 E29.14489
G1 X61.407 Y91.313 E29.22271
G1 X61.831 Y90.618 E29.26332
G1 X62.787 Y89.361 E29.34211
G1 X63.344 Y88.766 E29.38277
G1 X64.523 Y87.739 E29.46078
G1 X65.188 Y87.269 E29.50141
G0 X65.385 Y87.618
G1 X66.757 Y86.846 E29.57995
G1 X67.427 Y86.554 E29.61641
G1 X68.924 Y86.076 E29.69481
G1 X69.675 Y85.921 E29.73307
G1 X71.5 Y85.746 E29.82454
G1 X71.846 Y85.73 E29.84182
G1 X128.632 Y85.756 E32.67488
G1 X129.025 Y85.778 E32.69452
G1 X130.358 Y85.925 E32.76143
G1 X131.037 Y86.067 E32.79603
G1 X132.505 Y86.526 E32.87277
G1 X133.177 Y86.814 E32.90925
G1 X134.555 Y87.578 E32.98785
G1 X135.157 Y87.997 E33.02445
G1 X136.346 Y89.02 E33.1027
G1 X136.849 Y89.551 E33.13919
G1 X137.805 Y90.791 E33.21731
G1 X138.19 Y91.412 E33.25376
G1 X138.878 Y92.824 E33.33212
G1 X139.13 Y93.511 E33.36863
G1 X139.518 Y95.032 E33.44694
G1 X139.626 Y95.76 E33.48366
G1 X139.696 Y97.316 E33.56137
G1 X139.655 Y98.044 E33.59774
G1 X139.406 Y99.607 E33.67671
G1 X139.218 Y100.316 E33.7133
G1 X138.665 Y101.776 E33.79119
G1 X138.336 Y102.432 E33.8278
G1 X137.479 Y103.78 E33.9075
G1 X137.267 Y104.079 E33.92578
G1 X133.861 Y108.395 E34.20008
G1 X130.752 Y112.739 E34.46659
G1 X130.408 Y113.151 E34.49337
G1 X130.007 Y113.507 E34.52012
G1 X129.557 Y113.799 E34.54688
G1 X129.069 Y114.022 E34.57365
G1 X128.554 Y114.169 E34.60037
G1 X128.022 Y114.239 E34.62714
G1 X127.515 Y114.231 E34.65244
G1 X126.249 Y114.122 E34.71583
G1 X125.758 Y114.045 E34.74063
G1 X120.621 Y112.874 E35.00349
G1 X115.236 Y111.839 E35.27707
G1 X109.821 Y111.113 E35.54964
G1 X104.394 Y110.695 E35.8212
G1 X98.952 Y110.584 E36.09275
G1 X93.496 Y110.783 E36.36514
G1 X88.06 Y111.289 E36.63751
G1 X82.668 Y112.102 E36.90956
G1 X73.951 Y113.944 E37.35406
G1 X73.48 Y114.012 E37.3778
G1 X72.401 Y114.094 E37.43179
G1 X71.865 Y114.094 E37.45853
G1 X71.334 Y114.015 E37.48531
G1 X70.821 Y113.858 E37.51208
G1 X70.337 Y113.627 E37.53883
G1 X69.893 Y113.326 E37.56559
G1 X69.499 Y112.963 E37.59232
G1 X69.189 Y112.584 E37.61675
G1 X66.922 Y109.381 E37.81252
G1 X65.278 Y107.207 E37.9485
G1 X62.795 Y104.156 E38.14476
G1 X62.563 Y103.837 E38.16444
G1 X61.701 Y102.502 E38.24372
G1 X61.366 Y101.844 E38.28055
G1 X60.804 Y100.386 E38.35851
G1 X60.612 Y99.685 E38.39477
G1 X60.353 Y98.136 E38.47312
G1 X60.307 Y97.405 E38.50967
G1 X60.367 Y95.834 E38.5881
G1 X60.47 Y95.105 E38.62483
G1 X60.848 Y93.58 E38.70322
G1 X61.094 Y92.893 E38.73962
G1 X61.767 Y91.486 E38.81743
G1 X62.15 Y90.86 E38.85405
G1 X63.106 Y89.603 E38.93284
G1 X63.606 Y89.067 E38.96941
G1 X64.785 Y88.04 E39.04741
G1 X65.385 Y87.618 E39.08401
G0 X65.581 Y87.966
G1 X66.953 Y87.194 E39.16255
G1 X67.549 Y86.935 E39.19497
G1 X69.046 Y86.457 E39.27337
G1 X69.714 Y86.32 E39.30739
G1 X71.539 Y86.145 E39.39886
G1 X71.845 Y86.13 E39.41414
G1 X128.631 Y86.156 E42.24721
G1 X128.981 Y86.175 E42.2647
G1 X130.314 Y86.322 E42.3316
G1 X130.918 Y86.449 E42.3624
G1 X132.386 Y86.908 E42.43913
G1 X132.983 Y87.163 E42.47152
G1 X134.361 Y87.927 E42.55013
G1 X134.896 Y88.3 E42.58267
G1 X136.085 Y89.323 E42.66092
G1 X136.532 Y89.795 E42.69335
G1 X137.488 Y91.035 E42.77147
G1 X137.831 Y91.587 E42.80389
G1 X138.519 Y92.999 E42.88225
G1 X138.743 Y93.61 E42.91472
G1 X139.131 Y95.131 E42.99303
G1 X139.227 Y95.778 E43.02566
G1 X139.297 Y97.334 E43.10337
G1 X139.26 Y97.981 E43.1357
G1 X139.011 Y99.544 E43.21467
G1 X138.844 Y100.174 E43.24718
G1 X138.291 Y101.634 E43.32507
G1 X137.998 Y102.218 E43.35767
G1 X137.141 Y103.566 E43.43736
G1 X136.953 Y103.832 E43.45361
G1 X133.526 Y108.175 E43.72962
G1 X130.426 Y112.506 E43.99534
G1 X130.101 Y112.893 E44.02055
G1 X129.718 Y113.223 E44.04577
G1 X129.288 Y113.489 E44.071
G1 X128.822 Y113.685 E44.09622
G1 X128.33 Y113.804 E44.12148
G1 X127.826 Y113.844 E44.1467
G1 X127.55 Y113.832 E44.16048
G1 X126.284 Y113.723 E44.22388
G1 X125.847 Y113.655 E44.24594
G1 X120.696 Y112.481 E44.50952
G1 X115.311 Y111.446 E44.78309
G1 X109.872 Y110.716 E45.05688
G1 X104.396 Y110.295 E45.33088
G1 X98.946 Y110.184 E45.60284
G1 X93.46 Y110.384 E45.87672
G1 X88.017 Y110.89 E46.14944
G1 X82.614 Y111.705 E46.42205
G1 X73.869 Y113.553 E46.86797
G1 X73.449 Y113.613 E46.88914
G1 X72.37 Y113.695 E46.94313
G1 X71.865 Y113.693 E46.96832
G1 X71.366 Y113.612 E46.99354
G1 X70.886 Y113.453 E47.01877
G1 X70.437 Y113.221 E47.04398
G1 X70.03 Y112.92 E47.06924
G1 X69.676 Y112.56 E47.09443
G1 X69.516 Y112.352 E47.10752
G1 X67.255 Y109.158 E47.30276
G1 X65.609 Y106.98 E47.43896
G1 X63.105 Y103.904 E47.63684
G1 X62.899 Y103.62 E47.65434
G1 X62.037 Y102.285 E47.73362
G1 X61.739 Y101.7 E47.76638
G1 X61.177 Y100.242 E47.84433
G1 X61.007 Y99.619 E47.87655
G1 X60.748 Y98.07 E47.9549
G1 X60.706 Y97.42 E47.9874
G1 X60.766 Y95.849 E48.06583
G1 X60.858 Y95.201 E48.09849
G1 X61.236 Y93.676 E48.17687
G1 X61.455 Y93.065 E48.20925
G1 X62.128 Y91.658 E48.28707
G1 X62.468 Y91.102 E48.31958
G1 X63.424 Y89.845 E48.39837
G1 X63.869 Y89.369 E48.43088
G1 X65.048 Y88.342 E48.50889
G1 X65.581 Y87.966 E48.54143
G1 F1500 E42.04143
G0 F1200 X66.896 Y90.12
G0 X67.524 Y91.239
G0 X67.747 Y91.55
;TYPE:WALL-INNER
G1 F1500 E48.54143
G1 F1200 X68.942 Y90.882 E48.60973
G1 X70.235 Y90.474 E48.67737
G1 X71.654 Y90.328 E48.74854
G1 X83.267 Y90.328 E49.32792
G1 X83.483 Y90.328 E49.33869
G1 X84.092 Y90.328 E49.36907
G1 X83.483 Y90.581 E49.38076
G1 X83.312 Y90.712 E49.38963
G1 X82.235 Y91.539 E49.45738
G1 X81.277 Y92.787 E49.53587
G1 X80.672 Y94.245 E49.61462
G1 X80.468 Y95.804 E49.69307
G1 X80.672 Y97.366 E49.77166
G1 X81.277 Y98.821 E49.85027
G1 X82.235 Y100.07 E49.9288
G1 X83.483 Y101.028 E50.0073
G1 X84.941 Y101.632 E50.08603
G1 X86.5 Y101.835 E50.16447
G1 X88.06 Y101.632 E50.24295
G1 X89.517 Y101.028 E50.32164
G1 X90.766 Y100.07 E50.40017
G1 X91.724 Y98.821 E50.4787
G1 X92.329 Y97.364 E50.55741
G1 X92.532 Y95.804 E50.6359
G1 X92.329 Y94.245 E50.71433
G1 X91.724 Y92.787 E50.79308
G1 X90.766 Y91.539 E50.87158
G1 X89.688 Y90.712 E50.93936
G1 X89.517 Y90.581 E50.95011
G1 X88.909 Y90.328 E50.98296
G1 X89.517 Y90.328 E50.99211
G1 X89.733 Y90.328 E51.00102
G1 X97.375 Y90.328 E51.38228
G1 X97.376 Y90.328 E51.38233
G1 X97.963 Y90.328 E51.41161
G1 X97.497 Y90.686 E51.42705
G1 X97.149 Y90.953 E51.44893
G1 X96.509 Y91.787 E51.50138
G1 X96.104 Y92.76 E51.55396
G1 X95.968 Y93.804 E51.60648
G1 X96.104 Y94.849 E51.65906
G1 X96.509 Y95.821 E51.71159
G1 X97.149 Y96.656 E51.76408
G1 X97.983 Y97.296 E51.81653
G1 X98.958 Y97.701 E51.8692
G1 X100 Y97.836 E51.92162
G1 X101.042 Y97.701 E51.97404
G1 X102.016 Y97.296 E52.02667
G1 X102.851 Y96.656 E52.07916
G1 X103.491 Y95.821 E52.13164
G1 X103.896 Y94.847 E52.18427
G1 X104.031 Y93.804 E52.23674
G1 X103.896 Y92.762 E52.28916
G1 X103.491 Y91.787 E52.34183
G1 X102.851 Y90.953 E52.39428
G1 X102.504 Y90.687 E52.41609
G1 X102.036 Y90.329 E52.44549
G1 X102.625 Y90.329 E52.46097
G1 X102.626 Y90.329 E52.46102
G1 X110.265 Y90.329 E52.84213
G1 X110.483 Y90.329 E52.85301
G1 X111.09 Y90.329 E52.88329
G1 X110.483 Y90.581 E52.8949
G1 X110.311 Y90.713 E52.90381
G1 X109.234 Y91.539 E52.97153
G1 X108.276 Y92.787 E53.05002
G1 X107.671 Y94.245 E53.12877
G1 X107.467 Y95.804 E53.20721
G1 X107.671 Y97.366 E53.28581
G1 X108.276 Y98.821 E53.36442
G1 X109.234 Y100.07 E53.44295
G1 X110.483 Y101.028 E53.52148
G1 X111.94 Y101.632 E53.60017
G1 X113.5 Y101.835 E53.67866
G1 X115.059 Y101.632 E53.75709
G1 X116.516 Y101.028 E53.83578
G1 X117.765 Y100.07 E53.91431
G1 X118.723 Y98.821 E53.99284
G1 X119.328 Y97.366 E54.07146
G1 X119.532 Y95.804 E54.15005
G1 X119.328 Y94.245 E54.22849
G1 X118.723 Y92.787 E54.30725
G1 X117.765 Y91.539 E54.38574
G1 X116.688 Y90.713 E54.45345
