;FLAVOR:RepRap
;TIME:5675
;Filament used: 4.1266m
;Layer height: 0.15
;Generated with Cura_SteamEngine 2.5.0-BETA
M190 S55
M104 S210
M109 S210
G21 ;metric values
G90 ;absolute positioning
M82 ;set extruder to absolute mode
M107 ;start with the fan off
G92 E0 ;zero the extruded length
G1 F200 E3 ;extrude 3mm of feed stock
G92 E0 ;zero the extruded length again
G1 F9000
M117 Printing...
;LAYER_COUNT:170
;LAYER:0
M107
G0 F1200 X82.145 Y93.532 Z0.3
;TYPE:SKIRT
G1 X83.29 Y92.548 E0.07532
G1 X83.95 Y92.072 E0.11592
G1 X84.807 Y91.558 E0.16577
G1 X85.272 Y91.312 E0.19202
G1 X88.061 Y90.03 E0.34516
G1 X92.924 Y87.56 E0.61728
G1 X97.439 Y84.96 E0.87721
G1 X97.995 Y84.686 E0.90813
G1 X98.581 Y84.486 E0.93903
G1 X99.188 Y84.363 E0.96993
G1 X99.835 Y84.319 E1.00228
G1 X114.571 Y84.319 E1.73746
G1 X115.189 Y84.359 E1.76836
G1 X115.797 Y84.478 E1.79927
G1 X116.384 Y84.675 E1.83016
G1 X116.941 Y84.945 E1.86104
G1 X117.459 Y85.285 E1.89195
G1 X117.929 Y85.689 E1.92287
G1 X118.342 Y86.15 E1.95375
G1 X118.693 Y86.66 E1.98464
G1 X118.976 Y87.211 E2.01554
G1 X119.204 Y87.865 E2.0501
G1 X120.396 Y92.27 E2.27777
G1 X121.361 Y95.366 E2.43956
G1 X121.507 Y95.968 E2.47046
G1 X121.579 Y96.795 E2.51188
G1 X121.58 Y107.861 E3.06396
G1 X121.54 Y108.479 E3.09486
G1 X121.421 Y109.086 E3.12572
G1 X121.225 Y109.674 E3.15664
G1 X120.954 Y110.231 E3.18754
G1 X120.614 Y110.749 E3.21846
G1 X120.21 Y111.218 E3.24934
G1 X119.537 Y111.791 E3.29344
G1 X115.882 Y114.355 E3.51618
G1 X115.428 Y114.636 E3.54282
G1 X113.358 Y115.768 E3.66052
G1 X113.121 Y115.89 E3.67382
G1 X109.265 Y117.729 E3.88696
G1 X108.69 Y117.958 E3.91783
G1 X108.09 Y118.113 E3.94875
G1 X107.476 Y118.188 E3.97961
G1 X106.856 Y118.184 E4.01054
G1 X106.225 Y118.096 E4.04233
G1 X88.059 Y114.333 E4.96787
G1 X87.711 Y114.247 E4.98576
G1 X86.908 Y114.017 E5.02743
G1 X86.263 Y113.782 E5.06168
G1 X85.083 Y113.252 E5.12622
G1 X84.499 Y112.939 E5.15927
G1 X83.844 Y112.528 E5.19785
G1 X83.254 Y112.092 E5.23445
G1 X82.117 Y111.108 E5.30947
G1 X81.606 Y110.593 E5.34566
G1 X81.108 Y110.009 E5.38396
G1 X80.765 Y109.554 E5.41238
G1 X80.217 Y108.731 E5.46171
G1 X79.868 Y108.112 E5.49716
G1 X79.331 Y106.969 E5.56017
G1 X79.093 Y106.358 E5.59288
G1 X78.867 Y105.634 E5.63072
G1 X78.733 Y105.096 E5.65838
G1 X78.548 Y104.118 E5.70804
G1 X78.474 Y103.54 E5.73711
G1 X78.424 Y102.778 E5.77521
G1 X78.425 Y102.142 E5.80694
G1 X78.511 Y100.861 E5.87099
G1 X78.617 Y100.129 E5.9079
G1 X78.831 Y99.178 E5.95653
G1 X79.04 Y98.493 E5.99226
G1 X79.508 Y97.289 E6.0567
G1 X79.825 Y96.628 E6.09328
G1 X80.325 Y95.762 E6.14317
G1 X80.734 Y95.163 E6.17935
G1 X81.526 Y94.173 E6.2426
G1 X82.145 Y93.532 E6.28706
G0 X82.406 Y93.835
G1 X83.551 Y92.851 E6.36238
G1 X84.156 Y92.415 E6.39959
G1 X85.013 Y91.901 E6.44944
G1 X85.439 Y91.676 E6.47348
G1 X88.23 Y90.393 E6.62673
G1 X93.104 Y87.918 E6.89945
G1 X97.639 Y85.306 E7.16055
G1 X98.172 Y85.046 E7.19013
G1 X98.734 Y84.859 E7.21968
G1 X99.317 Y84.75 E7.24927
G1 X99.835 Y84.719 E7.27516
G1 X114.571 Y84.719 E8.01034
G1 X115.163 Y84.759 E8.03995
G1 X115.743 Y84.878 E8.06948
G1 X116.303 Y85.074 E8.09909
G1 X116.831 Y85.344 E8.12867
G1 X117.318 Y85.682 E8.15825
G1 X117.755 Y86.083 E8.18784
G1 X118.135 Y86.538 E8.21741
G1 X118.449 Y87.041 E8.247
G1 X118.694 Y87.581 E8.27658
G1 X118.818 Y87.97 E8.29695
G1 X120.005 Y92.359 E8.52378
G1 X120.98 Y95.485 E8.68715
G1 X121.118 Y96.062 E8.71675
G1 X121.179 Y96.795 E8.75344
G1 X121.18 Y107.861 E9.30553
G1 X121.14 Y108.452 E9.33508
G1 X121.021 Y109.033 E9.36467
G1 X120.825 Y109.593 E9.39427
G1 X120.555 Y110.121 E9.42386
G1 X120.217 Y110.608 E9.45343
G1 X119.817 Y111.045 E9.48299
G1 X119.307 Y111.463 E9.51589
G1 X115.652 Y114.027 E9.73863
G1 X115.236 Y114.285 E9.76305
G1 X113.166 Y115.417 E9.88076
G1 X112.949 Y115.528 E9.89292
G1 X109.093 Y117.367 E10.10605
G1 X108.542 Y117.586 E10.13563
G1 X107.966 Y117.729 E10.16524
G1 X107.377 Y117.792 E10.19479
G1 X106.784 Y117.776 E10.22439
G1 X106.307 Y117.705 E10.24845
G1 X88.141 Y113.942 E11.174
G1 X87.821 Y113.863 E11.19044
G1 X87.018 Y113.633 E11.23211
G1 X86.427 Y113.417 E11.26351
G1 X85.247 Y112.887 E11.32804
G1 X84.711 Y112.6 E11.35837
G1 X84.056 Y112.189 E11.39695
G1 X83.516 Y111.789 E11.43048
G1 X82.379 Y110.805 E11.5055
G1 X81.91 Y110.333 E11.53869
G1 X81.412 Y109.749 E11.57699
G1 X81.098 Y109.333 E11.60299
G1 X80.55 Y108.51 E11.65232
G1 X80.23 Y107.942 E11.68484
G1 X79.693 Y106.799 E11.74785
G1 X79.475 Y106.239 E11.77783
G1 X79.249 Y105.515 E11.81567
G1 X79.126 Y105.022 E11.84102
G1 X78.941 Y104.044 E11.89068
G1 X78.873 Y103.514 E11.91733
G1 X78.823 Y102.752 E11.95543
G1 X78.824 Y102.169 E11.98452
G1 X78.91 Y100.888 E12.04857
G1 X79.007 Y100.217 E12.0824
G1 X79.221 Y99.266 E12.13103
G1 X79.413 Y98.638 E12.16379
G1 X79.881 Y97.434 E12.22824
G1 X80.172 Y96.828 E12.26177
G1 X80.672 Y95.962 E12.31166
G1 X81.046 Y95.413 E12.34481
G1 X81.838 Y94.423 E12.40806
G1 X82.406 Y93.835 E12.44884
G0 X82.667 Y94.138
G1 X83.812 Y93.154 E12.52416
G1 X84.362 Y92.758 E12.55798
G1 X85.219 Y92.244 E12.60783
G1 X85.606 Y92.039 E12.62968
G1 X88.431 Y90.741 E12.78479
G1 X93.292 Y88.272 E13.05679
G1 X97.839 Y85.653 E13.31858
G1 X98.347 Y85.406 E13.34676
G1 X98.886 Y85.233 E13.37501
G1 X99.443 Y85.138 E13.4032
G1 X99.835 Y85.119 E13.42278
G1 X114.571 Y85.119 E14.15796
G1 X115.135 Y85.159 E14.18617
G1 X115.688 Y85.278 E14.21439
G1 X116.218 Y85.474 E14.24258
G1 X116.715 Y85.742 E14.27075
G1 X117.17 Y86.078 E14.29897
G1 X117.573 Y86.475 E14.32719
G1 X117.915 Y86.925 E14.35539
G1 X118.191 Y87.418 E14.38358
G1 X118.432 Y88.074 E14.41845
G1 X119.624 Y92.48 E14.64616
G1 X120.598 Y95.604 E14.80942
G1 X120.727 Y96.155 E14.83765
G1 X120.779 Y96.795 E14.86969
G1 X120.78 Y107.861 E15.42177
G1 X120.74 Y108.425 E15.44998
G1 X120.621 Y108.977 E15.47815
G1 X120.425 Y109.508 E15.50639
G1 X120.157 Y110.005 E15.53456
G1 X119.821 Y110.46 E15.56278
G1 X119.424 Y110.862 E15.59097
G1 X119.077 Y111.136 E15.61303
G1 X115.422 Y113.7 E15.83577
G1 X115.044 Y113.935 E15.85798
G1 X112.974 Y115.067 E15.97568
G1 X112.777 Y115.167 E15.9867
G1 X108.921 Y117.006 E16.19984
G1 X108.395 Y117.213 E16.22804
G1 X107.845 Y117.344 E16.25625
G1 X107.282 Y117.395 E16.28445
G1 X106.717 Y117.367 E16.31267
G1 X106.388 Y117.313 E16.32931
G1 X88.222 Y113.55 E17.25485
G1 X87.932 Y113.478 E17.26976
G1 X87.129 Y113.248 E17.31143
G1 X86.591 Y113.052 E17.34
G1 X85.411 Y112.522 E17.40454
G1 X84.924 Y112.261 E17.4321
G1 X84.269 Y111.85 E17.47068
G1 X83.777 Y111.487 E17.50118
G1 X82.64 Y110.503 E17.5762
G1 X82.214 Y110.073 E17.6064
G1 X81.716 Y109.489 E17.64469
G1 X81.431 Y109.111 E17.66831
G1 X80.883 Y108.288 E17.71764
G1 X80.592 Y107.772 E17.74719
G1 X80.055 Y106.629 E17.8102
G1 X79.857 Y106.12 E17.83745
G1 X79.631 Y105.396 E17.87528
G1 X79.519 Y104.947 E17.89837
G1 X79.334 Y103.969 E17.94803
G1 X79.273 Y103.488 E17.97222
G1 X79.223 Y102.726 E18.01032
G1 X79.223 Y102.196 E18.03676
G1 X79.309 Y100.915 E18.10081
G1 X79.398 Y100.305 E18.13157
G1 X79.612 Y99.354 E18.1802
G1 X79.786 Y98.783 E18.20998
G1 X80.254 Y97.579 E18.27443
G1 X80.518 Y97.028 E18.30491
G1 X81.018 Y96.162 E18.3548
G1 X81.359 Y95.663 E18.38495
G1 X82.151 Y94.673 E18.4482
G1 X82.667 Y94.138 E18.48528
G0 X82.928 Y94.442
G1 X84.073 Y93.458 E18.56061
G1 X84.567 Y93.101 E18.59101
G1 X85.424 Y92.587 E18.64087
G1 X85.773 Y92.403 E18.66055
G1 X88.58 Y91.113 E18.81468
G1 X93.478 Y88.625 E19.08876
G1 X98.038 Y85.999 E19.35128
G1 X98.522 Y85.767 E19.37806
G1 X99.034 Y85.609 E19.40479
G1 X99.564 Y85.529 E19.43153
G1 X99.835 Y85.519 E19.44506
G1 X114.571 Y85.519 E20.18025
G1 X115.106 Y85.559 E20.20701
G1 X115.629 Y85.678 E20.23377
G1 X116.128 Y85.873 E20.2605
G1 X116.593 Y86.141 E20.28728
G1 X117.013 Y86.474 E20.31402
G1 X117.379 Y86.866 E20.34077
G1 X117.682 Y87.308 E20.36751
G1 X117.917 Y87.791 E20.39431
G1 X118.046 Y88.179 E20.41471
G1 X119.24 Y92.594 E20.64288
G1 X120.216 Y95.723 E20.80641
G1 X120.337 Y96.246 E20.83319
G1 X120.379 Y96.795 E20.86066
G1 X120.38 Y107.861 E21.41274
G1 X120.34 Y108.395 E21.43946
G1 X120.221 Y108.918 E21.46622
G1 X120.026 Y109.418 E21.49299
G1 X119.759 Y109.883 E21.51975
G1 X119.425 Y110.303 E21.54652
G1 X118.847 Y110.808 E21.58481
G1 X115.192 Y113.372 E21.80755
G1 X114.852 Y113.584 E21.82754
G1 X112.782 Y114.716 E21.94525
G1 X112.605 Y114.806 E21.95516
G1 X108.749 Y116.645 E22.16829
G1 X108.249 Y116.84 E22.19507
G1 X107.726 Y116.957 E22.2218
G1 X107.191 Y116.996 E22.24856
G1 X106.469 Y116.921 E22.28478
G1 X88.303 Y113.158 E23.21032
G1 X88.042 Y113.094 E23.22373
G1 X87.239 Y112.864 E23.2654
G1 X86.755 Y112.687 E23.29112
G1 X85.575 Y112.157 E23.35565
G1 X85.137 Y111.922 E23.38045
G1 X84.482 Y111.511 E23.41903
G1 X84.039 Y111.184 E23.4465
G1 X82.902 Y110.2 E23.52152
G1 X82.519 Y109.814 E23.54865
G1 X82.021 Y109.23 E23.58694
G1 X81.763 Y108.889 E23.60827
G1 X81.215 Y108.066 E23.6576
G1 X80.954 Y107.602 E23.68416
G1 X80.417 Y106.459 E23.74716
G1 X80.239 Y106.001 E23.77168
G1 X80.013 Y105.277 E23.80952
G1 X79.912 Y104.873 E23.83029
G1 X79.727 Y103.895 E23.87995
G1 X79.672 Y103.462 E23.90173
G1 X79.622 Y102.7 E23.93983
G1 X79.622 Y102.223 E23.96362
G1 X79.708 Y100.942 E24.02768
G1 X79.788 Y100.393 E24.05536
G1 X80.002 Y99.442 E24.10399
G1 X80.159 Y98.928 E24.1308
G1 X80.627 Y97.724 E24.19525
G1 X80.864 Y97.228 E24.22267
G1 X81.364 Y96.362 E24.27256
G1 X81.671 Y95.913 E24.2997
G1 X82.463 Y94.923 E24.36295
G1 X82.928 Y94.442 E24.39633
G0 X83.188 Y94.745
G1 X84.333 Y93.761 E24.47165
G1 X84.773 Y93.444 E24.4987
G1 X85.63 Y92.93 E24.54856
G1 X85.94 Y92.766 E24.56606
G1 X88.769 Y91.466 E24.72138
G1 X93.673 Y88.975 E24.9958
G1 X98.238 Y86.346 E25.25862
G1 X98.695 Y86.129 E25.28386
G1 X99.18 Y85.987 E25.30907
G1 X99.835 Y85.919 E25.34192
G1 X114.571 Y85.919 E26.0771
G1 X115.075 Y85.959 E26.10233
G1 X115.566 Y86.078 E26.12753
G1 X116.033 Y86.272 E26.15276
G1 X116.463 Y86.538 E26.17799
G1 X116.846 Y86.868 E26.20321
G1 X117.172 Y87.255 E26.22846
G1 X117.433 Y87.688 E26.25368
G1 X117.66 Y88.283 E26.28545
G1 X118.861 Y92.721 E26.51483
G1 X119.834 Y95.843 E26.67797
G1 X119.946 Y96.336 E26.7032
G1 X119.979 Y96.795 E26.72616
G1 X119.98 Y107.861 E27.27824
G1 X119.94 Y108.365 E27.30346
G1 X119.821 Y108.856 E27.32867
G1 X119.627 Y109.323 E27.3539
G1 X119.361 Y109.753 E27.37912
G1 X119.031 Y110.136 E27.40435
G1 X118.618 Y110.481 E27.43119
G1 X114.963 Y113.045 E27.65394
G1 X114.66 Y113.233 E27.67173
G1 X112.59 Y114.365 E27.78943
G1 X112.433 Y114.445 E27.79822
G1 X108.577 Y116.284 E28.01136
G1 X108.104 Y116.465 E28.03663
G1 X107.61 Y116.57 E28.06182
G1 X107.105 Y116.595 E28.08705
G1 X106.55 Y116.529 E28.11493
G1 X88.384 Y112.766 E29.04048
G1 X88.152 Y112.709 E29.0524
G1 X87.349 Y112.479 E29.09407
G1 X86.919 Y112.322 E29.11691
G1 X85.739 Y111.792 E29.18144
G1 X85.349 Y111.584 E29.20349
G1 X84.694 Y111.173 E29.24207
G1 X84.301 Y110.882 E29.26647
G1 X83.164 Y109.898 E29.34149
G1 X82.823 Y109.554 E29.36565
G1 X82.325 Y108.97 E29.40394
G1 X82.096 Y108.668 E29.42285
G1 X81.548 Y107.845 E29.47218
G1 X81.316 Y107.432 E29.49582
G1 X80.779 Y106.289 E29.55882
G1 X80.62 Y105.882 E29.58062
G1 X80.394 Y105.158 E29.61846
G1 X80.305 Y104.799 E29.63691
G1 X80.12 Y103.821 E29.68657
G1 X80.071 Y103.436 E29.70593
G1 X80.021 Y102.674 E29.74403
G1 X80.021 Y102.25 E29.76518
G1 X80.107 Y100.969 E29.82924
G1 X80.178 Y100.48 E29.85389
G1 X80.392 Y99.529 E29.90252
G1 X80.531 Y99.073 E29.9263
G1 X80.999 Y97.869 E29.99075
G1 X81.211 Y97.428 E30.01516
G1 X81.711 Y96.562 E30.06505
G1 X81.983 Y96.163 E30.08914
G1 X82.775 Y95.173 E30.1524
G1 X83.188 Y94.745 E30.18207
G0 X99.828 Y91.938
;TYPE:SUPPORT
G1 X99.999 Y91.551 E30.20318
G1 X99.998 Y92.343 E30.24269
G1 X99.197 Y92.509 E30.2835
G1 X99.828 Y91.938 E30.32596
G1 F1500 E23.82596
G0 F1200 X103.323 Y90.654
G0 X106.85 Y90.642
G0 X106.85 Y90.907
G1 F1500 E30.32596
G1 F1200 X106.65 Y90.907 E30.33594
G1 X106.65 Y89.309 E30.41566
G1 X107.75 Y89.309 E30.47054
G1 X107.75 Y91.193 E30.56453
G1 X107.55 Y91.193 E30.57451
G1 X107.55 Y92.078 E30.61866
G1 X106.85 Y92.078 E30.65359
G1 X106.85 Y90.907 E30.71201
G0 X106.81 Y90.661
G1 X107.59 Y90.661 E30.75092
G1 F1500 E24.25092
G0 F1200 X107.297 Y90.94
G0 X107.115 Y91.921
G0 X105.836 Y91.921
G0 X104.972 Y92.744
;TYPE:WALL-INNER
G1 F1500 E30.75092
G1 F1200 X104.973 Y92.307 E30.77272
G1 X105.45 Y92.307 E30.79652
G1 X105.45 Y95.735 E30.96755
G1 X100.61 Y98.53 E31.24639
G1 X100.61 Y106.137 E31.6259
G1 X107.2 Y109.943 E32.00557
G1 X113.79 Y106.137 E32.38524
G1 X113.79 Y98.53 E32.76475
G1 X108.95 Y95.735 E33.04359
G1 X108.95 Y92.593 E33.20035
G1 X109.226 Y92.592 E33.21412
G1 X109.426 Y92.592 E33.2241
G1 X109.426 Y92.792 E33.23056
G1 X109.426 Y93.7 E33.27586
G1 X115.79 Y97.374 E33.64247
G1 X115.79 Y107.293 E34.13733
G1 X107.033 Y112.35 E34.64184
G1 X89.39 Y108.697 E35.54072
G1 X88.737 Y108.527 E35.57438
G1 X88.126 Y108.299 E35.60692
G1 X87.534 Y108.007 E35.63985
G1 X86.987 Y107.665 E35.67203
G1 X86.456 Y107.252 E35.7056
G1 X85.977 Y106.795 E35.73863
G1 X85.557 Y106.304 E35.77086
G1 X85.182 Y105.763 E35.8037
G1 X84.861 Y105.182 E35.83682
G1 X84.605 Y104.585 E35.86922
G1 X84.408 Y103.953 E35.90225
G1 X84.275 Y103.305 E35.93525
G1 X84.21 Y102.657 E35.96775
G1 X84.212 Y102 E36.00052
G1 X84.279 Y101.349 E36.03317
G1 X84.415 Y100.689 E36.06679
G1 X84.605 Y100.087 E36.09829
G1 X84.873 Y99.462 E36.13221
G1 X85.193 Y98.888 E36.165
G1 X85.563 Y98.356 E36.19733
G1 X85.992 Y97.855 E36.23024
G1 X86.47 Y97.401 E36.26313
G1 X86.983 Y97.002 E36.29555
G1 X87.548 Y96.652 E36.32871
G1 X88.137 Y96.362 E36.36146
G1 X88.757 Y96.133 E36.39444
G1 X89.399 Y95.966 E36.42753
G1 X104.972 Y92.744 E37.22093
G0 X94.981 Y99.558
G1 X94.668 Y99.127 E37.2475
G1 X94.311 Y98.73 E37.27414
G1 X93.915 Y98.374 E37.3007
G1 X93.484 Y98.057 E37.3274
G1 X93.02 Y97.791 E37.35408
G1 X92.534 Y97.573 E37.38065
G1 X92.026 Y97.408 E37.4073
G1 X91.504 Y97.295 E37.43395
G1 X90.972 Y97.24 E37.46063
G1 X90.44 Y97.24 E37.48717
G1 X89.908 Y97.294 E37.51385
G1 X89.385 Y97.406 E37.54054
G1 X88.878 Y97.57 E37.56712
G1 X88.39 Y97.786 E37.59374
G1 X87.926 Y98.053 E37.62045
G1 X87.493 Y98.368 E37.64717
G1 X87.098 Y98.724 E37.6737
G1 X86.74 Y99.119 E37.70029
G1 X86.424 Y99.552 E37.72704
G1 X86.158 Y100.014 E37.75363
G1 X85.94 Y100.5 E37.78021
G1 X85.774 Y101.008 E37.80687
G1 X85.662 Y101.53 E37.8335
G1 X85.606 Y102.061 E37.86014
G1 X85.606 Y102.597 E37.88688
G1 X85.661 Y103.125 E37.91337
G1 X85.771 Y103.648 E37.94003
G1 X85.937 Y104.158 E37.96679
G1 X86.153 Y104.643 E37.99328
G1 X86.42 Y105.108 E38.02003
G1 X86.733 Y105.54 E38.04664
G1 X87.091 Y105.937 E38.07331
G1 X87.486 Y106.293 E38.09984
G1 X87.918 Y106.61 E38.12658
G1 X88.381 Y106.876 E38.15322
G1 X88.867 Y107.094 E38.17979
G1 X89.376 Y107.259 E38.20649
G1 X89.897 Y107.372 E38.23308
G1 X90.429 Y107.427 E38.25977
G1 X90.961 Y107.427 E38.28631
G1 X91.493 Y107.373 E38.31299
G1 X92.016 Y107.261 E38.33967
G1 X92.524 Y107.097 E38.3663
G1 X93.011 Y106.881 E38.39288
G1 X93.476 Y106.614 E38.41963
G1 X93.908 Y106.299 E38.44631
G1 X94.305 Y105.943 E38.47291
G1 X94.662 Y105.546 E38.49955
G1 X94.977 Y105.114 E38.52622
G1 X95.244 Y104.652 E38.55284
G1 X95.461 Y104.166 E38.5794
G1 X95.627 Y103.658 E38.60606
G1 X95.739 Y103.136 E38.63269
G1 X95.795 Y102.605 E38.65933
G1 X95.795 Y102.069 E38.68607
G1 X95.74 Y101.541 E38.71256
G1 X95.63 Y101.018 E38.73922
G1 X95.464 Y100.51 E38.76588
G1 X95.249 Y100.023 E38.79244
G1 X94.981 Y99.558 E38.81922
G0 X94.645 Y99.776
G1 X94.357 Y99.379 E38.84369
G1 X94.028 Y99.013 E38.86824
G1 X93.662 Y98.685 E38.89276
G1 X93.265 Y98.393 E38.91735
G1 X92.838 Y98.148 E38.94191
G1 X92.39 Y97.947 E38.96641
G1 X91.922 Y97.795 E38.99096
G1 X91.441 Y97.691 E39.01551
G1 X90.951 Y97.64 E39.04009
G1 X90.46 Y97.64 E39.06458
G1 X89.97 Y97.69 E39.08915
G1 X89.489 Y97.793 E39.1137
G1 X89.021 Y97.944 E39.13823
G1 X88.571 Y98.143 E39.16278
G1 X88.144 Y98.389 E39.18736
G1 X87.745 Y98.679 E39.21197
G1 X87.381 Y99.007 E39.23642
G1 X87.051 Y99.372 E39.26097
G1 X86.76 Y99.77 E39.28556
G1 X86.515 Y100.196 E39.31008
G1 X86.314 Y100.644 E39.33458
G1 X86.161 Y101.112 E39.35914
G1 X86.058 Y101.593 E39.38368
G1 X86.006 Y102.082 E39.40822
G1 X86.006 Y102.576 E39.43286
