;FLAVOR:Marlin
;TIME:3673
;Filament used: 2.92297m
;Layer height: 0.2
;Generated with Cura_SteamEngine 2.7.0
M190 S60
M104 S220
M109 S220
G21 ;metric values
G90 ;absolute positioning
M82 ;set extruder to absolute mode
M107 ;start with the fan off
G92 E0 ;zero the extruded length
G1 F200 E3 ;extrude 3mm of feed stock
G92 E0 ;zero the extruded length again
G1 F9000
M117 Printing...
;LAYER_COUNT:280
;LAYER:0
M107
M204 S5000
G0 F2400 X54.031 Y92.363 Z0.3
M204 S200
;TYPE:SKIRT
G1 F1200 X54.531 Y92.132 E0.02741
G1 X55.043 Y91.98 E0.05399
G1 X60.961 Y90.662 E0.35572
G1 X61.052 Y90.643 E0.36034
G1 X72.742 Y88.338 E0.9533
G1 X72.86 Y88.316 E0.95928
G1 X81.176 Y86.948 E1.37869
G1 X81.287 Y86.932 E1.38427
G1 X87.361 Y86.118 E1.68925
G1 X87.447 Y86.107 E1.69356
G1 X91.108 Y85.701 E1.87687
G1 X91.221 Y85.69 E1.88252
G1 X97.678 Y85.168 E2.2049
G1 X97.813 Y85.16 E2.21163
G1 X102.443 Y84.952 E2.44228
G1 X102.605 Y84.948 E2.45035
G1 X110.336 Y84.931 E2.83508
G1 X110.885 Y84.97 E2.86247
G1 X110.956 Y84.986 E2.86609
G1 X111.134 Y84.966 E2.87501
G1 X111.539 Y84.972 E2.89517
G1 X117.355 Y85.373 E3.18529
G1 X117.6 Y85.398 E3.19755
G1 X122.488 Y86.056 E3.44299
G1 X122.742 Y86.099 E3.45581
G1 X125.137 Y86.589 E3.57747
G1 X125.352 Y86.639 E3.58846
G1 X126.859 Y87.04 E3.66606
G1 X127.14 Y87.127 E3.6807
G1 X128.888 Y87.741 E3.7729
G1 X129.346 Y87.937 E3.79769
G1 X130.737 Y88.642 E3.8753
G1 X131.224 Y88.937 E3.90364
G1 X131.768 Y89.325 E3.93689
G1 X132.28 Y89.763 E3.97042
G1 X132.889 Y90.387 E4.01381
G1 X133.244 Y90.808 E4.04122
G1 X133.421 Y91.075 E4.05716
G1 X133.656 Y91.464 E4.07978
G1 X133.905 Y91.954 E4.10713
G1 X134.027 Y92.287 E4.12478
G1 X134.177 Y92.764 E4.14966
G1 X134.304 Y93.299 E4.17703
G1 X134.352 Y93.848 E4.20445
G1 X134.345 Y94.136 E4.21879
G1 X134.301 Y94.844 E4.25409
G1 X134.227 Y95.39 E4.28151
G1 X134.075 Y95.918 E4.30886
G1 X133.848 Y96.42 E4.33627
G1 X133.598 Y96.817 E4.35962
G1 X133.178 Y97.403 E4.3955
G1 X132.826 Y97.826 E4.42289
G1 X132.416 Y98.194 E4.4503
G1 X132.084 Y98.424 E4.4704
G1 X131.114 Y99.021 E4.52709
G1 X130.393 Y99.365 E4.56684
G1 X129.236 Y99.775 E4.62793
G1 X128.769 Y99.908 E4.65209
G1 X126.617 Y100.372 E4.76165
G1 X126.293 Y100.427 E4.778
G1 X123.848 Y100.736 E4.90065
G1 X123.654 Y100.756 E4.91035
G1 X120.588 Y100.984 E5.06336
G1 X120.452 Y100.991 E5.07013
G1 X117.108 Y101.119 E5.23667
G1 X117.014 Y101.122 E5.24135
G1 X112.172 Y101.187 E5.48234
G1 X112.111 Y101.187 E5.48537
G1 X100.796 Y101.156 E6.04847
G1 X100.715 Y101.155 E6.0525
G1 X91.718 Y100.938 E6.50037
G1 X91.691 Y100.937 E6.50172
G1 X55.783 Y99.818 E8.28956
G1 X55.236 Y99.761 E8.31693
G1 X54.702 Y99.625 E8.34436
G1 X54.194 Y99.414 E8.37173
G1 X53.722 Y99.131 E8.39912
G1 X53.296 Y98.783 E8.42649
G1 X52.924 Y98.377 E8.4539
G1 X52.616 Y97.921 E8.48128
G1 X52.377 Y97.425 E8.50868
G1 X52.212 Y96.9 E8.53607
G1 X52.128 Y96.397 E8.56145
G1 X52.094 Y96.048 E8.5789
G1 X52.08 Y95.497 E8.60633
G1 X52.147 Y94.951 E8.6337
G1 X52.291 Y94.42 E8.66108
G1 X52.512 Y93.916 E8.68847
G1 X52.802 Y93.448 E8.71587
G1 X53.158 Y93.028 E8.74327
G1 X53.57 Y92.664 E8.77063
G1 X54.031 Y92.363 E8.79803
M204 S5000
G0 F2400 X53.972 Y92.866
M204 S200
G1 F1200 X54.425 Y92.61 E8.82392
G1 X55.13 Y92.369 E8.861
G1 X61.048 Y91.051 E9.16273
G1 X61.129 Y91.034 E9.16685
G1 X72.819 Y88.729 E9.75981
G1 X72.924 Y88.71 E9.76512
G1 X81.24 Y87.342 E10.18453
G1 X81.34 Y87.327 E10.18956
G1 X87.414 Y86.513 E10.49454
G1 X87.491 Y86.504 E10.4984
G1 X91.152 Y86.098 E10.6817
G1 X91.253 Y86.088 E10.68676
G1 X97.71 Y85.566 E11.00914
G1 X97.831 Y85.558 E11.01517
G1 X102.461 Y85.35 E11.24582
G1 X102.606 Y85.347 E11.25304
G1 X110.337 Y85.33 E11.63778
G1 X110.856 Y85.369 E11.66368
G1 X110.957 Y85.392 E11.66883
G1 X111.511 Y85.37 E11.69642
G1 X117.327 Y85.771 E11.98655
G1 X117.547 Y85.793 E11.99755
G1 X122.435 Y86.451 E12.243
G1 X122.662 Y86.49 E12.25446
G1 X125.057 Y86.98 E12.37612
G1 X125.249 Y87.025 E12.38593
G1 X126.756 Y87.426 E12.46354
G1 X127.008 Y87.504 E12.47667
G1 X128.756 Y88.118 E12.56887
G1 X129.165 Y88.292 E12.59099
G1 X130.556 Y88.997 E12.66859
G1 X130.993 Y89.261 E12.694
G1 X131.537 Y89.649 E12.72725
G1 X131.995 Y90.042 E12.75729
G1 X132.604 Y90.666 E12.80068
G1 X133.079 Y91.281 E12.83935
G1 X133.314 Y91.67 E12.86197
G1 X133.549 Y92.135 E12.8879
G1 X133.647 Y92.406 E12.90224
G1 X133.797 Y92.883 E12.92712
G1 X133.914 Y93.391 E12.95306
G1 X133.946 Y94.111 E12.98893
G1 X133.902 Y94.819 E13.02423
G1 X133.83 Y95.335 E13.05016
G1 X133.68 Y95.833 E13.07604
G1 X133.456 Y96.303 E13.10195
G1 X133.274 Y96.585 E13.11866
G1 X132.854 Y97.171 E13.15454
G1 X132.519 Y97.57 E13.18046
G1 X132.127 Y97.912 E13.20635
G1 X131.875 Y98.084 E13.22154
G1 X130.905 Y98.681 E13.27822
G1 X130.26 Y98.989 E13.31379
G1 X129.103 Y99.399 E13.37488
G1 X128.685 Y99.518 E13.3965
G1 X126.533 Y99.982 E13.50606
G1 X126.243 Y100.031 E13.5207
G1 X123.798 Y100.34 E13.64334
G1 X123.625 Y100.358 E13.652
G1 X120.559 Y100.586 E13.805
G1 X120.437 Y100.593 E13.81108
G1 X117.093 Y100.721 E13.97762
G1 X117.009 Y100.723 E13.9818
G1 X112.167 Y100.788 E14.22279
G1 X112.112 Y100.788 E14.22552
G1 X100.797 Y100.757 E14.78862
G1 X100.724 Y100.756 E14.79225
G1 X91.727 Y100.539 E15.24013
G1 X91.703 Y100.538 E15.24132
G1 X55.795 Y99.419 E17.02917
G1 X55.278 Y99.363 E17.05505
G1 X54.775 Y99.229 E17.08095
G1 X54.299 Y99.019 E17.10684
G1 X53.86 Y98.738 E17.13278
G1 X53.47 Y98.394 E17.15866
G1 X53.136 Y97.994 E17.18459
G1 X52.868 Y97.548 E17.21049
G1 X52.671 Y97.066 E17.2364
G1 X52.525 Y96.358 E17.27238
G1 X52.491 Y96.009 E17.28983
G1 X52.48 Y95.488 E17.31576
G1 X52.55 Y94.973 E17.34163
G1 X52.697 Y94.473 E17.36756
G1 X52.919 Y94.002 E17.39347
G1 X53.21 Y93.571 E17.41935
G1 X53.564 Y93.189 E17.44527
G1 X53.972 Y92.866 E17.47117
M204 S5000
G0 F2400 X54.372 Y93.087
M204 S200
G1 F1200 X54.814 Y92.878 E17.4955
G1 X55.216 Y92.759 E17.51637
G1 X61.134 Y91.441 E17.81809
G1 X61.206 Y91.426 E17.82175
G1 X72.896 Y89.121 E18.41471
G1 X72.989 Y89.104 E18.41942
G1 X81.305 Y87.736 E18.83883
G1 X81.393 Y87.723 E18.84326
G1 X87.467 Y86.909 E19.14823
G1 X87.535 Y86.9 E19.15165
G1 X91.196 Y86.494 E19.33496
G1 X91.285 Y86.486 E19.3394
G1 X97.742 Y85.964 E19.66179
G1 X97.849 Y85.957 E19.66712
G1 X102.479 Y85.749 E19.89777
G1 X102.606 Y85.746 E19.90409
G1 X110.337 Y85.729 E20.28883
G1 X110.825 Y85.768 E20.31319
G1 X110.904 Y85.788 E20.31725
G1 X110.948 Y85.779 E20.31948
G1 X111.484 Y85.768 E20.34616
G1 X117.3 Y86.169 E20.63629
G1 X117.493 Y86.189 E20.64594
G1 X122.381 Y86.847 E20.89139
G1 X122.582 Y86.881 E20.90154
G1 X124.977 Y87.371 E21.02319
G1 X125.147 Y87.411 E21.03188
G1 X126.654 Y87.812 E21.10949
G1 X126.876 Y87.88 E21.12104
G1 X128.624 Y88.494 E21.21324
G1 X128.985 Y88.648 E21.23278
G1 X130.376 Y89.353 E21.31038
G1 X130.761 Y89.586 E21.33278
G1 X131.305 Y89.974 E21.36603
G1 X131.709 Y90.321 E21.39254
G1 X132.318 Y90.945 E21.43593
G1 X132.738 Y91.487 E21.47005
G1 X132.973 Y91.876 E21.49267
G1 X133.266 Y92.526 E21.52815
G1 X133.416 Y93.003 E21.55303
G1 X133.524 Y93.48 E21.57737
G1 X133.548 Y94.087 E21.6076
G1 X133.504 Y94.795 E21.64291
G1 X133.434 Y95.279 E21.66724
G1 X133.286 Y95.745 E21.69158
G1 X132.95 Y96.353 E21.72615
G1 X132.53 Y96.939 E21.76203
G1 X132.213 Y97.311 E21.78635
G1 X131.666 Y97.744 E21.82107
G1 X130.696 Y98.341 E21.87775
G1 X130.127 Y98.613 E21.90913
G1 X128.97 Y99.023 E21.97022
G1 X128.601 Y99.128 E21.98931
G1 X126.449 Y99.592 E22.09887
G1 X126.193 Y99.635 E22.11179
G1 X123.748 Y99.944 E22.23443
G1 X123.595 Y99.96 E22.24209
G1 X120.529 Y100.188 E22.39509
G1 X120.421 Y100.194 E22.40047
G1 X117.077 Y100.322 E22.56701
G1 X117.003 Y100.324 E22.5707
G1 X112.161 Y100.389 E22.81168
G1 X112.113 Y100.389 E22.81407
G1 X100.798 Y100.358 E23.37717
G1 X100.734 Y100.357 E23.38035
G1 X91.737 Y100.14 E23.82822
G1 X91.716 Y100.14 E23.82927
G1 X55.808 Y99.021 E25.61712
G1 X55.322 Y98.965 E25.64146
G1 X54.852 Y98.832 E25.66577
G1 X54.409 Y98.624 E25.69013
G1 X54.007 Y98.346 E25.71445
G1 X53.655 Y98.007 E25.73877
G1 X53.363 Y97.615 E25.76309
G1 X53.138 Y97.18 E25.78747
G1 X52.988 Y96.715 E25.81178
G1 X52.922 Y96.319 E25.83176
G1 X52.888 Y95.97 E25.84921
G1 X52.881 Y95.481 E25.87355
G1 X52.953 Y94.998 E25.89785
G1 X53.103 Y94.532 E25.92221
G1 X53.326 Y94.098 E25.9465
G1 X53.618 Y93.705 E25.97086
G1 X53.969 Y93.365 E25.99518
G1 X54.372 Y93.087 E26.01955
M204 S5000
G0 F2400 X54.373 Y93.56
M204 S200
G1 F1200 X54.766 Y93.331 E26.04218
G1 X55.303 Y93.148 E26.07041
G1 X61.221 Y91.83 E26.37214
G1 X61.283 Y91.817 E26.37529
G1 X72.973 Y89.512 E26.96825
G1 X73.054 Y89.497 E26.97235
G1 X81.37 Y88.129 E27.39177
G1 X81.446 Y88.118 E27.39559
G1 X87.52 Y87.304 E27.70057
G1 X87.579 Y87.297 E27.70352
G1 X91.24 Y86.891 E27.88683
G1 X91.317 Y86.883 E27.89068
G1 X97.774 Y86.361 E28.21307
G1 X97.867 Y86.356 E28.2177
G1 X102.497 Y86.148 E28.44835
G1 X102.607 Y86.145 E28.45382
G1 X110.338 Y86.128 E28.83856
G1 X110.792 Y86.167 E28.86124
G1 X110.905 Y86.197 E28.86706
G1 X111.118 Y86.165 E28.87778
G1 X111.456 Y86.166 E28.8946
G1 X117.272 Y86.567 E29.18472
G1 X117.44 Y86.584 E29.19312
G1 X122.328 Y87.242 E29.43857
G1 X122.502 Y87.272 E29.44736
G1 X124.897 Y87.762 E29.56902
G1 X125.044 Y87.796 E29.57652
G1 X126.551 Y88.197 E29.65413
G1 X126.744 Y88.257 E29.66419
G1 X128.492 Y88.871 E29.75639
G1 X128.805 Y89.004 E29.77331
G1 X130.196 Y89.709 E29.85092
G1 X130.529 Y89.911 E29.8703
G1 X131.073 Y90.299 E29.90356
G1 X131.423 Y90.599 E29.9265
G1 X132.032 Y91.223 E29.96989
G1 X132.396 Y91.694 E29.99951
G1 X132.631 Y92.083 E30.02213
G1 X132.886 Y92.646 E30.05289
G1 X133.036 Y93.123 E30.07777
G1 X133.133 Y93.567 E30.10039
G1 X133.15 Y94.062 E30.12504
G1 X133.106 Y94.77 E30.16034
G1 X133.038 Y95.22 E30.18299
G1 X132.892 Y95.651 E30.20563
G1 X132.625 Y96.12 E30.23249
G1 X132.205 Y96.706 E30.26837
G1 X131.909 Y97.051 E30.29099
G1 X131.457 Y97.404 E30.31953
G1 X130.487 Y98.001 E30.37622
G1 X129.993 Y98.237 E30.40346
G1 X128.836 Y98.647 E30.46455
G1 X128.517 Y98.738 E30.48106
G1 X126.365 Y99.202 E30.59061
G1 X126.143 Y99.24 E30.60182
G1 X123.698 Y99.549 E30.72447
G1 X123.565 Y99.562 E30.73112
G1 X120.499 Y99.79 E30.88412
G1 X120.406 Y99.795 E30.88875
G1 X117.062 Y99.923 E31.05529
G1 X116.998 Y99.925 E31.05848
G1 X112.156 Y99.99 E31.29946
G1 X112.114 Y99.99 E31.30155
G1 X100.799 Y99.959 E31.86465
G1 X100.743 Y99.958 E31.86744
G1 X91.746 Y99.741 E32.31531
G1 X91.728 Y99.741 E32.31621
G1 X55.82 Y98.622 E34.10405
G1 X55.368 Y98.568 E34.12671
G1 X54.933 Y98.436 E34.14933
G1 X54.527 Y98.229 E34.17201
G1 X54.164 Y97.955 E34.19464
G1 X53.854 Y97.622 E34.21728
G1 X53.607 Y97.24 E34.23992
G1 X53.431 Y96.82 E34.26258
G1 X53.319 Y96.281 E34.28998
G1 X53.285 Y95.932 E34.30743
G1 X53.281 Y95.476 E34.33013
G1 X53.356 Y95.028 E34.35273
G1 X53.509 Y94.599 E34.3754
G1 X53.734 Y94.203 E34.39806
G1 X54.025 Y93.853 E34.42071
G1 X54.373 Y93.56 E34.44335
M204 S5000
G0 F2400 X55.39 Y93.537
M204 S200
G1 F1200 X61.308 Y92.219 E34.74508
G1 X61.36 Y92.208 E34.74773
G1 X73.05 Y89.903 E35.34069
G1 X73.119 Y89.891 E35.34417
G1 X81.435 Y88.523 E35.76358
G1 X81.499 Y88.513 E35.76681
G1 X87.573 Y87.699 E36.07179
G1 X87.623 Y87.693 E36.07429
G1 X91.284 Y87.287 E36.2576
G1 X91.349 Y87.281 E36.26085
G1 X97.806 Y86.759 E36.58323
G1 X97.884 Y86.754 E36.58712
G1 X102.514 Y86.546 E36.81777
G1 X102.608 Y86.544 E36.82245
G1 X110.339 Y86.527 E37.20719
G1 X110.756 Y86.566 E37.22803
G1 X110.868 Y86.599 E37.23384
G1 X111.429 Y86.564 E37.26181
G1 X117.245 Y86.965 E37.55193
G1 X117.387 Y86.98 E37.55904
G1 X122.275 Y87.638 E37.80449
G1 X122.422 Y87.663 E37.81191
G1 X124.817 Y88.153 E37.93357
G1 X124.941 Y88.182 E37.9399
G1 X126.448 Y88.583 E38.01751
G1 X126.611 Y88.633 E38.02599
G1 X128.359 Y89.247 E38.1182
G1 X128.624 Y89.36 E38.13253
G1 X130.015 Y90.065 E38.21014
G1 X130.298 Y90.236 E38.22659
G1 X130.842 Y90.624 E38.25985
G1 X131.138 Y90.878 E38.27926
G1 X131.747 Y91.502 E38.32265
G1 X132.055 Y91.9 E38.34769
G1 X132.29 Y92.289 E38.37031
G1 X132.505 Y92.766 E38.39635
G1 X132.655 Y93.243 E38.42123
G1 X132.742 Y93.652 E38.44204
G1 X132.752 Y94.037 E38.46121
G1 X132.708 Y94.745 E38.49651
G1 X132.642 Y95.159 E38.51737
G1 X132.499 Y95.552 E38.53819
G1 X132.301 Y95.888 E38.55759
G1 X131.881 Y96.474 E38.59347
G1 X131.606 Y96.789 E38.61428
G1 X131.248 Y97.064 E38.63675
G1 X130.278 Y97.661 E38.69343
G1 X129.86 Y97.861 E38.71649
G1 X128.703 Y98.271 E38.77758
G1 X128.433 Y98.348 E38.79155
G1 X126.281 Y98.812 E38.90111
G1 X126.093 Y98.844 E38.9106
G1 X123.648 Y99.153 E39.03324
G1 X123.536 Y99.164 E39.03884
G1 X120.47 Y99.392 E39.19185
G1 X120.391 Y99.396 E39.19578
G1 X117.047 Y99.524 E39.36232
G1 X116.992 Y99.526 E39.36506
G1 X112.15 Y99.591 E39.60605
G1 X112.115 Y99.591 E39.60779
G1 X100.8 Y99.56 E40.17089
G1 X100.753 Y99.559 E40.17322
G1 X91.756 Y99.342 E40.6211
G1 X91.741 Y99.342 E40.62184
G1 X55.833 Y98.223 E42.40969
G1 X55.417 Y98.17 E42.43056
G1 X55.02 Y98.039 E42.45136
G1 X54.654 Y97.836 E42.47219
G1 X54.334 Y97.566 E42.49303
G1 X54.071 Y97.241 E42.51383
G1 X53.874 Y96.871 E42.53469
G1 X53.751 Y96.471 E42.55552
G1 X53.716 Y96.242 E42.56705
G1 X53.682 Y95.893 E42.5845
G1 X53.682 Y95.474 E42.60535
G1 X53.76 Y95.063 E42.62617
G1 X53.916 Y94.675 E42.64698
G1 X54.142 Y94.322 E42.66784
G1 X54.431 Y94.02 E42.68864
G1 X54.773 Y93.777 E42.70952
G1 X55.154 Y93.604 E42.73034
G1 X55.39 Y93.537 E42.74255
M204 S5000
G0 F2400 X55.477 Y93.927
M204 S200
G1 F1200 X61.395 Y92.609 E43.04428
G1 X61.438 Y92.6 E43.04647
G1 X73.128 Y90.295 E43.63943
G1 X73.183 Y90.285 E43.64221
G1 X81.499 Y88.917 E44.06162
G1 X81.552 Y88.909 E44.06429
G1 X87.626 Y88.095 E44.36927
G1 X87.667 Y88.09 E44.37132
G1 X91.328 Y87.684 E44.55463
G1 X91.381 Y87.679 E44.55728
G1 X97.838 Y87.157 E44.87966
G1 X97.902 Y87.153 E44.88285
G1 X102.532 Y86.945 E45.1135
G1 X102.609 Y86.943 E45.11733
G1 X110.34 Y86.926 E45.50207
G1 X110.717 Y86.965 E45.52093
G1 X110.87 Y87.015 E45.52894
G1 X111.043 Y86.973 E45.5378
G1 X111.402 Y86.962 E45.55568
G1 X117.218 Y87.363 E45.8458
G1 X117.334 Y87.375 E45.8516
G1 X122.222 Y88.033 E46.09705
G1 X122.342 Y88.053 E46.10311
G1 X124.737 Y88.543 E46.22476
G1 X124.839 Y88.567 E46.22998
G1 X126.346 Y88.968 E46.30758
G1 X126.479 Y89.009 E46.31451
G1 X128.227 Y89.623 E46.40671
G1 X128.444 Y89.716 E46.41846
G1 X129.835 Y90.421 E46.49607
G1 X130.066 Y90.561 E46.50951
G1 X130.61 Y90.949 E46.54276
G1 X130.852 Y91.157 E46.55864
G1 X131.461 Y91.781 E46.60203
G1 X131.713 Y92.106 E46.6225
G1 X131.948 Y92.495 E46.64512
G1 X132.124 Y92.885 E46.66641
G1 X132.274 Y93.362 E46.69129
G1 X132.349 Y93.733 E46.71013
G1 X132.354 Y94.012 E46.72402
G1 X132.31 Y94.72 E46.75932
G1 X132.246 Y95.094 E46.7782
G1 X132.106 Y95.445 E46.79701
G1 X131.977 Y95.655 E46.80927
G1 X131.557 Y96.241 E46.84515
G1 X131.305 Y96.524 E46.86401
G1 X131.038 Y96.725 E46.88064
G1 X130.068 Y97.322 E46.93733
G1 X129.727 Y97.485 E46.95613
G1 X128.57 Y97.895 E47.01722
G1 X128.349 Y97.958 E47.02866
G1 X126.197 Y98.422 E47.13821
G1 X126.043 Y98.448 E47.14599
G1 X123.598 Y98.757 E47.26863
G1 X123.506 Y98.766 E47.27323
G1 X120.44 Y98.994 E47.42623
G1 X120.376 Y98.998 E47.42942
G1 X117.032 Y99.126 E47.59596
G1 X116.987 Y99.127 E47.5982
G1 X112.145 Y99.192 E47.83919
G1 X112.116 Y99.192 E47.84063
G1 X100.801 Y99.161 E48.40373
G1 X100.763 Y99.16 E48.40562
G1 X91.766 Y98.943 E48.85349
G1 X91.753 Y98.943 E48.85414
G1 X55.845 Y97.824 E50.64199
G1 X55.47 Y97.773 E50.66082
G1 X55.114 Y97.643 E50.67968
G1 X54.793 Y97.443 E50.6985
G1 X54.522 Y97.179 E50.71733
G1 X54.311 Y96.865 E50.73616
G1 X54.171 Y96.513 E50.75501
G1 X54.113 Y96.203 E50.7707
G1 X54.079 Y95.854 E50.78815
G1 X54.083 Y95.476 E50.80697
G1 X54.165 Y95.106 E50.82583
G1 X54.323 Y94.762 E50.84467
G1 X54.55 Y94.459 E50.86351
G1 X54.835 Y94.21 E50.88234
G1 X55.166 Y94.026 E50.90119
G1 X55.477 Y93.927 E50.91743
M204 S5000
G0 F2400 X55.563 Y94.316
M204 S200
G1 F1200 X61.481 Y92.998 E51.21916
G1 X61.515 Y92.991 E51.22088
G1 X73.205 Y90.686 E51.81384
G1 X73.248 Y90.679 E51.81601
G1 X81.564 Y89.311 E52.23542
G1 X81.605 Y89.304 E52.23749
G1 X87.679 Y88.49 E52.54247
G1 X87.711 Y88.487 E52.54407
G1 X91.372 Y88.081 E52.72738
G1 X91.413 Y88.077 E52.72943
G1 X97.87 Y87.555 E53.05181
