;Generated from 14._Spitfire_Control_Surface_4_1.tmp.1505182402499.stl 3f21dafe74b89b7a776dbcda6d46256cf77d5c3c
;Generated with Cura_SteamEngine 15.04
M140 S55.0
M109 T0 S210.0
T0
M190 S55.0

;Basic settings: Layer height: 0.15 Walls: 1.2 Fill: 50
;Print time: ?print_time?
;Filament used: ?filament_amount?m ?filament_weight?g
;Filament cost: ?filament_cost?
;M190 S55 ;Uncomment to add your own bed temperature line
;M109 S210 ;Uncomment to add your own temperature line
G21        ;metric values
G90        ;absolute positioning
M82        ;set extruder to absolute mode
M107       ;start with the fan off
;G28 X0 Y0  ;move X/Y to min endstops
;G28 Z0     ;move Z to min endstops
;G1 Z5.0 F9000 ;move the platform down 15mm
G92 E0                  ;zero the extruded length
G1 F200 E3              ;extrude 3mm of feed stock
G92 E0                  ;zero the extruded length again
G1 F9000
;Put printing message on LCD screen
M117 Printing...

;Layer count: 91
;LAYER:0
M107
G0 F9000 X90.842 Y94.000 Z0.300
;TYPE:SKIRT
G1 F1200 X95.282 Y89.561 E0.31950
G1 X95.781 Y89.061 E0.35544
G1 X98.895 Y85.994 E0.57786
G1 X102.082 Y82.860 E0.80532
G1 X102.566 Y82.385 E0.83983
G1 X103.661 Y81.310 E0.91792
G1 X105.878 Y79.131 E1.07610
G1 X109.300 Y75.776 E1.31997
G1 X110.999 Y74.111 E1.44103
G1 X112.424 Y72.716 E1.54251
G1 X114.149 Y71.028 E1.66533
G1 X115.416 Y69.789 E1.75550
G1 X117.224 Y68.023 E1.88412
G1 X118.413 Y66.861 E1.96872
G1 X119.995 Y65.318 E2.08118
G1 X121.169 Y64.174 E2.16459
G1 X122.673 Y62.710 E2.27140
G1 X123.890 Y61.526 E2.35780
G1 X125.121 Y60.329 E2.44518
G1 X126.475 Y59.012 E2.54130
G1 X127.279 Y58.234 E2.59823
G1 X128.557 Y56.995 E2.68882
G1 X128.926 Y56.637 E2.71498
G1 X131.123 Y54.509 E2.87063
G1 X133.190 Y52.514 E3.01681
G1 X135.122 Y50.654 E3.15329
G1 X135.484 Y50.304 E3.17891
G1 X136.933 Y48.914 E3.28109
G1 X137.438 Y48.430 E3.31668
G1 X138.612 Y47.306 E3.39939
G1 X139.080 Y46.858 E3.43236
G1 X140.176 Y45.813 E3.50942
G1 X140.769 Y45.249 E3.55107
G1 X141.388 Y44.660 E3.59455
G1 X142.582 Y43.527 E3.67831
G1 X143.109 Y43.031 E3.71514
G1 X144.065 Y42.127 E3.78209
G1 X144.726 Y41.508 E3.82818
G1 X144.195 Y40.579 E3.88263
G1 X149.577 Y37.075 E4.20944
G1 X149.881 Y36.829 E4.22934
G1 X150.528 Y36.456 E4.26734
G1 X156.532 Y32.547 E4.63193
G1 X159.365 Y36.393 E4.87501
G1 X166.778 Y38.040 E5.26144
G1 X161.776 Y47.078 E5.78710
G1 X161.519 Y47.590 E5.81625
G1 X160.661 Y48.767 E5.89038
G1 X160.268 Y49.201 E5.92017
G1 X160.118 Y49.367 E5.93156
G1 X159.922 Y49.583 E5.94640
G1 X159.735 Y49.786 E5.96044
G1 X159.340 Y50.217 E5.99019
G1 X158.969 Y50.620 E6.01807
G1 X158.896 Y50.700 E6.02358
G1 X158.462 Y51.168 E6.05606
G1 X158.461 Y51.167 E6.05613
G1 X158.350 Y51.288 E6.06449
G1 X157.935 Y51.734 E6.09549
G1 X157.161 Y52.562 E6.15317
G1 X156.803 Y52.944 E6.17981
G1 X156.224 Y53.561 E6.22287
G1 X155.868 Y53.940 E6.24933
G1 X155.384 Y54.452 E6.28518
G1 X154.471 Y55.420 E6.35289
G1 X154.058 Y55.855 E6.38342
G1 X152.951 Y57.021 E6.46524
G1 X151.709 Y58.326 E6.55691
G1 X151.321 Y58.733 E6.58553
G1 X150.883 Y59.191 E6.61778
G1 X149.571 Y60.561 E6.71431
G1 X149.087 Y61.066 E6.74990
G1 X147.697 Y62.515 E6.85208
G1 X147.349 Y62.875 E6.87756
G1 X145.715 Y64.573 E6.99748
G1 X144.122 Y66.223 E7.11419
G1 X143.606 Y66.757 E7.15198
G1 X141.361 Y69.077 E7.31626
G1 X141.005 Y69.444 E7.34228
G1 X139.029 Y71.482 E7.48674
G1 X139.011 Y71.500 E7.48803
G1 X138.252 Y72.281 E7.54345
G1 X136.646 Y73.932 E7.66066
G1 X136.569 Y74.013 E7.66635
G1 X136.484 Y74.100 E7.67254
G1 X135.361 Y75.254 E7.75448
G1 X134.068 Y76.581 E7.84876
G1 X133.974 Y76.680 E7.85571
G1 X133.810 Y76.847 E7.86762
G1 X132.449 Y78.243 E7.96683
G1 X131.219 Y79.504 E8.05648
G1 X131.101 Y79.625 E8.06508
G1 X129.586 Y81.177 E8.17545
G1 X128.397 Y82.393 E8.26199
G1 X128.364 Y82.427 E8.26440
G1 X126.749 Y84.077 E8.38189
G1 X125.535 Y85.318 E8.47024
G1 X122.547 Y88.371 E8.68763
G1 X122.253 Y88.670 E8.70896
G1 X119.118 Y91.867 E8.93682
G1 X119.050 Y91.937 E8.94179
G1 X118.994 Y91.994 E8.94585
G1 X115.675 Y95.373 E9.18688
G1 X115.479 Y95.573 E9.20113
G1 X115.166 Y95.892 E9.22387
G1 X114.251 Y96.822 E9.29026
G1 X112.059 Y99.052 E9.44939
G1 X112.049 Y99.062 E9.45011
G1 X109.227 Y101.931 E9.65489
G1 X109.104 Y102.056 E9.66382
G1 X109.026 Y102.132 E9.66936
G1 X107.853 Y103.305 E9.75378
G1 X106.572 Y104.585 E9.84593
G1 X102.559 Y108.600 E10.13480
G1 X102.038 Y109.119 E10.17223
G1 X99.088 Y112.025 E10.38295
G1 X95.895 Y115.163 E10.61077
G1 X95.438 Y115.611 E10.64333
G1 X94.344 Y116.687 E10.72142
G1 X92.121 Y118.870 E10.87997
G1 X90.436 Y120.523 E11.00009
G1 X90.436 Y120.522 E11.00014
G1 X88.726 Y122.199 E11.12202
G1 X87.087 Y123.806 E11.23883
G1 X85.663 Y125.200 E11.34023
G1 X83.706 Y127.114 E11.47953
G1 X82.434 Y128.357 E11.57004
G1 X80.704 Y130.047 E11.69311
G1 X79.515 Y131.208 E11.77767
G1 X77.874 Y132.809 E11.89434
G1 X76.708 Y133.946 E11.97722
G1 X74.100 Y136.485 E12.16244
G1 X72.823 Y137.726 E12.25305
G1 X71.488 Y139.024 E12.34781
G1 X70.701 Y139.787 E12.40359
G1 X70.700 Y139.786 E12.40366
G1 X69.447 Y141.003 E12.49255
G1 X69.061 Y141.377 E12.51990
G1 X66.755 Y143.610 E12.68325
G1 X64.570 Y145.718 E12.83775
G1 X62.507 Y147.704 E12.98347
G1 X62.070 Y148.124 E13.01432
G1 X60.565 Y149.569 E13.12049
G1 X60.155 Y149.963 E13.14942
G1 X58.729 Y151.325 E13.24977
G1 X57.817 Y152.195 E13.31391
G1 X57.221 Y152.761 E13.35574
G1 X56.608 Y153.346 E13.39886
G1 X55.415 Y154.475 E13.48244
G1 X54.895 Y154.967 E13.51887
G1 X53.929 Y155.878 E13.58644
G1 X52.556 Y157.168 E13.68231
G1 X52.190 Y157.510 E13.70780
G1 X52.903 Y160.126 E13.84578
G1 X46.293 Y162.165 E14.19779
G1 X38.822 Y165.849 E14.62169
G1 X36.491 Y158.859 E14.99665
G1 X33.969 Y155.742 E15.20069
G1 X36.296 Y150.761 E15.48046
G1 X37.018 Y149.615 E15.54938
G1 X38.029 Y148.472 E15.62703
G1 X38.489 Y147.967 E15.66180
G1 X39.026 Y147.384 E15.70213
G1 X39.097 Y147.307 E15.70746
G1 X39.539 Y146.831 E15.74052
G1 X39.660 Y146.701 E15.74955
G1 X40.053 Y146.279 E15.77890
G1 X40.416 Y145.889 E15.80601
G1 X40.832 Y145.444 E15.83701
G1 X41.773 Y144.442 E15.90696
G1 X42.126 Y144.066 E15.93321
G1 X42.610 Y143.554 E15.96906
G1 X43.526 Y142.585 E16.03691
G1 X45.042 Y140.986 E16.14904
G1 X46.288 Y139.676 E16.24104
G1 X46.677 Y139.269 E16.26969
G1 X47.827 Y138.066 E16.35438
G1 X48.212 Y137.664 E16.38271
G1 X49.875 Y135.931 E16.50494
G1 X50.297 Y135.492 E16.53592
G1 X52.017 Y133.706 E16.66210
G1 X52.285 Y133.427 E16.68179
G1 X53.710 Y131.951 E16.78619
G1 X54.257 Y131.384 E16.82628
G1 X54.388 Y131.248 E16.83589
G1 X56.646 Y128.914 E17.00115
G1 X56.655 Y128.905 E17.00180
G1 X56.996 Y128.554 E17.02670
G1 X58.934 Y126.556 E17.16835
G1 X59.002 Y126.486 E17.17331
G1 X59.701 Y125.766 E17.22438
G1 X61.345 Y124.075 E17.34440
G1 X61.438 Y123.978 E17.35124
G1 X61.475 Y123.941 E17.35390
G1 X62.576 Y122.810 E17.43422
G1 X63.935 Y121.414 E17.53336
G1 X63.994 Y121.354 E17.53764
G1 X64.035 Y121.312 E17.54063
G1 X64.071 Y121.275 E17.54326
G1 X65.408 Y119.904 E17.64071
G1 X66.627 Y118.654 E17.72956
G1 X66.739 Y118.539 E17.73773
G1 X66.790 Y118.487 E17.74143
G1 X69.442 Y115.772 E17.93457
G1 X69.517 Y115.694 E17.94008
G1 X69.657 Y115.551 E17.95026
G1 X71.240 Y113.932 E18.06549
G1 X72.419 Y112.728 E18.15124
G1 X72.569 Y112.573 E18.16221
G1 X74.238 Y110.871 E18.28352
G1 X75.544 Y109.537 E18.37852
G1 X75.678 Y109.398 E18.38835
G1 X75.723 Y109.353 E18.39158
G1 X78.879 Y106.136 E18.62092
G1 X80.433 Y104.552 E18.73384
G1 X82.246 Y102.707 E18.86547
G1 X85.919 Y98.969 E19.13215
G1 X88.836 Y96.006 E19.34374
G1 X90.299 Y94.542 E19.44906
G1 X90.842 Y94.000 E19.48810
G0 F9000 X91.124 Y94.284
G1 F1200 X95.565 Y89.844 E19.80767
G1 X96.063 Y89.344 E19.84358
G1 X99.175 Y86.279 E20.06586
G1 X102.362 Y83.145 E20.29332
G1 X102.846 Y82.670 E20.32783
G1 X103.941 Y81.595 E20.40591
G1 X106.158 Y79.417 E20.56406
G1 X109.580 Y76.062 E20.80794
G1 X111.279 Y74.396 E20.92902
G1 X112.704 Y73.002 E21.03047
G1 X114.429 Y71.314 E21.15329
G1 X115.696 Y70.075 E21.24347
G1 X117.503 Y68.309 E21.37204
G1 X117.504 Y68.310 E21.37211
G1 X118.693 Y67.147 E21.45675
G1 X120.275 Y65.604 E21.56921
G1 X121.448 Y64.461 E21.65255
G1 X124.169 Y61.812 E21.84580
G1 X125.402 Y60.614 E21.93328
G1 X126.754 Y59.299 E22.02926
G1 X127.557 Y58.521 E22.08616
G1 X128.835 Y57.282 E22.17674
G1 X129.204 Y56.924 E22.20290
G1 X131.402 Y54.797 E22.35855
G1 X133.468 Y52.802 E22.50470
G1 X135.388 Y50.953 E22.64034
G1 X135.761 Y50.592 E22.66676
G1 X137.209 Y49.203 E22.76887
G1 X137.715 Y48.719 E22.80450
G1 X138.888 Y47.595 E22.88717
G1 X139.356 Y47.147 E22.92014
G1 X140.452 Y46.102 E22.99720
G1 X141.044 Y45.539 E23.03878
G1 X141.664 Y44.950 E23.08229
G1 X142.857 Y43.818 E23.16598
G1 X143.384 Y43.322 E23.20281
G1 X144.339 Y42.419 E23.26969
G1 X145.229 Y41.583 E23.33183
G1 X144.729 Y40.708 E23.38312
G1 X149.817 Y37.396 E23.69206
G1 X150.108 Y37.160 E23.71112
G1 X150.730 Y36.801 E23.74767
G1 X156.434 Y33.088 E24.09401
G1 X159.133 Y36.751 E24.32555
G1 X166.169 Y38.315 E24.69234
G1 X161.420 Y46.893 E25.19129
G1 X161.176 Y47.381 E25.21905
G1 X160.350 Y48.514 E25.29041
G1 X159.954 Y48.952 E25.32045
G1 X159.953 Y48.952 E25.32050
G1 X159.822 Y49.099 E25.33052
G1 X159.627 Y49.313 E25.34526
G1 X159.441 Y49.516 E25.35927
G1 X159.045 Y49.947 E25.38905
G1 X158.675 Y50.349 E25.41686
G1 X158.603 Y50.428 E25.42229
G1 X158.169 Y50.895 E25.45474
G1 X158.057 Y51.016 E25.46313
G1 X157.642 Y51.461 E25.49409
G1 X156.869 Y52.288 E25.55170
G1 X156.511 Y52.670 E25.57834
G1 X155.932 Y53.288 E25.62143
G1 X155.577 Y53.666 E25.64782
G1 X155.093 Y54.177 E25.68364
G1 X154.180 Y55.145 E25.75135
G1 X153.768 Y55.579 E25.78181
G1 X152.661 Y56.746 E25.86366
G1 X151.419 Y58.050 E25.95530
G1 X151.032 Y58.457 E25.98388
G1 X150.594 Y58.914 E26.01609
G1 X149.282 Y60.285 E26.11266
G1 X148.798 Y60.790 E26.14825
G1 X147.409 Y62.238 E26.25036
G1 X147.048 Y62.611 E26.27678
G1 X145.427 Y64.295 E26.39572
G1 X143.834 Y65.945 E26.51243
G1 X143.319 Y66.479 E26.55019
G1 X141.051 Y68.822 E26.71613
G1 X140.995 Y68.879 E26.72019
G1 X140.718 Y69.165 E26.74045
G1 X138.742 Y71.203 E26.88491
G1 X138.724 Y71.222 E26.88624
G1 X137.966 Y72.000 E26.94152
G1 X137.967 Y72.001 E26.94159
G1 X136.305 Y73.711 E27.06294
G1 X136.281 Y73.736 E27.06470
G1 X136.198 Y73.820 E27.07071
G1 X135.075 Y74.975 E27.15269
G1 X133.779 Y76.305 E27.24719
G1 X133.686 Y76.402 E27.25402
G1 X133.524 Y76.567 E27.26579
G1 X132.163 Y77.964 E27.36504
G1 X130.932 Y79.225 E27.45472
G1 X130.815 Y79.345 E27.46325
G1 X129.300 Y80.897 E27.57362
G1 X128.111 Y82.113 E27.66016
G1 X128.078 Y82.147 E27.66257
G1 X126.464 Y83.797 E27.78003
G1 X125.249 Y85.039 E27.86845
G1 X122.261 Y88.091 E28.08580
G1 X121.968 Y88.390 E28.10710
G1 X118.833 Y91.587 E28.33496
G1 X118.765 Y91.656 E28.33989
G1 X118.708 Y91.715 E28.34406
G1 X115.390 Y95.093 E28.58501
G1 X115.194 Y95.293 E28.59926
G1 X114.881 Y95.611 E28.62197
G1 X113.966 Y96.542 E28.68840
G1 X111.775 Y98.770 E28.84741
G1 X111.721 Y98.825 E28.85134
G1 X108.942 Y101.650 E29.05299
G1 X108.823 Y101.771 E29.06163
G1 X108.772 Y101.820 E29.06523
G1 X107.571 Y103.022 E29.15170
G1 X106.290 Y104.302 E29.24385
G1 X102.276 Y108.317 E29.53276
G1 X101.757 Y108.835 E29.57007
G1 X98.807 Y111.740 E29.78076
G1 X95.615 Y114.878 E30.00854
G1 X95.158 Y115.326 E30.04111
G1 X94.063 Y116.401 E30.11920
G1 X91.841 Y118.584 E30.27771
G1 X90.156 Y120.237 E30.39783
G1 X90.156 Y120.236 E30.39788
G1 X88.446 Y121.913 E30.51976
G1 X86.807 Y123.520 E30.63657
G1 X85.384 Y124.914 E30.73794
G1 X83.425 Y126.829 E30.87734
G1 X82.154 Y128.071 E30.96778
G1 X80.424 Y129.761 E31.09085
G1 X79.236 Y130.922 E31.17538
G1 X77.595 Y132.523 E31.29204
G1 X76.429 Y133.659 E31.37489
G1 X73.821 Y136.198 E31.56011
G1 X72.544 Y137.439 E31.65072
G1 X71.209 Y138.737 E31.74548
G1 X70.423 Y139.499 E31.80118
G1 X69.165 Y140.719 E31.89036
G1 X68.783 Y141.090 E31.91746
G1 X66.477 Y143.322 E32.08077
G1 X64.292 Y145.430 E32.23527
G1 X62.229 Y147.416 E32.38100
G1 X61.793 Y147.835 E32.41177
G1 X60.288 Y149.280 E32.51794
G1 X59.878 Y149.674 E32.54688
G1 X58.453 Y151.036 E32.64719
G1 X57.542 Y151.905 E32.71126
G1 X56.946 Y152.471 E32.75308
G1 X56.332 Y153.056 E32.79624
G1 X55.140 Y154.184 E32.87975
G1 X54.620 Y154.676 E32.91618
G1 X53.655 Y155.587 E32.98371
G1 X52.282 Y156.876 E33.07955
G1 X51.839 Y157.290 E33.11040
G1 X51.740 Y157.382 E33.11728
G1 X52.415 Y159.858 E33.24788
G1 X46.143 Y161.793 E33.58189
G1 X39.056 Y165.288 E33.98401
G1 X36.848 Y158.663 E34.33937
G1 X34.438 Y155.684 E34.53436
G1 X36.648 Y150.953 E34.80009
G1 X37.339 Y149.856 E34.86606
G1 X38.326 Y148.739 E34.94191
G1 X38.784 Y148.238 E34.97646
G1 X39.320 Y147.655 E35.01676
G1 X39.390 Y147.579 E35.02202
G1 X39.832 Y147.103 E35.05507
G1 X39.953 Y146.974 E35.06407
G1 X40.346 Y146.552 E35.09342
G1 X40.709 Y146.161 E35.12057
G1 X41.124 Y145.717 E35.15149
G1 X42.064 Y144.716 E35.22137
G1 X42.417 Y144.340 E35.24762
G1 X42.901 Y143.829 E35.28343
G1 X43.816 Y142.860 E35.35125
G1 X45.332 Y141.261 E35.46338
G1 X46.578 Y139.952 E35.55535
G1 X46.967 Y139.545 E35.58400
G1 X48.116 Y138.342 E35.66865
G1 X48.501 Y137.940 E35.69698
G1 X50.164 Y136.208 E35.81917
G1 X50.585 Y135.770 E35.85008
G1 X52.305 Y133.983 E35.97630
G1 X52.573 Y133.705 E35.99595
G1 X53.998 Y132.228 E36.10039
G1 X54.544 Y131.662 E36.14041
G1 X54.676 Y131.526 E36.15005
G1 X56.931 Y129.195 E36.31509
G1 X56.990 Y129.135 E36.31938
G1 X57.283 Y128.833 E36.34079
G1 X59.221 Y126.835 E36.48244
G1 X59.288 Y126.766 E36.48733
G1 X59.988 Y126.045 E36.53847
G1 X61.632 Y124.353 E36.65852
G1 X61.724 Y124.258 E36.66525
G1 X61.729 Y124.253 E36.66561
G1 X62.863 Y123.089 E36.74831
G1 X64.220 Y121.694 E36.84734
G1 X64.282 Y121.631 E36.85184
G1 X64.322 Y121.590 E36.85475
G1 X64.358 Y121.553 E36.85738
G1 X65.694 Y120.183 E36.95476
G1 X66.913 Y118.933 E37.04361
G1 X67.025 Y118.819 E37.05174
G1 X67.076 Y118.766 E37.05548
G1 X69.728 Y116.051 E37.24862
G1 X69.804 Y115.973 E37.25416
G1 X69.871 Y115.905 E37.25902
G1 X69.896 Y115.878 E37.26089
G1 X71.526 Y114.212 E37.37950
G1 X72.743 Y112.969 E37.46802
G1 X72.856 Y112.851 E37.47634
G1 X74.521 Y111.155 E37.59728
G1 X74.520 Y111.154 E37.59735
G1 X75.829 Y109.817 E37.69257
G1 X75.963 Y109.679 E37.70236
G1 X76.037 Y109.604 E37.70772
G1 X79.164 Y106.416 E37.93497
G1 X80.719 Y104.832 E38.04792
G1 X82.531 Y102.987 E38.17952
G1 X86.204 Y99.250 E38.44617
G1 X89.120 Y96.288 E38.65768
G1 X90.582 Y94.825 E38.76293
G1 X91.124 Y94.284 E38.80190
G0 F9000 X91.407 Y94.567
G1 F1200 X95.842 Y90.132 E39.12107
G1 X96.345 Y89.628 E39.15731
G1 X99.456 Y86.564 E39.37951
G1 X102.643 Y83.430 E39.60697
G1 X103.126 Y82.956 E39.64141
G1 X104.221 Y81.881 E39.71949
G1 X106.439 Y79.702 E39.87772
G1 X109.860 Y76.347 E40.12155
G1 X111.559 Y74.682 E40.24261
G1 X112.984 Y73.288 E40.34405
G1 X114.709 Y71.600 E40.46687
G1 X115.975 Y70.361 E40.55701
G1 X117.783 Y68.595 E40.68562
G1 X118.972 Y67.433 E40.77023
G1 X120.554 Y65.891 E40.88265
G1 X121.727 Y64.747 E40.96603
G1 X124.448 Y62.099 E41.15924
G1 X125.681 Y60.900 E41.24676
G1 X125.682 Y60.901 E41.24683
G1 X127.033 Y59.586 E41.34277
G1 X127.833 Y58.810 E41.39949
G1 X129.113 Y57.569 E41.49021
G1 X129.114 Y57.570 E41.49028
G1 X129.483 Y57.211 E41.51648
G1 X131.680 Y55.084 E41.67209
G1 X133.746 Y53.090 E41.81821
G1 X135.677 Y51.230 E41.95465
G1 X136.039 Y50.881 E41.98023
G1 X137.486 Y49.491 E42.08234
G1 X137.991 Y49.008 E42.11790
G1 X139.165 Y47.884 E42.20061
G1 X139.632 Y47.437 E42.23350
G1 X140.728 Y46.392 E42.31057
G1 X141.318 Y45.830 E42.35203
G1 X141.939 Y45.240 E42.39562
G1 X143.132 Y44.109 E42.47928
G1 X143.658 Y43.613 E42.51607
G1 X144.613 Y42.710 E42.58295
G1 X145.605 Y41.779 E42.65218
G1 X145.733 Y41.659 E42.66111
G1 X145.264 Y40.838 E42.70922
G1 X150.043 Y37.727 E42.99941
G1 X150.335 Y37.490 E43.01855
G1 X150.961 Y37.129 E43.05532
G1 X156.336 Y33.630 E43.38169
G1 X158.899 Y37.109 E43.60159
G1 X165.560 Y38.589 E43.94882
G1 X161.067 Y46.704 E44.42084
G1 X160.834 Y47.172 E44.44745
G1 X160.039 Y48.261 E44.51606
G1 X159.673 Y48.666 E44.54384
G1 X159.525 Y48.830 E44.55508
G1 X159.331 Y49.043 E44.56974
G1 X159.146 Y49.245 E44.58368
G1 X158.750 Y49.676 E44.61347
G1 X158.381 Y50.078 E44.64123
