;FLAVOR:Marlin
;TIME:1588
;Filament used: 1.23363m
;Layer height: 0.2
;Generated with Cura_SteamEngine 2.7.0
M190 S60
M104 S220
M109 S220
G21 ;metric values
G90 ;absolute positioning
M82 ;set extruder to absolute mode
M107 ;start with the fan off
G92 E0 ;zero the extruded length
G1 F200 E3 ;extrude 3mm of feed stock
G92 E0 ;zero the extruded length again
G1 F9000
M117 Printing...
;LAYER_COUNT:69
;LAYER:0
M107
M204 S5000
G0 F2400 X13.58 Y88.496 Z0.3
M204 S200
;TYPE:SKIRT
G1 F1200 X16.156 Y88.333 E0.12845
G1 X16.286 Y88.327 E0.13493
G1 X27.393 Y88.007 E0.6879
G1 X27.943 Y88.031 E0.7153
G1 X28.435 Y88.125 E0.74023
G1 X28.509 Y88.098 E0.74415
G1 X29.048 Y87.988 E0.77152
G1 X29.47 Y87.958 E0.79258
G1 X52.015 Y87.589 E1.91469
G1 X52.039 Y87.588 E1.91589
G1 X87.427 Y87.23 E3.67708
G1 X87.465 Y87.23 E3.67897
G1 X97.307 Y87.231 E4.16876
G1 X97.348 Y87.231 E4.1708
G1 X142.872 Y87.727 E6.43646
G1 X142.902 Y87.728 E6.43795
G1 X157.604 Y88.004 E7.16973
G1 X157.657 Y88.005 E7.17237
G1 X171.152 Y88.445 E7.84431
G1 X171.699 Y88.503 E7.87169
G1 X172.232 Y88.639 E7.89906
G1 X172.604 Y88.786 E7.91897
G1 X172.884 Y88.914 E7.93429
G1 X173.367 Y89.179 E7.96171
G1 X173.806 Y89.51 E7.98907
G1 X174.193 Y89.902 E8.01648
G1 X174.518 Y90.346 E8.04386
G1 X174.776 Y90.832 E8.07125
G1 X175.023 Y91.605 E8.11163
G1 X175.076 Y91.865 E8.12484
G1 X175.146 Y92.411 E8.15223
G1 X175.137 Y92.961 E8.17961
G1 X175.048 Y93.504 E8.20699
G1 X174.881 Y94.029 E8.23441
G1 X174.551 Y94.671 E8.27033
G1 X174.463 Y94.808 E8.27843
G1 X174.132 Y95.248 E8.30583
G1 X173.742 Y95.636 E8.33321
G1 X173.299 Y95.963 E8.36061
G1 X172.814 Y96.223 E8.388
G1 X172.296 Y96.409 E8.41539
G1 X171.903 Y96.497 E8.43543
G1 X171.458 Y96.572 E8.45789
G1 X170.981 Y96.622 E8.48176
G1 X166.835 Y96.79 E8.68825
G1 X166.774 Y96.792 E8.69129
G1 X149.832 Y97.205 E9.53467
G1 X149.794 Y97.206 E9.53656
G1 X125.109 Y97.557 E10.76514
G1 X125.091 Y97.557 E10.76604
G1 X97.563 Y97.818 E12.13605
G1 X97.528 Y97.818 E12.13779
G1 X87.538 Y97.82 E12.63494
G1 X87.498 Y97.82 E12.63694
G1 X48.395 Y97.413 E14.58302
G1 X48.363 Y97.412 E14.58461
G1 X23.331 Y96.944 E15.83056
G1 X23.248 Y96.942 E15.83469
G1 X13.602 Y96.551 E16.31512
G1 X13.056 Y96.489 E16.34247
G1 X12.524 Y96.348 E16.36986
G1 X12.017 Y96.132 E16.39729
G1 X11.548 Y95.845 E16.42465
G1 X11.125 Y95.492 E16.45207
G1 X10.758 Y95.083 E16.47941
G1 X10.503 Y94.71 E16.5019
G1 X10.415 Y94.563 E16.51043
G1 X10.168 Y94.072 E16.53778
G1 X9.994 Y93.55 E16.56516
G1 X9.897 Y93.008 E16.59256
G1 X9.88 Y92.458 E16.61995
G1 X9.943 Y91.911 E16.64735
G1 X10.084 Y91.379 E16.67474
G1 X10.208 Y91.066 E16.69149
G1 X10.359 Y90.729 E16.70987
G1 X10.62 Y90.244 E16.73728
G1 X10.949 Y89.803 E16.76466
G1 X11.337 Y89.413 E16.79204
G1 X11.779 Y89.084 E16.81946
G1 X12.263 Y88.822 E16.84685
G1 X12.78 Y88.633 E16.87424
G1 X13.58 Y88.496 E16.91463
M204 S5000
G0 F2400 X13.605 Y88.894
M204 S200
G1 F1200 X16.181 Y88.731 E17.04309
G1 X16.297 Y88.725 E17.04887
G1 X27.404 Y88.405 E17.60184
G1 X27.924 Y88.43 E17.62775
G1 X28.434 Y88.535 E17.65366
G1 X28.447 Y88.54 E17.65435
G1 X28.863 Y88.423 E17.67586
G1 X29.476 Y88.356 E17.70655
G1 X52.021 Y87.987 E18.82866
G1 X52.043 Y87.987 E18.82976
G1 X87.431 Y87.629 E20.59095
G1 X87.465 Y87.629 E20.59264
G1 X97.307 Y87.63 E21.08243
G1 X97.344 Y87.63 E21.08427
G1 X142.868 Y88.126 E23.34993
G1 X142.895 Y88.127 E23.35127
G1 X157.597 Y88.403 E24.08306
G1 X157.644 Y88.404 E24.0854
G1 X171.139 Y88.844 E24.75734
G1 X171.656 Y88.901 E24.78322
G1 X172.159 Y89.036 E24.80914
G1 X172.438 Y89.149 E24.82412
G1 X172.718 Y89.277 E24.83944
G1 X173.174 Y89.529 E24.86537
G1 X173.585 Y89.848 E24.89126
G1 X173.943 Y90.226 E24.91717
G1 X174.239 Y90.654 E24.94307
G1 X174.466 Y91.123 E24.969
G1 X174.632 Y91.684 E24.99811
G1 X174.685 Y91.944 E25.01132
G1 X174.749 Y92.461 E25.03724
G1 X174.734 Y92.981 E25.06313
G1 X174.639 Y93.493 E25.08905
G1 X174.467 Y93.985 E25.11498
G1 X174.215 Y94.455 E25.14152
G1 X174.127 Y94.592 E25.14963
G1 X173.813 Y95.007 E25.17552
G1 X173.439 Y95.369 E25.20143
G1 X173.014 Y95.67 E25.22734
G1 X172.548 Y95.902 E25.25325
G1 X171.837 Y96.104 E25.29003
G1 X171.392 Y96.179 E25.31249
G1 X170.965 Y96.223 E25.33385
G1 X166.819 Y96.391 E25.54035
G1 X166.765 Y96.393 E25.54304
G1 X149.823 Y96.806 E26.38642
G1 X149.788 Y96.807 E26.38816
G1 X125.103 Y97.158 E27.61675
G1 X125.087 Y97.158 E27.61754
G1 X97.559 Y97.419 E28.98755
G1 X97.528 Y97.419 E28.98909
G1 X87.538 Y97.421 E29.48625
G1 X87.502 Y97.421 E29.48804
G1 X48.399 Y97.014 E31.43412
G1 X48.371 Y97.013 E31.43552
G1 X23.339 Y96.545 E32.68147
G1 X23.265 Y96.543 E32.68515
G1 X13.619 Y96.152 E33.16558
G1 X13.102 Y96.091 E33.19149
G1 X12.6 Y95.952 E33.21741
G1 X12.126 Y95.738 E33.24329
G1 X11.69 Y95.453 E33.26921
G1 X11.303 Y95.105 E33.29511
G1 X10.846 Y94.505 E33.33265
G1 X10.758 Y94.358 E33.34118
G1 X10.525 Y93.892 E33.3671
G1 X10.367 Y93.397 E33.39296
G1 X10.286 Y92.882 E33.41891
G1 X10.286 Y92.362 E33.44478
G1 X10.364 Y91.847 E33.47071
G1 X10.573 Y91.229 E33.50317
G1 X10.724 Y90.892 E33.52155
G1 X10.972 Y90.435 E33.54742
G1 X11.288 Y90.021 E33.57334
G1 X11.663 Y89.66 E33.59925
G1 X12.089 Y89.361 E33.62515
G1 X12.556 Y89.131 E33.65105
G1 X13.053 Y88.975 E33.67698
G1 X13.605 Y88.894 E33.70474
M204 S5000
G0 F2400 X13.63 Y89.292
M204 S200
G1 F1200 X16.206 Y89.129 E33.8332
G1 X16.309 Y89.124 E33.83833
G1 X27.416 Y88.804 E34.3913
G1 X27.904 Y88.83 E34.41562
G1 X28.382 Y88.935 E34.43998
G1 X28.457 Y88.965 E34.444
G1 X28.726 Y88.866 E34.45826
G1 X29.206 Y88.773 E34.48259
G1 X29.483 Y88.755 E34.49641
G1 X52.028 Y88.386 E35.61852
G1 X52.047 Y88.386 E35.61947
G1 X87.435 Y88.028 E37.38066
G1 X87.465 Y88.028 E37.38215
G1 X97.307 Y88.029 E37.87194
G1 X97.34 Y88.029 E37.87358
G1 X142.864 Y88.525 E40.13924
G1 X142.887 Y88.526 E40.14039
G1 X157.589 Y88.802 E40.87217
G1 X157.631 Y88.803 E40.87426
G1 X171.126 Y89.243 E41.5462
G1 X171.611 Y89.298 E41.57049
G1 X172.272 Y89.512 E41.60507
G1 X172.552 Y89.64 E41.62039
G1 X172.979 Y89.879 E41.64474
G1 X173.361 Y90.184 E41.66907
G1 X173.688 Y90.547 E41.69338
G1 X173.952 Y90.959 E41.71773
G1 X174.145 Y91.408 E41.74205
G1 X174.241 Y91.764 E41.7604
G1 X174.294 Y92.024 E41.77361
G1 X174.352 Y92.51 E41.79797
G1 X174.33 Y92.998 E41.82228
G1 X174.229 Y93.476 E41.84659
G1 X174.052 Y93.932 E41.87093
G1 X173.879 Y94.24 E41.88851
G1 X173.791 Y94.377 E41.89662
G1 X173.494 Y94.765 E41.92093
G1 X173.138 Y95.1 E41.94526
G1 X172.732 Y95.372 E41.96958
G1 X172.287 Y95.575 E41.99392
G1 X171.77 Y95.71 E42.02051
G1 X171.325 Y95.785 E42.04297
G1 X170.949 Y95.825 E42.06179
G1 X166.803 Y95.993 E42.26828
G1 X166.755 Y95.994 E42.27067
G1 X149.813 Y96.407 E43.11405
G1 X149.783 Y96.408 E43.11554
G1 X125.098 Y96.759 E44.34413
G1 X125.083 Y96.759 E44.34488
G1 X97.555 Y97.02 E45.71488
G1 X97.528 Y97.02 E45.71623
G1 X87.538 Y97.022 E46.21338
G1 X87.506 Y97.022 E46.21498
G1 X48.403 Y96.615 E48.16106
G1 X48.378 Y96.614 E48.16231
G1 X23.346 Y96.146 E49.40825
G1 X23.281 Y96.145 E49.41149
G1 X13.635 Y95.754 E49.89192
G1 X13.15 Y95.694 E49.91624
G1 X12.68 Y95.556 E49.94062
G1 X12.24 Y95.344 E49.96492
G1 X11.84 Y95.062 E49.98928
G1 X11.491 Y94.72 E50.0136
G1 X11.188 Y94.3 E50.03937
G1 X11.1 Y94.153 E50.04789
G1 X10.884 Y93.715 E50.0722
G1 X10.742 Y93.247 E50.09654
G1 X10.679 Y92.762 E50.12088
G1 X10.695 Y92.273 E50.14522
G1 X10.79 Y91.794 E50.16953
G1 X10.937 Y91.392 E50.19083
G1 X11.088 Y91.055 E50.20921
G1 X11.323 Y90.627 E50.2335
G1 X11.626 Y90.243 E50.25785
G1 X11.986 Y89.913 E50.28215
G1 X12.396 Y89.646 E50.3065
G1 X12.844 Y89.449 E50.33086
G1 X13.318 Y89.328 E50.3552
G1 X13.63 Y89.292 E50.37083
M204 S5000
G0 F2400 X13.655 Y89.69
M204 S200
G1 F1200 X16.231 Y89.527 E50.49928
G1 X16.32 Y89.523 E50.50372
G1 X27.427 Y89.203 E51.05669
G1 X27.882 Y89.23 E51.07937
G1 X28.324 Y89.336 E51.10199
G1 X28.462 Y89.396 E51.10948
G1 X28.639 Y89.312 E51.11923
G1 X29.079 Y89.194 E51.1419
G1 X29.49 Y89.154 E51.16245
G1 X52.035 Y88.785 E52.28457
G1 X52.051 Y88.785 E52.28536
G1 X87.439 Y88.427 E54.04655
G1 X87.465 Y88.427 E54.04785
G1 X97.307 Y88.428 E54.53764
G1 X97.335 Y88.428 E54.53903
G1 X142.859 Y88.924 E56.80469
G1 X142.88 Y88.924 E56.80574
G1 X157.582 Y89.2 E57.53752
G1 X157.618 Y89.201 E57.53931
G1 X171.113 Y89.641 E58.21125
G1 X171.564 Y89.696 E58.23386
G1 X172.106 Y89.875 E58.26227
G1 X172.386 Y90.003 E58.27759
G1 X172.782 Y90.228 E58.30025
G1 X173.133 Y90.518 E58.32291
G1 X173.427 Y90.865 E58.34555
G1 X173.656 Y91.259 E58.36823
G1 X173.85 Y91.844 E58.3989
G1 X173.903 Y92.104 E58.4121
G1 X173.954 Y92.556 E58.43474
G1 X173.926 Y93.01 E58.45738
G1 X173.818 Y93.453 E58.48007
G1 X173.544 Y94.024 E58.51159
G1 X173.456 Y94.161 E58.51969
G1 X173.177 Y94.521 E58.54235
G1 X172.84 Y94.826 E58.56497
G1 X172.454 Y95.068 E58.58765
G1 X172.033 Y95.239 E58.61026
G1 X171.704 Y95.317 E58.62709
G1 X171.259 Y95.392 E58.64955
G1 X170.933 Y95.426 E58.66586
G1 X166.787 Y95.594 E58.87235
G1 X166.745 Y95.595 E58.87444
G1 X149.803 Y96.008 E59.71782
G1 X149.777 Y96.009 E59.71912
G1 X125.092 Y96.36 E60.9477
G1 X125.08 Y96.36 E60.9483
G1 X97.552 Y96.621 E62.3183
G1 X97.528 Y96.621 E62.3195
G1 X87.538 Y96.623 E62.81666
G1 X87.51 Y96.623 E62.81805
G1 X48.407 Y96.216 E64.76413
G1 X48.386 Y96.216 E64.76518
G1 X23.354 Y95.748 E66.01113
G1 X23.297 Y95.746 E66.01396
G1 X13.651 Y95.355 E66.4944
G1 X13.2 Y95.297 E66.51703
G1 X12.765 Y95.16 E66.53972
G1 X12.362 Y94.95 E66.56234
G1 X12.001 Y94.673 E66.58498
G1 X11.694 Y94.337 E66.60763
G1 X11.53 Y94.095 E66.62218
G1 X11.442 Y93.948 E66.63071
G1 X11.244 Y93.539 E66.65332
G1 X11.12 Y93.101 E66.67597
G1 X11.074 Y92.648 E66.69863
G1 X11.108 Y92.194 E66.72129
G1 X11.301 Y91.555 E66.75451
G1 X11.452 Y91.218 E66.77289
G1 X11.674 Y90.821 E66.79552
G1 X11.961 Y90.468 E66.81816
G1 X12.306 Y90.172 E66.84079
G1 X12.698 Y89.94 E66.86345
G1 X13.124 Y89.78 E66.8861
G1 X13.655 Y89.69 E66.9129
M204 S5000
G0 F2400 X13.68 Y90.088
M204 S200
G1 F1200 X16.256 Y89.925 E67.04136
G1 X16.332 Y89.922 E67.04514
G1 X27.439 Y89.602 E67.59811
G1 X27.856 Y89.63 E67.61891
G1 X28.261 Y89.736 E67.63975
G1 X28.471 Y89.837 E67.65134
G1 X28.607 Y89.757 E67.6592
G1 X29.002 Y89.618 E67.68004
G1 X29.496 Y89.553 E67.70483
G1 X52.041 Y89.184 E68.82694
G1 X52.055 Y89.184 E68.82764
G1 X87.443 Y88.826 E70.58883
G1 X87.465 Y88.826 E70.58993
G1 X97.307 Y88.827 E71.07972
G1 X97.331 Y88.827 E71.08091
G1 X142.855 Y89.323 E73.34657
G1 X142.872 Y89.323 E73.34742
G1 X157.574 Y89.599 E74.0792
G1 X157.605 Y89.6 E74.08074
G1 X171.1 Y90.04 E74.75268
G1 X171.515 Y90.094 E74.77351
G1 X171.941 Y90.238 E74.79589
G1 X172.221 Y90.366 E74.81121
G1 X172.583 Y90.575 E74.83201
G1 X172.899 Y90.85 E74.85286
G1 X173.157 Y91.179 E74.87367
G1 X173.348 Y91.552 E74.89452
G1 X173.459 Y91.924 E74.91384
G1 X173.512 Y92.184 E74.92705
G1 X173.556 Y92.6 E74.94786
G1 X173.52 Y93.017 E74.96869
G1 X173.406 Y93.42 E74.98953
G1 X173.208 Y93.808 E75.01121
G1 X173.12 Y93.945 E75.01932
G1 X172.861 Y94.274 E75.04015
G1 X172.545 Y94.548 E75.06097
G1 X172.182 Y94.757 E75.08181
G1 X171.638 Y94.923 E75.11012
G1 X171.193 Y94.998 E75.13258
G1 X170.917 Y95.027 E75.14639
G1 X166.771 Y95.195 E75.35288
G1 X166.735 Y95.196 E75.35468
G1 X149.793 Y95.609 E76.19805
G1 X149.771 Y95.61 E76.19915
G1 X125.086 Y95.961 E77.42773
G1 X125.076 Y95.961 E77.42823
G1 X97.548 Y96.222 E78.79824
G1 X97.527 Y96.222 E78.79928
G1 X87.537 Y96.224 E79.29644
G1 X87.514 Y96.224 E79.29758
G1 X48.411 Y95.817 E81.24367
G1 X48.393 Y95.817 E81.24456
G1 X23.361 Y95.349 E82.49051
G1 X23.313 Y95.347 E82.4929
G1 X13.667 Y94.956 E82.97333
G1 X13.252 Y94.899 E82.99418
G1 X12.856 Y94.765 E83.01499
G1 X12.492 Y94.558 E83.03583
G1 X12.175 Y94.285 E83.05664
G1 X11.873 Y93.89 E83.08139
G1 X11.785 Y93.743 E83.08992
G1 X11.605 Y93.365 E83.11075
G1 X11.5 Y92.96 E83.13157
G1 X11.474 Y92.542 E83.15241
G1 X11.528 Y92.127 E83.17324
G1 X11.665 Y91.718 E83.19471
G1 X11.816 Y91.381 E83.21308
G1 X12.023 Y91.018 E83.23388
G1 X12.295 Y90.699 E83.25474
G1 X12.622 Y90.439 E83.27553
G1 X12.993 Y90.245 E83.29637
G1 X13.394 Y90.125 E83.3172
G1 X13.68 Y90.088 E83.33155
M204 S5000
G0 F2400 X13.706 Y90.487
M204 S200
G1 F1200 X16.282 Y90.324 E83.46
G1 X16.343 Y90.321 E83.46304
G1 X27.45 Y90.001 E84.01602
G1 X27.828 Y90.03 E84.03488
G1 X28.191 Y90.137 E84.05372
G1 X28.488 Y90.299 E84.07055
G1 X28.632 Y90.194 E84.07942
G1 X28.977 Y90.04 E84.09822
G1 X29.503 Y89.952 E84.12476
G1 X52.048 Y89.583 E85.24688
G1 X52.059 Y89.583 E85.24742
G1 X87.447 Y89.225 E87.00861
G1 X87.465 Y89.225 E87.00951
G1 X97.307 Y89.226 E87.4993
G1 X97.327 Y89.226 E87.5003
G1 X142.851 Y89.722 E89.76596
G1 X142.865 Y89.722 E89.76665
G1 X157.567 Y89.998 E90.49843
G1 X157.592 Y89.999 E90.49968
G1 X171.087 Y90.439 E91.17162
G1 X171.461 Y90.491 E91.19041
G1 X171.775 Y90.601 E91.20697
G1 X172.055 Y90.729 E91.22229
G1 X172.38 Y90.921 E91.24108
G1 X172.659 Y91.178 E91.25995
G1 X172.877 Y91.487 E91.27877
G1 X173.068 Y92.003 E91.30615
G1 X173.121 Y92.263 E91.31936
G1 X173.157 Y92.64 E91.33821
G1 X173.113 Y93.016 E91.35705
G1 X172.992 Y93.375 E91.3759
G1 X172.872 Y93.593 E91.38828
G1 X172.784 Y93.73 E91.39639
G1 X172.547 Y94.025 E91.41522
G1 X172.254 Y94.264 E91.43403
G1 X171.916 Y94.436 E91.45291
G1 X171.571 Y94.53 E91.4707
G1 X171.126 Y94.605 E91.49316
G1 X170.901 Y94.629 E91.50442
G1 X166.755 Y94.797 E91.71092
G1 X166.726 Y94.797 E91.71236
G1 X149.784 Y95.21 E92.55574
G1 X149.766 Y95.211 E92.55664
G1 X125.081 Y95.562 E93.78522
G1 X125.072 Y95.562 E93.78567
G1 X97.544 Y95.823 E95.15567
G1 X97.527 Y95.823 E95.15652
G1 X87.537 Y95.825 E95.65368
G1 X87.518 Y95.825 E95.65462
G1 X48.415 Y95.418 E97.60071
G1 X48.4 Y95.418 E97.60145
G1 X23.368 Y94.95 E98.8474
G1 X23.329 Y94.949 E98.84934
G1 X13.683 Y94.558 E99.32978
G1 X13.309 Y94.502 E99.3486
G1 X12.954 Y94.37 E99.36744
G1 X12.635 Y94.166 E99.38629
G1 X12.366 Y93.9 E99.40511
G1 X12.215 Y93.685 E99.41819
G1 X12.127 Y93.538 E99.42671
G1 X11.968 Y93.195 E99.44553
G1 X11.884 Y92.826 E99.46436
G1 X11.88 Y92.447 E99.48322
G1 X11.955 Y92.076 E99.50206
G1 X12.029 Y91.882 E99.51239
G1 X12.18 Y91.545 E99.53077
G1 X12.37 Y91.217 E99.54964
G1 X12.625 Y90.937 E99.56848
G1 X12.933 Y90.717 E99.58732
G1 X13.28 Y90.566 E99.60615
G1 X13.706 Y90.487 E99.62771
M204 S5000
G0 F2400 X13.731 Y90.885
M204 S200
G1 F1200 X16.307 Y90.722 E99.75617
G1 X16.355 Y90.72 E99.75856
G1 X27.462 Y90.4 E100.31153
G1 X27.794 Y90.43 E100.32812
G1 X28.11 Y90.538 E100.34474
G1 X28.477 Y90.796 E100.36706
G1 X28.497 Y90.815 E100.36844
G1 X28.717 Y90.614 E100.38327
G1 X29.009 Y90.453 E100.39986
G1 X29.331 Y90.366 E100.41646
G1 X29.509 Y90.351 E100.42535
G1 X52.054 Y89.982 E101.54746
G1 X52.063 Y89.982 E101.54791
G1 X87.451 Y89.624 E103.3091
G1 X87.465 Y89.624 E103.3098
G1 X97.307 Y89.625 E103.79959
G1 X97.322 Y89.625 E103.80034
G1 X142.846 Y90.121 E106.06599
G1 X142.857 Y90.121 E106.06654
G1 X157.559 Y90.397 E106.79832
G1 X157.579 Y90.398 E106.79932
G1 X171.074 Y90.838 E107.47126
G1 X171.403 Y90.888 E107.48782
G1 X171.609 Y90.963 E107.49873
G1 X171.889 Y91.091 E107.51405
G1 X172.174 Y91.265 E107.53067
G1 X172.409 Y91.502 E107.54728
G1 X172.581 Y91.788 E107.56389
G1 X172.677 Y92.083 E107.57933
G1 X172.73 Y92.343 E107.59253
G1 X172.757 Y92.676 E107.60916
G1 X172.704 Y93.005 E107.62574
G1 X172.536 Y93.377 E107.64606
G1 X172.448 Y93.514 E107.65416
G1 X172.236 Y93.771 E107.67074
G1 X171.968 Y93.971 E107.68738
G1 X171.505 Y94.137 E107.71186
G1 X171.06 Y94.212 E107.73432
G1 X170.885 Y94.23 E107.74307
G1 X166.739 Y94.398 E107.94957
G1 X166.716 Y94.399 E107.95071
G1 X149.774 Y94.812 E108.79409
G1 X149.76 Y94.812 E108.79479
G1 X125.075 Y95.163 E110.02337
G1 X125.068 Y95.163 E110.02372
G1 X97.54 Y95.424 E111.39373
G1 X97.527 Y95.424 E111.39437
G1 X87.537 Y95.426 E111.89153
G1 X87.522 Y95.426 E111.89228
G1 X48.419 Y95.019 E113.83836
G1 X48.408 Y95.019 E113.83891
G1 X23.376 Y94.551 E115.08486
G1 X23.345 Y94.55 E115.0864
G1 X13.699 Y94.159 E115.56683
G1 X13.37 Y94.106 E115.58342
G1 X13.063 Y93.976 E115.60001
G1 X12.795 Y93.777 E115.61662
G1 X12.557 Y93.481 E115.63552
G1 X12.469 Y93.334 E115.64405
G1 X12.333 Y93.029 E115.66067
G1 X12.274 Y92.701 E115.67725
G1 X12.293 Y92.367 E115.6939
G1 X12.393 Y92.045 E115.71068
