;FLAVOR:Marlin
;TIME:1162
;Filament used: 0.95034m
;Layer height: 0.2
;Generated with Cura_SteamEngine 2.7.0
M190 S60
M104 S220
M109 S220
G21 ;metric values
G90 ;absolute positioning
M82 ;set extruder to absolute mode
M107 ;start with the fan off
G92 E0 ;zero the extruded length
G1 F200 E3 ;extrude 3mm of feed stock
G92 E0 ;zero the extruded length again
G1 F9000
M117 Printing...
;LAYER_COUNT:45
;LAYER:0
M107
M204 S5000
G0 F2400 X41.063 Y87.69 Z0.3
M204 S200
;TYPE:SKIRT
G1 F1200 X41.563 Y87.461 E0.02737
G1 X42.091 Y87.306 E0.05475
G1 X42.636 Y87.23 E0.08214
G1 X42.998 Y87.223 E0.10016
G1 X140.747 Y90.014 E4.96666
G1 X141.295 Y90.069 E4.99407
G1 X141.828 Y90.203 E5.02142
G1 X142.337 Y90.414 E5.04884
G1 X142.81 Y90.695 E5.07622
G1 X143.295 Y91.098 E5.10761
G1 X143.406 Y91.207 E5.11535
G1 X143.77 Y91.62 E5.14274
G1 X144.07 Y92.082 E5.17016
G1 X144.3 Y92.582 E5.19755
G1 X144.455 Y93.11 E5.22493
G1 X144.537 Y93.738 E5.25645
G1 X144.588 Y94.851 E5.3119
G1 X144.573 Y95.402 E5.33933
G1 X144.479 Y95.944 E5.3667
G1 X144.307 Y96.467 E5.3941
G1 X144.061 Y96.959 E5.42148
G1 X143.747 Y97.411 E5.44887
G1 X143.537 Y97.649 E5.46466
G1 X143.42 Y97.771 E5.47307
G1 X143.011 Y98.139 E5.50045
G1 X142.554 Y98.445 E5.52782
G1 X142.056 Y98.681 E5.55525
G1 X141.53 Y98.842 E5.58262
G1 X140.986 Y98.926 E5.61002
G1 X140.685 Y98.938 E5.62501
G1 X43.069 Y98.969 E10.48292
G1 X42.52 Y98.929 E10.51031
G1 X41.983 Y98.81 E10.53768
G1 X41.468 Y98.615 E10.56509
G1 X40.988 Y98.347 E10.59245
G1 X40.448 Y97.918 E10.62677
G1 X40.333 Y97.808 E10.63469
G1 X39.964 Y97.399 E10.6621
G1 X39.657 Y96.942 E10.6895
G1 X39.421 Y96.445 E10.71688
G1 X39.259 Y95.919 E10.74427
G1 X39.166 Y95.246 E10.77808
G1 X38.981 Y91.314 E10.97397
G1 X38.995 Y90.764 E11.00135
G1 X39.089 Y90.222 E11.02873
G1 X39.26 Y89.699 E11.05611
G1 X39.505 Y89.206 E11.08351
G1 X39.819 Y88.754 E11.1109
G1 X40.066 Y88.477 E11.12937
G1 X40.188 Y88.353 E11.13802
G1 X40.601 Y87.99 E11.16539
G1 X41.063 Y87.69 E11.1928
M204 S5000
G0 F2400 X41.305 Y88.013
M204 S200
G1 F1200 X41.782 Y87.806 E11.21868
G1 X42.286 Y87.674 E11.24461
G1 X42.987 Y87.621 E11.27959
G1 X140.736 Y90.412 E16.1461
G1 X141.253 Y90.467 E16.17197
G1 X141.757 Y90.6 E16.19791
G1 X142.234 Y90.809 E16.22383
G1 X142.673 Y91.088 E16.24972
G1 X143.016 Y91.383 E16.27223
G1 X143.127 Y91.492 E16.27997
G1 X143.469 Y91.884 E16.30586
G1 X143.747 Y92.324 E16.33176
G1 X143.955 Y92.801 E16.35766
G1 X144.087 Y93.305 E16.38359
G1 X144.138 Y93.757 E16.40622
G1 X144.189 Y94.87 E16.46167
G1 X144.173 Y95.39 E16.48756
G1 X144.078 Y95.902 E16.51348
G1 X143.905 Y96.393 E16.53938
G1 X143.659 Y96.852 E16.5653
G1 X143.249 Y97.373 E16.59829
G1 X143.132 Y97.495 E16.60671
G1 X142.744 Y97.842 E16.63261
G1 X142.308 Y98.125 E16.65848
G1 X141.833 Y98.339 E16.68441
G1 X141.331 Y98.477 E16.71031
G1 X140.685 Y98.539 E16.74261
G1 X43.069 Y98.57 E21.60052
G1 X42.55 Y98.53 E21.62642
G1 X42.043 Y98.412 E21.65233
G1 X41.561 Y98.217 E21.6782
G1 X41.113 Y97.95 E21.70416
G1 X40.723 Y97.629 E21.72929
G1 X40.608 Y97.519 E21.73721
G1 X40.261 Y97.132 E21.76308
G1 X39.977 Y96.695 E21.78902
G1 X39.763 Y96.221 E21.8149
G1 X39.624 Y95.719 E21.84082
G1 X39.565 Y95.227 E21.86548
G1 X39.38 Y91.295 E22.06138
G1 X39.395 Y90.775 E22.08727
G1 X39.49 Y90.263 E22.11318
G1 X39.662 Y89.772 E22.13907
G1 X39.908 Y89.313 E22.16499
G1 X40.35 Y88.757 E22.20033
G1 X40.472 Y88.633 E22.20899
G1 X40.865 Y88.291 E22.23492
G1 X41.305 Y88.013 E22.26082
M204 S5000
G0 F2400 X41.544 Y88.339
M204 S200
G1 F1200 X41.997 Y88.155 E22.28515
G1 X42.474 Y88.048 E22.30948
G1 X42.975 Y88.02 E22.33445
G1 X140.724 Y90.811 E27.20096
G1 X141.21 Y90.865 E27.22529
G1 X141.681 Y90.997 E27.24964
G1 X142.124 Y91.204 E27.27397
G1 X142.527 Y91.481 E27.29831
G1 X142.736 Y91.667 E27.31223
G1 X142.847 Y91.776 E27.31997
G1 X143.167 Y92.146 E27.34432
G1 X143.422 Y92.563 E27.36864
G1 X143.606 Y93.016 E27.39297
G1 X143.714 Y93.493 E27.41731
G1 X143.74 Y93.775 E27.43141
G1 X143.791 Y94.888 E27.48685
G1 X143.773 Y95.377 E27.51121
G1 X143.676 Y95.856 E27.53553
G1 X143.503 Y96.313 E27.55984
G1 X143.257 Y96.736 E27.5842
G1 X142.961 Y97.097 E27.60743
G1 X142.844 Y97.219 E27.61584
G1 X142.478 Y97.543 E27.64017
G1 X142.064 Y97.803 E27.6645
G1 X141.613 Y97.992 E27.68883
G1 X141.138 Y98.105 E27.71313
G1 X140.685 Y98.14 E27.73574
G1 X43.069 Y98.171 E32.59365
G1 X42.582 Y98.131 E32.61796
G1 X42.107 Y98.013 E32.64232
G1 X41.659 Y97.818 E32.66664
G1 X41.248 Y97.554 E32.69095
G1 X40.999 Y97.341 E32.70725
G1 X40.884 Y97.231 E32.71517
G1 X40.56 Y96.865 E32.7395
G1 X40.299 Y96.452 E32.76381
G1 X40.109 Y96.001 E32.78817
G1 X39.995 Y95.526 E32.81248
G1 X39.963 Y95.209 E32.82833
G1 X39.778 Y91.277 E33.02423
G1 X39.795 Y90.788 E33.04858
G1 X39.892 Y90.309 E33.0729
G1 X40.065 Y89.851 E33.09726
G1 X40.31 Y89.428 E33.12159
G1 X40.634 Y89.037 E33.14686
G1 X40.756 Y88.913 E33.15552
G1 X41.127 Y88.594 E33.17987
G1 X41.544 Y88.339 E33.20419
M204 S5000
G0 F2400 X41.78 Y88.667
M204 S200
G1 F1200 X42.207 Y88.51 E33.22683
G1 X42.655 Y88.429 E33.24949
G1 X42.964 Y88.419 E33.26487
G1 X140.713 Y91.21 E38.13138
G1 X141.165 Y91.263 E38.15403
G1 X141.601 Y91.394 E38.17669
G1 X142.007 Y91.599 E38.19932
G1 X142.456 Y91.952 E38.22774
G1 X142.567 Y92.061 E38.23549
G1 X142.863 Y92.407 E38.25815
G1 X143.093 Y92.8 E38.28081
G1 X143.252 Y93.226 E38.30344
G1 X143.341 Y93.793 E38.332
G1 X143.392 Y94.906 E38.38745
G1 X143.373 Y95.361 E38.41011
G1 X143.275 Y95.805 E38.43274
G1 X143.1 Y96.226 E38.45543
G1 X142.855 Y96.609 E38.47805
G1 X142.673 Y96.82 E38.49192
G1 X142.556 Y96.942 E38.50033
G1 X142.214 Y97.242 E38.52297
G1 X141.824 Y97.477 E38.54563
G1 X141.399 Y97.64 E38.56828
G1 X140.952 Y97.727 E38.59095
G1 X140.685 Y97.741 E38.60425
G1 X43.069 Y97.772 E43.46216
G1 X42.615 Y97.732 E43.48484
G1 X42.176 Y97.614 E43.50746
G1 X41.764 Y97.42 E43.53013
G1 X41.275 Y97.053 E43.56055
G1 X41.16 Y96.943 E43.56847
G1 X40.86 Y96.6 E43.59115
G1 X40.624 Y96.211 E43.61379
G1 X40.46 Y95.786 E43.63646
G1 X40.362 Y95.19 E43.66652
G1 X40.177 Y91.258 E43.86241
G1 X40.195 Y90.803 E43.88508
G1 X40.293 Y90.359 E43.9077
G1 X40.467 Y89.938 E43.93037
G1 X40.712 Y89.554 E43.95304
G1 X40.919 Y89.317 E43.9687
G1 X41.041 Y89.193 E43.97736
G1 X41.387 Y88.898 E43.99999
G1 X41.78 Y88.667 E44.02267
M204 S5000
G0 F2400 X41.325 Y89.473
M204 S200
G1 F1200 X41.646 Y89.204 E44.04351
G1 X42.012 Y89 E44.06437
G1 X42.41 Y88.87 E44.0852
G1 X42.953 Y88.818 E44.11235
G1 X140.702 Y91.609 E48.97886
G1 X141.117 Y91.661 E48.99967
G1 X141.515 Y91.79 E49.02049
G1 X141.881 Y91.993 E49.04132
G1 X142.177 Y92.237 E49.06041
G1 X142.288 Y92.346 E49.06815
G1 X142.557 Y92.666 E49.08896
G1 X142.761 Y93.032 E49.10981
G1 X142.891 Y93.43 E49.13065
G1 X142.943 Y93.812 E49.14983
G1 X142.994 Y94.925 E49.20528
G1 X142.973 Y95.343 E49.22611
G1 X142.873 Y95.749 E49.24692
G1 X142.698 Y96.129 E49.26774
G1 X142.385 Y96.544 E49.2936
G1 X142.268 Y96.666 E49.30202
G1 X141.951 Y96.939 E49.32284
G1 X141.588 Y97.147 E49.34366
G1 X141.192 Y97.282 E49.36448
G1 X140.685 Y97.342 E49.38988
G1 X43.069 Y97.373 E54.24779
G1 X42.652 Y97.333 E54.26864
G1 X42.25 Y97.215 E54.28949
G1 X41.879 Y97.023 E54.31028
G1 X41.551 Y96.764 E54.33108
G1 X41.436 Y96.654 E54.339
G1 X41.162 Y96.337 E54.35985
G1 X40.954 Y95.974 E54.38067
G1 X40.818 Y95.578 E54.40151
G1 X40.76 Y95.171 E54.42196
G1 X40.575 Y91.239 E54.61786
G1 X40.596 Y90.821 E54.63869
G1 X40.695 Y90.414 E54.65953
G1 X40.87 Y90.034 E54.68035
G1 X41.203 Y89.597 E54.70769
G1 X41.325 Y89.473 E54.71635
M204 S5000
G0 F2400 X41.488 Y89.876
M204 S200
G1 F1200 X41.61 Y89.752 E54.72501
G1 X41.902 Y89.512 E54.74382
G1 X42.238 Y89.338 E54.76265
G1 X42.604 Y89.239 E54.78152
G1 X42.941 Y89.217 E54.79832
G1 X140.69 Y92.008 E59.66483
G1 X141.065 Y92.058 E59.68366
G1 X141.422 Y92.186 E59.70253
G1 X141.743 Y92.386 E59.72135
G1 X141.897 Y92.522 E59.73158
G1 X142.008 Y92.631 E59.73932
G1 X142.249 Y92.923 E59.75816
G1 X142.423 Y93.259 E59.77699
G1 X142.523 Y93.624 E59.79583
G1 X142.544 Y93.83 E59.80613
G1 X142.595 Y94.943 E59.86158
G1 X142.573 Y95.321 E59.88042
G1 X142.471 Y95.685 E59.89923
G1 X142.296 Y96.021 E59.91809
G1 X142.097 Y96.268 E59.93387
G1 X141.98 Y96.39 E59.94228
G1 X141.691 Y96.634 E59.96111
G1 X141.357 Y96.812 E59.97994
G1 X140.993 Y96.916 E59.99878
G1 X140.685 Y96.943 E60.01417
G1 X43.069 Y96.974 E64.87208
G1 X42.692 Y96.934 E64.89094
G1 X42.332 Y96.816 E64.9098
G1 X42.005 Y96.626 E64.92862
G1 X41.827 Y96.476 E64.9402
G1 X41.712 Y96.366 E64.94812
G1 X41.467 Y96.077 E64.96697
G1 X41.289 Y95.743 E64.98581
G1 X41.184 Y95.379 E65.00466
G1 X41.159 Y95.152 E65.01603
G1 X40.974 Y91.22 E65.21192
G1 X40.996 Y90.843 E65.23072
G1 X41.097 Y90.478 E65.24956
G1 X41.272 Y90.142 E65.26842
G1 X41.488 Y89.876 E65.28547
M204 S5000
G0 F2400 X41.894 Y90.032
M204 S200
G1 F1200 X42.155 Y89.824 E65.30208
G1 X42.458 Y89.684 E65.31869
G1 X42.93 Y89.616 E65.34242
G1 X140.679 Y92.407 E70.20893
G1 X141.009 Y92.456 E70.22553
G1 X141.318 Y92.582 E70.24214
G1 X141.618 Y92.806 E70.26077
G1 X141.729 Y92.915 E70.26851
G1 X141.937 Y93.176 E70.28512
G1 X142.078 Y93.478 E70.30171
G1 X142.146 Y93.848 E70.32043
G1 X142.197 Y94.961 E70.37588
G1 X142.172 Y95.294 E70.39249
G1 X142.069 Y95.611 E70.40908
G1 X141.809 Y95.992 E70.43204
G1 X141.692 Y96.114 E70.44045
G1 X141.434 Y96.325 E70.45704
G1 X141.133 Y96.47 E70.47366
G1 X140.684 Y96.544 E70.49631
G1 X43.068 Y96.575 E75.35422
G1 X42.737 Y96.535 E75.37081
G1 X42.425 Y96.418 E75.38739
G1 X42.102 Y96.188 E75.40712
G1 X41.987 Y96.078 E75.41504
G1 X41.775 Y95.82 E75.43166
G1 X41.631 Y95.519 E75.44827
G1 X41.558 Y95.134 E75.46777
G1 X41.373 Y91.202 E75.66366
G1 X41.397 Y90.869 E75.68028
G1 X41.499 Y90.551 E75.6969
G1 X41.772 Y90.156 E75.72079
G1 X41.894 Y90.032 E75.72945
M204 S5000
G0 F2400 X42.057 Y90.436
M204 S200
G1 F1200 X42.179 Y90.312 E75.73811
G1 X42.403 Y90.141 E75.75213
G1 X42.666 Y90.04 E75.76615
G1 X42.918 Y90.014 E75.77876
G1 X140.667 Y92.805 E80.64527
G1 X140.945 Y92.853 E80.65931
G1 X141.199 Y92.977 E80.67337
G1 X141.338 Y93.091 E80.68232
G1 X141.449 Y93.2 E80.69006
G1 X141.62 Y93.424 E80.70408
G1 X141.722 Y93.687 E80.71812
G1 X141.747 Y93.866 E80.72712
G1 X141.798 Y94.979 E80.78256
G1 X141.771 Y95.26 E80.79661
G1 X141.667 Y95.522 E80.81064
G1 X141.521 Y95.716 E80.82272
G1 X141.404 Y95.838 E80.83114
G1 X141.182 Y96.012 E80.84517
G1 X140.921 Y96.116 E80.85916
G1 X140.684 Y96.145 E80.87104
G1 X43.068 Y96.176 E85.72894
G1 X42.789 Y96.136 E85.74297
G1 X42.532 Y96.02 E85.757
G1 X42.378 Y95.899 E85.76675
G1 X42.263 Y95.789 E85.77467
G1 X42.089 Y95.568 E85.78867
G1 X41.984 Y95.306 E85.80271
G1 X41.956 Y95.115 E85.81232
G1 X41.771 Y91.183 E86.00822
G1 X41.798 Y90.902 E86.02226
G1 X41.902 Y90.64 E86.03629
G1 X42.057 Y90.436 E86.04904
M204 S5000
G0 F2400 X42.463 Y90.592
M204 S200
G1 F1200 X42.642 Y90.467 E86.05991
G1 X42.907 Y90.413 E86.07337
G1 X140.656 Y93.204 E90.93987
G1 X140.869 Y93.25 E90.95072
G1 X141.059 Y93.376 E90.96206
G1 X141.17 Y93.485 E90.96981
G1 X141.295 Y93.663 E90.98063
G1 X141.348 Y93.885 E90.99199
G1 X141.399 Y94.998 E91.04744
G1 X141.37 Y95.214 E91.05828
G1 X141.233 Y95.44 E91.07143
G1 X141.116 Y95.562 E91.07985
G1 X140.939 Y95.689 E91.09069
G1 X140.684 Y95.746 E91.10369
G1 X43.068 Y95.777 E95.9616
G1 X42.854 Y95.737 E95.97243
G1 X42.654 Y95.611 E95.9842
G1 X42.539 Y95.501 E95.99212
G1 X42.411 Y95.324 E96.00299
G1 X42.355 Y95.096 E96.01467
G1 X42.17 Y91.164 E96.21056
G1 X42.199 Y90.948 E96.22141
G1 X42.341 Y90.716 E96.23495
G1 X42.463 Y90.592 E96.2436
M204 S5000
G0 F2400 X42.747 Y90.872
M204 S200
G1 F1200 X42.896 Y90.812 E96.2516
G1 X140.645 Y93.603 E101.1181
G1 X140.779 Y93.66 E101.12535
G1 X140.89 Y93.769 E101.13309
G1 X140.95 Y93.903 E101.1404
G1 X141.001 Y95.016 E101.19585
G1 X140.945 Y95.163 E101.20368
G1 X140.828 Y95.285 E101.21209
G1 X140.684 Y95.347 E101.21989
G1 X43.068 Y95.378 E106.0778
G1 X42.93 Y95.323 E106.08519
G1 X42.815 Y95.213 E106.09311
G1 X42.753 Y95.077 E106.10055
G1 X42.568 Y91.145 E106.29644
G1 X42.625 Y90.996 E106.30438
G1 X42.747 Y90.872 E106.31304
M204 S5000
G0 F2400 X43.185 Y91.219
M204 S200
;TYPE:WALL-OUTER
G1 F1200 X140.555 Y94 E111.16068
G1 X140.589 Y94.74 E111.19754
G1 X140.598 Y94.948 E111.2079
G1 X140.39 Y94.948 E111.21452
G1 X43.148 Y94.979 E116.05382
G1 X42.981 Y91.427 E116.23078
G1 X42.971 Y91.213 E116.24144
G1 X43.185 Y91.219 E116.2482
M204 S5000
G0 F2400 X43.384 Y91.224
G0 X43.603 Y91.629
M204 S200
;TYPE:WALL-INNER
G1 F1200 X132.005 Y94.154 E120.64936
G1 X140.174 Y94.387 E121.05606
G1 X140.181 Y94.55 E121.06418
G1 X132.008 Y94.552 E121.35079
G1 X43.528 Y94.581 E125.75404
G1 X43.399 Y91.837 E125.89075
G1 X43.389 Y91.623 E125.90141
G1 X43.603 Y91.629 E125.90817
M204 S5000
G0 F2400 X43.6 Y91.728
G0 X44.179 Y94.399
M204 S200
;TYPE:SKIN
G1 F1200 X43.675 Y93.896 E125.9436
M204 S5000
G0 F2400 X43.648 Y93.304
M204 S200
G1 F1200 X44.743 Y94.399 E126.02067
G1 X44.813 Y94.469
M204 S5000
G0 F2400 X45.307 Y94.399
M204 S200
G1 F1200 X43.62 Y92.711 E126.13943
G1 X43.551 Y92.641
M204 S5000
G0 F2400 X43.592 Y92.119
M204 S200
G1 F1200 X45.872 Y94.399 E126.2999
G1 X45.942 Y94.469
M204 S5000
G0 F2400 X46.435 Y94.398
M204 S200
G1 F1200 X43.852 Y91.815 E126.48168
G1 X43.782 Y91.745
M204 S5000
G0 F2400 X44.433 Y91.831
M204 S200
G1 F1200 X46.999 Y94.398 E126.66231
G1 X47.069 Y94.468
M204 S5000
G0 F2400 X47.564 Y94.398
M204 S200
G1 F1200 X45.014 Y91.848 E126.84178
G1 X44.944 Y91.778
M204 S5000
G0 F2400 X45.594 Y91.865
M204 S200
G1 F1200 X48.128 Y94.398 E127.02008
G1 X48.198 Y94.468
M204 S5000
G0 F2400 X48.692 Y94.398
M204 S200
G1 F1200 X46.176 Y91.882 E127.19716
G1 X46.106 Y91.812
M204 S5000
G0 F2400 X46.756 Y91.898
M204 S200
G1 F1200 X49.256 Y94.398 E127.37311
G1 X49.326 Y94.468
M204 S5000
G0 F2400 X49.82 Y94.398
M204 S200
G1 F1200 X47.337 Y91.914 E127.54789
G1 X47.268 Y91.844
M204 S5000
G0 F2400 X47.918 Y91.931
M204 S200
G1 F1200 X50.384 Y94.398 E127.72148
G1 X50.453 Y94.468
M204 S5000
G0 F2400 X50.948 Y94.397
M204 S200
G1 F1200 X48.499 Y91.947 E127.89387
G1 X48.43 Y91.877
M204 S5000
G0 F2400 X49.08 Y91.964
M204 S200
G1 F1200 X51.512 Y94.397 E128.06507
G1 X51.581 Y94.467
M204 S5000
G0 F2400 X52.077 Y94.397
M204 S200
G1 F1200 X49.66 Y91.981 E128.23514
G1 X49.59 Y91.912
M204 S5000
G0 F2400 X50.242 Y91.998
M204 S200
G1 F1200 X52.641 Y94.397 E128.40398
G1 X52.711 Y94.467
M204 S5000
G0 F2400 X53.204 Y94.396
M204 S200
G1 F1200 X50.822 Y92.014 E128.57162
G1 X50.752 Y91.944
M204 S5000
G0 F2400 X51.403 Y92.031
M204 S200
G1 F1200 X53.769 Y94.396 E128.73811
G1 X53.839 Y94.465
M204 S5000
G0 F2400 X54.333 Y94.396
M204 S200
G1 F1200 X51.984 Y92.047 E128.90343
G1 X51.914 Y91.977
M204 S5000
G0 F2400 X52.565 Y92.064
M204 S200
G1 F1200 X54.897 Y94.396 E129.06755
G1 X54.967 Y94.466
M204 S5000
G0 F2400 X55.461 Y94.395
M204 S200
G1 F1200 X53.146 Y92.08 E129.23048
G1 X53.076 Y92.01
M204 S5000
G0 F2400 X53.727 Y92.097
M204 S200
G1 F1200 X56.025 Y94.395 E129.39221
G1 X56.095 Y94.465
M204 S5000
G0 F2400 X56.589 Y94.395
M204 S200
G1 F1200 X54.307 Y92.114 E129.55278
G1 X54.237 Y92.045
M204 S5000
G0 F2400 X54.889 Y92.131
M204 S200
G1 F1200 X57.154 Y94.395 E129.71215
G1 X57.224 Y94.464
M204 S5000
G0 F2400 X57.717 Y94.395
M204 S200
G1 F1200 X55.469 Y92.147 E129.87036
G1 X55.399 Y92.077
M204 S5000
G0 F2400 X56.05 Y92.164
M204 S200
G1 F1200 X58.281 Y94.395 E130.02738
G1 X58.351 Y94.465
M204 S5000
G0 F2400 X58.846 Y94.395
M204 S200
G1 F1200 X56.631 Y92.18 E130.18327
G1 X56.561 Y92.11
M204 S5000
G0 F2400 X57.212 Y92.197
M204 S200
G1 F1200 X59.41 Y94.395 E130.33796
G1 X59.48 Y94.465
M204 S5000
G0 F2400 X59.974 Y94.395
M204 S200
G1 F1200 X57.793 Y92.213 E130.49149
G1 X57.724 Y92.143
M204 S5000
G0 F2400 X58.374 Y92.23
M204 S200
G1 F1200 X60.538 Y94.394 E130.64379
G1 X60.608 Y94.464
M204 S5000
G0 F2400 X61.102 Y94.394
M204 S200
G1 F1200 X58.955 Y92.247 E130.7949
G1 X58.885 Y92.177
M204 S5000
G0 F2400 X59.536 Y92.263
M204 S200
G1 F1200 X61.666 Y94.394 E130.94484
G1 X61.736 Y94.464
M204 S5000
G0 F2400 X62.231 Y94.394
M204 S200
G1 F1200 X60.116 Y92.28 E131.09366
G1 X60.046 Y92.211
M204 S5000
G0 F2400 X60.698 Y92.297
M204 S200
G1 F1200 X62.794 Y94.393 E131.24117
G1 X62.864 Y94.463
M204 S5000
