;FLAVOR:Marlin
;TIME:2825
;Filament used: 2.26041m
;Layer height: 0.2
;Generated with Cura_SteamEngine 2.7.0
M190 S60
M104 S220
M109 S220
G21 ;metric values
G90 ;absolute positioning
M82 ;set extruder to absolute mode
M107 ;start with the fan off
G92 E0 ;zero the extruded length
G1 F200 E3 ;extrude 3mm of feed stock
G92 E0 ;zero the extruded length again
G1 F9000
M117 Printing...
;LAYER_COUNT:158
;LAYER:0
M107
M204 S5000
G0 F2400 X88.92 Y45.313 Z0.3
G0 X88.673 Y45.804
M204 S200
;TYPE:SKIRT
G1 F1200 X88.92 Y45.313 E0.02735
G1 X89.277 Y44.813 E0.05793
G1 X89.473 Y44.581 E0.07304
G1 X89.858 Y44.188 E0.10042
G1 X90.296 Y43.854 E0.12783
G1 X90.777 Y43.588 E0.15519
G1 X91.292 Y43.393 E0.18259
G1 X91.829 Y43.276 E0.20994
G1 X92.145 Y43.244 E0.22575
G1 X92.382 Y43.23 E0.23756
G1 X92.933 Y43.237 E0.26499
G1 X93.476 Y43.324 E0.29235
G1 X94.001 Y43.489 E0.31974
G1 X94.497 Y43.728 E0.34714
G1 X94.953 Y44.037 E0.37455
G1 X95.321 Y44.368 E0.39918
G1 X95.514 Y44.566 E0.41294
G1 X95.868 Y44.987 E0.44032
G1 X96.158 Y45.455 E0.46772
G1 X96.284 Y45.72 E0.48232
G1 X96.561 Y46.367 E0.51734
G1 X96.789 Y47.092 E0.55517
G1 X97.276 Y49.449 E0.67494
G1 X97.328 Y49.77 E0.69112
G1 X97.733 Y53.189 E0.86246
G1 X97.747 Y53.336 E0.86981
G1 X98.159 Y58.552 E1.1302
G1 X98.166 Y58.664 E1.13578
G1 X98.792 Y71.316 E1.76618
G1 X98.795 Y71.382 E1.76947
G1 X99.303 Y87.231 E2.55861
G1 X99.304 Y87.252 E2.55966
G1 X99.914 Y110.462 E3.71511
G1 X100.344 Y118.703 E4.12579
G1 X100.349 Y118.866 E4.1339
G1 X100.38 Y122.192 E4.29943
G1 X100.378 Y122.353 E4.30744
G1 X100.137 Y129.623 E4.66944
G1 X100.126 Y129.814 E4.67896
G1 X99.944 Y131.982 E4.78723
G1 X99.896 Y132.343 E4.80535
G1 X99.377 Y135.199 E4.94981
G1 X99.223 Y135.78 E4.97972
G1 X98.742 Y137.146 E5.05179
G1 X98.525 Y137.644 E5.07883
G1 X98.187 Y138.29 E5.11511
G1 X97.87 Y138.796 E5.14482
G1 X97.417 Y139.405 E5.1826
G1 X97.057 Y139.821 E5.20997
G1 X96.851 Y140.013 E5.22399
G1 X96.32 Y140.471 E5.25889
G1 X95.878 Y140.799 E5.28628
G1 X95.436 Y141.04 E5.31133
G1 X94.803 Y141.333 E5.34604
G1 X94.289 Y141.528 E5.3734
G1 X93.72 Y141.65 E5.40236
G1 X92.974 Y141.751 E5.43983
G1 X92.424 Y141.785 E5.46725
G1 X92.034 Y141.76 E5.4867
G1 X91.527 Y141.702 E5.51209
G1 X90.751 Y141.53 E5.55165
G1 X90.251 Y141.362 E5.5779
G1 X89.743 Y141.149 E5.60531
G1 X89.424 Y140.967 E5.62359
G1 X88.883 Y140.623 E5.65549
G1 X88.441 Y140.295 E5.68288
G1 X88.076 Y139.934 E5.70843
G1 X87.448 Y139.223 E5.75564
G1 X87.114 Y138.785 E5.78305
G1 X86.922 Y138.456 E5.80201
G1 X86.336 Y137.324 E5.86545
G1 X86.068 Y136.659 E5.90113
G1 X85.545 Y134.895 E5.99269
G1 X85.437 Y134.418 E6.01703
G1 X85.091 Y132.264 E6.1256
G1 X85.056 Y131.982 E6.13974
G1 X84.873 Y129.816 E6.24792
G1 X84.862 Y129.622 E6.25759
G1 X84.622 Y122.351 E6.61963
G1 X84.62 Y122.204 E6.62694
G1 X84.637 Y119.302 E6.77137
G1 X84.642 Y119.132 E6.77983
G1 X85.095 Y110.223 E7.22376
G1 X85.864 Y81.437 E8.65682
G1 X85.866 Y81.393 E8.65901
G1 X86.534 Y63.966 E9.52691
G1 X86.537 Y63.892 E9.5306
G1 X86.867 Y58.196 E9.81454
G1 X86.874 Y58.097 E9.81948
G1 X87.371 Y52.192 E10.11438
G1 X87.397 Y51.966 E10.1257
G1 X87.938 Y48.235 E10.31332
G1 X88.016 Y47.846 E10.33306
G1 X88.249 Y46.928 E10.3802
G1 X88.423 Y46.405 E10.40763
G1 X88.673 Y45.804 E10.44002
M204 S5000
G0 F2400 X89.041 Y45.957
M204 S200
G1 F1200 X89.277 Y45.493 E10.46593
G1 X89.582 Y45.071 E10.49184
G1 X89.778 Y44.839 E10.50695
G1 X90.143 Y44.468 E10.53285
G1 X90.561 Y44.158 E10.55875
G1 X91.022 Y43.915 E10.58469
G1 X91.514 Y43.746 E10.61058
G1 X92.169 Y43.642 E10.64358
G1 X92.406 Y43.628 E10.6554
G1 X92.926 Y43.637 E10.68128
G1 X93.439 Y43.726 E10.70719
G1 X93.933 Y43.892 E10.73312
G1 X94.395 Y44.132 E10.75903
G1 X94.815 Y44.44 E10.78495
G1 X95.035 Y44.646 E10.79995
G1 X95.228 Y44.844 E10.81371
G1 X95.562 Y45.244 E10.83964
G1 X95.917 Y45.877 E10.87576
G1 X96.194 Y46.524 E10.91079
G1 X96.398 Y47.173 E10.94464
G1 X96.885 Y49.53 E11.06442
G1 X96.931 Y49.817 E11.07888
G1 X97.336 Y53.236 E11.25022
G1 X97.349 Y53.368 E11.25682
G1 X97.761 Y58.584 E11.51721
G1 X97.768 Y58.683 E11.52214
G1 X98.394 Y71.335 E12.15255
G1 X98.396 Y71.394 E12.15549
G1 X98.904 Y87.243 E12.94462
G1 X98.905 Y87.263 E12.94562
G1 X99.515 Y110.493 E14.10207
G1 X99.945 Y118.724 E14.51225
G1 X99.95 Y118.869 E14.51947
G1 X99.981 Y122.195 E14.685
G1 X99.979 Y122.339 E14.69216
G1 X99.738 Y129.609 E15.05416
G1 X99.728 Y129.781 E15.06273
G1 X99.546 Y131.949 E15.171
G1 X99.503 Y132.271 E15.18717
G1 X98.984 Y135.127 E15.33163
G1 X98.846 Y135.648 E15.35845
G1 X98.365 Y137.014 E15.43052
G1 X98.171 Y137.46 E15.45472
G1 X97.833 Y138.106 E15.49101
G1 X97.55 Y138.557 E15.5175
G1 X97.097 Y139.166 E15.55528
G1 X96.59 Y139.711 E15.59232
G1 X96.059 Y140.169 E15.62722
G1 X95.64 Y140.477 E15.6531
G1 X95.269 Y140.678 E15.67409
G1 X94.636 Y140.971 E15.70881
G1 X94.148 Y141.153 E15.73473
G1 X93.666 Y141.254 E15.75923
G1 X92.92 Y141.355 E15.7967
G1 X92.4 Y141.385 E15.82262
G1 X92.079 Y141.364 E15.83863
G1 X91.572 Y141.306 E15.86402
G1 X90.878 Y141.151 E15.89941
G1 X90.378 Y140.983 E15.92566
G1 X89.898 Y140.78 E15.9516
G1 X89.638 Y140.63 E15.96654
G1 X89.097 Y140.286 E15.99844
G1 X88.68 Y139.974 E16.02436
G1 X88.375 Y139.67 E16.04579
G1 X87.747 Y138.959 E16.093
G1 X87.433 Y138.543 E16.11894
G1 X87.277 Y138.272 E16.1345
G1 X86.691 Y137.14 E16.19793
G1 X86.451 Y136.545 E16.22986
G1 X85.928 Y134.781 E16.32142
G1 X85.831 Y134.355 E16.34317
G1 X85.485 Y132.201 E16.45174
G1 X85.454 Y131.949 E16.46437
G1 X85.271 Y129.783 E16.57255
G1 X85.261 Y129.609 E16.58122
G1 X85.021 Y122.338 E16.94326
G1 X85.019 Y122.206 E16.94983
G1 X85.036 Y119.304 E17.09426
G1 X85.04 Y119.152 E17.10182
G1 X85.494 Y110.213 E17.54725
G1 X86.263 Y81.447 E18.97931
G1 X86.264 Y81.408 E18.98126
G1 X86.932 Y63.981 E19.84916
G1 X86.936 Y63.915 E19.85245
G1 X87.266 Y58.219 E20.13639
G1 X87.272 Y58.131 E20.14078
G1 X87.769 Y52.226 E20.43568
G1 X87.792 Y52.023 E20.44585
G1 X88.333 Y48.292 E20.63346
G1 X88.402 Y47.945 E20.65107
G1 X88.635 Y47.027 E20.6982
G1 X88.791 Y46.558 E20.7228
G1 X89.041 Y45.957 E20.75519
M204 S5000
G0 F2400 X89.41 Y46.11
M204 S200
G1 F1200 X89.634 Y45.676 E20.7795
G1 X89.887 Y45.328 E20.80091
G1 X90.083 Y45.096 E20.81602
G1 X90.428 Y44.75 E20.84034
G1 X90.824 Y44.464 E20.86465
G1 X91.262 Y44.247 E20.88898
G1 X91.73 Y44.104 E20.91333
G1 X92.193 Y44.04 E20.93659
G1 X92.43 Y44.026 E20.9484
G1 X92.918 Y44.037 E20.9727
G1 X93.399 Y44.128 E20.99706
G1 X93.858 Y44.295 E21.02137
G1 X94.284 Y44.536 E21.04572
G1 X94.749 Y44.925 E21.07589
G1 X94.942 Y45.123 E21.08965
G1 X95.254 Y45.5 E21.11401
G1 X95.55 Y46.034 E21.14439
G1 X95.827 Y46.681 E21.17942
G1 X96.007 Y47.253 E21.20926
G1 X96.494 Y49.61 E21.32903
G1 X96.535 Y49.864 E21.34184
G1 X96.94 Y53.283 E21.51318
G1 X96.952 Y53.399 E21.51898
G1 X97.364 Y58.615 E21.77936
G1 X97.369 Y58.703 E21.78375
G1 X97.995 Y71.355 E22.41415
G1 X97.997 Y71.407 E22.41674
G1 X98.505 Y87.256 E23.20588
G1 X98.506 Y87.273 E23.20673
G1 X99.116 Y110.487 E24.36238
G1 X99.547 Y118.745 E24.77391
G1 X99.551 Y118.873 E24.78028
G1 X99.582 Y122.199 E24.94581
G1 X99.58 Y122.326 E24.95213
G1 X99.339 Y129.596 E25.31412
G1 X99.331 Y129.747 E25.32165
G1 X99.149 Y131.915 E25.42992
G1 X99.111 Y132.2 E25.44423
G1 X98.592 Y135.056 E25.58868
G1 X98.47 Y135.515 E25.61232
G1 X97.989 Y136.881 E25.68439
G1 X97.818 Y137.275 E25.70576
G1 X97.48 Y137.921 E25.74205
G1 X97.229 Y138.319 E25.76546
G1 X96.776 Y138.928 E25.80324
G1 X96.33 Y139.408 E25.83584
G1 X95.799 Y139.866 E25.87074
G1 X95.404 Y140.154 E25.89507
G1 X95.101 Y140.316 E25.91217
G1 X94.468 Y140.609 E25.94688
G1 X94.009 Y140.778 E25.97122
G1 X93.613 Y140.859 E25.99134
G1 X92.867 Y140.96 E26.0288
G1 X92.378 Y140.986 E26.05317
G1 X92.125 Y140.968 E26.06579
G1 X91.618 Y140.91 E26.09119
G1 X91.005 Y140.773 E26.12245
G1 X90.505 Y140.605 E26.1487
G1 X89.852 Y140.294 E26.18469
G1 X89.311 Y139.95 E26.2166
G1 X88.921 Y139.654 E26.24096
G1 X88.674 Y139.405 E26.25842
G1 X88.046 Y138.694 E26.30563
G1 X87.753 Y138.303 E26.32994
G1 X87.631 Y138.089 E26.3422
G1 X87.045 Y136.957 E26.40563
G1 X86.833 Y136.432 E26.43381
G1 X86.31 Y134.668 E26.52537
G1 X86.225 Y134.292 E26.54456
G1 X85.879 Y132.138 E26.65313
G1 X85.852 Y131.915 E26.66431
G1 X85.669 Y129.749 E26.77248
G1 X85.66 Y129.596 E26.78011
G1 X85.42 Y122.325 E27.14215
G1 X85.418 Y122.208 E27.14798
G1 X85.435 Y119.306 E27.2924
G1 X85.439 Y119.172 E27.29907
G1 X85.893 Y110.243 E27.744
G1 X86.662 Y81.458 E29.17701
G1 X86.663 Y81.423 E29.17875
G1 X87.331 Y63.996 E30.04665
G1 X87.334 Y63.938 E30.04954
G1 X87.664 Y58.242 E30.33348
G1 X87.67 Y58.164 E30.33737
G1 X88.167 Y52.259 E30.63228
G1 X88.187 Y52.081 E30.64119
G1 X88.728 Y48.35 E30.82881
G1 X88.789 Y48.043 E30.84439
G1 X89.022 Y47.125 E30.89152
G1 X89.16 Y46.711 E30.91324
G1 X89.41 Y46.11 E30.94563
M204 S5000
G0 F2400 X89.778 Y46.264
M204 S200
G1 F1200 X89.989 Y45.86 E30.96831
G1 X90.191 Y45.586 E30.98525
G1 X90.387 Y45.354 E31.00037
G1 X90.711 Y45.033 E31.02306
G1 X91.085 Y44.774 E31.0457
G1 X91.498 Y44.584 E31.06833
G1 X91.939 Y44.47 E31.091
G1 X92.216 Y44.439 E31.10487
G1 X92.453 Y44.425 E31.11668
G1 X92.908 Y44.438 E31.13933
G1 X93.354 Y44.53 E31.162
G1 X93.776 Y44.699 E31.18462
G1 X94.163 Y44.939 E31.20728
G1 X94.464 Y45.203 E31.22721
G1 X94.657 Y45.401 E31.24097
G1 X94.944 Y45.754 E31.26361
G1 X95.184 Y46.191 E31.28842
G1 X95.461 Y46.838 E31.32344
G1 X95.616 Y47.334 E31.3493
G1 X96.103 Y49.691 E31.46908
G1 X96.139 Y49.911 E31.48017
G1 X96.544 Y53.33 E31.65151
G1 X96.554 Y53.431 E31.65656
G1 X96.966 Y58.647 E31.91695
G1 X96.971 Y58.723 E31.92074
G1 X97.597 Y71.375 E32.55114
G1 X97.599 Y71.42 E32.55338
G1 X98.107 Y87.269 E33.34252
G1 X98.107 Y87.284 E33.34327
G1 X98.717 Y110.518 E34.49992
G1 X99.148 Y118.766 E34.91094
G1 X99.152 Y118.877 E34.91647
G1 X99.183 Y122.203 E35.082
G1 X99.182 Y122.313 E35.08747
G1 X98.941 Y129.583 E35.44947
G1 X98.933 Y129.714 E35.456
G1 X98.751 Y131.882 E35.56427
G1 X98.718 Y132.129 E35.57667
G1 X98.199 Y134.985 E35.72113
G1 X98.094 Y135.383 E35.74161
G1 X97.613 Y136.749 E35.81368
G1 X97.464 Y137.09 E35.8322
G1 X97.126 Y137.736 E35.86848
G1 X96.909 Y138.081 E35.88877
G1 X96.456 Y138.69 E35.92654
G1 X96.069 Y139.106 E35.95482
G1 X95.538 Y139.564 E35.98971
G1 X95.169 Y139.83 E36.01235
G1 X94.934 Y139.954 E36.02557
G1 X94.301 Y140.247 E36.06029
G1 X93.872 Y140.401 E36.08297
G1 X93.559 Y140.464 E36.09886
G1 X92.813 Y140.565 E36.13632
G1 X92.17 Y140.571 E36.16832
G1 X91.663 Y140.513 E36.19372
G1 X91.132 Y140.395 E36.22079
G1 X90.632 Y140.227 E36.24704
G1 X90.066 Y139.957 E36.27825
G1 X89.525 Y139.613 E36.31015
G1 X89.164 Y139.336 E36.3328
G1 X88.973 Y139.141 E36.34638
G1 X88.345 Y138.43 E36.39359
G1 X87.985 Y137.906 E36.42523
G1 X87.399 Y136.774 E36.48866
G1 X87.216 Y136.318 E36.51311
G1 X86.693 Y134.554 E36.60468
G1 X86.619 Y134.228 E36.62131
G1 X86.273 Y132.074 E36.72988
G1 X86.249 Y131.881 E36.73956
G1 X86.066 Y129.715 E36.84774
G1 X86.058 Y129.583 E36.85432
G1 X85.818 Y122.312 E37.21636
G1 X85.817 Y122.211 E37.22139
G1 X85.834 Y119.309 E37.36581
G1 X85.837 Y119.192 E37.37163
G1 X86.293 Y110.218 E37.81881
G1 X87.061 Y81.469 E39.25002
G1 X87.062 Y81.439 E39.25152
G1 X87.73 Y64.012 E40.11942
G1 X87.732 Y63.961 E40.12196
G1 X88.062 Y58.265 E40.4059
G1 X88.067 Y58.197 E40.40929
G1 X88.564 Y52.292 E40.70419
G1 X88.582 Y52.138 E40.71191
G1 X89.123 Y48.407 E40.89953
G1 X89.176 Y48.141 E40.91302
G1 X89.409 Y47.223 E40.96016
G1 X89.528 Y46.865 E40.97893
G1 X89.778 Y46.264 E41.01133
M204 S5000
G0 F2400 X90.146 Y46.417
M204 S200
G1 F1200 X90.343 Y46.048 E41.03214
G1 X90.496 Y45.843 E41.04487
G1 X90.692 Y45.611 E41.05999
G1 X90.992 Y45.319 E41.08082
G1 X91.341 Y45.089 E41.10162
G1 X91.728 Y44.929 E41.12246
G1 X92.24 Y44.837 E41.14835
G1 X92.477 Y44.823 E41.16016
G1 X92.895 Y44.838 E41.18098
G1 X93.303 Y44.932 E41.20182
G1 X93.685 Y45.103 E41.22264
G1 X94.178 Y45.482 E41.25359
G1 X94.371 Y45.68 E41.26735
G1 X94.633 Y46.006 E41.28816
G1 X94.817 Y46.348 E41.30749
G1 X95.094 Y46.995 E41.34252
G1 X95.226 Y47.415 E41.36443
G1 X95.713 Y49.772 E41.4842
G1 X95.743 Y49.958 E41.49358
G1 X96.148 Y53.377 E41.66491
G1 X96.156 Y53.462 E41.66916
G1 X96.568 Y58.678 E41.92955
G1 X96.572 Y58.743 E41.93279
G1 X97.198 Y71.395 E42.56319
G1 X97.2 Y71.433 E42.56509
G1 X97.708 Y87.282 E43.35422
G1 X97.708 Y87.294 E43.35482
G1 X98.318 Y110.511 E44.51063
G1 X98.75 Y118.787 E44.92305
G1 X98.753 Y118.881 E44.92773
G1 X98.784 Y122.207 E45.09325
G1 X98.783 Y122.3 E45.09788
G1 X98.542 Y129.57 E45.45987
G1 X98.535 Y129.681 E45.46541
G1 X98.353 Y131.849 E45.57368
G1 X98.326 Y132.057 E45.58412
G1 X97.807 Y134.913 E45.72858
G1 X97.717 Y135.25 E45.74594
G1 X97.236 Y136.616 E45.81801
G1 X97.111 Y136.905 E45.83368
G1 X96.773 Y137.551 E45.86996
G1 X96.589 Y137.843 E45.88714
G1 X96.136 Y138.452 E45.92491
G1 X95.809 Y138.804 E45.94882
G1 X95.278 Y139.262 E45.98371
G1 X94.766 Y139.592 E46.01403
G1 X94.133 Y139.885 E46.04874
G1 X93.738 Y140.024 E46.06958
G1 X93.505 Y140.068 E46.08138
G1 X92.759 Y140.169 E46.11884
G1 X92.216 Y140.175 E46.14587
G1 X91.709 Y140.117 E46.17126
G1 X91.259 Y140.017 E46.1942
G1 X90.759 Y139.849 E46.22045
G1 X90.28 Y139.62 E46.24688
G1 X89.739 Y139.276 E46.27878
G1 X89.272 Y138.877 E46.30935
G1 X88.644 Y138.166 E46.35656
G1 X88.34 Y137.722 E46.38334
G1 X87.754 Y136.59 E46.44677
G1 X87.599 Y136.205 E46.46743
G1 X87.076 Y134.441 E46.55899
G1 X87.013 Y134.165 E46.57308
G1 X86.667 Y132.011 E46.68165
G1 X86.647 Y131.848 E46.68982
G1 X86.464 Y129.682 E46.798
G1 X86.457 Y129.569 E46.80363
G1 X86.217 Y122.298 E47.16567
G1 X86.216 Y122.213 E47.1699
G1 X86.233 Y119.311 E47.31432
G1 X86.236 Y119.213 E47.3192
G1 X86.691 Y110.264 E47.76513
G1 X87.46 Y81.479 E49.19814
G1 X87.461 Y81.454 E49.19939
G1 X88.129 Y64.027 E50.06729
G1 X88.131 Y63.984 E50.06943
G1 X88.461 Y58.288 E50.35337
G1 X88.465 Y58.231 E50.35621
G1 X88.962 Y52.326 E50.65112
G1 X88.977 Y52.195 E50.65768
G1 X89.518 Y48.464 E50.84529
G1 X89.562 Y48.239 E50.8567
G1 X89.795 Y47.321 E50.90384
G1 X89.896 Y47.018 E50.91973
G1 X90.146 Y46.417 E50.95212
M204 S5000
G0 F2400 X90.265 Y47.171
M204 S200
G1 F1200 X90.515 Y46.57 E50.98452
G1 X90.801 Y46.101 E51.01186
G1 X90.997 Y45.869 E51.02697
G1 X91.27 Y45.607 E51.0458
G1 X91.593 Y45.408 E51.06468
G1 X91.949 Y45.282 E51.08347
G1 X92.263 Y45.235 E51.09927
G1 X92.5 Y45.221 E51.11109
G1 X92.878 Y45.239 E51.12992
G1 X93.244 Y45.335 E51.14875
G1 X93.582 Y45.506 E51.1676
G1 X93.892 Y45.76 E51.18755
G1 X94.085 Y45.958 E51.20131
G1 X94.319 Y46.256 E51.22016
G1 X94.45 Y46.505 E51.23417
G1 X94.727 Y47.152 E51.26919
G1 X94.835 Y47.496 E51.28713
G1 X95.322 Y49.853 E51.40691
G1 X95.347 Y50.005 E51.41457
G1 X95.752 Y53.424 E51.58591
G1 X95.758 Y53.494 E51.58941
G1 X96.17 Y58.71 E51.84979
G1 X96.174 Y58.762 E51.85239
G1 X96.8 Y71.414 E52.48279
G1 X96.801 Y71.445 E52.48434
G1 X97.309 Y87.294 E53.27347
G1 X97.309 Y87.305 E53.27402
G1 X97.919 Y110.511 E54.42928
G1 X98.352 Y118.807 E54.84269
G1 X98.354 Y118.884 E54.84653
G1 X98.385 Y122.21 E55.01205
G1 X98.384 Y122.287 E55.01589
G1 X98.143 Y129.557 E55.37788
G1 X98.138 Y129.647 E55.38237
G1 X97.956 Y131.815 E55.49064
G1 X97.933 Y131.986 E55.49922
G1 X97.414 Y134.842 E55.64368
G1 X97.341 Y135.118 E55.65789
G1 X96.86 Y136.484 E55.72996
G1 X96.757 Y136.72 E55.74278
G1 X96.419 Y137.366 E55.77906
G1 X96.269 Y137.605 E55.7931
G1 X95.816 Y138.214 E55.83087
G1 X95.548 Y138.502 E55.85045
G1 X95.017 Y138.96 E55.88535
G1 X94.598 Y139.23 E55.91015
G1 X93.965 Y139.523 E55.94487
G1 X93.452 Y139.673 E55.97147
G1 X92.706 Y139.774 E56.00893
G1 X92.261 Y139.778 E56.03108
G1 X91.754 Y139.72 E56.05647
G1 X91.386 Y139.638 E56.07523
G1 X90.886 Y139.47 E56.10148
G1 X90.494 Y139.284 E56.12308
G1 X89.953 Y138.94 E56.15498
G1 X89.571 Y138.613 E56.18001
G1 X88.943 Y137.902 E56.22721
G1 X88.694 Y137.539 E56.24912
G1 X88.108 Y136.407 E56.31256
G1 X87.981 Y136.092 E56.32946
G1 X87.458 Y134.328 E56.42102
G1 X87.407 Y134.102 E56.43255
G1 X87.061 Y131.948 E56.54112
G1 X87.044 Y131.814 E56.54784
G1 X86.861 Y129.648 E56.65602
G1 X86.856 Y129.556 E56.6606
G1 X86.616 Y122.285 E57.02265
G1 X86.615 Y122.215 E57.02613
G1 X86.632 Y119.313 E57.17055
G1 X86.634 Y119.233 E57.17453
