;FLAVOR:Marlin
;TIME:3682
;Filament used: 2.92163m
;Layer height: 0.2
;Generated with Cura_SteamEngine 2.7.0
M190 S60
M104 S220
M109 S220
G21 ;metric values
G90 ;absolute positioning
M82 ;set extruder to absolute mode
M107 ;start with the fan off
G92 E0 ;zero the extruded length
G1 F200 E3 ;extrude 3mm of feed stock
G92 E0 ;zero the extruded length again
G1 F9000
M117 Printing...
;LAYER_COUNT:280
;LAYER:0
M107
M204 S5000
G0 F2400 X53.757 Y85.848 Z0.3
M204 S200
;TYPE:SKIRT
G1 F1200 X54.232 Y85.57 E0.02739
G1 X54.742 Y85.364 E0.05476
G1 X55.277 Y85.234 E0.08216
G1 X55.79 Y85.184 E0.10781
G1 X100.692 Y83.848 E2.34337
G1 X100.807 Y83.846 E2.34909
G1 X115.901 Y83.855 E3.10025
G1 X116.009 Y83.857 E3.10563
G1 X118.931 Y83.942 E3.25111
G1 X119.067 Y83.948 E3.25788
G1 X123.619 Y84.244 E3.48489
G1 X123.85 Y84.266 E3.49644
G1 X126.302 Y84.577 E3.61944
G1 X126.624 Y84.632 E3.6357
G1 X128.761 Y85.093 E3.74449
G1 X129.318 Y85.259 E3.77342
G1 X130.816 Y85.833 E3.85325
G1 X131.315 Y86.067 E3.88068
G1 X131.681 Y86.301 E3.9023
G1 X132.428 Y86.841 E3.94817
G1 X132.849 Y87.195 E3.97554
G1 X133.215 Y87.606 E4.00293
G1 X133.501 Y88.037 E4.02867
G1 X133.853 Y88.655 E4.06407
G1 X134.09 Y89.151 E4.09142
G1 X134.253 Y89.677 E4.11883
G1 X134.337 Y90.221 E4.14622
G1 X134.345 Y90.723 E4.17121
G1 X134.307 Y91.474 E4.20863
G1 X134.24 Y92.02 E4.236
G1 X134.094 Y92.55 E4.26336
G1 X133.91 Y92.981 E4.28668
G1 X133.568 Y93.663 E4.32465
G1 X133.286 Y94.136 E4.35206
G1 X132.841 Y94.663 E4.38638
G1 X132.102 Y95.392 E4.43804
G1 X131.684 Y95.749 E4.4654
G1 X131.383 Y95.948 E4.48336
G1 X130.172 Y96.671 E4.55355
G1 X129.608 Y96.947 E4.58479
G1 X127.7 Y97.692 E4.68673
G1 X127.333 Y97.814 E4.70598
G1 X125.388 Y98.353 E4.80642
G1 X125.164 Y98.408 E4.8179
G1 X123.466 Y98.769 E4.90429
G1 X123.29 Y98.802 E4.9132
G1 X120.594 Y99.243 E5.04915
G1 X120.43 Y99.266 E5.05739
G1 X117.54 Y99.61 E5.20223
G1 X117.353 Y99.628 E5.21158
G1 X111.538 Y100.03 E5.50165
G1 X110.988 Y100.028 E5.52902
G1 X110.92 Y100.018 E5.53244
G1 X110.634 Y100.061 E5.54684
G1 X110.356 Y100.072 E5.56068
G1 X104.159 Y100.092 E5.86908
G1 X103.975 Y100.088 E5.87824
G1 X96.169 Y99.734 E6.26711
G1 X95.98 Y99.721 E6.27654
G1 X87.861 Y98.944 E6.68243
G1 X87.704 Y98.925 E6.6903
G1 X79.183 Y97.75 E7.11836
G1 X79.057 Y97.731 E7.1247
G1 X70.575 Y96.269 E7.55304
G1 X70.46 Y96.247 E7.55887
G1 X58.527 Y93.81 E8.16498
G1 X58.449 Y93.793 E8.16895
G1 X55.032 Y93.019 E8.34331
G1 X54.505 Y92.859 E8.37071
G1 X54.007 Y92.624 E8.39812
G1 X53.549 Y92.32 E8.42547
G1 X53.139 Y91.952 E8.45289
G1 X52.787 Y91.529 E8.48028
G1 X52.5 Y91.06 E8.50764
G1 X52.284 Y90.554 E8.53502
G1 X52.143 Y90.022 E8.56241
G1 X52.081 Y89.475 E8.58981
G1 X52.096 Y88.954 E8.61574
G1 X52.13 Y88.605 E8.63319
G1 X52.223 Y88.063 E8.66056
G1 X52.393 Y87.54 E8.68793
G1 X52.638 Y87.047 E8.71533
G1 X52.951 Y86.594 E8.74273
G1 X53.327 Y86.192 E8.77012
G1 X53.757 Y85.848 E8.79753
M204 S5000
G0 F2400 X54.124 Y86.085
M204 S200
G1 F1200 X54.587 Y85.847 E8.82343
G1 X55.081 Y85.682 E8.84935
G1 X55.802 Y85.583 E8.88557
G1 X100.704 Y84.247 E11.12113
G1 X100.807 Y84.245 E11.12625
G1 X115.901 Y84.254 E11.87742
G1 X115.998 Y84.255 E11.88224
G1 X118.92 Y84.34 E12.02772
G1 X119.041 Y84.346 E12.03375
G1 X123.593 Y84.642 E12.26076
G1 X123.8 Y84.662 E12.27111
G1 X126.252 Y84.973 E12.39411
G1 X126.54 Y85.022 E12.40865
G1 X128.677 Y85.483 E12.51744
G1 X129.176 Y85.632 E12.54336
G1 X130.674 Y86.206 E12.62319
G1 X131.144 Y86.429 E12.64908
G1 X131.447 Y86.624 E12.66702
G1 X132.194 Y87.164 E12.71289
G1 X132.591 Y87.5 E12.73877
G1 X132.932 Y87.894 E12.7647
G1 X133.154 Y88.234 E12.78491
G1 X133.506 Y88.852 E12.8203
G1 X133.729 Y89.323 E12.84624
G1 X133.876 Y89.822 E12.87212
G1 X133.946 Y90.338 E12.89804
G1 X133.947 Y90.702 E12.91615
G1 X133.909 Y91.453 E12.95358
G1 X133.843 Y91.97 E12.97951
G1 X133.698 Y92.47 E13.00542
G1 X133.553 Y92.803 E13.0235
G1 X133.211 Y93.485 E13.06146
G1 X132.943 Y93.931 E13.08736
G1 X132.561 Y94.379 E13.11666
G1 X131.822 Y95.108 E13.16832
G1 X131.425 Y95.444 E13.1942
G1 X131.179 Y95.605 E13.20883
G1 X129.968 Y96.328 E13.27902
G1 X129.463 Y96.576 E13.30702
G1 X127.555 Y97.321 E13.40895
G1 X127.227 Y97.43 E13.42615
G1 X125.282 Y97.969 E13.5266
G1 X125.081 Y98.018 E13.53689
G1 X123.383 Y98.379 E13.62328
G1 X123.226 Y98.409 E13.63124
G1 X120.53 Y98.85 E13.76719
G1 X120.383 Y98.87 E13.77457
G1 X117.493 Y99.214 E13.91941
G1 X117.326 Y99.23 E13.92776
G1 X111.511 Y99.632 E14.21783
G1 X110.99 Y99.628 E14.24376
G1 X110.929 Y99.618 E14.24684
G1 X110.355 Y99.673 E14.27554
G1 X104.158 Y99.693 E14.58393
G1 X103.993 Y99.69 E14.59215
G1 X96.187 Y99.336 E14.98101
G1 X96.018 Y99.324 E14.98945
G1 X87.899 Y98.547 E15.39534
G1 X87.759 Y98.53 E15.40236
G1 X79.238 Y97.355 E15.83042
G1 X79.125 Y97.338 E15.83611
G1 X70.643 Y95.876 E16.26444
G1 X70.54 Y95.856 E16.26966
G1 X58.607 Y93.419 E16.87577
G1 X58.537 Y93.404 E16.87934
G1 X55.12 Y92.63 E17.05369
G1 X54.622 Y92.477 E17.07962
G1 X54.154 Y92.249 E17.10553
G1 X53.727 Y91.952 E17.13141
G1 X53.35 Y91.593 E17.15732
G1 X53.032 Y91.181 E17.18322
G1 X52.781 Y90.725 E17.20912
G1 X52.602 Y90.236 E17.23504
G1 X52.501 Y89.725 E17.26096
G1 X52.493 Y88.993 E17.29739
G1 X52.527 Y88.644 E17.31484
G1 X52.617 Y88.131 E17.34076
G1 X52.785 Y87.639 E17.36663
G1 X53.025 Y87.177 E17.39254
G1 X53.334 Y86.758 E17.41845
G1 X53.703 Y86.391 E17.44435
G1 X54.124 Y86.085 E17.47025
M204 S5000
G0 F2400 X54.488 Y86.336
M204 S200
G1 F1200 X54.936 Y86.14 E17.49459
G1 X55.41 Y86.021 E17.51891
G1 X55.814 Y85.981 E17.53911
G1 X100.716 Y84.645 E19.77467
G1 X100.807 Y84.644 E19.7792
G1 X115.901 Y84.653 E20.53036
G1 X115.986 Y84.654 E20.53459
G1 X118.908 Y84.739 E20.68006
G1 X119.015 Y84.744 E20.68539
G1 X123.567 Y85.04 E20.91241
G1 X123.75 Y85.058 E20.92156
G1 X126.202 Y85.369 E21.04456
G1 X126.456 Y85.412 E21.05738
G1 X128.593 Y85.873 E21.16617
G1 X129.033 Y86.004 E21.18902
G1 X130.531 Y86.578 E21.26886
G1 X130.972 Y86.79 E21.29321
G1 X131.213 Y86.947 E21.30752
G1 X131.96 Y87.487 E21.35339
G1 X132.332 Y87.805 E21.37775
G1 X132.647 Y88.179 E21.40208
G1 X132.808 Y88.432 E21.417
G1 X133.16 Y89.05 E21.4524
G1 X133.366 Y89.493 E21.47671
G1 X133.498 Y89.964 E21.50105
G1 X133.548 Y90.682 E21.53687
G1 X133.51 Y91.433 E21.57429
G1 X133.446 Y91.918 E21.59864
G1 X133.303 Y92.386 E21.62299
G1 X133.196 Y92.624 E21.63598
G1 X132.854 Y93.306 E21.67395
G1 X132.6 Y93.723 E21.69825
G1 X132.281 Y94.095 E21.72263
G1 X131.542 Y94.824 E21.77429
G1 X130.974 Y95.263 E21.81002
G1 X129.763 Y95.986 E21.88021
G1 X129.318 Y96.204 E21.90487
G1 X127.41 Y96.949 E22.0068
G1 X127.12 Y97.045 E22.022
G1 X125.175 Y97.584 E22.12245
G1 X124.998 Y97.628 E22.13152
G1 X123.3 Y97.989 E22.21791
G1 X123.161 Y98.015 E22.22495
G1 X120.465 Y98.456 E22.3609
G1 X120.336 Y98.474 E22.36738
G1 X117.446 Y98.818 E22.51222
G1 X117.298 Y98.832 E22.51962
G1 X111.483 Y99.234 E22.8097
G1 X110.995 Y99.228 E22.83398
G1 X110.909 Y99.213 E22.83833
G1 X110.788 Y99.241 E22.84451
G1 X110.354 Y99.274 E22.86617
G1 X104.157 Y99.294 E23.17457
G1 X104.011 Y99.291 E23.18183
G1 X96.205 Y98.937 E23.5707
G1 X96.056 Y98.926 E23.57814
G1 X87.937 Y98.149 E23.98403
G1 X87.813 Y98.135 E23.99024
G1 X79.292 Y96.96 E24.4183
G1 X79.193 Y96.945 E24.42329
G1 X70.711 Y95.483 E24.85162
G1 X70.62 Y95.465 E24.85624
G1 X58.687 Y93.028 E25.46235
G1 X58.625 Y93.015 E25.4655
G1 X55.208 Y92.241 E25.63986
G1 X54.741 Y92.094 E25.66422
G1 X54.305 Y91.874 E25.68853
G1 X53.91 Y91.585 E25.71288
G1 X53.568 Y91.236 E25.7372
G1 X53.287 Y90.836 E25.76153
G1 X53.075 Y90.395 E25.78588
G1 X52.938 Y89.926 E25.81019
G1 X52.878 Y89.441 E25.83451
G1 X52.89 Y89.032 E25.85488
G1 X52.924 Y88.683 E25.87233
G1 X53.011 Y88.202 E25.89665
G1 X53.175 Y87.741 E25.921
G1 X53.412 Y87.313 E25.94535
G1 X53.716 Y86.93 E25.96968
G1 X54.077 Y86.601 E25.99399
G1 X54.488 Y86.336 E26.01833
M204 S5000
G0 F2400 X54.846 Y86.604
M204 S200
G1 F1200 X55.276 Y86.456 E26.04096
G1 X55.826 Y86.38 E26.06859
G1 X100.728 Y85.044 E28.30415
G1 X100.807 Y85.043 E28.30808
G1 X115.901 Y85.052 E29.05924
G1 X115.974 Y85.053 E29.06287
G1 X118.896 Y85.138 E29.20835
G1 X118.989 Y85.142 E29.21298
G1 X123.541 Y85.438 E29.43999
G1 X123.699 Y85.454 E29.4479
G1 X126.151 Y85.765 E29.5709
G1 X126.372 Y85.802 E29.58205
G1 X128.509 Y86.263 E29.69085
G1 X128.89 Y86.377 E29.71064
G1 X130.388 Y86.951 E29.79047
G1 X130.98 Y87.271 E29.82396
G1 X131.727 Y87.811 E29.86983
G1 X132.071 Y88.109 E29.89248
G1 X132.461 Y88.629 E29.92483
G1 X132.813 Y89.247 E29.96022
G1 X133.003 Y89.661 E29.98289
G1 X133.117 Y90.101 E30.00551
G1 X133.15 Y90.662 E30.03348
G1 X133.112 Y91.413 E30.0709
G1 X133.049 Y91.864 E30.09356
G1 X132.84 Y92.445 E30.12429
G1 X132.498 Y93.127 E30.16226
G1 X132.259 Y93.514 E30.18489
G1 X132.001 Y93.811 E30.20447
G1 X131.262 Y94.54 E30.25613
G1 X130.77 Y94.92 E30.28707
G1 X129.559 Y95.643 E30.35726
G1 X129.172 Y95.832 E30.37869
G1 X127.264 Y96.577 E30.48063
G1 X127.014 Y96.661 E30.49375
G1 X125.069 Y97.2 E30.59419
G1 X124.915 Y97.237 E30.60207
G1 X123.217 Y97.598 E30.68846
G1 X123.097 Y97.621 E30.69455
G1 X120.401 Y98.062 E30.8305
G1 X120.289 Y98.078 E30.83613
G1 X117.399 Y98.422 E30.98096
G1 X117.271 Y98.434 E30.98736
G1 X111.456 Y98.836 E31.27744
G1 X111.001 Y98.827 E31.30009
G1 X110.896 Y98.806 E31.30542
G1 X110.604 Y98.862 E31.32021
G1 X110.352 Y98.875 E31.33277
G1 X104.155 Y98.895 E31.64117
G1 X104.029 Y98.892 E31.64744
G1 X96.223 Y98.538 E32.03631
G1 X96.094 Y98.529 E32.04274
G1 X87.975 Y97.752 E32.44864
G1 X87.868 Y97.74 E32.45399
G1 X79.347 Y96.565 E32.88206
G1 X79.26 Y96.551 E32.88644
G1 X70.778 Y95.089 E33.31478
G1 X70.7 Y95.075 E33.31872
G1 X58.767 Y92.638 E33.92483
G1 X58.713 Y92.626 E33.92758
G1 X55.296 Y91.852 E34.10194
G1 X54.863 Y91.713 E34.12457
G1 X54.46 Y91.5 E34.14726
G1 X54.101 Y91.22 E34.16991
G1 X53.797 Y90.882 E34.19254
G1 X53.556 Y90.496 E34.21518
G1 X53.386 Y90.074 E34.23782
G1 X53.293 Y89.628 E34.2605
G1 X53.287 Y89.07 E34.28827
G1 X53.321 Y88.721 E34.30572
G1 X53.405 Y88.274 E34.32835
G1 X53.566 Y87.848 E34.35102
G1 X53.798 Y87.457 E34.37364
G1 X54.095 Y87.113 E34.39626
G1 X54.448 Y86.825 E34.41893
G1 X54.846 Y86.604 E34.44159
M204 S5000
G0 F2400 X55.838 Y86.779
M204 S200
G1 F1200 X100.74 Y85.443 E36.67715
G1 X100.806 Y85.442 E36.68043
G1 X115.9 Y85.451 E37.43159
G1 X115.963 Y85.452 E37.43473
G1 X118.885 Y85.537 E37.5802
G1 X118.963 Y85.541 E37.58409
G1 X123.515 Y85.837 E37.8111
G1 X123.649 Y85.849 E37.8178
G1 X126.101 Y86.16 E37.9408
G1 X126.288 Y86.192 E37.95024
G1 X128.425 Y86.653 E38.05903
G1 X128.747 Y86.749 E38.07576
G1 X130.245 Y87.323 E38.15559
G1 X130.746 Y87.594 E38.18394
G1 X131.493 Y88.134 E38.22981
G1 X131.807 Y88.411 E38.25065
G1 X132.114 Y88.827 E38.27637
G1 X132.466 Y89.445 E38.31177
G1 X132.638 Y89.826 E38.33257
G1 X132.734 Y90.234 E38.35343
G1 X132.751 Y90.642 E38.37375
G1 X132.713 Y91.393 E38.41117
G1 X132.652 Y91.807 E38.432
G1 X132.483 Y92.266 E38.45634
G1 X132.141 Y92.948 E38.49431
G1 X131.919 Y93.303 E38.51515
G1 X131.72 Y93.527 E38.53006
G1 X130.981 Y94.256 E38.58172
G1 X130.565 Y94.578 E38.6079
G1 X129.354 Y95.301 E38.67809
G1 X129.027 Y95.461 E38.6962
G1 X127.119 Y96.206 E38.79814
G1 X126.907 Y96.276 E38.80925
G1 X124.962 Y96.815 E38.90969
G1 X124.832 Y96.847 E38.91635
G1 X123.134 Y97.208 E39.00274
G1 X123.032 Y97.227 E39.00791
G1 X120.336 Y97.668 E39.14386
G1 X120.241 Y97.682 E39.14864
G1 X117.351 Y98.026 E39.29347
G1 X117.243 Y98.036 E39.29887
G1 X111.428 Y98.438 E39.58895
G1 X111.01 Y98.427 E39.60976
G1 X110.894 Y98.401 E39.61567
G1 X110.844 Y98.418 E39.6183
G1 X110.351 Y98.476 E39.643
G1 X104.154 Y98.496 E39.9514
G1 X104.048 Y98.494 E39.95668
G1 X96.242 Y98.14 E40.34555
G1 X96.132 Y98.132 E40.35104
G1 X88.013 Y97.355 E40.75693
G1 X87.922 Y97.344 E40.76149
G1 X79.401 Y96.169 E41.18955
G1 X79.328 Y96.158 E41.19323
G1 X70.846 Y94.696 E41.62156
G1 X70.78 Y94.684 E41.6249
G1 X58.847 Y92.247 E42.23101
G1 X58.801 Y92.237 E42.23335
G1 X55.384 Y91.463 E42.40771
G1 X54.987 Y91.332 E42.42851
G1 X54.621 Y91.128 E42.44937
G1 X54.301 Y90.858 E42.4702
G1 X54.038 Y90.532 E42.49105
G1 X53.841 Y90.163 E42.51186
G1 X53.719 Y89.763 E42.53268
G1 X53.674 Y89.347 E42.5535
G1 X53.684 Y89.109 E42.56535
G1 X53.718 Y88.76 E42.5828
G1 X53.798 Y88.349 E42.60364
G1 X53.955 Y87.961 E42.62447
G1 X54.183 Y87.61 E42.6453
G1 X54.473 Y87.308 E42.66614
G1 X54.815 Y87.067 E42.68696
G1 X55.196 Y86.895 E42.70776
G1 X55.604 Y86.799 E42.72862
G1 X55.838 Y86.779 E42.74031
M204 S5000
G0 F2400 X55.85 Y87.178
M204 S200
G1 F1200 X100.752 Y85.842 E44.97587
G1 X100.806 Y85.841 E44.97855
G1 X115.9 Y85.85 E45.72971
G1 X115.951 Y85.851 E45.73225
G1 X118.873 Y85.936 E45.87773
G1 X118.938 Y85.939 E45.88097
G1 X123.49 Y86.235 E46.10798
G1 X123.599 Y86.245 E46.11343
G1 X126.051 Y86.556 E46.23643
G1 X126.204 Y86.582 E46.24415
G1 X128.341 Y87.043 E46.35295
G1 X128.605 Y87.122 E46.36666
G1 X130.103 Y87.696 E46.44649
G1 X130.512 Y87.917 E46.46963
G1 X131.259 Y88.457 E46.5155
G1 X131.541 Y88.71 E46.53436
G1 X131.768 Y89.024 E46.55364
G1 X132.12 Y89.642 E46.58903
G1 X132.271 Y89.989 E46.60786
G1 X132.347 Y90.36 E46.62671
G1 X132.353 Y90.622 E46.63975
G1 X132.315 Y91.373 E46.67717
G1 X132.256 Y91.747 E46.69602
G1 X132.126 Y92.087 E46.71413
G1 X131.784 Y92.769 E46.7521
G1 X131.58 Y93.088 E46.77094
G1 X131.44 Y93.243 E46.78134
G1 X130.701 Y93.972 E46.833
G1 X130.361 Y94.235 E46.85439
G1 X129.15 Y94.958 E46.92458
G1 X128.882 Y95.089 E46.93942
G1 X126.974 Y95.834 E47.04136
G1 X126.801 Y95.892 E47.05044
G1 X124.856 Y96.431 E47.15088
G1 X124.749 Y96.457 E47.15636
G1 X123.051 Y96.818 E47.24275
G1 X122.968 Y96.833 E47.24695
G1 X120.272 Y97.274 E47.3829
G1 X120.194 Y97.285 E47.38682
G1 X117.304 Y97.629 E47.53166
G1 X117.216 Y97.638 E47.53606
G1 X111.401 Y98.04 E47.82614
G1 X111.023 Y98.026 E47.84496
G1 X110.871 Y97.988 E47.85276
G1 X110.647 Y98.051 E47.86434
G1 X110.35 Y98.077 E47.87917
G1 X104.153 Y98.097 E48.18757
G1 X104.066 Y98.095 E48.1919
G1 X96.26 Y97.741 E48.58077
G1 X96.17 Y97.735 E48.58526
G1 X88.051 Y96.958 E48.99115
G1 X87.977 Y96.949 E48.99486
G1 X79.456 Y95.774 E49.42293
G1 X79.396 Y95.765 E49.42595
G1 X70.914 Y94.303 E49.85428
G1 X70.86 Y94.293 E49.85701
G1 X58.927 Y91.856 E50.46312
G1 X58.889 Y91.848 E50.46506
G1 X55.472 Y91.074 E50.63941
G1 X55.114 Y90.952 E50.65823
G1 X54.789 Y90.757 E50.6771
G1 X54.512 Y90.499 E50.69593
G1 X54.296 Y90.188 E50.71478
G1 X54.149 Y89.84 E50.73358
G1 X54.079 Y89.468 E50.75242
G1 X54.081 Y89.148 E50.76834
G1 X54.115 Y88.799 E50.78579
G1 X54.192 Y88.428 E50.80465
G1 X54.344 Y88.082 E50.82345
G1 X54.565 Y87.775 E50.84228
G1 X54.846 Y87.521 E50.86113
G1 X55.174 Y87.332 E50.87997
G1 X55.534 Y87.215 E50.89881
G1 X55.85 Y87.178 E50.91464
M204 S5000
G0 F2400 X55.861 Y87.577
M204 S200
G1 F1200 X100.763 Y86.241 E53.1502
G1 X100.806 Y86.24 E53.15234
G1 X115.9 Y86.249 E53.9035
G1 X115.94 Y86.25 E53.90549
G1 X118.862 Y86.335 E54.05097
G1 X118.912 Y86.337 E54.05346
G1 X123.464 Y86.633 E54.28047
G1 X123.549 Y86.641 E54.28472
G1 X126.001 Y86.952 E54.40772
G1 X126.12 Y86.972 E54.41372
G1 X128.257 Y87.433 E54.52252
G1 X128.462 Y87.494 E54.53316
G1 X129.96 Y88.068 E54.613
G1 X130.278 Y88.241 E54.63101
G1 X131.025 Y88.781 E54.67688
G1 X131.271 Y89.007 E54.69351
G1 X131.421 Y89.222 E54.70655
G1 X131.773 Y89.84 E54.74195
G1 X131.902 Y90.147 E54.75852
G1 X131.954 Y90.602 E54.78131
G1 X131.916 Y91.353 E54.81873
G1 X131.86 Y91.681 E54.83529
G1 X131.77 Y91.908 E54.84744
G1 X131.428 Y92.59 E54.88541
G1 X131.16 Y92.959 E54.90811
G1 X130.421 Y93.688 E54.95977
G1 X130.156 Y93.892 E54.97641
G1 X128.945 Y94.615 E55.0466
G1 X128.737 Y94.717 E55.05813
G1 X126.829 Y95.462 E55.16006
G1 X126.694 Y95.507 E55.16715
G1 X124.749 Y96.046 E55.26759
G1 X124.667 Y96.066 E55.27179
G1 X122.969 Y96.427 E55.35818
G1 X122.904 Y96.44 E55.36148
G1 X120.208 Y96.881 E55.49743
G1 X120.147 Y96.889 E55.50049
G1 X117.257 Y97.233 E55.64533
G1 X117.188 Y97.24 E55.64878
G1 X111.373 Y97.642 E55.93886
G1 X111.04 Y97.625 E55.95545
G1 X110.86 Y97.571 E55.9648
G1 X110.789 Y97.605 E55.96872
G1 X110.349 Y97.678 E55.99091
G1 X104.152 Y97.698 E56.29931
G1 X104.084 Y97.697 E56.3027
G1 X96.278 Y97.343 E56.69157
