;FLAVOR:RepRap
;TIME:336
;Filament used: 0.308237m
;Layer height: 0.15
;Generated with Cura_SteamEngine 2.5.0-BETA
M190 S55
M104 S210
M109 S210
G21 ;metric values
G90 ;absolute positioning
M82 ;set extruder to absolute mode
M107 ;start with the fan off
G28 X0 Y0 ;move X/Y to min endstops
G28 Z0 ;move Z to min endstops
G1 Z15.0 F9000 ;move the platform down 15mm
G92 E0 ;zero the extruded length
G1 F200 E3 ;extrude 3mm of feed stock
G92 E0 ;zero the extruded length again
G1 F9000
;Put printing message on LCD screen
M117 Printing...
;LAYER_COUNT:30
;LAYER:0
M107
G0 F1800 X90.234 Y90.402 Z0.3
;TYPE:SKIRT
G1 F1200 X91.035 Y89.651 E0.05478
G1 X91.516 Y89.254 E0.08589
G1 X92.405 Y88.608 E0.14072
G1 X92.934 Y88.272 E0.17199
G1 X93.883 Y87.75 E0.22602
G1 X94.446 Y87.485 E0.25707
G1 X95.465 Y87.08 E0.31177
G1 X96.074 Y86.882 E0.34372
G1 X97.138 Y86.61 E0.39851
G1 X97.749 Y86.493 E0.42955
G1 X98.825 Y86.357 E0.48366
G1 X99.452 Y86.318 E0.515
G1 X100.548 Y86.318 E0.56968
G1 X101.175 Y86.357 E0.60102
G1 X102.251 Y86.493 E0.65513
G1 X102.862 Y86.61 E0.68617
G1 X103.926 Y86.882 E0.74096
G1 X104.535 Y87.08 E0.7729
G1 X105.554 Y87.485 E0.82761
G1 X106.117 Y87.75 E0.85865
G1 X107.066 Y88.272 E0.91269
G1 X107.595 Y88.608 E0.94396
G1 X108.484 Y89.254 E0.99878
G1 X108.965 Y89.651 E1.0299
G1 X109.766 Y90.402 E1.08468
G1 X110.199 Y90.863 E1.11623
G1 X110.888 Y91.696 E1.17016
G1 X111.253 Y92.198 E1.20113
G1 X111.843 Y93.125 E1.25595
G1 X112.151 Y93.685 E1.28783
G1 X112.615 Y94.673 E1.34229
G1 X112.845 Y95.255 E1.37351
G1 X113.182 Y96.294 E1.42801
G1 X113.338 Y96.901 E1.45927
G1 X113.542 Y97.971 E1.51362
G1 X113.62 Y98.596 E1.54504
G1 X113.688 Y99.688 E1.59963
G1 X113.688 Y100.309 E1.63061
G1 X113.62 Y101.403 E1.68529
G1 X113.542 Y102.029 E1.71677
G1 X113.338 Y103.099 E1.77111
G1 X113.183 Y103.704 E1.80227
G1 X112.847 Y104.741 E1.85665
G1 X112.616 Y105.325 E1.88798
G1 X112.152 Y106.313 E1.94244
G1 X111.845 Y106.872 E1.97426
G1 X111.254 Y107.801 E2.02919
G1 X110.888 Y108.304 E2.06023
G1 X110.199 Y109.137 E2.11416
G1 X109.766 Y109.598 E2.14571
G1 X108.965 Y110.349 E2.20049
G1 X108.484 Y110.746 E2.23161
G1 X107.595 Y111.392 E2.28643
G1 X107.066 Y111.728 E2.3177
G1 X106.117 Y112.25 E2.37173
G1 X105.554 Y112.515 E2.40278
G1 X104.535 Y112.92 E2.45748
G1 X103.926 Y113.118 E2.48943
G1 X102.862 Y113.39 E2.54422
G1 X102.251 Y113.507 E2.57526
G1 X101.175 Y113.643 E2.62937
G1 X100.548 Y113.682 E2.66071
G1 X99.452 Y113.682 E2.71539
G1 X98.825 Y113.643 E2.74673
G1 X97.749 Y113.507 E2.80084
G1 X97.138 Y113.39 E2.83188
G1 X96.074 Y113.118 E2.88667
G1 X95.465 Y112.92 E2.91862
G1 X94.446 Y112.515 E2.97332
G1 X93.883 Y112.25 E3.00437
G1 X92.934 Y111.728 E3.0584
G1 X92.405 Y111.392 E3.08967
G1 X91.516 Y110.746 E3.14449
G1 X91.035 Y110.349 E3.17561
G1 X90.234 Y109.598 E3.23039
G1 X89.801 Y109.137 E3.26194
G1 X89.112 Y108.304 E3.31587
G1 X88.746 Y107.801 E3.34691
G1 X88.155 Y106.872 E3.40184
G1 X87.848 Y106.313 E3.43366
G1 X87.384 Y105.325 E3.48812
G1 X87.153 Y104.741 E3.51945
G1 X86.817 Y103.704 E3.57383
G1 X86.662 Y103.099 E3.60499
G1 X86.458 Y102.029 E3.65933
G1 X86.38 Y101.404 E3.69076
G1 X86.312 Y100.312 E3.74534
G1 X86.312 Y99.691 E3.77633
G1 X86.38 Y98.597 E3.83101
G1 X86.458 Y97.971 E3.86248
G1 X86.662 Y96.901 E3.91683
G1 X86.817 Y96.296 E3.94799
G1 X87.153 Y95.259 E4.00237
G1 X87.384 Y94.674 E4.03375
G1 X87.849 Y93.684 E4.08832
G1 X88.157 Y93.125 E4.12016
G1 X88.747 Y92.198 E4.17498
G1 X89.112 Y91.696 E4.20594
G1 X89.801 Y90.863 E4.25988
G1 X90.234 Y90.402 E4.29143
G0 F1800 X90.508 Y90.694
G1 F1200 X91.309 Y89.943 E4.34621
G1 X91.751 Y89.578 E4.37481
G1 X92.64 Y88.932 E4.42963
G1 X93.127 Y88.622 E4.45844
G1 X94.076 Y88.1 E4.51247
G1 X94.594 Y87.856 E4.54104
G1 X95.613 Y87.451 E4.59574
G1 X96.173 Y87.269 E4.62512
G1 X97.237 Y86.997 E4.67991
G1 X97.799 Y86.89 E4.70845
G1 X98.875 Y86.754 E4.76256
G1 X99.452 Y86.718 E4.7914
G1 X100.548 Y86.718 E4.84608
G1 X101.125 Y86.754 E4.87493
G1 X102.201 Y86.89 E4.92904
G1 X102.763 Y86.997 E4.95758
G1 X103.827 Y87.269 E5.01237
G1 X104.387 Y87.451 E5.04175
G1 X105.406 Y87.856 E5.09645
G1 X105.924 Y88.1 E5.12502
G1 X106.873 Y88.622 E5.17905
G1 X107.36 Y88.932 E5.20786
G1 X108.249 Y89.578 E5.26268
G1 X108.691 Y89.943 E5.29128
G1 X109.492 Y90.694 E5.34606
G1 X109.891 Y91.118 E5.37511
G1 X110.58 Y91.951 E5.42904
G1 X110.916 Y92.413 E5.45754
G1 X111.506 Y93.34 E5.51236
G1 X111.789 Y93.855 E5.54168
G1 X112.253 Y94.843 E5.59613
G1 X112.465 Y95.379 E5.62489
G1 X112.802 Y96.418 E5.67938
G1 X112.945 Y96.976 E5.70812
G1 X113.149 Y98.046 E5.76247
G1 X113.221 Y98.621 E5.79138
G1 X113.289 Y99.713 E5.84596
G1 X113.289 Y100.284 E5.87445
G1 X113.221 Y101.378 E5.92914
G1 X113.149 Y101.954 E5.9581
G1 X112.945 Y103.024 E6.01244
G1 X112.802 Y103.581 E6.04113
G1 X112.466 Y104.618 E6.09551
G1 X112.254 Y105.155 E6.12432
G1 X111.79 Y106.143 E6.17877
G1 X111.507 Y106.657 E6.20805
G1 X110.916 Y107.586 E6.26298
G1 X110.58 Y108.049 E6.29152
G1 X109.891 Y108.882 E6.34545
G1 X109.492 Y109.306 E6.3745
G1 X108.691 Y110.057 E6.42928
G1 X108.249 Y110.422 E6.45788
G1 X107.36 Y111.068 E6.5127
G1 X106.873 Y111.378 E6.5415
G1 X105.924 Y111.9 E6.59554
G1 X105.406 Y112.144 E6.62411
G1 X104.387 Y112.549 E6.67881
G1 X103.827 Y112.731 E6.70819
G1 X102.763 Y113.003 E6.76298
G1 X102.201 Y113.11 E6.79152
G1 X101.125 Y113.246 E6.84563
G1 X100.548 Y113.282 E6.87447
G1 X99.452 Y113.282 E6.92915
G1 X98.875 Y113.246 E6.958
G1 X97.799 Y113.11 E7.0121
G1 X97.237 Y113.003 E7.04065
G1 X96.173 Y112.731 E7.09544
G1 X95.613 Y112.549 E7.12481
G1 X94.594 Y112.144 E7.17952
G1 X94.076 Y111.9 E7.20809
G1 X93.127 Y111.378 E7.26212
G1 X92.64 Y111.068 E7.29092
G1 X91.751 Y110.422 E7.34575
G1 X91.309 Y110.057 E7.37435
G1 X90.508 Y109.306 E7.42913
G1 X90.109 Y108.882 E7.45817
G1 X89.42 Y108.049 E7.51211
G1 X89.084 Y107.586 E7.54065
G1 X88.493 Y106.657 E7.59558
G1 X88.21 Y106.143 E7.62485
G1 X87.746 Y105.155 E7.67931
G1 X87.534 Y104.618 E7.70811
G1 X87.198 Y103.581 E7.7625
G1 X87.055 Y103.024 E7.79119
G1 X86.851 Y101.954 E7.84553
G1 X86.779 Y101.379 E7.87444
G1 X86.711 Y100.287 E7.92903
G1 X86.711 Y99.716 E7.95751
G1 X86.779 Y98.622 E8.0122
G1 X86.851 Y98.046 E8.04116
G1 X87.055 Y96.976 E8.0955
G1 X87.198 Y96.419 E8.12419
G1 X87.534 Y95.382 E8.17858
G1 X87.746 Y94.844 E8.20743
G1 X88.211 Y93.854 E8.262
G1 X88.494 Y93.34 E8.29127
G1 X89.084 Y92.413 E8.34609
G1 X89.42 Y91.951 E8.37459
G1 X90.109 Y91.118 E8.42852
G1 X90.508 Y90.694 E8.45757
G0 F1800 X90.781 Y90.986
G1 F1200 X91.582 Y90.235 E8.51235
G1 X91.986 Y89.901 E8.5385
G1 X92.875 Y89.255 E8.59333
G1 X93.32 Y88.973 E8.61961
G1 X94.269 Y88.451 E8.67365
G1 X94.742 Y88.228 E8.69974
G1 X95.761 Y87.823 E8.75444
G1 X96.272 Y87.657 E8.78125
G1 X97.336 Y87.385 E8.83604
G1 X97.849 Y87.287 E8.86209
G1 X98.925 Y87.151 E8.9162
G1 X99.452 Y87.118 E8.94255
G1 X100.548 Y87.118 E8.99723
G1 X101.075 Y87.151 E9.02357
G1 X102.151 Y87.287 E9.07768
G1 X102.664 Y87.385 E9.10374
G1 X103.728 Y87.657 E9.15853
G1 X104.239 Y87.823 E9.18533
G1 X105.258 Y88.228 E9.24004
G1 X105.731 Y88.451 E9.26613
G1 X106.68 Y88.973 E9.32016
G1 X107.125 Y89.255 E9.34645
G1 X108.014 Y89.901 E9.40127
G1 X108.418 Y90.235 E9.42742
G1 X109.219 Y90.986 E9.4822
G1 X109.582 Y91.373 E9.50867
G1 X110.271 Y92.206 E9.56261
G1 X110.578 Y92.628 E9.58864
G1 X111.168 Y93.555 E9.64346
G1 X111.427 Y94.025 E9.67024
G1 X111.891 Y95.013 E9.72469
G1 X112.084 Y95.502 E9.75092
G1 X112.421 Y96.541 E9.80542
G1 X112.552 Y97.05 E9.83164
G1 X112.756 Y98.12 E9.88598
G1 X112.822 Y98.646 E9.91243
G1 X112.89 Y99.738 E9.96701
G1 X112.89 Y100.26 E9.99306
G1 X112.822 Y101.354 E10.04774
G1 X112.756 Y101.88 E10.07419
G1 X112.552 Y102.95 E10.12853
G1 X112.422 Y103.458 E10.1547
G1 X112.086 Y104.495 E10.20908
G1 X111.892 Y104.985 E10.23537
G1 X111.428 Y105.973 E10.28983
G1 X111.17 Y106.442 E10.31653
G1 X110.579 Y107.371 E10.37147
G1 X110.271 Y107.794 E10.39757
G1 X109.582 Y108.627 E10.4515
G1 X109.219 Y109.014 E10.47798
G1 X108.418 Y109.765 E10.53275
G1 X108.014 Y110.099 E10.55891
G1 X107.125 Y110.745 E10.61373
G1 X106.68 Y111.027 E10.64002
G1 X105.731 Y111.549 E10.69405
G1 X105.258 Y111.772 E10.72014
G1 X104.239 Y112.177 E10.77485
G1 X103.728 Y112.343 E10.80165
G1 X102.664 Y112.615 E10.85644
G1 X102.151 Y112.713 E10.8825
G1 X101.075 Y112.849 E10.93661
G1 X100.548 Y112.882 E10.96295
G1 X99.452 Y112.882 E11.01763
G1 X98.925 Y112.849 E11.04397
G1 X97.849 Y112.713 E11.09808
G1 X97.336 Y112.615 E11.12414
G1 X96.272 Y112.343 E11.17893
G1 X95.761 Y112.177 E11.20574
G1 X94.742 Y111.772 E11.26044
G1 X94.269 Y111.549 E11.28653
G1 X93.32 Y111.027 E11.34057
G1 X92.875 Y110.745 E11.36685
G1 X91.986 Y110.099 E11.42168
G1 X91.582 Y109.765 E11.44783
G1 X90.781 Y109.014 E11.50261
G1 X90.418 Y108.627 E11.52908
G1 X89.729 Y107.794 E11.58301
G1 X89.421 Y107.371 E11.60912
G1 X88.83 Y106.442 E11.66405
G1 X88.572 Y105.973 E11.69075
G1 X88.108 Y104.985 E11.74521
G1 X87.914 Y104.495 E11.7715
G1 X87.578 Y103.458 E11.82589
G1 X87.448 Y102.95 E11.85205
G1 X87.244 Y101.88 E11.90639
G1 X87.178 Y101.354 E11.93284
G1 X87.11 Y100.262 E11.98743
G1 X87.11 Y99.74 E12.01347
G1 X87.178 Y98.646 E12.06815
G1 X87.244 Y98.12 E12.0946
G1 X87.448 Y97.05 E12.14895
G1 X87.578 Y96.542 E12.17511
G1 X87.914 Y95.505 E12.22949
G1 X88.108 Y95.014 E12.25583
G1 X88.573 Y94.024 E12.3104
G1 X88.832 Y93.555 E12.33713
G1 X89.422 Y92.628 E12.39195
G1 X89.729 Y92.206 E12.41798
G1 X90.418 Y91.373 E12.47192
G1 X90.781 Y90.986 E12.49839
G0 F1800 X91.055 Y91.278
G1 F1200 X91.856 Y90.527 E12.55317
G1 X92.221 Y90.225 E12.5768
G1 X93.11 Y89.579 E12.63163
G1 X93.513 Y89.323 E12.65545
G1 X94.462 Y88.801 E12.70948
G1 X94.889 Y88.6 E12.73303
G1 X95.908 Y88.195 E12.78773
G1 X96.371 Y88.044 E12.81203
G1 X97.435 Y87.772 E12.86682
G1 X97.899 Y87.684 E12.89038
G1 X98.975 Y87.548 E12.94449
G1 X99.452 Y87.518 E12.96834
G1 X100.548 Y87.518 E13.02302
G1 X101.025 Y87.548 E13.04686
G1 X102.101 Y87.684 E13.10097
G1 X102.565 Y87.772 E13.12453
G1 X103.629 Y88.044 E13.17932
G1 X104.092 Y88.195 E13.20362
G1 X105.111 Y88.6 E13.25832
G1 X105.538 Y88.801 E13.28187
G1 X106.487 Y89.323 E13.33591
G1 X106.89 Y89.579 E13.35972
G1 X107.779 Y90.225 E13.41455
G1 X108.144 Y90.527 E13.43819
G1 X108.945 Y91.278 E13.49296
G1 X109.274 Y91.628 E13.51693
G1 X109.963 Y92.461 E13.57086
G1 X110.241 Y92.843 E13.59443
G1 X110.831 Y93.77 E13.64925
G1 X111.065 Y94.195 E13.67346
G1 X111.529 Y95.183 E13.72792
G1 X111.704 Y95.626 E13.75168
G1 X112.041 Y96.665 E13.80617
G1 X112.159 Y97.125 E13.82987
G1 X112.363 Y98.195 E13.88421
G1 X112.423 Y98.671 E13.90815
G1 X112.491 Y99.763 E13.96273
G1 X112.491 Y100.235 E13.98628
G1 X112.423 Y101.329 E14.04096
G1 X112.363 Y101.805 E14.0649
G1 X112.159 Y102.875 E14.11924
G1 X112.041 Y103.334 E14.14289
G1 X111.705 Y104.371 E14.19727
G1 X111.53 Y104.815 E14.22108
G1 X111.066 Y105.803 E14.27554
G1 X110.832 Y106.228 E14.29974
G1 X110.241 Y107.157 E14.35468
G1 X109.963 Y107.539 E14.37825
G1 X109.274 Y108.372 E14.43218
G1 X108.945 Y108.722 E14.45614
G1 X108.144 Y109.473 E14.51092
G1 X107.779 Y109.775 E14.53456
G1 X106.89 Y110.421 E14.58938
G1 X106.487 Y110.677 E14.6132
G1 X105.538 Y111.199 E14.66724
G1 X105.111 Y111.4 E14.69078
G1 X104.092 Y111.805 E14.74549
G1 X103.629 Y111.956 E14.76979
G1 X102.565 Y112.228 E14.82458
G1 X102.101 Y112.316 E14.84814
G1 X101.025 Y112.452 E14.90225
G1 X100.548 Y112.482 E14.92609
G1 X99.452 Y112.482 E14.98077
G1 X98.975 Y112.452 E15.00462
G1 X97.899 Y112.316 E15.05873
G1 X97.435 Y112.228 E15.08229
G1 X96.371 Y111.956 E15.13708
G1 X95.908 Y111.805 E15.16137
G1 X94.889 Y111.4 E15.21608
G1 X94.462 Y111.199 E15.23963
G1 X93.513 Y110.677 E15.29366
G1 X93.11 Y110.421 E15.31748
G1 X92.221 Y109.775 E15.37231
G1 X91.856 Y109.473 E15.39594
G1 X91.055 Y108.722 E15.45072
G1 X90.726 Y108.372 E15.47469
G1 X90.037 Y107.539 E15.52862
G1 X89.759 Y107.157 E15.55219
G1 X89.168 Y106.228 E15.60712
G1 X88.934 Y105.803 E15.63132
G1 X88.47 Y104.815 E15.68578
G1 X88.295 Y104.371 E15.70959
G1 X87.959 Y103.334 E15.76398
G1 X87.841 Y102.875 E15.78762
G1 X87.637 Y101.805 E15.84196
G1 X87.577 Y101.329 E15.8659
G1 X87.509 Y100.237 E15.92048
G1 X87.509 Y99.765 E15.94403
G1 X87.577 Y98.671 E15.99872
G1 X87.637 Y98.195 E16.02265
G1 X87.841 Y97.125 E16.077
G1 X87.959 Y96.666 E16.10064
G1 X88.295 Y95.629 E16.15503
G1 X88.471 Y95.184 E16.1789
G1 X88.936 Y94.194 E16.23347
G1 X89.169 Y93.77 E16.25761
G1 X89.759 Y92.843 E16.31243
G1 X90.037 Y92.461 E16.336
G1 X90.726 Y91.628 E16.38993
G1 X91.055 Y91.278 E16.4139
G0 F1800 X91.328 Y91.57
G1 F1200 X92.129 Y90.819 E16.46867
G1 X92.456 Y90.548 E16.48986
G1 X93.345 Y89.902 E16.54469
G1 X93.705 Y89.674 E16.56595
G1 X94.654 Y89.152 E16.61998
G1 X95.037 Y88.971 E16.64112
G1 X96.056 Y88.566 E16.69582
G1 X96.47 Y88.432 E16.71753
G1 X97.534 Y88.16 E16.77232
G1 X97.95 Y88.081 E16.79345
G1 X99.026 Y87.945 E16.84756
G1 X99.452 Y87.918 E16.86885
G1 X100.548 Y87.918 E16.92353
G1 X100.974 Y87.945 E16.94483
G1 X102.05 Y88.081 E16.99894
G1 X102.466 Y88.16 E17.02006
G1 X103.53 Y88.432 E17.07485
G1 X103.944 Y88.566 E17.09656
G1 X104.963 Y88.971 E17.15127
G1 X105.346 Y89.152 E17.1724
G1 X106.295 Y89.674 E17.22644
G1 X106.655 Y89.902 E17.2477
G1 X107.544 Y90.548 E17.30252
G1 X107.871 Y90.819 E17.32371
G1 X108.672 Y91.57 E17.37849
G1 X108.966 Y91.883 E17.39992
G1 X109.655 Y92.716 E17.45385
G1 X109.903 Y93.057 E17.47489
G1 X110.493 Y93.984 E17.52971
G1 X110.703 Y94.365 E17.55141
G1 X111.167 Y95.353 E17.60587
G1 X111.323 Y95.749 E17.6271
G1 X111.66 Y96.788 E17.6816
G1 X111.766 Y97.2 E17.70282
G1 X111.97 Y98.27 E17.75716
G1 X112.023 Y98.696 E17.77858
G1 X112.091 Y99.788 E17.83317
G1 X112.091 Y100.21 E17.85422
G1 X112.023 Y101.304 E17.90891
G1 X111.97 Y101.73 E17.93032
G1 X111.766 Y102.8 E17.98467
G1 X111.66 Y103.211 E18.00584
G1 X111.324 Y104.248 E18.06023
G1 X111.168 Y104.645 E18.08151
G1 X110.704 Y105.633 E18.13596
G1 X110.495 Y106.013 E18.1576
G1 X109.904 Y106.942 E18.21253
G1 X109.655 Y107.284 E18.23364
G1 X108.966 Y108.117 E18.28757
G1 X108.672 Y108.43 E18.30899
G1 X107.871 Y109.181 E18.36377
G1 X107.544 Y109.452 E18.38496
G1 X106.655 Y110.098 E18.43979
G1 X106.295 Y110.326 E18.46105
G1 X105.346 Y110.848 E18.51508
G1 X104.963 Y111.029 E18.53622
G1 X103.944 Y111.434 E18.59092
G1 X103.53 Y111.568 E18.61263
G1 X102.466 Y111.84 E18.66742
G1 X102.05 Y111.919 E18.68855
G1 X100.974 Y112.055 E18.74266
G1 X100.548 Y112.082 E18.76395
G1 X99.452 Y112.082 E18.81863
G1 X99.026 Y112.055 E18.83993
G1 X97.95 Y111.919 E18.89404
G1 X97.534 Y111.84 E18.91516
G1 X96.47 Y111.568 E18.96995
G1 X96.056 Y111.434 E18.99166
G1 X95.037 Y111.029 E19.04637
G1 X94.654 Y110.848 E19.0675
G1 X93.705 Y110.326 E19.12154
G1 X93.345 Y110.098 E19.1428
G1 X92.456 Y109.452 E19.19762
G1 X92.129 Y109.181 E19.21881
G1 X91.328 Y108.43 E19.27359
G1 X91.034 Y108.117 E19.29502
G1 X90.345 Y107.284 E19.34895
G1 X90.096 Y106.942 E19.37005
G1 X89.505 Y106.013 E19.42499
G1 X89.296 Y105.633 E19.44662
G1 X88.832 Y104.645 E19.50108
G1 X88.676 Y104.248 E19.52236
G1 X88.34 Y103.211 E19.57674
G1 X88.234 Y102.8 E19.59792
G1 X88.03 Y101.73 E19.65226
G1 X87.977 Y101.304 E19.67368
G1 X87.909 Y100.212 E19.72827
G1 X87.909 Y99.79 E19.74932
G1 X87.977 Y98.696 E19.80401
G1 X88.03 Y98.27 E19.82542
G1 X88.234 Y97.2 E19.87977
G1 X88.34 Y96.789 E19.90094
G1 X88.676 Y95.752 E19.95533
G1 X88.833 Y95.355 E19.97663
G1 X89.298 Y94.365 E20.03119
G1 X89.507 Y93.984 E20.05287
G1 X90.097 Y93.057 E20.10769
G1 X90.345 Y92.716 E20.12873
G1 X91.034 Y91.883 E20.18266
G1 X91.328 Y91.57 E20.20409
G0 F1800 X91.602 Y91.861
G1 F1200 X92.403 Y91.11 E20.25887
G1 X92.691 Y90.872 E20.27751
G1 X93.58 Y90.226 E20.33233
G1 X93.898 Y90.024 E20.35113
G1 X94.847 Y89.502 E20.40516
G1 X95.185 Y89.343 E20.4238
G1 X96.204 Y88.938 E20.4785
G1 X96.569 Y88.819 E20.49766
G1 X97.633 Y88.547 E20.55245
G1 X98 Y88.478 E20.57108
G1 X99.076 Y88.342 E20.62519
G1 X99.452 Y88.318 E20.64398
G1 X100.548 Y88.318 E20.69866
G1 X100.924 Y88.342 E20.71746
G1 X102 Y88.478 E20.77157
G1 X102.367 Y88.547 E20.7902
G1 X103.431 Y88.819 E20.84499
G1 X103.796 Y88.938 E20.86414
G1 X104.815 Y89.343 E20.91885
G1 X105.153 Y89.502 E20.93749
G1 X106.102 Y90.024 E20.99152
