;FLAVOR:RepRap
;TIME:3055
;Filament used: 2.83946m
;Layer height: 0.15
;Generated with Cura_SteamEngine 2.5.0-BETA
M190 S55
M104 S210
M109 S210
G21 ;metric values
G90 ;absolute positioning
M82 ;set extruder to absolute mode
M107 ;start with the fan off
;G28 X0 Y0 ;move X/Y to min endstops
;G28 Z0 ;move Z to min endstops
;G1 Z15.0 F9000 ;move the platform down 15mm
G92 E0 ;zero the extruded length
G1 F200 E3 ;extrude 3mm of feed stock
G92 E0 ;zero the extruded length again
G1 F9000
;Put printing message on LCD screen
M117 Printing...
;LAYER_COUNT:66
;LAYER:0
M107
G0 F1800 X90.359 Y70.392 Z0.3
;TYPE:SKIRT
G1 F1200 X90.747 Y69.892 E0.03157
G1 X91.186 Y69.452 E0.06258
G1 X92.135 Y68.614 E0.12575
G1 X92.635 Y68.226 E0.15732
G1 X93.038 Y67.979 E0.1809
G1 X93.852 Y67.532 E0.22723
G1 X94.713 Y67.16 E0.27403
G1 X95.62 Y66.865 E0.32161
G1 X96.232 Y66.708 E0.35313
G1 X96.694 Y66.642 E0.37642
G1 X97.929 Y66.525 E0.43831
G1 X98.561 Y66.506 E0.46985
G1 X99.022 Y66.542 E0.49292
G1 X99.956 Y66.659 E0.53988
G1 X100.577 Y66.777 E0.57142
G1 X100.881 Y66.865 E0.58721
G1 X101.788 Y67.16 E0.63479
G1 X102.376 Y67.393 E0.66635
G1 X102.792 Y67.614 E0.68985
G1 X103.868 Y68.252 E0.75226
G1 X104.39 Y68.608 E0.78378
G1 X104.854 Y69.017 E0.81464
G1 X105.732 Y69.895 E0.87658
G1 X106.149 Y70.37 E0.90812
G1 X106.497 Y70.881 E0.93896
G1 X107.136 Y71.959 E1.00148
G1 X107.423 Y72.523 E1.03306
G1 X107.59 Y72.963 E1.05653
G1 X107.885 Y73.87 E1.10412
G1 X108.069 Y74.635 E1.14337
G1 X108.165 Y75.242 E1.17403
G1 X108.226 Y76.013 E1.21262
G1 X108.24 Y82.602 E1.54135
G1 X108.557 Y82.646 E1.55731
G1 X109.176 Y82.772 E1.58883
G1 X110.008 Y83.079 E1.63307
G1 X110.464 Y83.295 E1.65825
G1 X111.017 Y83.601 E1.68978
G1 X111.504 Y83.956 E1.71984
G1 X111.885 Y84.27 E1.74447
G1 X112.346 Y84.702 E1.77599
G1 X112.746 Y85.184 E1.80724
G1 X113.044 Y85.593 E1.83249
G1 X113.383 Y86.126 E1.864
G1 X113.657 Y86.709 E1.89614
G1 X113.842 Y87.18 E1.92139
G1 X114.035 Y87.782 E1.95293
G1 X114.148 Y88.377 E1.98314
G1 X114.21 Y88.864 E2.00764
G1 X114.25 Y89.495 E2.03918
G1 X114.25 Y111.74 E3.14899
G1 X114.602 Y111.856 E3.16748
G1 X115.174 Y112.127 E3.19906
G1 X115.706 Y112.467 E3.23056
G1 X116.191 Y112.873 E3.26211
G1 X116.621 Y113.336 E3.29364
G1 X116.99 Y113.85 E3.3252
G1 X117.29 Y114.406 E3.35672
G1 X117.518 Y114.995 E3.38823
G1 X117.67 Y115.609 E3.41979
G1 X117.75 Y116.5 E3.46442
G1 X117.75 Y127.726 E4.02449
G1 X117.71 Y128.357 E4.05603
G1 X117.591 Y128.978 E4.08758
G1 X117.394 Y129.578 E4.11908
G1 X117.123 Y130.15 E4.15066
G1 X116.783 Y130.682 E4.18216
G1 X116.377 Y131.167 E4.21372
G1 X115.914 Y131.597 E4.24524
G1 X115.4 Y131.966 E4.27681
G1 X114.844 Y132.266 E4.30833
G1 X114.255 Y132.494 E4.33984
G1 X113.641 Y132.646 E4.37139
G1 X112.75 Y132.726 E4.41603
G1 X91.25 Y132.725 E5.48867
G1 X90.619 Y132.685 E5.52021
G1 X89.998 Y132.566 E5.55175
G1 X89.397 Y132.369 E5.58331
G1 X88.826 Y132.098 E5.61484
G1 X88.294 Y131.757 E5.64637
G1 X87.809 Y131.352 E5.67789
G1 X87.378 Y130.889 E5.70945
G1 X87.01 Y130.375 E5.74099
G1 X86.71 Y129.819 E5.77251
G1 X86.482 Y129.229 E5.80406
G1 X86.33 Y128.616 E5.83557
G1 X86.25 Y127.725 E5.8802
G1 X86.25 Y122.389 E6.14642
G1 X85.998 Y122.341 E6.15922
G1 X85.398 Y122.144 E6.19072
G1 X84.826 Y121.873 E6.2223
G1 X84.294 Y121.533 E6.2538
G1 X83.809 Y121.127 E6.28535
G1 X83.379 Y120.664 E6.31688
G1 X83.01 Y120.15 E6.34845
G1 X82.71 Y119.594 E6.37997
G1 X82.482 Y119.005 E6.41148
G1 X82.33 Y118.391 E6.44303
G1 X82.25 Y117.497 E6.48781
G1 X82.266 Y89.497 E7.88474
G1 X82.337 Y88.663 E7.9265
G1 X82.462 Y87.927 E7.96374
G1 X82.607 Y87.312 E7.99527
G1 X82.828 Y86.719 E8.02684
G1 X83.01 Y86.354 E8.04719
G1 X83.251 Y85.916 E8.07213
G1 X83.59 Y85.382 E8.10369
G1 X83.989 Y84.901 E8.13486
G1 X84.335 Y84.533 E8.16006
G1 X84.797 Y84.101 E8.19162
G1 X85.305 Y83.733 E8.22292
G1 X85.727 Y83.466 E8.24783
G1 X86.281 Y83.162 E8.27936
G1 X86.852 Y82.937 E8.30998
G1 X87.325 Y82.783 E8.33479
G1 X87.937 Y82.625 E8.36633
G1 X88.26 Y82.593 E8.38252
G1 X88.274 Y76.015 E8.7107
G1 X88.363 Y75.086 E8.75726
G1 X88.54 Y74.16 E8.80429
G1 X88.802 Y73.26 E8.85106
G1 X89.143 Y72.398 E8.89731
G1 X89.412 Y71.826 E8.92884
G1 X89.655 Y71.429 E8.95206
G1 X90.359 Y70.392 E9.0146
G0 F1800 X90.69 Y70.616
G1 F1200 X91.063 Y70.138 E9.04485
G1 X91.451 Y69.752 E9.07215
G1 X92.4 Y68.914 E9.13531
G1 X92.88 Y68.543 E9.16558
G1 X93.231 Y68.33 E9.18606
G1 X94.045 Y67.883 E9.23239
G1 X94.836 Y67.541 E9.27539
G1 X95.743 Y67.246 E9.32297
G1 X96.331 Y67.096 E9.35325
G1 X96.732 Y67.041 E9.37344
G1 X97.967 Y66.924 E9.43533
G1 X98.573 Y66.906 E9.46558
G1 X98.973 Y66.939 E9.4856
G1 X99.907 Y67.056 E9.53256
G1 X100.758 Y67.246 E9.57606
G1 X101.665 Y67.541 E9.62365
G1 X102.228 Y67.766 E9.6539
G1 X102.588 Y67.958 E9.67425
G1 X103.664 Y68.596 E9.73666
G1 X104.164 Y68.939 E9.76691
G1 X104.571 Y69.3 E9.79405
G1 X105.449 Y70.178 E9.856
G1 X105.848 Y70.634 E9.88623
G1 X106.153 Y71.085 E9.91339
G1 X106.792 Y72.163 E9.97591
G1 X107.066 Y72.704 E10.00617
G1 X107.209 Y73.086 E10.02652
G1 X107.504 Y73.993 E10.0741
G1 X107.674 Y74.697 E10.11023
G1 X107.77 Y75.304 E10.14089
G1 X107.826 Y76.013 E10.17638
G1 X107.841 Y82.953 E10.52261
G1 X107.884 Y82.956 E10.52477
G1 X108.502 Y83.042 E10.55589
G1 X109.096 Y83.165 E10.58616
G1 X109.837 Y83.441 E10.62561
G1 X110.293 Y83.657 E10.65078
G1 X110.823 Y83.952 E10.68104
G1 X111.25 Y84.264 E10.70743
G1 X111.631 Y84.578 E10.73206
G1 X112.072 Y84.994 E10.7623
G1 X112.423 Y85.419 E10.7898
G1 X112.721 Y85.828 E10.81505
G1 X113.045 Y86.341 E10.84532
G1 X113.285 Y86.855 E10.87362
G1 X113.47 Y87.326 E10.89887
G1 X113.654 Y87.904 E10.92913
G1 X113.751 Y88.427 E10.95567
G1 X113.813 Y88.914 E10.98016
G1 X113.85 Y89.495 E11.00921
G1 X113.85 Y112.039 E12.13393
G1 X113.949 Y112.059 E12.13897
G1 X114.523 Y112.255 E12.16923
G1 X115.066 Y112.526 E12.19951
G1 X115.569 Y112.865 E12.22977
G1 X116.022 Y113.267 E12.25999
G1 X116.419 Y113.725 E12.29022
G1 X116.752 Y114.232 E12.32049
G1 X117.016 Y114.778 E12.35074
G1 X117.205 Y115.354 E12.38099
G1 X117.317 Y115.95 E12.41124
G1 X117.35 Y116.5 E12.43873
G1 X117.35 Y127.726 E12.9988
G1 X117.31 Y128.331 E13.02905
G1 X117.191 Y128.925 E13.05927
G1 X116.995 Y129.499 E13.08953
G1 X116.724 Y130.042 E13.11981
G1 X116.385 Y130.545 E13.15007
G1 X115.983 Y130.998 E13.18029
G1 X115.525 Y131.395 E13.21053
G1 X115.018 Y131.728 E13.24079
G1 X114.472 Y131.992 E13.27105
G1 X113.896 Y132.181 E13.30129
G1 X113.3 Y132.293 E13.33155
G1 X112.75 Y132.326 E13.35903
G1 X91.25 Y132.325 E14.43167
G1 X90.645 Y132.285 E14.46192
G1 X90.05 Y132.166 E14.4922
G1 X89.477 Y131.969 E14.52243
G1 X88.934 Y131.699 E14.55268
G1 X88.431 Y131.36 E14.58294
G1 X87.978 Y130.958 E14.61316
G1 X87.581 Y130.5 E14.6434
G1 X87.248 Y129.993 E14.67366
G1 X86.984 Y129.447 E14.70392
G1 X86.795 Y128.871 E14.73416
G1 X86.683 Y128.275 E14.76442
G1 X86.65 Y127.725 E14.7919
G1 X86.65 Y122.06 E15.07453
G1 X86.645 Y122.06 E15.07478
G1 X86.051 Y121.941 E15.10501
G1 X85.477 Y121.745 E15.13527
G1 X84.934 Y121.474 E15.16554
G1 X84.431 Y121.135 E15.19581
G1 X83.978 Y120.733 E15.22602
G1 X83.581 Y120.275 E15.25626
G1 X83.248 Y119.768 E15.28652
G1 X82.984 Y119.222 E15.31678
G1 X82.795 Y118.646 E15.34702
G1 X82.683 Y118.05 E15.37728
G1 X82.65 Y117.497 E15.40492
G1 X82.666 Y89.497 E16.80184
G1 X82.731 Y88.73 E16.84025
G1 X82.856 Y87.994 E16.87749
G1 X82.997 Y87.404 E16.90776
G1 X83.214 Y86.838 E16.938
G1 X83.361 Y86.546 E16.95431
G1 X83.602 Y86.108 E16.97925
G1 X83.928 Y85.598 E17.00945
G1 X84.281 Y85.175 E17.03693
G1 X84.627 Y84.807 E17.06213
G1 X85.07 Y84.394 E17.09235
G1 X85.519 Y84.071 E17.11994
G1 X85.941 Y83.804 E17.14486
G1 X86.473 Y83.514 E17.17509
G1 X86.976 Y83.317 E17.20204
G1 X87.449 Y83.163 E17.22686
G1 X88.037 Y83.014 E17.25712
G1 X88.659 Y82.954 E17.28829
G1 X88.674 Y76.015 E17.63448
G1 X88.756 Y75.161 E17.67728
G1 X88.933 Y74.235 E17.72432
G1 X89.174 Y73.407 E17.76734
G1 X89.515 Y72.545 E17.81359
G1 X89.774 Y71.997 E17.84383
G1 X89.986 Y71.653 E17.86399
G1 X90.69 Y70.616 E17.92652
G0 F1800 X91.021 Y70.841
G1 F1200 X91.379 Y70.385 E17.95545
G1 X91.716 Y70.052 E17.97908
G1 X92.665 Y69.214 E18.04224
G1 X93.125 Y68.861 E18.07117
G1 X93.423 Y68.681 E18.08854
G1 X94.237 Y68.234 E18.13487
G1 X94.96 Y67.921 E18.17418
G1 X95.867 Y67.626 E18.22176
G1 X96.429 Y67.485 E18.25067
G1 X96.77 Y67.439 E18.26784
G1 X98.005 Y67.322 E18.32973
G1 X98.584 Y67.307 E18.35862
G1 X98.923 Y67.336 E18.3756
G1 X99.857 Y67.453 E18.42256
G1 X100.634 Y67.626 E18.46227
G1 X101.541 Y67.921 E18.50986
G1 X102.078 Y68.138 E18.53875
G1 X102.384 Y68.302 E18.55607
G1 X103.46 Y68.94 E18.61848
G1 X103.937 Y69.269 E18.64739
G1 X104.288 Y69.583 E18.67089
G1 X105.166 Y70.461 E18.73283
G1 X105.546 Y70.898 E18.76173
G1 X105.809 Y71.289 E18.78524
G1 X106.448 Y72.367 E18.84776
G1 X106.708 Y72.885 E18.87667
G1 X106.829 Y73.21 E18.89397
G1 X107.124 Y74.117 E18.94156
G1 X107.278 Y74.76 E18.97454
G1 X107.374 Y75.367 E19.0052
G1 X107.426 Y76.014 E19.03759
G1 X107.441 Y83.325 E19.40233
G1 X107.829 Y83.352 E19.42174
G1 X108.447 Y83.438 E19.45287
G1 X109.014 Y83.557 E19.48177
G1 X109.666 Y83.802 E19.51652
G1 X110.122 Y84.018 E19.54169
G1 X110.627 Y84.302 E19.5706
G1 X110.995 Y84.573 E19.5934
G1 X111.376 Y84.887 E19.61803
G1 X111.797 Y85.285 E19.64694
G1 X112.1 Y85.655 E19.6708
G1 X112.398 Y86.064 E19.69604
G1 X112.706 Y86.554 E19.72492
G1 X112.912 Y87.002 E19.74952
G1 X113.097 Y87.473 E19.77476
G1 X113.271 Y88.025 E19.80364
G1 X113.354 Y88.478 E19.82661
G1 X113.416 Y88.965 E19.85111
G1 X113.45 Y89.495 E19.8776
G1 X113.45 Y112.366 E21.01864
G1 X113.895 Y112.459 E21.04132
G1 X114.44 Y112.655 E21.07022
G1 X114.953 Y112.924 E21.09912
G1 X115.424 Y113.261 E21.12801
G1 X115.844 Y113.66 E21.15691
G1 X116.206 Y114.113 E21.18584
G1 X116.501 Y114.611 E21.21472
G1 X116.726 Y115.145 E21.24363
G1 X116.874 Y115.705 E21.27253
G1 X116.95 Y116.5 E21.31237
G1 X116.95 Y127.726 E21.87244
G1 X116.91 Y128.304 E21.90134
G1 X116.791 Y128.871 E21.93025
G1 X116.595 Y129.416 E21.95914
G1 X116.326 Y129.929 E21.98804
G1 X115.989 Y130.4 E22.01694
G1 X115.59 Y130.82 E22.04584
G1 X115.137 Y131.182 E22.07477
G1 X114.639 Y131.477 E22.10364
G1 X114.105 Y131.702 E22.13255
G1 X113.545 Y131.85 E22.16145
G1 X112.75 Y131.926 E22.2013
G1 X91.25 Y131.925 E23.27394
G1 X90.672 Y131.885 E23.30284
G1 X90.105 Y131.766 E23.33174
G1 X89.56 Y131.57 E23.36064
G1 X89.047 Y131.301 E23.38954
G1 X88.576 Y130.964 E23.41843
G1 X88.156 Y130.565 E23.44733
G1 X87.794 Y130.112 E23.47626
G1 X87.499 Y129.614 E23.50514
G1 X87.274 Y129.08 E23.53405
G1 X87.126 Y128.52 E23.56295
G1 X87.05 Y127.725 E23.60279
G1 X87.05 Y121.686 E23.90408
G1 X86.672 Y121.66 E23.92298
G1 X86.105 Y121.541 E23.95189
G1 X85.56 Y121.345 E23.98078
G1 X85.047 Y121.076 E24.00968
G1 X84.576 Y120.739 E24.03857
G1 X84.156 Y120.34 E24.06748
G1 X83.794 Y119.887 E24.09641
G1 X83.499 Y119.389 E24.12528
G1 X83.274 Y118.855 E24.15419
G1 X83.126 Y118.295 E24.18309
G1 X83.05 Y117.498 E24.22303
G1 X83.066 Y89.498 E25.61996
G1 X83.125 Y88.797 E25.65506
G1 X83.25 Y88.061 E25.6923
G1 X83.386 Y87.498 E25.7212
G1 X83.711 Y86.739 E25.76239
G1 X83.952 Y86.301 E25.78733
G1 X84.266 Y85.814 E25.81624
G1 X84.572 Y85.449 E25.84
G1 X84.918 Y85.081 E25.8652
G1 X85.343 Y84.687 E25.89412
G1 X85.732 Y84.409 E25.91797
G1 X86.154 Y84.142 E25.94288
G1 X86.664 Y83.867 E25.97179
G1 X87.1 Y83.697 E25.99514
G1 X87.573 Y83.543 E26.01996
G1 X88.135 Y83.402 E26.04886
G1 X88.837 Y83.337 E26.08404
G1 X89.059 Y83.335 E26.09511
G1 X89.074 Y76.016 E26.46026
G1 X89.149 Y75.236 E26.49935
G1 X89.326 Y74.31 E26.54639
G1 X89.545 Y73.554 E26.58565
G1 X89.886 Y72.692 E26.6319
G1 X90.136 Y72.169 E26.66082
G1 X90.317 Y71.878 E26.67792
G1 X91.021 Y70.841 E26.74045
G0 F1800 X91.352 Y71.066
G1 F1200 X91.694 Y70.633 E26.76798
G1 X91.981 Y70.352 E26.78802
G1 X92.93 Y69.514 E26.85118
G1 X93.368 Y69.18 E26.87866
G1 X93.616 Y69.031 E26.8931
G1 X94.43 Y68.584 E26.93943
G1 X95.084 Y68.301 E26.97498
G1 X95.991 Y68.006 E27.02256
G1 X96.526 Y67.874 E27.05005
G1 X96.808 Y67.837 E27.06424
G1 X98.043 Y67.72 E27.12613
G1 X98.593 Y67.708 E27.15358
G1 X98.873 Y67.732 E27.1676
G1 X99.807 Y67.849 E27.21456
G1 X100.51 Y68.006 E27.2505
G1 X101.417 Y68.301 E27.29808
G1 X101.928 Y68.509 E27.32561
G1 X102.18 Y68.646 E27.33992
G1 X103.256 Y69.284 E27.40233
G1 X103.708 Y69.599 E27.42981
G1 X104.005 Y69.866 E27.44974
G1 X104.883 Y70.744 E27.51169
G1 X105.243 Y71.161 E27.53917
G1 X105.465 Y71.493 E27.5591
G1 X106.104 Y72.571 E27.62162
G1 X106.35 Y73.064 E27.6491
G1 X106.449 Y73.334 E27.66345
G1 X106.744 Y74.241 E27.71103
G1 X106.883 Y74.822 E27.74084
G1 X106.979 Y75.429 E27.7715
G1 X107.026 Y76.015 E27.80083
G1 X107.042 Y83.711 E28.18478
G1 X107.261 Y83.712 E28.19571
G1 X107.774 Y83.748 E28.22137
G1 X108.392 Y83.834 E28.2525
G1 X108.931 Y83.95 E28.28
G1 X109.495 Y84.164 E28.3101
G1 X109.951 Y84.38 E28.33527
G1 X110.43 Y84.651 E28.36273
G1 X110.741 Y84.882 E28.38206
G1 X111.122 Y85.196 E28.40669
G1 X111.52 Y85.576 E28.43414
G1 X111.776 Y85.89 E28.45435
G1 X112.074 Y86.299 E28.4796
G1 X112.366 Y86.767 E28.50712
G1 X112.54 Y87.148 E28.52802
G1 X112.725 Y87.619 E28.55326
G1 X112.889 Y88.145 E28.58075
G1 X112.958 Y88.528 E28.60017
G1 X113.02 Y89.015 E28.62466
G1 X113.05 Y89.495 E28.64865
G1 X113.05 Y112.722 E29.80745
G1 X113.3 Y112.74 E29.81996
G1 X113.838 Y112.859 E29.84745
G1 X114.353 Y113.055 E29.87494
G1 X114.834 Y113.323 E29.90241
G1 X115.272 Y113.657 E29.92989
G1 X115.656 Y114.052 E29.95737
G1 X115.98 Y114.498 E29.98488
G1 X116.235 Y114.986 E30.01235
G1 X116.418 Y115.506 E30.03985
G1 X116.523 Y116.047 E30.06734
G1 X116.55 Y116.5 E30.08998
G1 X116.55 Y127.726 E30.65005
G1 X116.51 Y128.276 E30.67756
G1 X116.391 Y128.814 E30.70505
G1 X116.195 Y129.329 E30.73254
G1 X115.927 Y129.81 E30.76002
G1 X115.593 Y130.248 E30.7875
G1 X115.198 Y130.632 E30.81498
G1 X114.752 Y130.956 E30.84248
G1 X114.264 Y131.211 E30.86995
G1 X113.744 Y131.394 E30.89745
G1 X113.203 Y131.499 E30.92495
G1 X112.75 Y131.526 E30.94759
G1 X91.25 Y131.525 E32.02023
G1 X90.7 Y131.485 E32.04774
G1 X90.162 Y131.366 E32.07523
G1 X89.647 Y131.17 E32.10272
G1 X89.166 Y130.902 E32.13019
G1 X88.728 Y130.568 E32.15767
G1 X88.344 Y130.173 E32.18516
G1 X88.02 Y129.727 E32.21266
G1 X87.765 Y129.239 E32.24013
G1 X87.582 Y128.719 E32.26763
G1 X87.477 Y128.178 E32.29513
G1 X87.45 Y127.725 E32.31777
G1 X87.45 Y121.3 E32.63831
G1 X87.25 Y121.3 E32.64829
G1 X86.7 Y121.26 E32.6758
G1 X86.162 Y121.141 E32.70329
G1 X85.647 Y120.945 E32.73078
G1 X85.166 Y120.677 E32.75825
G1 X84.728 Y120.343 E32.78573
G1 X84.344 Y119.948 E32.81322
G1 X84.02 Y119.502 E32.84072
G1 X83.765 Y119.014 E32.86819
G1 X83.582 Y118.494 E32.89569
G1 X83.477 Y117.953 E32.92319
G1 X83.45 Y117.498 E32.94593
G1 X83.466 Y89.498 E34.34285
G1 X83.52 Y88.864 E34.3746
G1 X83.645 Y88.128 E34.41184
G1 X83.776 Y87.593 E34.43932
G1 X84.062 Y86.932 E34.47525
G1 X84.303 Y86.494 E34.5002
G1 X84.603 Y86.032 E34.52768
G1 X84.864 Y85.723 E34.54786
G1 X85.21 Y85.355 E34.57306
G1 X85.615 Y84.982 E34.60053
G1 X85.946 Y84.747 E34.62078
G1 X86.368 Y84.48 E34.64569
G1 X86.854 Y84.22 E34.67319
G1 X87.224 Y84.078 E34.69296
G1 X87.697 Y83.924 E34.71778
G1 X88.231 Y83.792 E34.74522
G1 X88.841 Y83.737 E34.77578
G1 X89.458 Y83.732 E34.80656
G1 X89.474 Y76.017 E35.19147
G1 X89.542 Y75.312 E35.2268
G1 X89.719 Y74.386 E35.27384
G1 X89.917 Y73.701 E35.30941
G1 X90.258 Y72.839 E35.35566
G1 X90.498 Y72.343 E35.38315
G1 X90.648 Y72.103 E35.39727
G1 X91.352 Y71.066 E35.4598
G0 F1800 X91.683 Y71.29
G1 F1200 X92.008 Y70.883 E35.48579
G1 X92.246 Y70.651 E35.50237
G1 X93.195 Y69.813 E35.56553
G1 X93.808 Y69.382 E35.60292
G1 X94.622 Y68.935 E35.64925
G1 X95.207 Y68.682 E35.68105
G1 X96.114 Y68.387 E35.72863
G1 X96.845 Y68.235 E35.76588
G1 X98.08 Y68.118 E35.82777
G1 X98.824 Y68.129 E35.86489
G1 X99.758 Y68.246 E35.91185
G1 X100.387 Y68.387 E35.94401
G1 X101.294 Y68.682 E35.9916
G1 X101.976 Y68.99 E36.02893
G1 X103.052 Y69.628 E36.09134
G1 X103.479 Y69.928 E36.11738
G1 X103.722 Y70.149 E36.13376
G1 X104.6 Y71.027 E36.19571
G1 X104.939 Y71.423 E36.22172
G1 X105.121 Y71.697 E36.23813
G1 X105.76 Y72.775 E36.30065
G1 X106.068 Y73.457 E36.33798
