;FLAVOR:RepRap
;TIME:6708
;Filament used: 5.24746m
;Layer height: 0.15
;Generated with Cura_SteamEngine 2.5.0-BETA
M190 S55
M104 S210
M109 S210
G21 ;metric values
G90 ;absolute positioning
M82 ;set extruder to absolute mode
M107 ;start with the fan off
G28 X0 Y0 ;move X/Y to min endstops
G28 Z0 ;move Z to min endstops
G1 Z15.0 F9000 ;move the platform down 15mm
G92 E0 ;zero the extruded length
G1 F200 E3 ;extrude 3mm of feed stock
G92 E0 ;zero the extruded length again
G1 F9000
;Put printing message on LCD screen
M117 Printing...
;LAYER_COUNT:98
;LAYER:0
M107
G0 F1800 X71.44 Y68.764 Z0.3
;TYPE:SKIRT
G1 F1200 X74.139 Y66.065 E0.19043
G1 X74.614 Y65.648 E0.22196
G1 X75.137 Y65.293 E0.2535
G1 X75.701 Y65.007 E0.28505
G1 X76.296 Y64.795 E0.31656
G1 X76.914 Y64.659 E0.34813
G1 X77.675 Y64.601 E0.38621
G1 X78.976 Y64.601 E0.45111
G1 X79.607 Y64.641 E0.48266
G1 X80.228 Y64.76 E0.5142
G1 X80.828 Y64.957 E0.54571
G1 X81.4 Y65.228 E0.57729
G1 X81.932 Y65.568 E0.60879
G1 X82.417 Y65.974 E0.64034
G1 X82.847 Y66.437 E0.67187
G1 X83.216 Y66.951 E0.70343
G1 X83.516 Y67.507 E0.73495
G1 X83.744 Y68.096 E0.76646
G1 X83.896 Y68.71 E0.79802
G1 X83.976 Y69.601 E0.84265
G1 X83.976 Y72.445 E0.98454
G1 X99.116 Y72.445 E1.73988
G1 X99.134 Y72.349 E1.74475
G1 X99.331 Y71.749 E1.77626
G1 X99.602 Y71.177 E1.80783
G1 X99.942 Y70.645 E1.83933
G1 X100.348 Y70.16 E1.87089
G1 X100.811 Y69.73 E1.90241
G1 X101.325 Y69.361 E1.93398
G1 X101.544 Y69.243 E1.94639
G1 X101.767 Y68.856 E1.96868
G1 X102.117 Y68.329 E2.00024
G1 X102.53 Y67.851 E2.03175
G1 X103.001 Y67.429 E2.0633
G1 X103.521 Y67.069 E2.09486
G1 X104.082 Y66.778 E2.12639
G1 X104.675 Y66.56 E2.15791
G1 X105.291 Y66.419 E2.18944
G1 X106.099 Y66.353 E2.22988
G1 X109.85 Y66.353 E2.41702
G1 X110.481 Y66.393 E2.44856
G1 X111.102 Y66.512 E2.48011
G1 X111.702 Y66.709 E2.51162
G1 X112.274 Y66.98 E2.54319
G1 X112.806 Y67.32 E2.57469
G1 X113.291 Y67.726 E2.60625
G1 X113.721 Y68.189 E2.63777
G1 X114.181 Y68.854 E2.67811
G1 X116.055 Y72.102 E2.86519
G1 X116.336 Y72.669 E2.89677
G1 X116.542 Y73.266 E2.92827
G1 X116.672 Y73.885 E2.95983
G1 X116.723 Y74.515 E2.99136
G1 X116.694 Y75.146 E3.02288
G1 X116.586 Y75.769 E3.05442
G1 X116.399 Y76.373 E3.08597
G1 X116.054 Y77.102 E3.1262
G1 X114.974 Y78.972 E3.23394
G1 X114.974 Y80.083 E3.28937
G1 X118.766 Y78.473 E3.4949
G1 X118.994 Y78.078 E3.51765
G1 X119.344 Y77.552 E3.54917
G1 X119.757 Y77.074 E3.58069
G1 X120.228 Y76.652 E3.61224
G1 X120.748 Y76.292 E3.64379
G1 X121.31 Y76.002 E3.67534
G1 X121.903 Y75.784 E3.70686
G1 X122.519 Y75.643 E3.73839
G1 X123.324 Y75.578 E3.77868
G1 X129.126 Y75.578 E4.06815
G1 X129.757 Y75.618 E4.09969
G1 X130.378 Y75.737 E4.13124
G1 X130.978 Y75.934 E4.16274
G1 X131.55 Y76.205 E4.19432
G1 X132.082 Y76.545 E4.22582
G1 X132.567 Y76.951 E4.25737
G1 X132.997 Y77.414 E4.2889
G1 X133.457 Y78.079 E4.32924
G1 X136.356 Y83.102 E4.61858
G1 X136.636 Y83.668 E4.65008
G1 X136.843 Y84.265 E4.68161
G1 X136.973 Y84.884 E4.71316
G1 X137.024 Y85.514 E4.7447
G1 X136.995 Y86.145 E4.77621
G1 X136.887 Y86.768 E4.80776
G1 X136.701 Y87.372 E4.83929
G1 X136.355 Y88.101 E4.87955
G1 X133.456 Y93.123 E5.16884
G1 X133.106 Y93.649 E5.20036
G1 X132.693 Y94.127 E5.23188
G1 X132.222 Y94.549 E5.26343
G1 X131.702 Y94.908 E5.29496
G1 X131.141 Y95.199 E5.32648
G1 X130.547 Y95.417 E5.35805
G1 X129.931 Y95.558 E5.38958
G1 X129.126 Y95.623 E5.42987
G1 X124.426 Y95.623 E5.66436
G1 X117.974 Y98.363 E6.01407
G1 X117.974 Y130.399 E7.61235
G1 X117.934 Y131.03 E7.6439
G1 X117.815 Y131.651 E7.67544
G1 X117.618 Y132.251 E7.70695
G1 X117.347 Y132.823 E7.73853
G1 X117.007 Y133.355 E7.77003
G1 X116.601 Y133.84 E7.80158
G1 X116.138 Y134.27 E7.83311
G1 X115.624 Y134.639 E7.86467
G1 X115.068 Y134.939 E7.89619
G1 X114.479 Y135.167 E7.9277
G1 X113.865 Y135.319 E7.95926
G1 X112.974 Y135.399 E8.00389
G1 X70.827 Y135.399 E10.10661
G1 X70.196 Y135.359 E10.13816
G1 X69.575 Y135.24 E10.1697
G1 X68.975 Y135.043 E10.20121
G1 X68.403 Y134.772 E10.23279
G1 X67.871 Y134.432 E10.26429
G1 X67.292 Y133.935 E10.30236
G1 X64.44 Y131.084 E10.50354
G1 X64.022 Y130.61 E10.53507
G1 X63.667 Y130.087 E10.56661
G1 X63.382 Y129.523 E10.59814
G1 X63.169 Y128.927 E10.62971
G1 X63.033 Y128.31 E10.66123
G1 X62.975 Y127.548 E10.69936
G1 X62.975 Y118.6 E11.14578
G1 X63.015 Y117.969 E11.17732
G1 X63.134 Y117.348 E11.20887
G1 X63.331 Y116.748 E11.24037
G1 X63.602 Y116.176 E11.27195
G1 X63.942 Y115.644 E11.30345
G1 X64.348 Y115.159 E11.33501
G1 X64.811 Y114.729 E11.36653
G1 X65.325 Y114.36 E11.3981
G1 X65.881 Y114.06 E11.42962
G1 X66.47 Y113.832 E11.46113
G1 X67.084 Y113.68 E11.49268
G1 X67.975 Y113.6 E11.53732
G1 X72.976 Y113.6 E11.78682
G1 X72.976 Y79.175 E13.50429
G1 X72.552 Y78.974 E13.5277
G1 X72.02 Y78.634 E13.5592
G1 X71.535 Y78.228 E13.59075
G1 X71.105 Y77.765 E13.62228
G1 X70.736 Y77.251 E13.65384
G1 X70.436 Y76.695 E13.68536
G1 X70.208 Y76.106 E13.71687
G1 X70.056 Y75.492 E13.74843
G1 X69.976 Y74.601 E13.79306
G1 X69.976 Y72.3 E13.90786
G1 X70.016 Y71.669 E13.9394
G1 X70.135 Y71.048 E13.97095
G1 X70.332 Y70.448 E14.00245
G1 X70.603 Y69.876 E14.03403
G1 X70.943 Y69.344 E14.06553
G1 X71.44 Y68.764 E14.10364
G0 F1800 X71.723 Y69.047
G1 F1200 X74.422 Y66.348 E14.29407
G1 X74.878 Y65.949 E14.3243
G1 X75.383 Y65.613 E14.35456
G1 X75.927 Y65.346 E14.38479
G1 X76.502 Y65.153 E14.41505
G1 X77.097 Y65.037 E14.44529
G1 X77.675 Y65.001 E14.47419
G1 X78.976 Y65.001 E14.53909
G1 X79.581 Y65.041 E14.56934
G1 X80.175 Y65.16 E14.59957
G1 X80.749 Y65.356 E14.62983
G1 X81.292 Y65.627 E14.6601
G1 X81.795 Y65.966 E14.69037
G1 X82.248 Y66.368 E14.72058
G1 X82.645 Y66.826 E14.75082
G1 X82.978 Y67.333 E14.78108
G1 X83.242 Y67.879 E14.81134
G1 X83.431 Y68.455 E14.84159
G1 X83.543 Y69.051 E14.87184
G1 X83.576 Y69.601 E14.89933
G1 X83.576 Y72.845 E15.06117
G1 X99.445 Y72.845 E15.85288
G1 X99.534 Y72.402 E15.87542
G1 X99.73 Y71.828 E15.90568
G1 X100.001 Y71.285 E15.93596
G1 X100.34 Y70.782 E15.96622
G1 X100.742 Y70.329 E15.99644
G1 X101.2 Y69.932 E16.02668
G1 X101.707 Y69.599 E16.05694
G1 X101.837 Y69.536 E16.06415
G1 X102.114 Y69.056 E16.0918
G1 X102.451 Y68.551 E16.12209
G1 X102.851 Y68.096 E16.15231
G1 X103.307 Y67.697 E16.18254
G1 X103.812 Y67.362 E16.21277
G1 X104.357 Y67.095 E16.24305
G1 X104.932 Y66.903 E16.2733
G1 X105.528 Y66.789 E16.30357
G1 X106.099 Y66.753 E16.33211
G1 X109.85 Y66.753 E16.51925
G1 X110.455 Y66.793 E16.5495
G1 X111.049 Y66.912 E16.57972
G1 X111.623 Y67.108 E16.60998
G1 X112.166 Y67.379 E16.64026
G1 X112.669 Y67.718 E16.67052
G1 X113.122 Y68.12 E16.70074
G1 X113.519 Y68.578 E16.73098
G1 X113.834 Y69.054 E16.75946
G1 X115.708 Y72.302 E16.94654
G1 X115.976 Y72.846 E16.97679
G1 X116.17 Y73.421 E17.00707
G1 X116.287 Y74.016 E17.03732
G1 X116.324 Y74.621 E17.06756
G1 X116.281 Y75.226 E17.09782
G1 X116.16 Y75.819 E17.12801
G1 X115.961 Y76.392 E17.15828
G1 X115.707 Y76.902 E17.1867
G1 X114.574 Y78.864 E17.29973
G1 X114.574 Y80.687 E17.39068
G1 X119.045 Y78.789 E17.63301
G1 X119.34 Y78.278 E17.66245
G1 X119.677 Y77.774 E17.6927
G1 X120.078 Y77.319 E17.72295
G1 X120.535 Y76.92 E17.75322
G1 X121.04 Y76.585 E17.78345
G1 X121.585 Y76.319 E17.81371
G1 X122.16 Y76.128 E17.84394
G1 X122.755 Y76.013 E17.87417
G1 X123.324 Y75.978 E17.90261
G1 X129.126 Y75.978 E18.19208
G1 X129.731 Y76.018 E18.22233
G1 X130.325 Y76.137 E18.25255
G1 X130.899 Y76.333 E18.28281
G1 X131.442 Y76.604 E18.31309
G1 X131.945 Y76.943 E18.34335
G1 X132.398 Y77.345 E18.37356
G1 X132.795 Y77.803 E18.4038
G1 X133.11 Y78.279 E18.43228
G1 X136.009 Y83.302 E18.72162
G1 X136.277 Y83.846 E18.75188
G1 X136.471 Y84.42 E18.7821
G1 X136.588 Y85.015 E18.81236
G1 X136.625 Y85.62 E18.8426
G1 X136.582 Y86.225 E18.87286
G1 X136.461 Y86.819 E18.9031
G1 X136.262 Y87.392 E18.93336
G1 X136.009 Y87.901 E18.96172
G1 X133.11 Y92.923 E19.25102
G1 X132.773 Y93.427 E19.28127
G1 X132.372 Y93.882 E19.31152
G1 X131.916 Y94.281 E19.34175
G1 X131.41 Y94.616 E19.37203
G1 X130.865 Y94.881 E19.40226
G1 X130.29 Y95.073 E19.43251
G1 X129.695 Y95.188 E19.46274
G1 X129.126 Y95.223 E19.49118
G1 X124.345 Y95.223 E19.72971
G1 X117.574 Y98.098 E20.0967
G1 X117.574 Y130.399 E21.70821
G1 X117.534 Y131.004 E21.73846
G1 X117.415 Y131.598 E21.76868
G1 X117.219 Y132.172 E21.79894
G1 X116.948 Y132.715 E21.82922
G1 X116.609 Y133.218 E21.85948
G1 X116.207 Y133.671 E21.8897
G1 X115.749 Y134.068 E21.91993
G1 X115.242 Y134.401 E21.9502
G1 X114.696 Y134.665 E21.98045
G1 X114.12 Y134.854 E22.0107
G1 X113.524 Y134.966 E22.04095
G1 X112.974 Y134.999 E22.06844
G1 X70.827 Y134.999 E24.17116
G1 X70.222 Y134.959 E24.20141
G1 X69.628 Y134.84 E24.23164
G1 X69.054 Y134.644 E24.2619
G1 X68.511 Y134.373 E24.29218
G1 X68.008 Y134.034 E24.32244
G1 X67.575 Y133.652 E24.35124
G1 X64.723 Y130.801 E24.55243
G1 X64.323 Y130.345 E24.5827
G1 X63.987 Y129.841 E24.61292
G1 X63.72 Y129.296 E24.64319
G1 X63.527 Y128.722 E24.67341
G1 X63.412 Y128.126 E24.70369
G1 X63.375 Y127.548 E24.73258
G1 X63.375 Y118.6 E25.179
G1 X63.415 Y117.995 E25.20925
G1 X63.534 Y117.401 E25.23948
G1 X63.73 Y116.827 E25.26974
G1 X64.001 Y116.284 E25.30001
G1 X64.34 Y115.781 E25.33027
G1 X64.742 Y115.328 E25.36049
G1 X65.2 Y114.931 E25.39073
G1 X65.707 Y114.598 E25.42099
G1 X66.253 Y114.334 E25.45125
G1 X66.829 Y114.145 E25.48149
G1 X67.425 Y114.033 E25.51175
G1 X67.975 Y114 E25.53924
G1 X73.376 Y114 E25.80869
G1 X73.376 Y78.905 E27.55959
G1 X73.203 Y78.846 E27.56871
G1 X72.66 Y78.575 E27.59899
G1 X72.157 Y78.236 E27.62925
G1 X71.704 Y77.834 E27.65947
G1 X71.307 Y77.376 E27.6897
G1 X70.974 Y76.869 E27.71997
G1 X70.71 Y76.323 E27.75022
G1 X70.521 Y75.747 E27.78047
G1 X70.409 Y75.151 E27.81072
G1 X70.376 Y74.601 E27.83821
G1 X70.376 Y72.3 E27.95301
G1 X70.416 Y71.695 E27.98326
G1 X70.535 Y71.101 E28.01348
G1 X70.731 Y70.527 E28.04374
G1 X71.002 Y69.984 E28.07402
G1 X71.341 Y69.481 E28.10428
G1 X71.723 Y69.047 E28.13313
G0 F1800 X72.006 Y69.33
G1 F1200 X74.705 Y66.631 E28.32356
G1 X75.142 Y66.251 E28.35245
G1 X75.627 Y65.934 E28.38135
G1 X76.151 Y65.687 E28.41026
G1 X76.704 Y65.515 E28.43915
G1 X77.276 Y65.42 E28.46808
G1 X77.675 Y65.401 E28.48801
G1 X78.976 Y65.401 E28.55291
G1 X79.554 Y65.441 E28.58182
G1 X80.121 Y65.56 E28.61072
G1 X80.666 Y65.756 E28.63962
G1 X81.179 Y66.025 E28.66852
G1 X81.65 Y66.362 E28.69741
G1 X82.07 Y66.761 E28.72631
G1 X82.432 Y67.214 E28.75524
G1 X82.727 Y67.712 E28.78412
G1 X82.952 Y68.246 E28.81303
G1 X83.1 Y68.806 E28.84193
G1 X83.176 Y69.601 E28.88177
G1 X83.176 Y73.245 E29.06357
G1 X99.8 Y73.245 E29.89294
G1 X99.815 Y73.023 E29.90405
G1 X99.934 Y72.456 E29.93295
G1 X100.13 Y71.911 E29.96184
G1 X100.399 Y71.398 E29.99074
G1 X100.736 Y70.927 E30.01964
G1 X101.135 Y70.507 E30.04854
G1 X101.588 Y70.145 E30.07747
G1 X102.086 Y69.85 E30.10635
G1 X102.127 Y69.833 E30.10856
G1 X102.46 Y69.255 E30.14184
G1 X102.784 Y68.775 E30.17073
G1 X103.17 Y68.343 E30.19964
G1 X103.612 Y67.968 E30.22855
G1 X104.101 Y67.658 E30.25744
G1 X104.629 Y67.419 E30.28635
G1 X105.184 Y67.254 E30.31524
G1 X105.757 Y67.167 E30.34416
G1 X106.099 Y67.153 E30.36123
G1 X109.85 Y67.153 E30.54837
G1 X110.428 Y67.193 E30.57728
G1 X110.995 Y67.312 E30.60618
G1 X111.54 Y67.508 E30.63508
G1 X112.053 Y67.777 E30.66397
G1 X112.524 Y68.114 E30.69287
G1 X112.944 Y68.513 E30.72177
G1 X113.306 Y68.966 E30.7507
G1 X113.488 Y69.254 E30.7677
G1 X115.362 Y72.502 E30.95478
G1 X115.616 Y73.023 E30.9837
G1 X115.796 Y73.573 E31.01257
G1 X115.899 Y74.143 E31.04147
G1 X115.922 Y74.722 E31.07037
G1 X115.866 Y75.299 E31.0993
G1 X115.73 Y75.862 E31.12819
G1 X115.519 Y76.401 E31.15707
G1 X115.361 Y76.702 E31.17403
G1 X114.174 Y78.757 E31.29243
G1 X114.174 Y81.291 E31.41885
G1 X119.326 Y79.104 E31.69808
G1 X119.687 Y78.478 E31.73414
G1 X120.01 Y77.998 E31.763
G1 X120.397 Y77.566 E31.79194
G1 X120.839 Y77.192 E31.82082
G1 X121.329 Y76.882 E31.84975
G1 X121.856 Y76.643 E31.87862
G1 X122.412 Y76.478 E31.90756
G1 X122.984 Y76.392 E31.93641
G1 X123.324 Y76.378 E31.95339
G1 X129.126 Y76.378 E32.24285
G1 X129.704 Y76.418 E32.27176
G1 X130.271 Y76.537 E32.30066
G1 X130.816 Y76.733 E32.32956
G1 X131.329 Y77.002 E32.35846
G1 X131.8 Y77.339 E32.38735
G1 X132.22 Y77.738 E32.41625
G1 X132.582 Y78.191 E32.44518
G1 X132.764 Y78.479 E32.46218
G1 X135.663 Y83.502 E32.75152
G1 X135.917 Y84.022 E32.78039
G1 X136.097 Y84.573 E32.80931
G1 X136.2 Y85.143 E32.83821
G1 X136.223 Y85.722 E32.86712
G1 X136.167 Y86.298 E32.89599
G1 X136.031 Y86.861 E32.92489
G1 X135.82 Y87.401 E32.95381
G1 X135.662 Y87.701 E32.97073
G1 X132.763 Y92.723 E33.26002
G1 X132.44 Y93.203 E33.28889
G1 X132.053 Y93.635 E33.31783
G1 X131.611 Y94.009 E33.34671
G1 X131.122 Y94.319 E33.3756
G1 X130.594 Y94.558 E33.40451
G1 X130.039 Y94.723 E33.4334
G1 X129.466 Y94.809 E33.46231
G1 X129.126 Y94.823 E33.47928
G1 X124.264 Y94.823 E33.72185
G1 X117.174 Y97.834 E34.10615
G1 X117.174 Y130.399 E35.73082
G1 X117.134 Y130.977 E35.75973
G1 X117.015 Y131.544 E35.78863
G1 X116.819 Y132.089 E35.81753
G1 X116.55 Y132.602 E35.84642
G1 X116.213 Y133.073 E35.87532
G1 X115.814 Y133.493 E35.90422
G1 X115.361 Y133.855 E35.93315
G1 X114.863 Y134.15 E35.96203
G1 X114.329 Y134.375 E35.99094
G1 X113.769 Y134.523 E36.01984
G1 X112.974 Y134.599 E36.05968
G1 X70.827 Y134.599 E38.1624
G1 X70.249 Y134.559 E38.19131
G1 X69.682 Y134.44 E38.22021
G1 X69.137 Y134.244 E38.24911
G1 X68.624 Y133.975 E38.278
G1 X68.153 Y133.638 E38.3069
G1 X67.858 Y133.369 E38.32682
G1 X65.006 Y130.518 E38.528
G1 X64.625 Y130.082 E38.55689
G1 X64.308 Y129.596 E38.58584
G1 X64.061 Y129.072 E38.61474
G1 X63.889 Y128.519 E38.64363
G1 X63.794 Y127.948 E38.67251
G1 X63.775 Y127.548 E38.69249
G1 X63.775 Y118.6 E39.13891
G1 X63.815 Y118.022 E39.16782
G1 X63.934 Y117.455 E39.19672
G1 X64.13 Y116.91 E39.22561
G1 X64.399 Y116.397 E39.25451
G1 X64.736 Y115.926 E39.28341
G1 X65.135 Y115.506 E39.31231
G1 X65.588 Y115.144 E39.34124
G1 X66.086 Y114.849 E39.37012
G1 X66.62 Y114.624 E39.39903
G1 X67.18 Y114.476 E39.42792
G1 X67.975 Y114.4 E39.46777
G1 X73.776 Y114.4 E39.75718
G1 X73.776 Y78.622 E41.54215
G1 X73.286 Y78.446 E41.56813
G1 X72.773 Y78.177 E41.59703
G1 X72.302 Y77.84 E41.62592
G1 X71.882 Y77.441 E41.65482
G1 X71.52 Y76.988 E41.68375
G1 X71.225 Y76.49 E41.71263
G1 X71 Y75.956 E41.74154
G1 X70.852 Y75.396 E41.77044
G1 X70.776 Y74.601 E41.81028
G1 X70.776 Y72.3 E41.92508
G1 X70.816 Y71.722 E41.95398
G1 X70.935 Y71.155 E41.98289
G1 X71.131 Y70.61 E42.01178
G1 X71.4 Y70.097 E42.04068
G1 X71.737 Y69.626 E42.06957
G1 X72.006 Y69.33 E42.08953
G0 F1800 X72.289 Y69.613
G1 F1200 X74.988 Y66.914 E42.27996
G1 X75.405 Y66.554 E42.30744
G1 X75.869 Y66.257 E42.33493
G1 X76.372 Y66.031 E42.36244
G1 X76.902 Y65.88 E42.38993
G1 X77.675 Y65.801 E42.4287
G1 X78.976 Y65.801 E42.49361
G1 X79.526 Y65.841 E42.52112
G1 X80.064 Y65.96 E42.54861
G1 X80.579 Y66.156 E42.5761
G1 X81.06 Y66.424 E42.60357
G1 X81.498 Y66.758 E42.63105
G1 X81.882 Y67.153 E42.65853
G1 X82.206 Y67.599 E42.68604
G1 X82.461 Y68.087 E42.71351
G1 X82.644 Y68.607 E42.74101
G1 X82.749 Y69.148 E42.7685
G1 X82.776 Y69.601 E42.79114
G1 X82.776 Y73.645 E42.9929
G1 X100.175 Y73.645 E43.86094
G1 X100.175 Y73.601 E43.86314
G1 X100.215 Y73.051 E43.89065
G1 X100.334 Y72.513 E43.91814
G1 X100.53 Y71.998 E43.94563
G1 X100.798 Y71.517 E43.9731
G1 X101.132 Y71.079 E44.00058
G1 X101.527 Y70.695 E44.02806
G1 X101.973 Y70.371 E44.05557
G1 X102.411 Y70.142 E44.08022
G1 X102.807 Y69.455 E44.11979
G1 X103.116 Y68.999 E44.14727
G1 X103.488 Y68.592 E44.17478
G1 X103.914 Y68.244 E44.20222
G1 X104.387 Y67.96 E44.22974
G1 X104.896 Y67.749 E44.25723
G1 X105.43 Y67.612 E44.28474
G1 X106.099 Y67.553 E44.31824
G1 X109.85 Y67.553 E44.50538
G1 X110.4 Y67.593 E44.53289
G1 X110.938 Y67.712 E44.56038
G1 X111.453 Y67.908 E44.58787
G1 X111.934 Y68.176 E44.61535
G1 X112.372 Y68.51 E44.64283
G1 X112.756 Y68.905 E44.67031
G1 X113.141 Y69.454 E44.70376
G1 X115.015 Y72.702 E44.89084
G1 X115.255 Y73.198 E44.91833
G1 X115.421 Y73.723 E44.9458
G1 X115.509 Y74.267 E44.9733
G1 X115.518 Y74.818 E45.00079
G1 X115.446 Y75.365 E45.02832
G1 X115.297 Y75.895 E45.05578
G1 X115.015 Y76.502 E45.08918
G1 X113.774 Y78.651 E45.21298
G1 X113.774 Y81.896 E45.37488
G1 X119.605 Y79.42 E45.69093
