;FLAVOR:RepRap
;TIME:1617
;Filament used: 1.24097m
;Layer height: 0.15
;Generated with Cura_SteamEngine 2.5.0-BETA
M190 S55
M104 S210
M109 S210
G21 ;metric values
G90 ;absolute positioning
M82 ;set extruder to absolute mode
M107 ;start with the fan off
;G28 X0 Y0 ;move X/Y to min endstops
;G28 Z0 ;move Z to min endstops
;G1 Z15.0 F9000 ;move the platform down 15mm
G92 E0 ;zero the extruded length
G1 F200 E3 ;extrude 3mm of feed stock
G92 E0 ;zero the extruded length again
G1 F9000
;Put printing message on LCD screen
M117 Printing...
;LAYER_COUNT:52
;LAYER:0
M107
G0 F1800 X81.128 Y91.129 Z0.3
;TYPE:SKIRT
G1 F1200 X81.641 Y90.76 E0.03153
G1 X82.197 Y90.46 E0.06305
G1 X82.787 Y90.232 E0.0946
G1 X83.401 Y90.08 E0.12616
G1 X84.292 Y90 E0.17079
G1 X90.788 Y90 E0.49488
G1 X90.796 Y89.87 E0.50138
G1 X90.915 Y89.249 E0.53292
G1 X91.081 Y88.742 E0.55954
G1 X90.989 Y88.505 E0.57222
G1 X90.837 Y87.891 E0.60378
G1 X90.757 Y87 E0.64841
G1 X90.757 Y84 E0.79808
G1 X90.797 Y83.369 E0.82962
G1 X90.916 Y82.748 E0.86117
G1 X91.113 Y82.148 E0.89268
G1 X91.384 Y81.576 E0.92425
G1 X91.724 Y81.044 E0.95575
G1 X92.13 Y80.559 E0.98731
G1 X92.593 Y80.129 E1.01883
G1 X93.107 Y79.76 E1.0504
G1 X93.663 Y79.46 E1.08192
G1 X94.252 Y79.232 E1.11343
G1 X94.866 Y79.08 E1.14499
G1 X95.757 Y79 E1.18962
G1 X104.243 Y79 E1.61299
G1 X104.874 Y79.04 E1.64453
G1 X105.495 Y79.159 E1.67608
G1 X106.095 Y79.356 E1.70758
G1 X106.667 Y79.627 E1.73916
G1 X107.199 Y79.967 E1.77066
G1 X107.684 Y80.373 E1.80221
G1 X108.114 Y80.836 E1.83374
G1 X108.483 Y81.35 E1.86531
G1 X108.783 Y81.906 E1.89683
G1 X109.011 Y82.495 E1.92834
G1 X109.163 Y83.109 E1.95989
G1 X109.243 Y84 E2.00452
G1 X109.243 Y87 E2.15419
G1 X109.203 Y87.631 E2.18574
G1 X109.084 Y88.252 E2.21728
G1 X108.919 Y88.755 E2.24369
G1 X109.012 Y88.995 E2.25654
G1 X109.164 Y89.609 E2.28809
G1 X109.199 Y90 E2.30768
G1 X116.122 Y90 E2.65307
G1 X116.753 Y90.04 E2.68461
G1 X117.374 Y90.159 E2.71616
G1 X117.974 Y90.356 E2.74766
G1 X118.546 Y90.627 E2.77924
G1 X119.078 Y90.967 E2.81074
G1 X119.563 Y91.373 E2.8423
G1 X119.993 Y91.836 E2.87382
G1 X120.362 Y92.35 E2.90539
G1 X120.662 Y92.906 E2.93691
G1 X120.89 Y93.495 E2.96842
G1 X121.042 Y94.109 E2.99997
G1 X121.122 Y95 E3.04461
G1 X121.122 Y115.122 E4.0485
G1 X121.082 Y115.753 E4.08004
G1 X120.963 Y116.374 E4.11159
G1 X120.766 Y116.974 E4.14309
G1 X120.495 Y117.546 E4.17467
G1 X120.155 Y118.078 E4.20617
G1 X119.749 Y118.563 E4.23772
G1 X119.286 Y118.993 E4.26925
G1 X118.772 Y119.362 E4.30082
G1 X118.216 Y119.662 E4.33234
G1 X117.627 Y119.89 E4.36385
G1 X117.013 Y120.042 E4.3954
G1 X116.122 Y120.122 E4.44003
G1 X84.293 Y120.121 E6.02799
G1 X83.662 Y120.081 E6.05953
G1 X83.041 Y119.962 E6.09108
G1 X82.44 Y119.765 E6.12263
G1 X81.869 Y119.494 E6.15417
G1 X81.337 Y119.153 E6.18569
G1 X80.852 Y118.748 E6.21722
G1 X80.421 Y118.285 E6.24877
G1 X80.053 Y117.771 E6.28031
G1 X79.753 Y117.215 E6.31183
G1 X79.525 Y116.626 E6.34334
G1 X79.373 Y116.012 E6.3749
G1 X79.293 Y115.121 E6.41953
G1 X79.292 Y95 E7.42337
G1 X79.332 Y94.369 E7.45491
G1 X79.451 Y93.749 E7.48641
G1 X79.648 Y93.148 E7.51796
G1 X79.919 Y92.577 E7.5495
G1 X80.259 Y92.044 E7.58104
G1 X80.664 Y91.559 E7.61256
G1 X81.128 Y91.129 E7.64412
G0 F1800 X81.517 Y91.331
G1 F1200 X82.024 Y90.998 E7.67439
G1 X82.57 Y90.735 E7.70462
G1 X83.146 Y90.545 E7.73488
G1 X83.742 Y90.433 E7.76514
G1 X84.292 Y90.4 E7.79262
G1 X91.163 Y90.4 E8.13542
G1 X91.196 Y89.896 E8.16062
G1 X91.315 Y89.302 E8.19084
G1 X91.504 Y88.749 E8.22
G1 X91.491 Y88.722 E8.22149
G1 X91.302 Y88.146 E8.25174
G1 X91.19 Y87.55 E8.28199
G1 X91.157 Y87 E8.30948
G1 X91.157 Y84 E8.45915
G1 X91.197 Y83.395 E8.4894
G1 X91.316 Y82.801 E8.51963
G1 X91.512 Y82.227 E8.54989
G1 X91.783 Y81.684 E8.58016
G1 X92.122 Y81.181 E8.61043
G1 X92.524 Y80.728 E8.64064
G1 X92.982 Y80.331 E8.67088
G1 X93.489 Y79.998 E8.70114
G1 X94.035 Y79.734 E8.7314
G1 X94.611 Y79.545 E8.76164
G1 X95.207 Y79.433 E8.7919
G1 X95.757 Y79.4 E8.81939
G1 X104.243 Y79.4 E9.24276
G1 X104.848 Y79.44 E9.27301
G1 X105.442 Y79.559 E9.30323
G1 X106.016 Y79.755 E9.33349
G1 X106.559 Y80.026 E9.36377
G1 X107.062 Y80.365 E9.39403
G1 X107.515 Y80.767 E9.42424
G1 X107.912 Y81.225 E9.45448
G1 X108.245 Y81.732 E9.48475
G1 X108.509 Y82.278 E9.515
G1 X108.698 Y82.854 E9.54525
G1 X108.81 Y83.45 E9.5755
G1 X108.843 Y84 E9.60299
G1 X108.843 Y87 E9.75266
G1 X108.803 Y87.605 E9.78291
G1 X108.684 Y88.199 E9.81314
G1 X108.496 Y88.749 E9.84213
G1 X108.51 Y88.778 E9.84374
G1 X108.699 Y89.354 E9.87398
G1 X108.811 Y89.95 E9.90424
G1 X108.838 Y90.4 E9.92673
G1 X116.122 Y90.4 E10.29013
G1 X116.727 Y90.44 E10.32038
G1 X117.321 Y90.559 E10.3506
G1 X117.895 Y90.755 E10.38086
G1 X118.438 Y91.026 E10.41114
G1 X118.941 Y91.365 E10.4414
G1 X119.394 Y91.767 E10.47162
G1 X119.791 Y92.225 E10.50186
G1 X120.124 Y92.732 E10.53212
G1 X120.388 Y93.278 E10.56238
G1 X120.577 Y93.854 E10.59262
G1 X120.689 Y94.45 E10.62288
G1 X120.722 Y95 E10.65037
G1 X120.722 Y115.122 E11.65426
G1 X120.682 Y115.727 E11.68451
G1 X120.563 Y116.321 E11.71473
G1 X120.367 Y116.895 E11.74499
G1 X120.096 Y117.438 E11.77527
G1 X119.757 Y117.941 E11.80553
G1 X119.355 Y118.394 E11.83574
G1 X118.897 Y118.791 E11.86598
G1 X118.39 Y119.124 E11.89625
G1 X117.844 Y119.388 E11.9265
G1 X117.268 Y119.577 E11.95675
G1 X116.672 Y119.689 E11.987
G1 X116.122 Y119.722 E12.01449
G1 X84.293 Y119.721 E13.60245
G1 X83.688 Y119.681 E13.6327
G1 X83.093 Y119.562 E13.66297
G1 X82.52 Y119.365 E13.6932
G1 X81.977 Y119.095 E13.72345
G1 X81.474 Y118.756 E13.75371
G1 X81.021 Y118.354 E13.78393
G1 X80.624 Y117.896 E13.81417
G1 X80.291 Y117.389 E13.84443
G1 X80.027 Y116.843 E13.87469
G1 X79.838 Y116.267 E13.90493
G1 X79.726 Y115.671 E13.93519
G1 X79.693 Y115.121 E13.96268
G1 X79.692 Y95 E14.96652
G1 X79.732 Y94.395 E14.99677
G1 X79.851 Y93.801 E15.02699
G1 X80.047 Y93.227 E15.05725
G1 X80.317 Y92.684 E15.08751
G1 X80.656 Y92.182 E15.11773
G1 X81.059 Y91.728 E15.14801
G1 X81.517 Y91.331 E15.17825
G0 F1800 X81.905 Y91.544
G1 F1200 X82.403 Y91.249 E15.20713
G1 X82.937 Y91.025 E15.23602
G1 X83.497 Y90.876 E15.26493
G1 X84.292 Y90.8 E15.30477
G1 X91.556 Y90.8 E15.66718
G1 X91.556 Y90.501 E15.68209
G1 X91.596 Y89.923 E15.711
G1 X91.715 Y89.356 E15.7399
G1 X91.911 Y88.811 E15.7688
G1 X91.945 Y88.745 E15.7725
G1 X91.781 Y88.355 E15.79361
G1 X91.633 Y87.795 E15.82251
G1 X91.557 Y87 E15.86235
G1 X91.557 Y84 E16.01202
G1 X91.597 Y83.422 E16.04093
G1 X91.716 Y82.855 E16.06983
G1 X91.912 Y82.31 E16.09873
G1 X92.181 Y81.797 E16.12763
G1 X92.518 Y81.326 E16.15652
G1 X92.917 Y80.906 E16.18542
G1 X93.37 Y80.544 E16.21435
G1 X93.868 Y80.249 E16.24323
G1 X94.402 Y80.024 E16.27214
G1 X94.962 Y79.876 E16.30104
G1 X95.757 Y79.8 E16.34088
G1 X104.243 Y79.8 E16.76425
G1 X104.821 Y79.84 E16.79315
G1 X105.388 Y79.959 E16.82206
G1 X105.933 Y80.155 E16.85095
G1 X106.446 Y80.424 E16.87985
G1 X106.917 Y80.761 E16.90874
G1 X107.337 Y81.16 E16.93765
G1 X107.699 Y81.613 E16.96658
G1 X107.994 Y82.111 E16.99545
G1 X108.219 Y82.645 E17.02436
G1 X108.367 Y83.205 E17.05326
G1 X108.443 Y84 E17.09311
G1 X108.443 Y87 E17.24278
G1 X108.403 Y87.578 E17.27168
G1 X108.284 Y88.145 E17.30059
G1 X108.088 Y88.69 E17.32948
G1 X108.055 Y88.753 E17.33303
G1 X108.22 Y89.145 E17.35425
G1 X108.368 Y89.705 E17.38315
G1 X108.444 Y90.5 E17.42299
G1 X108.444 Y90.8 E17.43796
G1 X116.122 Y90.8 E17.82101
G1 X116.7 Y90.84 E17.84992
G1 X117.267 Y90.959 E17.87882
G1 X117.812 Y91.155 E17.90772
G1 X118.325 Y91.424 E17.93662
G1 X118.796 Y91.761 E17.96551
G1 X119.216 Y92.16 E17.99441
G1 X119.578 Y92.613 E18.02334
G1 X119.873 Y93.111 E18.05222
G1 X120.098 Y93.645 E18.08113
G1 X120.246 Y94.205 E18.11003
G1 X120.322 Y95 E18.14987
G1 X120.322 Y115.122 E19.15376
G1 X120.282 Y115.7 E19.18267
G1 X120.163 Y116.267 E19.21157
G1 X119.967 Y116.812 E19.24047
G1 X119.698 Y117.325 E19.26936
G1 X119.361 Y117.796 E19.29826
G1 X118.962 Y118.216 E19.32716
G1 X118.509 Y118.578 E19.35609
G1 X118.011 Y118.873 E19.38497
G1 X117.477 Y119.098 E19.41388
G1 X116.917 Y119.246 E19.44277
G1 X116.122 Y119.322 E19.48262
G1 X84.293 Y119.321 E21.07057
G1 X83.715 Y119.281 E21.09948
G1 X83.148 Y119.162 E21.12838
G1 X82.603 Y118.966 E21.15728
G1 X82.09 Y118.697 E21.18618
G1 X81.619 Y118.36 E21.21507
G1 X81.199 Y117.961 E21.24397
G1 X80.837 Y117.508 E21.2729
G1 X80.542 Y117.01 E21.30178
G1 X80.317 Y116.476 E21.33069
G1 X80.169 Y115.916 E21.35959
G1 X80.093 Y115.121 E21.39943
G1 X80.092 Y95 E22.40327
G1 X80.132 Y94.422 E22.43218
G1 X80.251 Y93.855 E22.46108
G1 X80.447 Y93.31 E22.48998
G1 X80.716 Y92.797 E22.51887
G1 X81.053 Y92.326 E22.54777
G1 X81.452 Y91.906 E22.57667
G1 X81.905 Y91.544 E22.6056
G0 F1800 X82.29 Y91.77
G1 F1200 X82.778 Y91.515 E22.63307
G1 X83.298 Y91.332 E22.66057
G1 X83.839 Y91.227 E22.68807
G1 X84.292 Y91.2 E22.71071
G1 X91.956 Y91.2 E23.09307
G1 X91.956 Y90.501 E23.12794
G1 X91.996 Y89.951 E23.15545
G1 X92.115 Y89.413 E23.18294
G1 X92.31 Y88.898 E23.21041
G1 X92.394 Y88.747 E23.21904
G1 X92.272 Y88.514 E23.23216
G1 X92.089 Y87.994 E23.25966
G1 X91.984 Y87.453 E23.28715
G1 X91.957 Y87 E23.30979
G1 X91.957 Y84 E23.45946
G1 X91.997 Y83.45 E23.48698
G1 X92.116 Y82.912 E23.51447
G1 X92.312 Y82.397 E23.54196
G1 X92.58 Y81.916 E23.56943
G1 X92.914 Y81.478 E23.59691
G1 X93.309 Y81.094 E23.62439
G1 X93.755 Y80.77 E23.6519
G1 X94.243 Y80.515 E23.67937
G1 X94.763 Y80.332 E23.70687
G1 X95.304 Y80.227 E23.73436
G1 X95.757 Y80.2 E23.757
G1 X104.243 Y80.2 E24.18037
G1 X104.793 Y80.24 E24.20788
G1 X105.331 Y80.359 E24.23537
G1 X105.846 Y80.555 E24.26286
G1 X106.327 Y80.823 E24.29033
G1 X106.765 Y81.157 E24.31782
G1 X107.149 Y81.552 E24.3453
G1 X107.473 Y81.998 E24.3728
G1 X107.728 Y82.486 E24.40027
G1 X107.911 Y83.006 E24.42777
G1 X108.016 Y83.547 E24.45527
G1 X108.043 Y84 E24.47791
G1 X108.043 Y87 E24.62758
G1 X108.003 Y87.55 E24.65509
G1 X107.884 Y88.088 E24.68258
G1 X107.688 Y88.603 E24.71007
G1 X107.606 Y88.75 E24.71847
G1 X107.729 Y88.986 E24.73175
G1 X107.912 Y89.506 E24.75925
G1 X108.017 Y90.047 E24.78674
G1 X108.044 Y90.5 E24.80938
G1 X108.044 Y91.2 E24.84431
G1 X116.122 Y91.2 E25.24732
G1 X116.672 Y91.24 E25.27483
G1 X117.21 Y91.359 E25.30232
G1 X117.725 Y91.555 E25.32981
G1 X118.206 Y91.823 E25.35728
G1 X118.644 Y92.157 E25.38477
G1 X119.028 Y92.552 E25.41225
G1 X119.352 Y92.998 E25.43975
G1 X119.607 Y93.486 E25.46722
G1 X119.79 Y94.006 E25.49472
G1 X119.895 Y94.547 E25.52222
G1 X119.922 Y95 E25.54486
G1 X119.922 Y115.122 E26.54875
G1 X119.882 Y115.672 E26.57626
G1 X119.763 Y116.21 E26.60375
G1 X119.567 Y116.725 E26.63124
G1 X119.299 Y117.206 E26.65871
G1 X118.965 Y117.644 E26.68619
G1 X118.57 Y118.028 E26.71368
G1 X118.124 Y118.352 E26.74118
G1 X117.636 Y118.607 E26.76865
G1 X117.116 Y118.79 E26.79615
G1 X116.575 Y118.895 E26.82365
G1 X116.122 Y118.922 E26.84629
G1 X84.293 Y118.921 E28.43424
G1 X83.743 Y118.881 E28.46175
G1 X83.205 Y118.762 E28.48924
G1 X82.69 Y118.566 E28.51674
G1 X82.209 Y118.298 E28.54421
G1 X81.771 Y117.964 E28.57169
G1 X81.387 Y117.569 E28.59917
G1 X81.063 Y117.123 E28.62667
G1 X80.808 Y116.635 E28.65414
G1 X80.625 Y116.115 E28.68165
G1 X80.52 Y115.574 E28.70914
G1 X80.493 Y115.121 E28.73178
G1 X80.492 Y95 E29.73562
G1 X80.532 Y94.451 E29.76308
G1 X80.651 Y93.913 E29.79057
G1 X80.846 Y93.397 E29.81809
G1 X81.114 Y92.916 E29.84556
G1 X81.449 Y92.478 E29.87308
G1 X81.844 Y92.094 E29.90056
G1 X82.29 Y91.77 E29.92806
G0 F1800 X82.671 Y92.011
G1 F1200 X83.147 Y91.799 E29.95406
G1 X83.65 Y91.661 E29.98008
G1 X84.292 Y91.6 E30.01225
G1 X92.356 Y91.6 E30.41457
G1 X92.356 Y90.501 E30.4694
G1 X92.396 Y89.981 E30.49542
G1 X92.515 Y89.474 E30.5214
G1 X92.71 Y88.99 E30.54743
G1 X92.852 Y88.751 E30.5613
G1 X92.768 Y88.62 E30.56907
G1 X92.555 Y88.145 E30.59504
G1 X92.418 Y87.642 E30.62105
G1 X92.357 Y87 E30.65322
G1 X92.357 Y84 E30.80289
G1 X92.397 Y83.48 E30.82891
G1 X92.516 Y82.973 E30.85489
G1 X92.711 Y82.49 E30.88088
G1 X92.977 Y82.042 E30.90687
G1 X93.309 Y81.64 E30.93288
G1 X93.699 Y81.294 E30.95889
G1 X94.137 Y81.011 E30.98491
G1 X94.612 Y80.798 E31.01088
G1 X95.115 Y80.661 E31.03689
G1 X95.757 Y80.6 E31.06906
G1 X104.243 Y80.6 E31.49243
G1 X104.763 Y80.64 E31.51845
G1 X105.27 Y80.759 E31.54443
G1 X105.753 Y80.954 E31.57042
G1 X106.201 Y81.22 E31.59641
G1 X106.603 Y81.552 E31.62243
G1 X106.949 Y81.942 E31.64844
G1 X107.232 Y82.38 E31.67445
G1 X107.445 Y82.855 E31.70042
G1 X107.582 Y83.358 E31.72643
G1 X107.643 Y84 E31.75861
G1 X107.643 Y87 E31.90828
G1 X107.603 Y87.52 E31.9343
G1 X107.484 Y88.027 E31.96028
G1 X107.289 Y88.51 E31.98627
G1 X107.148 Y88.748 E32.00007
G1 X107.233 Y88.88 E32.0079
G1 X107.446 Y89.355 E32.03387
G1 X107.583 Y89.858 E32.05988
G1 X107.644 Y90.5 E32.09205
G1 X107.644 Y91.6 E32.14693
G1 X116.122 Y91.6 E32.5699
G1 X116.642 Y91.64 E32.59592
G1 X117.149 Y91.759 E32.6219
G1 X117.632 Y91.954 E32.64789
G1 X118.08 Y92.22 E32.67388
G1 X118.482 Y92.552 E32.6999
G1 X118.828 Y92.942 E32.72591
G1 X119.111 Y93.38 E32.75192
G1 X119.324 Y93.855 E32.77789
G1 X119.461 Y94.358 E32.8039
G1 X119.522 Y95 E32.83608
G1 X119.522 Y115.122 E33.83997
G1 X119.482 Y115.642 E33.86599
G1 X119.363 Y116.149 E33.89197
G1 X119.168 Y116.632 E33.91795
G1 X118.902 Y117.08 E33.94395
G1 X118.57 Y117.482 E33.96996
G1 X118.18 Y117.828 E33.99597
G1 X117.742 Y118.111 E34.02199
G1 X117.267 Y118.324 E34.04796
G1 X116.764 Y118.461 E34.07397
G1 X116.122 Y118.522 E34.10614
G1 X84.293 Y118.521 E35.6941
G1 X83.773 Y118.481 E35.72012
G1 X83.266 Y118.362 E35.7461
G1 X82.783 Y118.167 E35.77208
G1 X82.335 Y117.9 E35.7981
G1 X81.933 Y117.569 E35.82408
G1 X81.587 Y117.179 E35.85009
G1 X81.304 Y116.741 E35.87611
G1 X81.091 Y116.265 E35.90213
G1 X80.954 Y115.763 E35.92809
G1 X80.893 Y115.121 E35.96026
G1 X80.892 Y95 E36.9641
G1 X80.932 Y94.481 E36.99007
G1 X81.051 Y93.973 E37.0161
G1 X81.246 Y93.49 E37.04209
G1 X81.512 Y93.042 E37.06808
G1 X81.844 Y92.64 E37.09409
G1 X82.234 Y92.294 E37.12011
G1 X82.671 Y92.011 E37.14608
G0 F1800 X83.048 Y92.27
G1 F1200 X83.509 Y92.104 E37.17052
G1 X83.99 Y92.015 E37.19493
G1 X84.292 Y92 E37.21001
G1 X92.756 Y92 E37.63229
G1 X92.756 Y90.501 E37.70707
G1 X92.796 Y90.013 E37.7315
G1 X92.914 Y89.538 E37.75592
G1 X93.109 Y89.089 E37.78034
G1 X93.327 Y88.749 E37.80049
G1 X93.265 Y88.671 E37.80546
G1 X93.027 Y88.243 E37.82989
G1 X92.861 Y87.783 E37.85429
G1 X92.772 Y87.302 E37.87869
G1 X92.757 Y87 E37.89378
G1 X92.757 Y84 E38.04345
G1 X92.797 Y83.512 E38.06788
G1 X92.916 Y83.037 E38.09231
G1 X93.11 Y82.588 E38.11671
G1 X93.375 Y82.176 E38.14115
G1 X93.703 Y81.813 E38.16556
G1 X94.086 Y81.508 E38.18999
G1 X94.514 Y81.27 E38.21442
G1 X94.974 Y81.104 E38.23882
G1 X95.455 Y81.015 E38.26322
G1 X95.757 Y81 E38.27831
G1 X104.243 Y81 E38.70167
G1 X104.731 Y81.04 E38.7261
G1 X105.206 Y81.159 E38.75053
G1 X105.655 Y81.353 E38.77493
G1 X106.067 Y81.618 E38.79937
G1 X106.43 Y81.946 E38.82378
G1 X106.735 Y82.329 E38.84821
G1 X106.973 Y82.757 E38.87264
G1 X107.139 Y83.217 E38.89704
G1 X107.228 Y83.698 E38.92144
G1 X107.243 Y84 E38.93653
G1 X107.243 Y87 E39.0862
G1 X107.203 Y87.488 E39.11063
G1 X107.084 Y87.963 E39.13506
G1 X106.89 Y88.412 E39.15946
G1 X106.673 Y88.75 E39.1795
G1 X106.736 Y88.829 E39.18454
G1 X106.974 Y89.257 E39.20897
G1 X107.14 Y89.717 E39.23337
G1 X107.229 Y90.198 E39.25778
G1 X107.244 Y90.5 E39.27286
G1 X107.244 Y92 E39.3477
G1 X116.122 Y92 E39.79062
G1 X116.61 Y92.04 E39.81505
G1 X117.085 Y92.159 E39.83948
G1 X117.534 Y92.353 E39.86388
G1 X117.946 Y92.618 E39.88832
G1 X118.309 Y92.946 E39.91273
G1 X118.614 Y93.329 E39.93716
G1 X118.852 Y93.757 E39.96159
G1 X119.018 Y94.217 E39.98599
G1 X119.107 Y94.698 E40.01039
G1 X119.122 Y95 E40.02548
G1 X119.122 Y115.122 E41.02937
G1 X119.082 Y115.61 E41.0538
G1 X118.963 Y116.085 E41.07823
G1 X118.769 Y116.534 E41.10263
G1 X118.504 Y116.946 E41.12707
G1 X118.176 Y117.309 E41.15148
G1 X117.793 Y117.614 E41.1759
G1 X117.365 Y117.852 E41.20033
G1 X116.905 Y118.018 E41.22473
G1 X116.424 Y118.107 E41.24914
G1 X116.122 Y118.122 E41.26422
G1 X84.293 Y118.121 E42.85218
G1 X83.805 Y118.081 E42.87661
G1 X83.33 Y117.962 E42.90104
G1 X82.881 Y117.768 E42.92544
G1 X82.469 Y117.503 E42.94988
G1 X82.106 Y117.175 E42.97429
