;FLAVOR:RepRap
;TIME:1224
;Filament used: 0.919298m
;Layer height: 0.15
;Generated with Cura_SteamEngine 2.5.0-BETA
M190 S55
M104 S210
M109 S210
G21 ;metric values
G90 ;absolute positioning
M82 ;set extruder to absolute mode
M107 ;start with the fan off
;G28 X0 Y0 ;move X/Y to min endstops
;G28 Z0 ;move Z to min endstops
;G1 Z15.0 F9000 ;move the platform down 15mm
G92 E0 ;zero the extruded length
G1 F200 E3 ;extrude 3mm of feed stock
G92 E0 ;zero the extruded length again
G1 F9000
;Put printing message on LCD screen
M117 Printing...
;LAYER_COUNT:46
;LAYER:0
M107
G0 F1800 X50.133 Y91.086 Z0.3
;TYPE:SKIRT
G1 F1200 X50.717 Y90.843 E0.03156
G1 X51.327 Y90.676 E0.06311
G1 X51.953 Y90.587 E0.09466
G1 X52.585 Y90.578 E0.12619
G1 X53.213 Y90.649 E0.15772
G1 X53.827 Y90.798 E0.18924
G1 X54.418 Y91.024 E0.22081
G1 X54.975 Y91.322 E0.25233
G1 X55.49 Y91.688 E0.28385
G1 X55.868 Y92.028 E0.30921
G1 X56.298 Y92.456 E0.33948
G1 X56.717 Y92.93 E0.37104
G1 X56.856 Y93.134 E0.38336
G1 X56.93 Y92.747 E0.40301
G1 X57.127 Y92.147 E0.43452
G1 X57.398 Y91.575 E0.4661
G1 X57.738 Y91.043 E0.4976
G1 X58.235 Y90.463 E0.53571
G1 X61.734 Y86.964 E0.78258
G1 X62.209 Y86.547 E0.81411
G1 X62.732 Y86.192 E0.84565
G1 X63.296 Y85.906 E0.8772
G1 X63.891 Y85.694 E0.90871
G1 X64.509 Y85.558 E0.94028
G1 X65.27 Y85.5 E0.97836
G1 X67.272 Y85.5 E1.07824
G1 X67.903 Y85.54 E1.10978
G1 X68.524 Y85.659 E1.14133
G1 X69.124 Y85.856 E1.17283
G1 X69.696 Y86.127 E1.20441
G1 X70.228 Y86.467 E1.23591
G1 X70.808 Y86.964 E1.27402
G1 X72.307 Y88.463 E1.37978
G1 X72.724 Y88.938 E1.41131
G1 X73.079 Y89.461 E1.44285
G1 X73.365 Y90.025 E1.4744
G1 X73.577 Y90.62 E1.50591
G1 X73.591 Y90.682 E1.50908
G1 X74.067 Y90.798 E1.53352
G1 X74.658 Y91.024 E1.56509
G1 X75.215 Y91.322 E1.59661
G1 X75.73 Y91.688 E1.62813
G1 X76.108 Y92.028 E1.65349
G1 X76.538 Y92.456 E1.68376
G1 X76.957 Y92.93 E1.71532
G1 X77.096 Y93.134 E1.72764
G1 X77.17 Y92.747 E1.7473
G1 X77.367 Y92.147 E1.7788
G1 X77.638 Y91.575 E1.81038
G1 X77.978 Y91.043 E1.84188
G1 X78.475 Y90.463 E1.87999
G1 X81.974 Y86.964 E2.12686
G1 X82.449 Y86.547 E2.15839
G1 X82.972 Y86.192 E2.18993
G1 X83.536 Y85.906 E2.22148
G1 X84.131 Y85.694 E2.25299
G1 X84.749 Y85.558 E2.28456
G1 X85.51 Y85.5 E2.32264
G1 X87.512 Y85.5 E2.42252
G1 X88.143 Y85.54 E2.45406
G1 X88.764 Y85.659 E2.48561
G1 X89.364 Y85.856 E2.51711
G1 X89.936 Y86.127 E2.54869
G1 X90.468 Y86.467 E2.58019
G1 X91.048 Y86.964 E2.6183
G1 X92.547 Y88.463 E2.72406
G1 X92.964 Y88.938 E2.7556
G1 X93.319 Y89.461 E2.78713
G1 X93.605 Y90.025 E2.81868
G1 X93.817 Y90.62 E2.85019
G1 X93.83 Y90.681 E2.8533
G1 X94.304 Y90.796 E2.87764
G1 X94.895 Y91.021 E2.90919
G1 X95.452 Y91.319 E2.9407
G1 X95.968 Y91.685 E2.97227
G1 X96.352 Y92.031 E2.99805
G1 X96.781 Y92.459 E3.02829
G1 X97.2 Y92.933 E3.05985
G1 X97.335 Y93.132 E3.07185
G1 X97.409 Y92.747 E3.09141
G1 X97.606 Y92.147 E3.12291
G1 X97.877 Y91.575 E3.15449
G1 X98.217 Y91.043 E3.18599
G1 X98.714 Y90.463 E3.2241
G1 X102.213 Y86.964 E3.47097
G1 X102.688 Y86.547 E3.5025
G1 X103.211 Y86.192 E3.53404
G1 X103.775 Y85.906 E3.56559
G1 X104.37 Y85.694 E3.5971
G1 X104.988 Y85.558 E3.62867
G1 X105.749 Y85.5 E3.66675
G1 X107.751 Y85.5 E3.76663
G1 X108.382 Y85.54 E3.79817
G1 X109.003 Y85.659 E3.82972
G1 X109.603 Y85.856 E3.86122
G1 X110.175 Y86.127 E3.8928
G1 X110.707 Y86.467 E3.9243
G1 X111.287 Y86.964 E3.96241
G1 X112.786 Y88.463 E4.06817
G1 X113.203 Y88.938 E4.0997
G1 X113.558 Y89.461 E4.13124
G1 X113.844 Y90.025 E4.16279
G1 X114.056 Y90.62 E4.1943
G1 X114.192 Y91.238 E4.22587
G1 X114.25 Y92.006 E4.2643
G1 X114.228 Y108.716 E5.09796
G1 X114.187 Y109.346 E5.12946
G1 X114.067 Y109.967 E5.16101
G1 X113.8 Y110.733 E5.20148
G1 X113.634 Y111.108 E5.22194
G1 X113.342 Y111.669 E5.2535
G1 X112.982 Y112.188 E5.28501
G1 X112.403 Y112.804 E5.32719
G1 X112.089 Y113.086 E5.34824
G1 X111.593 Y113.478 E5.37978
G1 X111.051 Y113.804 E5.41134
G1 X110.282 Y114.125 E5.45291
G1 X109.885 Y114.253 E5.47372
G1 X109.273 Y114.408 E5.50522
G1 X108.645 Y114.485 E5.53678
G1 X107.82 Y114.466 E5.57796
G1 X107.408 Y114.422 E5.59863
G1 X106.785 Y114.315 E5.63016
G1 X106.697 Y114.288 E5.63476
G1 X106.549 Y114.328 E5.6424
G1 X105.93 Y114.454 E5.67392
G1 X105.25 Y114.5 E5.70792
G1 X102.07 Y114.5 E5.86657
G1 X101.439 Y114.46 E5.89812
G1 X100.818 Y114.341 E5.92966
G1 X100.218 Y114.144 E5.96117
G1 X99.646 Y113.873 E5.99275
G1 X99.114 Y113.533 E6.02425
G1 X98.556 Y113.057 E6.06084
G1 X97.953 Y112.461 E6.10314
G1 X97.023 Y112.461 E6.14953
G1 X96.392 Y112.421 E6.18108
G1 X95.983 Y112.352 E6.20177
G1 X94.544 Y112.046 E6.27517
G1 X93.935 Y111.875 E6.30673
G1 X93.55 Y111.723 E6.32738
G1 X93.164 Y111.551 E6.34846
G1 X93.103 Y111.669 E6.35509
G1 X92.743 Y112.188 E6.3866
G1 X92.164 Y112.804 E6.42878
G1 X91.85 Y113.086 E6.44983
G1 X91.354 Y113.478 E6.48137
G1 X90.812 Y113.804 E6.51293
G1 X90.043 Y114.125 E6.5545
G1 X89.646 Y114.253 E6.57531
G1 X89.034 Y114.408 E6.60681
G1 X88.406 Y114.485 E6.63838
G1 X87.57 Y114.465 E6.6801
G1 X87.157 Y114.42 E6.70082
G1 X86.535 Y114.312 E6.73232
G1 X86.458 Y114.288 E6.73634
G1 X86.31 Y114.328 E6.74399
G1 X85.691 Y114.454 E6.77551
G1 X85.011 Y114.5 E6.80951
G1 X81.831 Y114.5 E6.96816
G1 X81.2 Y114.46 E6.9997
G1 X80.579 Y114.341 E7.03125
G1 X79.979 Y114.144 E7.06276
G1 X79.407 Y113.873 E7.09433
G1 X78.875 Y113.533 E7.12583
G1 X78.293 Y113.033 E7.16411
G1 X77.722 Y112.461 E7.20443
G1 X76.783 Y112.461 E7.25128
G1 X76.152 Y112.421 E7.28283
G1 X75.743 Y112.352 E7.30352
G1 X74.304 Y112.046 E7.37692
G1 X73.695 Y111.875 E7.40847
G1 X73.309 Y111.722 E7.42919
G1 X72.925 Y111.551 E7.45016
G1 X72.863 Y111.669 E7.45681
G1 X72.503 Y112.188 E7.48832
G1 X71.924 Y112.804 E7.5305
G1 X71.61 Y113.086 E7.55156
G1 X71.114 Y113.478 E7.5831
G1 X70.572 Y113.804 E7.61465
G1 X69.803 Y114.125 E7.65623
G1 X69.406 Y114.253 E7.67704
G1 X68.794 Y114.408 E7.70853
G1 X68.166 Y114.485 E7.7401
G1 X67.341 Y114.466 E7.78127
G1 X66.929 Y114.422 E7.80194
G1 X66.306 Y114.315 E7.83348
G1 X66.218 Y114.288 E7.83807
G1 X66.07 Y114.328 E7.84572
G1 X65.451 Y114.454 E7.87723
G1 X64.771 Y114.5 E7.91124
G1 X61.591 Y114.5 E8.06989
G1 X60.96 Y114.46 E8.10143
G1 X60.339 Y114.341 E8.13298
G1 X59.739 Y114.144 E8.16448
G1 X59.167 Y113.873 E8.19606
G1 X58.635 Y113.533 E8.22756
G1 X58.053 Y113.033 E8.26584
G1 X57.482 Y112.461 E8.30616
G1 X56.543 Y112.461 E8.35301
G1 X55.912 Y112.421 E8.38455
G1 X55.503 Y112.352 E8.40525
G1 X54.064 Y112.046 E8.47864
G1 X53.455 Y111.875 E8.5102
G1 X53.069 Y111.722 E8.53092
G1 X51.738 Y111.129 E8.60361
G1 X51.178 Y110.836 E8.63515
G1 X50.836 Y110.608 E8.65565
G1 X49.65 Y109.747 E8.72877
G1 X49.163 Y109.344 E8.76031
G1 X48.874 Y109.05 E8.78087
G1 X47.891 Y107.96 E8.8541
G1 X47.498 Y107.464 E8.88567
G1 X47.271 Y107.105 E8.90686
G1 X46.544 Y105.842 E8.97957
G1 X46.264 Y105.276 E9.01107
G1 X46.124 Y104.899 E9.03114
G1 X45.67 Y103.508 E9.10414
G1 X45.512 Y102.896 E9.13567
G1 X45.45 Y102.477 E9.1568
G1 X45.298 Y101.022 E9.22979
G1 X45.272 Y100.39 E9.26135
G1 X45.298 Y99.984 E9.28164
G1 X45.45 Y98.524 E9.35488
G1 X45.555 Y97.901 E9.3864
G1 X45.67 Y97.491 E9.40764
G1 X46.124 Y96.1 E9.48064
G1 X46.358 Y95.512 E9.51221
G1 X46.544 Y95.155 E9.5323
G1 X47.271 Y93.893 E9.60496
G1 X47.621 Y93.366 E9.63652
G1 X47.891 Y93.04 E9.65764
G1 X48.628 Y92.223 E9.71253
G1 X49.081 Y91.781 E9.74411
G1 X49.585 Y91.4 E9.77563
G1 X50.133 Y91.086 E9.80714
G0 F1800 X50.377 Y91.412
G1 F1200 X50.941 Y91.19 E9.83738
G1 X51.53 Y91.044 E9.86765
G1 X52.132 Y90.977 E9.89787
G1 X52.738 Y90.989 E9.92811
G1 X53.338 Y91.081 E9.9584
G1 X53.919 Y91.251 E9.9886
G1 X54.474 Y91.496 E10.01886
G1 X54.992 Y91.812 E10.04914
G1 X55.586 Y92.312 E10.08787
G1 X56.016 Y92.74 E10.11814
G1 X56.417 Y93.195 E10.1484
G1 X56.754 Y93.699 E10.17865
G1 X57.022 Y94.243 E10.2089
G1 X57.171 Y94.684 E10.23212
G1 X57.171 Y93.999 E10.2663
G1 X57.211 Y93.394 E10.29655
G1 X57.33 Y92.8 E10.32677
G1 X57.526 Y92.226 E10.35703
G1 X57.797 Y91.683 E10.38731
G1 X58.136 Y91.18 E10.41757
G1 X58.518 Y90.746 E10.44642
G1 X62.017 Y87.247 E10.69329
G1 X62.473 Y86.848 E10.72352
G1 X62.978 Y86.512 E10.75378
G1 X63.522 Y86.245 E10.78401
G1 X64.097 Y86.052 E10.81427
G1 X64.692 Y85.936 E10.84452
G1 X65.27 Y85.9 E10.87341
G1 X67.272 Y85.9 E10.97329
G1 X67.877 Y85.94 E11.00354
G1 X68.471 Y86.059 E11.03376
G1 X69.045 Y86.255 E11.06402
G1 X69.588 Y86.526 E11.0943
G1 X70.091 Y86.865 E11.12456
G1 X70.525 Y87.247 E11.15341
G1 X72.024 Y88.746 E11.25917
G1 X72.423 Y89.202 E11.2894
G1 X72.759 Y89.707 E11.31966
G1 X73.026 Y90.251 E11.34989
G1 X73.219 Y90.826 E11.38015
G1 X73.259 Y91.032 E11.39062
G1 X73.578 Y91.081 E11.40672
G1 X74.159 Y91.251 E11.43693
G1 X74.714 Y91.496 E11.46719
G1 X75.232 Y91.812 E11.49747
G1 X75.826 Y92.312 E11.5362
G1 X76.256 Y92.74 E11.56647
G1 X76.657 Y93.195 E11.59673
G1 X76.994 Y93.699 E11.62698
G1 X77.262 Y94.243 E11.65723
G1 X77.411 Y94.684 E11.68045
G1 X77.411 Y93.999 E11.71463
G1 X77.451 Y93.394 E11.74488
G1 X77.57 Y92.8 E11.7751
G1 X77.766 Y92.226 E11.80536
G1 X78.037 Y91.683 E11.83564
G1 X78.376 Y91.18 E11.8659
G1 X78.758 Y90.746 E11.89475
G1 X82.257 Y87.247 E12.14162
G1 X82.713 Y86.848 E12.17185
G1 X83.218 Y86.512 E12.20211
G1 X83.762 Y86.245 E12.23234
G1 X84.337 Y86.052 E12.2626
G1 X84.932 Y85.936 E12.29285
G1 X85.51 Y85.9 E12.32174
G1 X87.512 Y85.9 E12.42162
G1 X88.117 Y85.94 E12.45187
G1 X88.711 Y86.059 E12.48209
G1 X89.285 Y86.255 E12.51235
G1 X89.828 Y86.526 E12.54263
G1 X90.331 Y86.865 E12.57289
G1 X90.765 Y87.247 E12.60174
G1 X92.264 Y88.746 E12.7075
G1 X92.663 Y89.202 E12.73773
G1 X92.999 Y89.707 E12.76799
G1 X93.266 Y90.251 E12.79822
G1 X93.459 Y90.826 E12.82848
G1 X93.499 Y91.032 E12.83895
G1 X93.815 Y91.08 E12.8549
G1 X94.397 Y91.249 E12.88513
G1 X94.952 Y91.494 E12.9154
G1 X95.469 Y91.81 E12.94563
G1 X96.07 Y92.315 E12.98479
G1 X96.499 Y92.743 E13.01503
G1 X96.899 Y93.198 E13.04525
G1 X97.236 Y93.702 E13.0755
G1 X97.503 Y94.246 E13.10573
G1 X97.65 Y94.682 E13.12869
G1 X97.65 Y93.999 E13.16276
G1 X97.69 Y93.394 E13.19301
G1 X97.809 Y92.8 E13.22324
G1 X98.005 Y92.226 E13.2535
G1 X98.276 Y91.683 E13.28377
G1 X98.615 Y91.18 E13.31404
G1 X98.997 Y90.746 E13.34288
G1 X102.496 Y87.247 E13.58975
G1 X102.952 Y86.848 E13.61998
G1 X103.457 Y86.512 E13.65025
G1 X104.001 Y86.245 E13.68048
G1 X104.576 Y86.052 E13.71074
G1 X105.171 Y85.936 E13.74098
G1 X105.749 Y85.9 E13.76987
G1 X107.751 Y85.9 E13.86975
G1 X108.356 Y85.94 E13.9
G1 X108.95 Y86.059 E13.93023
G1 X109.524 Y86.255 E13.96049
G1 X110.067 Y86.526 E13.99076
G1 X110.57 Y86.865 E14.02103
G1 X111.004 Y87.247 E14.04987
G1 X112.503 Y88.746 E14.15563
G1 X112.902 Y89.202 E14.18586
G1 X113.238 Y89.707 E14.21613
G1 X113.505 Y90.251 E14.24636
G1 X113.698 Y90.826 E14.27662
G1 X113.814 Y91.421 E14.30686
G1 X113.85 Y92.005 E14.33605
G1 X113.828 Y108.715 E15.16972
G1 X113.787 Y109.32 E15.19997
G1 X113.667 Y109.914 E15.2302
G1 X113.434 Y110.571 E15.26498
G1 X113.268 Y110.946 E15.28544
G1 X112.987 Y111.483 E15.31568
G1 X112.637 Y111.978 E15.34593
G1 X112.136 Y112.506 E15.38224
G1 X111.822 Y112.788 E15.40329
G1 X111.345 Y113.163 E15.43357
G1 X110.823 Y113.471 E15.4638
G1 X110.16 Y113.744 E15.49958
G1 X109.763 Y113.872 E15.52039
G1 X109.175 Y114.02 E15.55064
G1 X108.572 Y114.089 E15.58092
G1 X107.863 Y114.068 E15.6163
G1 X107.451 Y114.024 E15.63698
G1 X106.853 Y113.92 E15.66726
G1 X106.703 Y113.873 E15.6751
G1 X106.445 Y113.942 E15.68842
G1 X105.851 Y114.061 E15.71865
G1 X105.25 Y114.1 E15.74869
G1 X102.07 Y114.1 E15.90735
G1 X101.465 Y114.06 E15.9376
G1 X100.871 Y113.941 E15.96782
G1 X100.297 Y113.745 E15.99808
G1 X99.754 Y113.474 E16.02836
G1 X99.251 Y113.135 E16.05862
G1 X98.837 Y112.772 E16.08609
G1 X98.117 Y112.061 E16.13657
G1 X97.023 Y112.061 E16.19115
G1 X96.418 Y112.021 E16.2214
G1 X96.066 Y111.96 E16.23922
G1 X94.627 Y111.654 E16.31262
G1 X94.044 Y111.489 E16.34285
G1 X93.713 Y111.357 E16.36063
G1 X92.984 Y111.032 E16.40045
G1 X92.748 Y111.483 E16.42584
G1 X92.398 Y111.978 E16.45609
G1 X91.897 Y112.506 E16.4924
G1 X91.583 Y112.788 E16.51346
G1 X91.106 Y113.163 E16.54373
G1 X90.584 Y113.471 E16.57397
G1 X89.921 Y113.744 E16.60974
G1 X89.524 Y113.872 E16.63055
G1 X88.936 Y114.02 E16.6608
G1 X88.333 Y114.089 E16.69108
G1 X87.614 Y114.067 E16.72697
G1 X87.201 Y114.022 E16.74769
G1 X86.604 Y113.917 E16.77794
G1 X86.464 Y113.873 E16.78526
G1 X86.206 Y113.942 E16.79858
G1 X85.612 Y114.061 E16.8288
G1 X85.011 Y114.1 E16.85885
G1 X81.831 Y114.1 E17.0175
G1 X81.226 Y114.06 E17.04775
G1 X80.632 Y113.941 E17.07798
G1 X80.058 Y113.745 E17.10824
G1 X79.515 Y113.474 E17.13851
G1 X79.012 Y113.135 E17.16877
G1 X78.576 Y112.751 E17.19776
G1 X77.887 Y112.061 E17.24641
G1 X76.783 Y112.061 E17.30149
G1 X76.178 Y112.021 E17.33174
G1 X75.826 Y111.96 E17.34956
G1 X74.387 Y111.654 E17.42296
G1 X73.804 Y111.489 E17.45319
G1 X73.472 Y111.357 E17.47101
G1 X72.744 Y111.033 E17.51077
G1 X72.508 Y111.483 E17.53612
G1 X72.158 Y111.978 E17.56636
G1 X71.657 Y112.506 E17.60267
G1 X71.343 Y112.788 E17.62373
G1 X70.866 Y113.163 E17.654
G1 X70.344 Y113.471 E17.68424
G1 X69.681 Y113.744 E17.72001
G1 X69.284 Y113.872 E17.74082
G1 X68.696 Y114.02 E17.77107
G1 X68.093 Y114.089 E17.80135
G1 X67.384 Y114.068 E17.83674
G1 X66.972 Y114.024 E17.85741
G1 X66.374 Y113.92 E17.88769
G1 X66.224 Y113.873 E17.89554
G1 X65.966 Y113.942 E17.90886
G1 X65.372 Y114.061 E17.93908
G1 X64.771 Y114.1 E17.96913
G1 X61.591 Y114.1 E18.12778
G1 X60.986 Y114.06 E18.15803
G1 X60.392 Y113.941 E18.18825
G1 X59.818 Y113.745 E18.21852
G1 X59.275 Y113.474 E18.24879
G1 X58.772 Y113.135 E18.27905
G1 X58.336 Y112.751 E18.30804
G1 X57.647 Y112.061 E18.35669
G1 X56.543 Y112.061 E18.41177
G1 X55.938 Y112.021 E18.44202
G1 X55.586 Y111.96 E18.45984
G1 X54.147 Y111.654 E18.53324
G1 X53.564 Y111.489 E18.56346
G1 X53.232 Y111.357 E18.58129
G1 X51.901 Y110.764 E18.65399
G1 X51.365 Y110.481 E18.68423
G1 X51.071 Y110.284 E18.70188
G1 X49.885 Y109.423 E18.775
G1 X49.418 Y109.036 E18.80526
G1 X49.171 Y108.782 E18.82293
G1 X48.188 Y107.692 E18.89616
G1 X47.812 Y107.216 E18.92643
G1 X47.617 Y106.906 E18.9447
G1 X46.89 Y105.643 E19.0174
G1 X46.623 Y105.099 E19.04763
G1 X46.504 Y104.775 E19.06485
G1 X46.05 Y103.384 E19.13785
G1 X45.9 Y102.797 E19.16808
G1 X45.848 Y102.435 E19.18633
G1 X45.696 Y100.98 E19.25931
G1 X45.673 Y100.374 E19.28957
G1 X45.696 Y100.026 E19.30697
G1 X45.848 Y98.566 E19.3802
G1 X45.95 Y97.968 E19.41047
G1 X46.05 Y97.615 E19.42877
G1 X46.504 Y96.224 E19.50177
G1 X46.73 Y95.661 E19.53204
G1 X46.891 Y95.355 E19.54929
G1 X47.618 Y94.093 E19.62195
G1 X47.955 Y93.589 E19.6522
G1 X48.188 Y93.308 E19.67041
G1 X48.925 Y92.491 E19.7253
G1 X49.36 Y92.068 E19.75557
G1 X49.847 Y91.707 E19.78582
G1 X50.377 Y91.412 E19.81608
G0 F1800 X50.618 Y91.742
G1 F1200 X51.161 Y91.541 E19.84497
G1 X51.727 Y91.417 E19.87387
G1 X52.305 Y91.372 E19.9028
G1 X52.883 Y91.407 E19.93169
G1 X53.451 Y91.521 E19.96059
G1 X53.998 Y91.713 E19.98951
G1 X54.513 Y91.977 E20.01838
G1 X54.987 Y92.31 E20.04728
G1 X55.304 Y92.595 E20.06855
G1 X55.734 Y93.023 E20.09882
G1 X56.115 Y93.459 E20.12771
G1 X56.433 Y93.944 E20.15664
G1 X56.681 Y94.467 E20.18552
G1 X56.855 Y95.02 E20.21444
G1 X56.951 Y95.591 E20.24333
G1 X56.971 Y96 E20.26376
G1 X56.971 Y98.35 E20.381
G1 X56.931 Y98.928 E20.40991
G1 X56.732 Y99.748 E20.452
G1 X56.505 Y100.391 E20.48602
G1 X56.494 Y100.498 E20.49139
G1 X56.51 Y100.659 E20.49946
G1 X56.563 Y100.82 E20.50792
G1 X56.639 Y100.952 E20.51552
G1 X56.748 Y101.073 E20.52364
G1 X56.887 Y101.174 E20.53221
G1 X57.029 Y101.237 E20.53996
G1 X57.192 Y101.272 E20.54828
G1 X57.349 Y101.272 E20.55611
G1 X57.513 Y101.237 E20.56448
G1 X57.657 Y101.173 E20.57234
G1 X57.791 Y101.075 E20.58062
G1 X57.902 Y100.952 E20.58889
G1 X57.978 Y100.82 E20.59649
G1 X58.03 Y100.66 E20.60488
G1 X58.047 Y100.498 E20.61301
G1 X58.036 Y100.388 E20.61852
G1 X57.809 Y99.744 E20.65259
G1 X57.655 Y99.186 E20.68147
G1 X57.571 Y98.35 E20.72339
G1 X57.571 Y93.999 E20.94046
G1 X57.611 Y93.421 E20.96937
G1 X57.73 Y92.854 E20.99827
G1 X57.926 Y92.309 E21.02717
G1 X58.195 Y91.796 E21.05606
G1 X58.532 Y91.325 E21.08496
G1 X58.801 Y91.029 E21.10491
G1 X62.3 Y87.53 E21.35179
G1 X62.737 Y87.15 E21.38068
G1 X63.222 Y86.833 E21.40959
