;FLAVOR:RepRap
;TIME:5071
;Filament used: 5.04021m
;Layer height: 0.15
;Generated with Cura_SteamEngine 2.5.0-BETA
M190 S55
M104 S210
M109 S210
G21 ;metric values
G90 ;absolute positioning
M82 ;set extruder to absolute mode
M107 ;start with the fan off
;G28 X0 Y0 ;move X/Y to min endstops
;G28 Z0 ;move Z to min endstops
;G1 Z15.0 F9000 ;move the platform down 15mm
G92 E0 ;zero the extruded length
G1 F200 E3 ;extrude 3mm of feed stock
G92 E0 ;zero the extruded length again
G1 F9000
;Put printing message on LCD screen
M117 Printing...
;LAYER_COUNT:139
;LAYER:0
M107
G0 F1800 X66.843 Y57.155 Z0.3
;TYPE:SKIRT
G1 F1200 X67.306 Y56.725 E0.03152
G1 X67.82 Y56.356 E0.06309
G1 X68.376 Y56.056 E0.09461
G1 X68.965 Y55.828 E0.12612
G1 X69.579 Y55.676 E0.15768
G1 X70.47 Y55.596 E0.20231
G1 X80.079 Y55.596 E0.6817
G1 X80.71 Y55.636 E0.71325
G1 X81.331 Y55.755 E0.74479
G1 X81.931 Y55.952 E0.7763
G1 X82.503 Y56.223 E0.80788
G1 X83.035 Y56.563 E0.83938
G1 X83.615 Y57.06 E0.87748
G1 X133.067 Y106.512 E4.36659
G1 X133.484 Y106.987 E4.39812
G1 X133.839 Y107.51 E4.42966
G1 X134.125 Y108.074 E4.46121
G1 X134.337 Y108.669 E4.49272
G1 X134.473 Y109.287 E4.52429
G1 X134.529 Y109.916 E4.5558
G1 X134.506 Y110.548 E4.58735
G1 X134.403 Y111.172 E4.6189
G1 X134.222 Y111.778 E4.65045
G1 X134.091 Y112.098 E4.6677
G1 X133.665 Y113.045 E4.71951
G1 X133.921 Y113.8 E4.75928
G1 X134.086 Y114.411 E4.79086
G1 X134.172 Y115.037 E4.82238
G1 X134.173 Y115.768 E4.85885
G1 X134.149 Y116.1 E4.87546
G1 X134.064 Y116.726 E4.90698
G1 X133.9 Y117.336 E4.93849
G1 X133.768 Y117.684 E4.95706
G1 X133.643 Y117.98 E4.97309
G1 X133.361 Y118.546 E5.00464
G1 X133.01 Y119.071 E5.03615
G1 X132.762 Y119.37 E5.05553
G1 X132.54 Y119.618 E5.07213
G1 X132.09 Y120.061 E5.10364
G1 X131.587 Y120.444 E5.13518
G1 X131.266 Y120.641 E5.15397
G1 X130.978 Y120.803 E5.17045
G1 X130.409 Y121.077 E5.20196
G1 X129.809 Y121.278 E5.23353
G1 X129.386 Y121.371 E5.25514
G1 X129.065 Y121.427 E5.27139
G1 X128.437 Y121.496 E5.30291
G1 X127.805 Y121.485 E5.33445
G1 X127.07 Y121.37 E5.37157
G1 X126.594 Y121.259 E5.39595
G1 X126.116 Y121.115 E5.42086
G1 X126.282 Y121.442 E5.43915
G1 X126.494 Y122.037 E5.47066
G1 X126.63 Y122.654 E5.50219
G1 X126.687 Y123.284 E5.53375
G1 X126.664 Y123.915 E5.56525
G1 X126.562 Y124.539 E5.59679
G1 X126.381 Y125.145 E5.62834
G1 X126.126 Y125.723 E5.65986
G1 X125.8 Y126.265 E5.69142
G1 X125.221 Y126.958 E5.73647
G1 X116.749 Y135.411 E6.33355
G1 X116.274 Y135.828 E6.36508
G1 X115.75 Y136.182 E6.39663
G1 X115.186 Y136.467 E6.42816
G1 X114.694 Y136.648 E6.45431
G1 X114.089 Y136.835 E6.4859
G1 X113.474 Y136.983 E6.51746
G1 X112.846 Y137.053 E6.54899
G1 X112.214 Y137.042 E6.58052
G1 X111.701 Y136.974 E6.60634
G1 X111.388 Y136.916 E6.62222
G1 X111.069 Y136.836 E6.63863
G1 X111.102 Y136.943 E6.64421
G1 X111.174 Y137.312 E6.66297
G1 X111.225 Y137.634 E6.67924
G1 X111.285 Y138.263 E6.71076
G1 X111.264 Y138.895 E6.74231
G1 X111.207 Y139.306 E6.76301
G1 X111.148 Y139.632 E6.77954
G1 X110.996 Y140.246 E6.81109
G1 X110.769 Y140.836 E6.84263
G1 X110.602 Y141.165 E6.86104
G1 X110.443 Y141.452 E6.87741
G1 X110.102 Y141.985 E6.90898
G1 X109.697 Y142.47 E6.9405
G1 X109.411 Y142.748 E6.9604
G1 X109.164 Y142.97 E6.97697
G1 X108.668 Y143.362 E7.00851
G1 X108.127 Y143.688 E7.04002
G1 X107.779 Y143.852 E7.05921
G1 X107.478 Y143.98 E7.07553
G1 X106.881 Y144.19 E7.10711
G1 X106.264 Y144.324 E7.13861
G1 X105.871 Y144.367 E7.15833
G1 X105.543 Y144.39 E7.17473
G1 X104.911 Y144.394 E7.20627
G1 X104.283 Y144.318 E7.23783
G1 X103.611 Y144.145 E7.27244
G1 X102.37 Y143.731 E7.33771
G1 X101.524 Y143.359 E7.38382
G1 X100.523 Y142.803 E7.44095
G1 X99.843 Y142.349 E7.48174
G1 X98.942 Y141.634 E7.53912
G1 X98.343 Y141.072 E7.5801
G1 X97.579 Y140.228 E7.6369
G1 X97.085 Y139.584 E7.67739
G1 X96.463 Y138.62 E7.73463
G1 X96.076 Y137.897 E7.77554
G1 X95.621 Y136.847 E7.83263
G1 X95.357 Y136.068 E7.87367
G1 X95.081 Y134.96 E7.93064
G1 X94.964 Y134.303 E7.96393
G1 X94.88 Y133.545 E8.00198
G1 X94.769 Y133.361 E8.0127
G1 X90.864 Y126.081 E8.42485
G1 X72.425 Y125.759 E9.34492
G1 X71.795 Y125.708 E9.37645
G1 X71.176 Y125.578 E9.40801
G1 X70.579 Y125.371 E9.43953
G1 X70.012 Y125.09 E9.4711
G1 X69.486 Y124.74 E9.50262
G1 X68.976 Y124.295 E9.53639
G1 X66.934 Y122.252 E9.6805
G1 X66.516 Y121.777 E9.71207
G1 X66.161 Y121.254 E9.7436
G1 X65.876 Y120.69 E9.77513
G1 X65.663 Y120.094 E9.80671
G1 X65.528 Y119.477 E9.83822
G1 X65.47 Y118.717 E9.87624
G1 X65.47 Y116.486 E9.98755
G1 X65.51 Y115.855 E10.01909
G1 X65.629 Y115.234 E10.05064
G1 X65.826 Y114.634 E10.08214
G1 X66.097 Y114.062 E10.11372
G1 X66.437 Y113.53 E10.14522
G1 X66.843 Y113.045 E10.17678
G1 X67.306 Y112.615 E10.2083
G1 X67.82 Y112.246 E10.23987
G1 X68.376 Y111.946 E10.27139
G1 X68.614 Y111.854 E10.28412
G1 X68.629 Y111.776 E10.28808
G1 X68.826 Y111.176 E10.31959
G1 X69.097 Y110.604 E10.35117
G1 X69.437 Y110.072 E10.38266
G1 X69.843 Y109.587 E10.41422
G1 X70.306 Y109.157 E10.44574
G1 X70.82 Y108.788 E10.47731
G1 X71.376 Y108.488 E10.50883
G1 X71.965 Y108.26 E10.54034
G1 X72.579 Y108.108 E10.5719
G1 X73.261 Y108.047 E10.60606
G1 X73.262 Y72.432 E12.3829
G1 X72.839 Y72.405 E12.40405
G1 X72.218 Y72.286 E12.43559
G1 X71.618 Y72.089 E12.4671
G1 X71.046 Y71.818 E12.49868
G1 X70.514 Y71.478 E12.53017
G1 X70.029 Y71.072 E12.56173
G1 X69.599 Y70.609 E12.59325
G1 X69.23 Y70.095 E12.62482
G1 X68.93 Y69.539 E12.65634
G1 X68.702 Y68.95 E12.68785
G1 X68.623 Y68.633 E12.70415
G1 X68.618 Y68.631 E12.70442
G1 X68.046 Y68.36 E12.736
G1 X67.514 Y68.02 E12.7675
G1 X67.029 Y67.614 E12.79905
G1 X66.599 Y67.151 E12.83058
G1 X66.23 Y66.637 E12.86214
G1 X65.93 Y66.081 E12.89366
G1 X65.702 Y65.492 E12.92517
G1 X65.55 Y64.878 E12.95673
G1 X65.47 Y63.987 E13.00136
G1 X65.47 Y60.596 E13.17054
G1 X65.51 Y59.965 E13.20208
G1 X65.629 Y59.344 E13.23363
G1 X65.826 Y58.744 E13.26513
G1 X66.097 Y58.172 E13.29671
G1 X66.437 Y57.64 E13.32821
G1 X66.843 Y57.155 E13.35977
G0 F1800 X67.237 Y57.324
G1 F1200 X67.695 Y56.927 E13.39001
G1 X68.202 Y56.594 E13.42027
G1 X68.748 Y56.33 E13.45053
G1 X69.324 Y56.141 E13.48077
G1 X69.92 Y56.029 E13.51103
G1 X70.47 Y55.996 E13.53851
G1 X80.079 Y55.996 E14.01791
G1 X80.684 Y56.036 E14.04816
G1 X81.278 Y56.155 E14.07838
G1 X81.852 Y56.351 E14.10864
G1 X82.395 Y56.622 E14.13892
G1 X82.898 Y56.961 E14.16918
G1 X83.332 Y57.343 E14.19803
G1 X132.784 Y106.795 E17.68713
G1 X133.183 Y107.251 E17.71736
G1 X133.519 Y107.756 E17.74762
G1 X133.786 Y108.3 E17.77786
G1 X133.979 Y108.875 E17.80812
G1 X134.095 Y109.47 E17.83836
G1 X134.131 Y110.076 E17.86865
G1 X134.087 Y110.68 E17.89886
G1 X133.965 Y111.274 E17.92911
G1 X133.727 Y111.934 E17.96412
G1 X133.236 Y113.027 E18.0239
G1 X133.542 Y113.929 E18.07142
G1 X133.699 Y114.515 E18.10168
G1 X133.777 Y115.116 E18.13192
G1 X133.774 Y115.739 E18.163
G1 X133.75 Y116.071 E18.17961
G1 X133.667 Y116.671 E18.20983
G1 X133.4 Y117.529 E18.25466
G1 X133.275 Y117.825 E18.27069
G1 X133.002 Y118.366 E18.30092
G1 X132.661 Y118.868 E18.3312
G1 X132.464 Y119.103 E18.34649
G1 X132.242 Y119.351 E18.3631
G1 X131.809 Y119.775 E18.39333
G1 X131.07 Y120.292 E18.43833
G1 X130.782 Y120.454 E18.45482
G1 X130.235 Y120.716 E18.48507
G1 X129.659 Y120.904 E18.5153
G1 X129.318 Y120.977 E18.5327
G1 X128.997 Y121.033 E18.54896
G1 X128.394 Y121.097 E18.57921
G1 X127.788 Y121.082 E18.60945
G1 X127.161 Y120.981 E18.64114
G1 X126.685 Y120.87 E18.66552
G1 X126.105 Y120.694 E18.69576
G1 X125.553 Y120.442 E18.72604
G1 X124.974 Y120.073 E18.76029
G1 X124.708 Y119.874 E18.77686
G1 X124.299 Y119.524 E18.80372
G1 X124.94 Y120.164 E18.84891
G1 X125.34 Y120.619 E18.87914
G1 X125.676 Y121.124 E18.9094
G1 X125.943 Y121.668 E18.93963
G1 X126.136 Y122.243 E18.96989
G1 X126.252 Y122.838 E19.00013
G1 X126.289 Y123.443 E19.03037
G1 X126.246 Y124.048 E19.06063
G1 X126.123 Y124.642 E19.0909
G1 X125.924 Y125.214 E19.12111
G1 X125.651 Y125.756 E19.15139
G1 X125.309 Y126.256 E19.18161
G1 X124.938 Y126.674 E19.20949
G1 X116.466 Y135.127 E19.80657
G1 X116.01 Y135.526 E19.8368
G1 X115.505 Y135.862 E19.86706
G1 X114.96 Y136.128 E19.89732
G1 X114.575 Y136.266 E19.91772
G1 X113.97 Y136.453 E19.94931
G1 X113.381 Y136.593 E19.97952
G1 X112.777 Y136.655 E20.00981
G1 X112.171 Y136.637 E20.04006
G1 X111.774 Y136.581 E20.06006
G1 X111.461 Y136.523 E20.07594
G1 X110.873 Y136.373 E20.10621
G1 X110.412 Y136.189 E20.13098
G1 X110.552 Y136.502 E20.14808
G1 X110.779 Y137.374 E20.19304
G1 X110.83 Y137.696 E20.2093
G1 X110.886 Y138.3 E20.23957
G1 X110.861 Y138.906 E20.26983
G1 X110.813 Y139.235 E20.28641
G1 X110.754 Y139.561 E20.30294
G1 X110.607 Y140.149 E20.33318
G1 X110.252 Y140.971 E20.37785
G1 X110.093 Y141.258 E20.39422
G1 X109.765 Y141.768 E20.42447
G1 X109.372 Y142.23 E20.45473
G1 X109.144 Y142.45 E20.47054
G1 X108.897 Y142.672 E20.48711
G1 X108.42 Y143.047 E20.51738
G1 X107.898 Y143.356 E20.54764
G1 X107.622 Y143.484 E20.56282
G1 X107.321 Y143.612 E20.57914
G1 X106.749 Y143.812 E20.60937
G1 X106.155 Y143.935 E20.63963
G1 X105.843 Y143.968 E20.65529
G1 X105.515 Y143.991 E20.67169
G1 X104.908 Y143.993 E20.70197
G1 X104.307 Y143.916 E20.7322
G1 X103.737 Y143.766 E20.76161
G1 X102.496 Y143.352 E20.82688
G1 X101.718 Y143.009 E20.8693
G1 X100.717 Y142.453 E20.92642
G1 X100.092 Y142.035 E20.96394
G1 X99.191 Y141.32 E21.02132
G1 X98.64 Y140.804 E21.05898
G1 X97.876 Y139.96 E21.11578
G1 X97.421 Y139.367 E21.15307
G1 X96.799 Y138.403 E21.21031
G1 X96.443 Y137.738 E21.24794
G1 X95.988 Y136.688 E21.30503
G1 X95.745 Y135.971 E21.3428
G1 X95.469 Y134.863 E21.39977
G1 X95.361 Y134.259 E21.43038
G1 X95.267 Y133.415 E21.47275
G1 X95.121 Y133.171 E21.48693
G1 X91.106 Y125.685 E21.91074
G1 X72.432 Y125.359 E22.84253
G1 X71.827 Y125.309 E22.87281
G1 X71.235 Y125.179 E22.90305
G1 X70.665 Y124.973 E22.93329
G1 X70.127 Y124.693 E22.96355
G1 X69.63 Y124.346 E22.99379
G1 X69.259 Y124.012 E23.01869
G1 X67.217 Y121.969 E23.1628
G1 X66.817 Y121.513 E23.19307
G1 X66.481 Y121.008 E23.22333
G1 X66.214 Y120.464 E23.25356
G1 X66.022 Y119.889 E23.2838
G1 X65.906 Y119.293 E23.3141
G1 X65.87 Y118.717 E23.34289
G1 X65.87 Y116.486 E23.4542
G1 X65.91 Y115.881 E23.48444
G1 X66.029 Y115.287 E23.51467
G1 X66.225 Y114.713 E23.54493
G1 X66.496 Y114.17 E23.57521
G1 X66.835 Y113.667 E23.60547
G1 X67.237 Y113.214 E23.63568
G1 X67.695 Y112.817 E23.66592
G1 X68.202 Y112.484 E23.69619
G1 X68.748 Y112.22 E23.72644
G1 X68.965 Y112.149 E23.73783
G1 X69.029 Y111.829 E23.75411
G1 X69.225 Y111.255 E23.78437
G1 X69.496 Y110.712 E23.81465
G1 X69.835 Y110.209 E23.84491
G1 X70.237 Y109.756 E23.87513
G1 X70.695 Y109.359 E23.90537
G1 X71.202 Y109.026 E23.93563
G1 X71.748 Y108.762 E23.96589
G1 X72.324 Y108.573 E23.99613
G1 X72.92 Y108.461 E24.02639
G1 X73.469 Y108.428 E24.05383
G1 X73.661 Y108.428 E24.06341
G1 X73.662 Y72.112 E25.87522
G1 X73.586 Y72.045 E25.88027
G1 X73.47 Y72.045 E25.88606
G1 X72.865 Y72.005 E25.91631
G1 X72.271 Y71.886 E25.94653
G1 X71.697 Y71.69 E25.97679
G1 X71.154 Y71.419 E26.00707
G1 X70.651 Y71.08 E26.03733
G1 X70.198 Y70.678 E26.06755
G1 X69.801 Y70.22 E26.09779
G1 X69.468 Y69.713 E26.12805
G1 X69.204 Y69.167 E26.15831
G1 X69.015 Y68.591 E26.18855
G1 X68.965 Y68.323 E26.20215
G1 X68.697 Y68.232 E26.21627
G1 X68.154 Y67.961 E26.24655
G1 X67.651 Y67.622 E26.27681
G1 X67.198 Y67.22 E26.30703
G1 X66.801 Y66.762 E26.33727
G1 X66.468 Y66.255 E26.36753
G1 X66.204 Y65.709 E26.39779
G1 X66.015 Y65.133 E26.42803
G1 X65.903 Y64.537 E26.45829
G1 X65.87 Y63.987 E26.48577
G1 X65.87 Y60.596 E26.65495
G1 X65.91 Y59.991 E26.6852
G1 X66.029 Y59.397 E26.71543
G1 X66.225 Y58.823 E26.74569
G1 X66.496 Y58.28 E26.77596
G1 X66.835 Y57.777 E26.80622
G1 X67.237 Y57.324 E26.83644
G0 F1800 X67.63 Y57.502
G1 F1200 X68.083 Y57.14 E26.86537
G1 X68.581 Y56.845 E26.89425
G1 X69.115 Y56.62 E26.92316
G1 X69.675 Y56.472 E26.95206
G1 X70.47 Y56.396 E26.9919
G1 X80.079 Y56.396 E27.47129
G1 X80.657 Y56.436 E27.5002
G1 X81.224 Y56.555 E27.5291
G1 X81.769 Y56.751 E27.558
G1 X82.282 Y57.02 E27.5869
G1 X82.753 Y57.357 E27.61579
G1 X83.049 Y57.626 E27.63575
G1 X132.501 Y107.078 E31.12485
G1 X132.881 Y107.515 E31.15374
G1 X133.198 Y108 E31.18265
G1 X133.445 Y108.524 E31.21155
G1 X133.617 Y109.077 E31.24044
G1 X133.712 Y109.649 E31.26937
G1 X133.727 Y110.228 E31.29827
G1 X133.662 Y110.804 E31.32719
G1 X133.519 Y111.365 E31.35607
G1 X133.362 Y111.77 E31.37774
G1 X132.806 Y113.006 E31.44536
G1 X133.163 Y114.057 E31.50073
G1 X133.311 Y114.618 E31.52968
G1 X133.381 Y115.193 E31.55858
G1 X133.375 Y115.71 E31.58437
G1 X133.351 Y116.042 E31.60098
G1 X133.27 Y116.615 E31.62985
G1 X133.031 Y117.373 E31.6695
G1 X132.906 Y117.669 E31.68553
G1 X132.645 Y118.186 E31.71443
G1 X132.166 Y118.836 E31.75471
G1 X131.944 Y119.084 E31.77132
G1 X131.529 Y119.488 E31.80021
G1 X130.874 Y119.944 E31.84003
G1 X130.586 Y120.106 E31.85652
G1 X130.063 Y120.354 E31.88539
G1 X129.249 Y120.583 E31.92758
G1 X128.928 Y120.639 E31.94384
G1 X128.352 Y120.698 E31.97272
G1 X127.773 Y120.679 E32.00163
G1 X127.252 Y120.591 E32.02799
G1 X126.776 Y120.48 E32.05237
G1 X126.222 Y120.31 E32.08128
G1 X125.697 Y120.065 E32.11019
G1 X125.214 Y119.753 E32.13887
G1 X124.948 Y119.554 E32.15545
G1 X124.509 Y119.176 E32.18435
G1 X124.127 Y118.741 E32.21323
G1 X123.956 Y118.501 E32.22793
G1 X123.771 Y118.22 E32.24472
G1 X123.487 Y117.715 E32.27362
G1 X123.328 Y117.334 E32.29422
G1 X123.11 Y116.728 E32.32635
G1 X123.046 Y116.615 E32.33283
G1 X122.962 Y116.512 E32.33946
G1 X122.869 Y116.429 E32.34568
G1 X122.755 Y116.358 E32.35238
G1 X122.625 Y116.304 E32.3594
G1 X122.511 Y116.277 E32.36525
G1 X122.377 Y116.269 E32.37195
G1 X122.246 Y116.283 E32.37852
G1 X122.117 Y116.32 E32.38521
G1 X122.003 Y116.373 E32.39149
G1 X121.896 Y116.448 E32.398
G1 X121.803 Y116.538 E32.40446
G1 X121.726 Y116.644 E32.411
G1 X121.662 Y116.772 E32.41814
G1 X121.629 Y116.879 E32.42372
G1 X121.61 Y117.021 E32.43087
G1 X121.615 Y117.146 E32.43711
G1 X121.64 Y117.27 E32.44342
G1 X121.691 Y117.401 E32.45044
G1 X121.758 Y117.514 E32.45699
G1 X121.958 Y117.751 E32.47246
G1 X124.657 Y120.447 E32.66279
G1 X125.038 Y120.883 E32.69167
G1 X125.355 Y121.368 E32.72058
G1 X125.602 Y121.892 E32.74948
G1 X125.775 Y122.445 E32.77839
G1 X125.87 Y123.017 E32.80732
G1 X125.885 Y123.596 E32.83621
G1 X125.821 Y124.171 E32.86508
G1 X125.678 Y124.733 E32.89401
G1 X125.459 Y125.269 E32.9229
G1 X125.168 Y125.77 E32.9518
G1 X124.656 Y126.391 E32.99196
G1 X116.184 Y134.844 E33.58903
G1 X115.746 Y135.224 E33.61796
G1 X115.261 Y135.54 E33.64684
G1 X114.736 Y135.787 E33.67579
G1 X114.457 Y135.884 E33.69052
G1 X113.852 Y136.071 E33.72212
G1 X113.288 Y136.203 E33.75101
G1 X112.712 Y136.257 E33.77988
G1 X111.847 Y136.188 E33.82317
G1 X111.534 Y136.13 E33.83905
G1 X110.973 Y135.985 E33.86796
G1 X110.437 Y135.765 E33.89686
G1 X109.709 Y135.307 E33.93977
G1 X109.211 Y134.917 E33.97133
G1 X108.781 Y134.529 E34.00023
G1 X108.408 Y134.086 E34.02912
G1 X108.1 Y133.595 E34.05804
G1 X107.881 Y133.118 E34.08422
G1 X107.575 Y132.322 E34.12677
G1 X107.491 Y132.173 E34.1353
G1 X107.405 Y132.067 E34.14211
G1 X107.308 Y131.981 E34.14858
G1 X107.194 Y131.91 E34.15528
G1 X107.071 Y131.86 E34.1619
G1 X106.946 Y131.832 E34.16829
G1 X106.817 Y131.826 E34.17474
G1 X106.68 Y131.841 E34.18161
G1 X106.559 Y131.877 E34.18791
G1 X106.439 Y131.935 E34.19456
G1 X106.329 Y132.013 E34.20129
G1 X106.241 Y132.101 E34.2075
G1 X106.163 Y132.211 E34.21422
G1 X106.103 Y132.334 E34.22105
G1 X106.07 Y132.45 E34.22707
G1 X106.054 Y132.588 E34.234
G1 X106.06 Y132.712 E34.24019
G1 X106.09 Y132.846 E34.24704
G1 X106.14 Y132.968 E34.25362
G1 X106.211 Y133.083 E34.26036
G1 X106.292 Y133.175 E34.26648
G1 X106.399 Y133.261 E34.27333
G1 X106.554 Y133.349 E34.28222
G1 X107.355 Y133.658 E34.32505
G1 X107.879 Y133.903 E34.35391
G1 X108.365 Y134.218 E34.38281
G1 X108.721 Y134.518 E34.40603
G1 X108.961 Y134.744 E34.42248
G1 X109.355 Y135.17 E34.45143
G1 X109.797 Y135.843 E34.4916
G1 X109.951 Y136.135 E34.50807
G1 X110.185 Y136.665 E34.53697
G1 X110.384 Y137.437 E34.57675
G1 X110.435 Y137.759 E34.59301
G1 X110.486 Y138.336 E34.62191
G1 X110.42 Y139.164 E34.66335
G1 X110.361 Y139.49 E34.67988
G1 X110.219 Y140.052 E34.7088
