;FLAVOR:RepRap
;TIME:1261
;Filament used: 1.19317m
;Layer height: 0.15
;Generated with Cura_SteamEngine 2.5.0-BETA
M190 S55
M104 S210
M109 S210
G21 ;metric values
G90 ;absolute positioning
M82 ;set extruder to absolute mode
M107 ;start with the fan off
G28 X0 Y0 ;move X/Y to min endstops
G28 Z0 ;move Z to min endstops
G1 Z15.0 F9000 ;move the platform down 15mm
G92 E0 ;zero the extruded length
G1 F200 E3 ;extrude 3mm of feed stock
G92 E0 ;zero the extruded length again
G1 F9000
;Put printing message on LCD screen
M117 Printing...
;LAYER_COUNT:72
;LAYER:0
M107
G0 F1800 X89.583 Y87.982 Z0.3
;TYPE:SKIRT
G1 F1200 X90.057 Y87.563 E0.03156
G1 X90.445 Y87.29 E0.05523
G1 X92.551 Y85.953 E0.17969
G1 X93.105 Y85.648 E0.21124
G1 X93.554 Y85.464 E0.23545
G1 X95.818 Y84.658 E0.35534
G1 X96.426 Y84.484 E0.38689
G1 X96.901 Y84.403 E0.41093
G1 X99.309 Y84.115 E0.53192
G1 X99.94 Y84.08 E0.56345
G1 X100.447 Y84.11 E0.58879
G1 X103.033 Y84.393 E0.71858
G1 X103.656 Y84.501 E0.75012
G1 X104.134 Y84.641 E0.77497
G1 X106.321 Y85.403 E0.89052
G1 X106.904 Y85.649 E0.92208
G1 X107.32 Y85.881 E0.94585
G1 X109.453 Y87.21 E1.07123
G1 X109.967 Y87.578 E1.10277
G1 X110.339 Y87.913 E1.12774
G1 X112.033 Y89.602 E1.24709
G1 X112.452 Y90.076 E1.27865
G1 X112.731 Y90.474 E1.3029
G1 X114.082 Y92.614 E1.42916
G1 X114.385 Y93.169 E1.46071
G1 X114.585 Y93.664 E1.48734
G1 X115.398 Y96.039 E1.61258
G1 X115.564 Y96.648 E1.64407
G1 X115.639 Y97.128 E1.66831
G1 X115.896 Y99.537 E1.78918
G1 X115.923 Y100.168 E1.82069
G1 X115.892 Y100.632 E1.84389
G1 X115.623 Y102.997 E1.96264
G1 X115.512 Y103.619 E1.99416
G1 X115.376 Y104.079 E2.01809
G1 X114.573 Y106.381 E2.13973
G1 X114.327 Y106.963 E2.17125
G1 X114.078 Y107.407 E2.19665
G1 X112.742 Y109.519 E2.32133
G1 X112.371 Y110.031 E2.35287
G1 X112.037 Y110.396 E2.37756
G1 X110.315 Y112.104 E2.49856
G1 X109.839 Y112.52 E2.5301
G1 X109.439 Y112.797 E2.55437
G1 X107.323 Y114.116 E2.67877
G1 X106.766 Y114.416 E2.71033
G1 X106.303 Y114.601 E2.73521
G1 X103.993 Y115.395 E2.85707
G1 X103.384 Y115.563 E2.88859
G1 X102.879 Y115.641 E2.91408
G1 X100.406 Y115.895 E3.03811
G1 X99.774 Y115.92 E3.06967
G1 X99.303 Y115.886 E3.09323
G1 X96.928 Y115.603 E3.21255
G1 X96.307 Y115.489 E3.24405
G1 X95.856 Y115.353 E3.26755
G1 X93.564 Y114.544 E3.38882
G1 X92.982 Y114.296 E3.42038
G1 X92.562 Y114.059 E3.44444
G1 X90.536 Y112.782 E3.56392
G1 X90.023 Y112.412 E3.59548
G1 X89.666 Y112.088 E3.61953
G1 X87.945 Y110.367 E3.74095
G1 X87.528 Y109.892 E3.77249
G1 X87.252 Y109.499 E3.79645
G1 X85.907 Y107.367 E3.92221
G1 X85.604 Y106.812 E3.95376
G1 X85.418 Y106.355 E3.97837
G1 X84.348 Y103.306 E4.13958
G1 X84.177 Y102.697 E4.17114
G1 X84.092 Y102.162 E4.19817
G1 X83.922 Y100.509 E4.28107
G1 X83.897 Y99.877 E4.31263
G1 X83.924 Y99.47 E4.33298
G1 X84.098 Y97.829 E4.4153
G1 X84.204 Y97.206 E4.44683
G1 X84.351 Y96.704 E4.47293
G1 X85.432 Y93.615 E4.6362
G1 X85.678 Y93.033 E4.66773
G1 X85.925 Y92.595 E4.69282
G1 X87.26 Y90.484 E4.81743
G1 X87.631 Y89.972 E4.84897
G1 X87.944 Y89.627 E4.87221
G1 X89.583 Y87.982 E4.98806
G0 F1800 X89.866 Y88.264
G1 F1200 X90.322 Y87.864 E5.01833
G1 X90.66 Y87.628 E5.03889
G1 X92.766 Y86.291 E5.16335
G1 X93.298 Y86 E5.1936
G1 X93.688 Y85.84 E5.21463
G1 X95.952 Y85.034 E5.33453
G1 X96.536 Y84.869 E5.3648
G1 X96.949 Y84.801 E5.38568
G1 X99.357 Y84.513 E5.50668
G1 X99.962 Y84.48 E5.5369
G1 X100.403 Y84.507 E5.55895
G1 X102.989 Y84.79 E5.68873
G1 X103.586 Y84.896 E5.71898
G1 X104.003 Y85.019 E5.74067
G1 X106.19 Y85.781 E5.85622
G1 X106.748 Y86.018 E5.88646
G1 X107.109 Y86.221 E5.90713
G1 X109.242 Y87.55 E6.03251
G1 X109.734 Y87.904 E6.06275
G1 X110.057 Y88.197 E6.0845
G1 X111.751 Y89.886 E6.20385
G1 X112.151 Y90.341 E6.23407
G1 X112.393 Y90.687 E6.25514
G1 X113.744 Y92.827 E6.3814
G1 X114.033 Y93.36 E6.41165
G1 X114.206 Y93.793 E6.43491
G1 X115.019 Y96.168 E6.56015
G1 X115.177 Y96.754 E6.59043
G1 X115.241 Y97.17 E6.61143
G1 X115.498 Y99.579 E6.7323
G1 X115.522 Y100.185 E6.76255
G1 X115.495 Y100.587 E6.78265
G1 X115.226 Y102.952 E6.9014
G1 X115.117 Y103.548 E6.93163
G1 X114.998 Y103.947 E6.95241
G1 X114.195 Y106.249 E7.07404
G1 X113.958 Y106.807 E7.10428
G1 X113.739 Y107.193 E7.12643
G1 X112.403 Y109.305 E7.25111
G1 X112.046 Y109.795 E7.28135
G1 X111.755 Y110.112 E7.30282
G1 X110.033 Y111.82 E7.42382
G1 X109.576 Y112.218 E7.45406
G1 X109.227 Y112.458 E7.47519
G1 X107.111 Y113.777 E7.59959
G1 X106.577 Y114.063 E7.62981
G1 X106.173 Y114.223 E7.65149
G1 X103.863 Y115.017 E7.77335
G1 X103.278 Y115.176 E7.8036
G1 X102.838 Y115.243 E7.8258
G1 X100.365 Y115.497 E7.94983
G1 X99.759 Y115.519 E7.98008
G1 X99.351 Y115.489 E8.00049
G1 X96.976 Y115.206 E8.11982
G1 X96.38 Y115.094 E8.15008
G1 X95.989 Y114.976 E8.17045
G1 X93.697 Y114.167 E8.29171
G1 X93.14 Y113.928 E8.32195
G1 X92.775 Y113.72 E8.34291
G1 X90.749 Y112.443 E8.46239
G1 X90.259 Y112.087 E8.49261
G1 X89.949 Y111.805 E8.51352
G1 X88.228 Y110.084 E8.63494
G1 X87.829 Y109.628 E8.66517
G1 X87.59 Y109.285 E8.68603
G1 X86.245 Y107.153 E8.81179
G1 X85.956 Y106.62 E8.84204
G1 X85.796 Y106.222 E8.86344
G1 X84.726 Y103.173 E9.02465
G1 X84.563 Y102.589 E9.0549
G1 X84.49 Y102.121 E9.07853
G1 X84.32 Y100.468 E9.16144
G1 X84.298 Y99.862 E9.19169
G1 X84.322 Y99.512 E9.20919
G1 X84.496 Y97.871 E9.29152
G1 X84.599 Y97.274 E9.32175
G1 X84.728 Y96.837 E9.34448
G1 X85.809 Y93.748 E9.50775
G1 X86.047 Y93.19 E9.53802
G1 X86.263 Y92.808 E9.55991
G1 X87.598 Y90.697 E9.68452
G1 X87.955 Y90.207 E9.71477
G1 X88.227 Y89.909 E9.7349
G1 X89.866 Y88.264 E9.85075
G0 F1800 X90.15 Y88.547
G1 F1200 X90.586 Y88.165 E9.87967
G1 X90.874 Y87.965 E9.89716
G1 X92.98 Y86.628 E10.02162
G1 X93.489 Y86.352 E10.0505
G1 X93.822 Y86.217 E10.06843
G1 X96.086 Y85.411 E10.18833
G1 X96.644 Y85.255 E10.21723
G1 X96.996 Y85.198 E10.23502
G1 X99.404 Y84.91 E10.35602
G1 X99.983 Y84.881 E10.38494
G1 X100.36 Y84.905 E10.40378
G1 X102.946 Y85.188 E10.53357
G1 X103.516 Y85.291 E10.56247
G1 X103.871 Y85.397 E10.58095
G1 X106.058 Y86.159 E10.6965
G1 X106.591 Y86.387 E10.72542
G1 X106.897 Y86.56 E10.74296
G1 X109.03 Y87.889 E10.86834
G1 X109.499 Y88.229 E10.89724
G1 X109.774 Y88.48 E10.91581
G1 X111.468 Y90.169 E11.03516
G1 X111.85 Y90.605 E11.06408
G1 X112.054 Y90.901 E11.08201
G1 X113.405 Y93.041 E11.20827
G1 X113.68 Y93.551 E11.23718
G1 X113.828 Y93.923 E11.25715
G1 X114.641 Y96.298 E11.38239
G1 X114.79 Y96.857 E11.41126
G1 X114.843 Y97.212 E11.42916
G1 X115.1 Y99.621 E11.55003
G1 X115.122 Y100.2 E11.57894
G1 X115.097 Y100.542 E11.59605
G1 X114.828 Y102.907 E11.7148
G1 X114.723 Y103.476 E11.74366
G1 X114.621 Y103.815 E11.76133
G1 X113.818 Y106.117 E11.88296
G1 X113.59 Y106.65 E11.91188
G1 X113.401 Y106.979 E11.93081
G1 X112.065 Y109.091 E12.05549
G1 X111.723 Y109.558 E12.08437
G1 X111.474 Y109.828 E12.10269
G1 X109.752 Y111.536 E12.2237
G1 X109.313 Y111.915 E12.25263
G1 X109.016 Y112.118 E12.27058
G1 X106.9 Y113.437 E12.39498
G1 X106.388 Y113.709 E12.4239
G1 X106.043 Y113.845 E12.4424
G1 X103.733 Y114.639 E12.56427
G1 X103.174 Y114.789 E12.59314
G1 X102.797 Y114.845 E12.61216
G1 X100.324 Y115.099 E12.73619
G1 X99.745 Y115.118 E12.76509
G1 X99.398 Y115.091 E12.78245
G1 X97.023 Y114.808 E12.90178
G1 X96.454 Y114.7 E12.93067
G1 X96.122 Y114.599 E12.94799
G1 X93.83 Y113.79 E13.06925
G1 X93.298 Y113.559 E13.09818
G1 X92.988 Y113.382 E13.11599
G1 X90.962 Y112.105 E13.23547
G1 X90.495 Y111.763 E13.26435
G1 X90.232 Y111.522 E13.28215
G1 X88.511 Y109.801 E13.40358
G1 X88.131 Y109.364 E13.43247
G1 X87.929 Y109.072 E13.45018
G1 X86.584 Y106.94 E13.57595
G1 X86.309 Y106.43 E13.60485
G1 X86.173 Y106.09 E13.62312
G1 X85.103 Y103.041 E13.78433
G1 X84.949 Y102.482 E13.81326
G1 X84.888 Y102.08 E13.83354
G1 X84.718 Y100.427 E13.91645
G1 X84.699 Y99.848 E13.94535
G1 X84.719 Y99.554 E13.96005
G1 X84.893 Y97.913 E14.04238
G1 X84.994 Y97.343 E14.07126
G1 X85.106 Y96.969 E14.09074
G1 X86.187 Y93.88 E14.25401
G1 X86.415 Y93.347 E14.28294
G1 X86.601 Y93.022 E14.30162
G1 X87.936 Y90.911 E14.42623
G1 X88.279 Y90.444 E14.45514
G1 X88.511 Y90.192 E14.47223
G1 X90.15 Y88.547 E14.58808
G0 F1800 X90.433 Y88.829
G1 F1200 X90.849 Y88.468 E14.61556
G1 X91.088 Y88.303 E14.63005
G1 X93.194 Y86.966 E14.7545
G1 X93.68 Y86.705 E14.78202
G1 X93.957 Y86.594 E14.79691
G1 X96.221 Y85.788 E14.91681
G1 X96.752 Y85.641 E14.94429
G1 X97.044 Y85.595 E14.95904
G1 X99.452 Y85.307 E15.08003
G1 X100.002 Y85.281 E15.1075
G1 X100.316 Y85.303 E15.12321
G1 X102.902 Y85.586 E15.25299
G1 X103.444 Y85.685 E15.28048
G1 X103.739 Y85.775 E15.29587
G1 X105.926 Y86.537 E15.41141
G1 X106.432 Y86.755 E15.4389
G1 X106.686 Y86.9 E15.45349
G1 X108.819 Y88.229 E15.57887
G1 X109.264 Y88.553 E15.60634
G1 X109.492 Y88.763 E15.6218
G1 X111.186 Y90.452 E15.74114
G1 X111.547 Y90.868 E15.76862
G1 X111.716 Y91.114 E15.78351
G1 X113.067 Y93.254 E15.90978
G1 X113.327 Y93.74 E15.93727
G1 X113.449 Y94.052 E15.95399
G1 X114.262 Y96.427 E16.07923
G1 X114.402 Y96.96 E16.10672
G1 X114.446 Y97.255 E16.1216
G1 X114.703 Y99.664 E16.24247
G1 X114.721 Y100.215 E16.26997
G1 X114.7 Y100.496 E16.28403
G1 X114.431 Y102.861 E16.40278
G1 X114.329 Y103.403 E16.4303
G1 X114.243 Y103.684 E16.44496
G1 X113.44 Y105.986 E16.56659
G1 X113.221 Y106.491 E16.59405
G1 X113.063 Y106.765 E16.60983
G1 X111.727 Y108.877 E16.73451
G1 X111.4 Y109.321 E16.76202
G1 X111.192 Y109.544 E16.77724
G1 X109.47 Y111.252 E16.89824
G1 X109.052 Y111.611 E16.92573
G1 X108.804 Y111.779 E16.94067
G1 X106.688 Y113.098 E17.06507
G1 X106.201 Y113.355 E17.09254
G1 X105.913 Y113.467 E17.10796
G1 X103.603 Y114.261 E17.22983
G1 X103.071 Y114.401 E17.25727
G1 X102.756 Y114.447 E17.27315
G1 X100.283 Y114.701 E17.39718
G1 X99.732 Y114.718 E17.42468
G1 X99.445 Y114.694 E17.43905
G1 X97.07 Y114.411 E17.55838
G1 X96.529 Y114.307 E17.58586
G1 X96.255 Y114.221 E17.60019
G1 X93.963 Y113.412 E17.72145
G1 X93.458 Y113.192 E17.74894
G1 X93.202 Y113.044 E17.76369
G1 X91.176 Y111.767 E17.88317
G1 X90.732 Y111.44 E17.91068
G1 X90.515 Y111.239 E17.92544
G1 X88.794 Y109.518 E18.04686
G1 X88.434 Y109.101 E18.07435
G1 X88.267 Y108.859 E18.08902
G1 X86.922 Y106.727 E18.21478
G1 X86.663 Y106.24 E18.2423
G1 X86.55 Y105.957 E18.2575
G1 X85.48 Y102.908 E18.41871
G1 X85.336 Y102.377 E18.44616
G1 X85.286 Y102.039 E18.46321
G1 X85.116 Y100.386 E18.54611
G1 X85.117 Y99.596 E18.58552
G1 X85.291 Y97.955 E18.66785
G1 X85.389 Y97.413 E18.69533
G1 X85.483 Y97.101 E18.71159
G1 X86.564 Y94.012 E18.87486
G1 X86.784 Y93.506 E18.90239
G1 X86.939 Y93.236 E18.91792
G1 X88.274 Y91.125 E19.04253
G1 X88.602 Y90.682 E19.07003
G1 X88.794 Y90.474 E19.08415
G1 X90.433 Y88.829 E19.20001
G0 F1800 X90.716 Y89.111
G1 F1200 X91.303 Y88.641 E19.23752
G1 X93.409 Y87.304 E19.36198
G1 X94.091 Y86.971 E19.39984
G1 X96.355 Y86.165 E19.51974
G1 X97.091 Y85.992 E19.55746
G1 X99.499 Y85.704 E19.67845
G1 X100.273 Y85.7 E19.71706
G1 X102.859 Y85.983 E19.84685
G1 X103.608 Y86.152 E19.88516
G1 X105.795 Y86.914 E20.0007
G1 X106.474 Y87.239 E20.03826
G1 X108.607 Y88.568 E20.16364
G1 X109.21 Y89.046 E20.20203
G1 X110.904 Y90.735 E20.32137
G1 X111.378 Y91.328 E20.35925
G1 X112.729 Y93.468 E20.48551
G1 X112.973 Y93.929 E20.51153
G1 X113.071 Y94.182 E20.52507
G1 X113.884 Y96.557 E20.65031
G1 X114.048 Y97.297 E20.68812
G1 X114.305 Y99.706 E20.80899
G1 X114.302 Y100.451 E20.84616
G1 X114.033 Y102.816 E20.96491
G1 X113.865 Y103.552 E21.00257
G1 X113.062 Y105.854 E21.12421
G1 X112.725 Y106.552 E21.16287
G1 X111.389 Y108.664 E21.28755
G1 X110.91 Y109.26 E21.3257
G1 X109.188 Y110.968 E21.44671
G1 X108.593 Y111.439 E21.48457
G1 X106.477 Y112.758 E21.60896
G1 X105.783 Y113.088 E21.6473
G1 X103.473 Y113.882 E21.76917
G1 X102.715 Y114.049 E21.80789
G1 X100.242 Y114.303 E21.93192
G1 X99.493 Y114.297 E21.96929
G1 X97.118 Y114.014 E22.08861
G1 X96.388 Y113.844 E22.12601
G1 X94.096 Y113.035 E22.24727
G1 X93.415 Y112.705 E22.28502
G1 X91.389 Y111.428 E22.40451
G1 X90.798 Y110.956 E22.44224
G1 X89.077 Y109.235 E22.56367
G1 X88.605 Y108.645 E22.60136
G1 X87.26 Y106.513 E22.72712
G1 X86.928 Y105.825 E22.76524
G1 X85.858 Y102.776 E22.92645
G1 X85.723 Y102.272 E22.95248
G1 X85.684 Y101.998 E22.96629
G1 X85.514 Y100.345 E23.04919
G1 X85.515 Y99.638 E23.08446
G1 X85.689 Y97.997 E23.16679
G1 X85.783 Y97.485 E23.19276
G1 X85.861 Y97.233 E23.20592
G1 X86.942 Y94.144 E23.3692
G1 X87.277 Y93.45 E23.40764
G1 X88.612 Y91.339 E23.53225
G1 X89.077 Y90.756 E23.56946
G1 X90.716 Y89.111 E23.68531
G0 F1800 X91 Y89.394
G1 F1200 X91.517 Y88.978 E23.71842
G1 X93.623 Y87.641 E23.84287
G1 X94.225 Y87.348 E23.87627
G1 X96.489 Y86.542 E23.99617
G1 X97.139 Y86.389 E24.02948
G1 X99.547 Y86.101 E24.15048
G1 X100.229 Y86.098 E24.1845
G1 X102.815 Y86.381 E24.31429
G1 X103.476 Y86.53 E24.34809
G1 X105.663 Y87.292 E24.46364
G1 X106.262 Y87.579 E24.49677
G1 X108.395 Y88.908 E24.62215
G1 X108.927 Y89.33 E24.65603
G1 X110.621 Y91.019 E24.77538
G1 X111.04 Y91.542 E24.80881
G1 X112.391 Y93.682 E24.93507
G1 X112.692 Y94.311 E24.96986
G1 X113.505 Y96.686 E25.0951
G1 X113.65 Y97.34 E25.12852
G1 X113.907 Y99.749 E25.24939
G1 X113.905 Y100.406 E25.28217
G1 X113.636 Y102.771 E25.40092
G1 X113.488 Y103.42 E25.43413
G1 X112.685 Y105.722 E25.55576
G1 X112.387 Y106.338 E25.5899
G1 X111.051 Y108.45 E25.71458
G1 X110.629 Y108.976 E25.74822
G1 X108.907 Y110.684 E25.86923
G1 X108.381 Y111.1 E25.90269
G1 X106.265 Y112.419 E26.02708
G1 X105.653 Y112.71 E26.06089
G1 X103.343 Y113.504 E26.18276
G1 X102.675 Y113.651 E26.21688
G1 X100.202 Y113.905 E26.34091
G1 X99.54 Y113.9 E26.37394
G1 X97.165 Y113.617 E26.49326
G1 X96.521 Y113.467 E26.52625
G1 X94.229 Y112.658 E26.64752
G1 X93.628 Y112.367 E26.68083
G1 X91.602 Y111.09 E26.80031
G1 X91.081 Y110.673 E26.8336
G1 X89.36 Y108.952 E26.95503
G1 X88.944 Y108.432 E26.98825
G1 X87.599 Y106.3 E27.11402
G1 X87.305 Y105.692 E27.14771
G1 X86.235 Y102.643 E27.30892
G1 X86.082 Y101.957 E27.34398
G1 X85.912 Y100.304 E27.42689
G1 X85.913 Y99.681 E27.45797
G1 X86.087 Y98.04 E27.5403
G1 X86.238 Y97.365 E27.57481
G1 X87.319 Y94.276 E27.73808
G1 X87.615 Y93.664 E27.772
G1 X88.95 Y91.553 E27.89661
G1 X89.361 Y91.039 E27.92944
G1 X91 Y89.394 E28.0453
G0 F1800 X91.283 Y89.676
G1 F1200 X91.731 Y89.316 E28.07397
G1 X93.837 Y87.979 E28.19842
G1 X94.359 Y87.725 E28.22738
G1 X96.623 Y86.919 E28.34728
G1 X97.186 Y86.786 E28.37614
G1 X99.594 Y86.498 E28.49713
G1 X100.186 Y86.495 E28.52667
G1 X102.772 Y86.778 E28.65645
G1 X103.344 Y86.908 E28.68572
G1 X105.531 Y87.67 E28.80126
G1 X106.051 Y87.918 E28.83001
G1 X108.184 Y89.247 E28.95539
G1 X108.645 Y89.613 E28.98475
G1 X110.339 Y91.302 E29.1041
G1 X110.702 Y91.755 E29.13306
G1 X112.053 Y93.895 E29.25932
G1 X112.314 Y94.441 E29.28951
G1 X113.127 Y96.816 E29.41475
G1 X113.252 Y97.382 E29.44367
G1 X113.509 Y99.791 E29.56454
G1 X113.507 Y100.361 E29.59297
G1 X113.238 Y102.726 E29.71173
G1 X113.11 Y103.288 E29.74048
G1 X112.307 Y105.59 E29.86212
G1 X112.049 Y106.124 E29.8917
G1 X110.713 Y108.236 E30.01638
G1 X110.347 Y108.692 E30.04556
G1 X108.625 Y110.4 E30.16656
G1 X108.169 Y110.76 E30.19554
G1 X106.053 Y112.079 E30.31994
G1 X105.523 Y112.332 E30.34924
G1 X103.213 Y113.126 E30.47111
G1 X102.634 Y113.253 E30.50068
G1 X100.161 Y113.507 E30.62471
G1 X99.587 Y113.503 E30.65334
G1 X97.212 Y113.22 E30.77267
G1 X96.655 Y113.09 E30.80121
G1 X94.363 Y112.281 E30.92247
G1 X93.842 Y112.029 E30.95134
G1 X91.816 Y110.752 E31.07082
G1 X91.364 Y110.39 E31.09972
G1 X89.643 Y108.669 E31.22114
G1 X89.282 Y108.218 E31.24996
G1 X87.937 Y106.086 E31.37573
G1 X87.683 Y105.56 E31.40487
G1 X86.613 Y102.511 E31.56608
G1 X86.48 Y101.916 E31.59649
G1 X86.31 Y100.263 E31.6794
G1 X86.31 Y99.723 E31.70634
G1 X86.484 Y98.082 E31.78867
G1 X86.616 Y97.497 E31.81859
G1 X87.697 Y94.408 E31.98186
G1 X87.954 Y93.877 E32.01129
G1 X89.289 Y91.766 E32.1359
G1 X89.644 Y91.321 E32.16431
G1 X91.283 Y89.676 E32.28016
G0 F1800 X91.567 Y89.958
G1 F1200 X91.946 Y89.654 E32.3044
G1 X94.052 Y88.317 E32.42885
G1 X94.493 Y88.101 E32.45335
G1 X96.757 Y87.295 E32.57325
G1 X97.234 Y87.184 E32.59768
G1 X99.642 Y86.896 E32.71867
G1 X100.142 Y86.893 E32.74362
G1 X102.728 Y87.176 E32.8734
G1 X103.213 Y87.285 E32.8982
G1 X105.4 Y88.047 E33.01375
G1 X105.839 Y88.258 E33.03805
