;FLAVOR:RepRap
;TIME:15412
;Filament used: 17.134m
;Layer height: 0.15
;Generated with Cura_SteamEngine 2.5.0-BETA
M190 S55
M104 S210
M109 S210
G21 ;metric values
G90 ;absolute positioning
M82 ;set extruder to absolute mode
M107 ;start with the fan off
G28 X0 Y0 ;move X/Y to min endstops
G28 Z0 ;move Z to min endstops
G1 Z15.0 F9000 ;move the platform down 15mm
G92 E0 ;zero the extruded length
G1 F200 E3 ;extrude 3mm of feed stock
G92 E0 ;zero the extruded length again
G1 F9000
;Put printing message on LCD screen
M117 Printing...
;LAYER_COUNT:118
;LAYER:0
M107
G0 F1800 X83.34 Y41.374 Z0.3
;TYPE:SKIRT
G1 F1200 X83.649 Y40.822 E0.03156
G1 X83.869 Y40.509 E0.05065
G1 X89.518 Y33.097 E0.51559
G1 X89.932 Y32.62 E0.5471
G1 X90.404 Y32.198 E0.57869
G1 X90.924 Y31.84 E0.61018
G1 X91.486 Y31.549 E0.64176
G1 X92.08 Y31.333 E0.67329
G1 X92.696 Y31.192 E0.70482
G1 X93.325 Y31.131 E0.73635
G1 X93.957 Y31.149 E0.76789
G1 X94.581 Y31.247 E0.7994
G1 X95.189 Y31.424 E0.831
G1 X95.769 Y31.675 E0.86252
G1 X96.312 Y31.997 E0.89402
G1 X96.775 Y32.354 E0.92319
G1 X100.85 Y35.896 E1.19256
G1 X101.3 Y36.34 E1.22409
G1 X101.658 Y36.797 E1.25306
G1 X118.681 Y17.212 E2.54766
G1 X116.418 Y15.245 E2.69725
G1 X115.968 Y14.8 E2.72883
G1 X115.577 Y14.303 E2.76038
G1 X115.253 Y13.761 E2.79188
G1 X115 Y13.182 E2.8234
G1 X114.821 Y12.575 E2.85498
G1 X114.721 Y11.951 E2.8865
G1 X114.7 Y11.319 E2.91805
G1 X114.759 Y10.69 E2.94957
G1 X114.897 Y10.073 E2.98111
G1 X115.112 Y9.478 E3.01268
G1 X115.4 Y8.916 E3.04418
G1 X115.924 Y8.191 E3.08881
G1 X119.795 Y3.738 E3.38318
G1 X120.24 Y3.288 E3.41475
G1 X120.737 Y2.897 E3.4463
G1 X121.279 Y2.573 E3.47781
G1 X121.858 Y2.32 E3.50933
G1 X122.465 Y2.141 E3.5409
G1 X123.089 Y2.041 E3.57243
G1 X123.721 Y2.02 E3.60398
G1 X124.35 Y2.079 E3.6355
G1 X124.967 Y2.217 E3.66704
G1 X125.562 Y2.432 E3.6986
G1 X126.124 Y2.72 E3.73011
G1 X126.849 Y3.244 E3.77474
G1 X134.396 Y9.802 E4.27355
G1 X134.846 Y10.246 E4.30509
G1 X135.236 Y10.743 E4.33661
G1 X135.56 Y11.285 E4.36811
G1 X135.814 Y11.865 E4.3997
G1 X135.992 Y12.471 E4.43121
G1 X136.093 Y13.095 E4.46275
G1 X136.114 Y13.727 E4.4943
G1 X136.039 Y14.448 E4.53046
G1 X135.837 Y15.591 E4.58837
G1 X137.054 Y15.337 E4.65039
G1 X137.679 Y15.247 E4.6819
G1 X138.062 Y15.231 E4.70102
G1 X140.597 Y15.224 E4.82749
G1 X141.228 Y15.262 E4.85903
G1 X141.612 Y15.325 E4.87845
G1 X144.104 Y15.834 E5.00534
G1 X144.714 Y16 E5.03688
G1 X145.069 Y16.136 E5.05585
G1 X147.407 Y17.136 E5.18271
G1 X147.972 Y17.421 E5.21428
G1 X148.3 Y17.631 E5.23371
G1 X150.377 Y19.079 E5.36003
G1 X150.872 Y19.473 E5.39159
G1 X151.145 Y19.739 E5.41061
G1 X152.897 Y21.585 E5.53758
G1 X153.302 Y22.07 E5.56911
G1 X153.518 Y22.389 E5.58833
G1 X154.857 Y24.545 E5.71495
G1 X155.155 Y25.102 E5.74646
G1 X155.303 Y25.46 E5.76579
G1 X156.178 Y27.844 E5.89249
G1 X156.358 Y28.45 E5.92402
G1 X156.429 Y28.826 E5.94311
G1 X156.806 Y31.342 E6.07004
G1 X156.86 Y31.972 E6.10159
G1 X156.853 Y32.358 E6.12085
G1 X156.713 Y34.898 E6.24776
G1 X156.639 Y35.526 E6.27931
G1 X156.554 Y35.905 E6.29869
G1 X155.905 Y38.352 E6.42499
G1 X155.705 Y38.951 E6.45649
G1 X155.548 Y39.299 E6.47554
G1 X154.414 Y41.576 E6.60245
G1 X154.097 Y42.123 E6.63399
G1 X153.868 Y42.437 E6.65338
G1 X152.297 Y44.435 E6.78018
G1 X151.876 Y44.907 E6.81174
G1 X151.594 Y45.165 E6.83081
G1 X150.551 Y46.046 E6.89892
G1 X114.058 Y130.384 E11.48357
G1 X101.314 Y189.044 E14.47839
G1 X101.141 Y189.653 E14.50998
G1 X100.893 Y190.234 E14.5415
G1 X100.716 Y190.555 E14.55978
G1 X97.717 Y195.554 E14.85062
G1 X97.358 Y196.075 E14.88219
G1 X96.936 Y196.546 E14.91374
G1 X96.459 Y196.96 E14.94525
G1 X95.932 Y197.31 E14.97681
G1 X95.366 Y197.591 E15.00834
G1 X94.769 Y197.799 E15.03988
G1 X94.151 Y197.93 E15.0714
G1 X93.429 Y197.982 E15.10751
G1 X83.429 Y197.982 E15.60641
G1 X82.798 Y197.942 E15.63796
G1 X82.177 Y197.823 E15.6695
G1 X81.577 Y197.626 E15.70101
G1 X81.005 Y197.355 E15.73259
G1 X80.473 Y197.015 E15.76409
G1 X79.988 Y196.609 E15.79564
G1 X79.558 Y196.146 E15.82717
G1 X79.189 Y195.632 E15.85873
G1 X78.889 Y195.076 E15.89025
G1 X78.661 Y194.487 E15.92176
G1 X78.509 Y193.873 E15.95332
G1 X78.429 Y192.982 E15.99795
G1 X78.429 Y187.082 E16.2923
G1 X78.469 Y186.451 E16.32385
G1 X78.588 Y185.83 E16.35539
G1 X78.785 Y185.23 E16.3869
G1 X79.056 Y184.658 E16.41848
G1 X79.396 Y184.126 E16.44998
G1 X79.802 Y183.641 E16.48153
G1 X80.265 Y183.211 E16.51306
G1 X80.779 Y182.842 E16.54462
G1 X81.335 Y182.542 E16.57614
G1 X81.924 Y182.314 E16.60765
G1 X82.538 Y182.162 E16.63921
G1 X83.429 Y182.082 E16.68384
G1 X86.429 Y182.082 E16.83351
G1 X86.429 Y156.125 E18.12851
G1 X86.119 Y156.202 E18.14445
G1 X85.228 Y156.282 E18.18908
G1 X79.83 Y156.282 E18.45839
G1 X79.63 Y156.269 E18.46838
G1 X77.828 Y161.948 E18.76563
G1 X78.038 Y163.304 E18.83409
G1 X78.095 Y163.933 E18.8656
G1 X78.091 Y164.318 E18.88481
G1 X77.964 Y166.853 E19.01144
G1 X77.892 Y167.481 E19.04298
G1 X77.811 Y167.855 E19.06207
G1 X77.176 Y170.311 E19.18863
G1 X76.979 Y170.911 E19.22013
G1 X76.823 Y171.263 E19.23934
G1 X75.702 Y173.546 E19.36623
G1 X75.388 Y174.094 E19.39774
G1 X75.163 Y174.408 E19.41701
G1 X73.604 Y176.416 E19.54384
G1 X73.186 Y176.89 E19.57537
G1 X72.898 Y177.155 E19.5949
G1 X70.968 Y178.8 E19.72141
G1 X70.462 Y179.179 E19.75295
G1 X70.14 Y179.373 E19.77171
G1 X67.912 Y180.602 E19.89865
G1 X67.34 Y180.872 E19.93021
G1 X66.972 Y181.002 E19.94968
G1 X64.549 Y181.75 E20.0762
G1 X63.934 Y181.897 E20.10774
G1 X63.554 Y181.949 E20.12688
G1 X61.025 Y182.193 E20.25364
G1 X60.393 Y182.214 E20.28518
G1 X60.011 Y182.187 E20.30429
G1 X57.48 Y181.915 E20.43129
G1 X56.857 Y181.808 E20.46283
G1 X56.48 Y181.703 E20.48235
G1 X54.064 Y180.924 E20.609
G1 X53.475 Y180.692 E20.64058
G1 X53.139 Y180.519 E20.65943
G1 X50.933 Y179.273 E20.78583
G1 X50.403 Y178.927 E20.81741
G1 X50.102 Y178.684 E20.83671
G1 X48.184 Y177.008 E20.96379
G1 X47.735 Y176.563 E20.99532
G1 X47.491 Y176.265 E21.01454
G1 X45.957 Y174.243 E21.14116
G1 X45.607 Y173.716 E21.17272
G1 X45.429 Y173.377 E21.19183
G1 X44.334 Y171.086 E21.31851
G1 X44.098 Y170.5 E21.35003
G1 X43.991 Y170.128 E21.36934
G1 X43.383 Y167.665 E21.49591
G1 X43.27 Y167.043 E21.52745
G1 X43.241 Y166.66 E21.54661
G1 X43.143 Y164.118 E21.67352
G1 X43.158 Y163.486 E21.70506
G1 X43.207 Y163.105 E21.72423
G1 X43.623 Y160.604 E21.85072
G1 X43.766 Y159.988 E21.88227
G1 X43.891 Y159.622 E21.90156
G1 X44.809 Y157.246 E22.02864
G1 X45.074 Y156.672 E22.06018
G1 X45.271 Y156.339 E22.07949
G1 X46.646 Y154.206 E22.2061
G1 X47.021 Y153.697 E22.23764
G1 X47.278 Y153.414 E22.25671
G1 X48.248 Y152.425 E22.32582
G1 X80.073 Y57.085 E27.34036
G1 X82.941 Y42.571 E28.07847
G1 X83.102 Y41.96 E28.10999
G1 X83.34 Y41.374 E28.14154
G0 F1800 X83.722 Y41.502
G1 F1200 X84.187 Y40.752 E28.18557
G1 X89.836 Y33.34 E28.65051
G1 X90.235 Y32.883 E28.68078
G1 X90.69 Y32.482 E28.71104
G1 X91.194 Y32.145 E28.74128
G1 X91.738 Y31.877 E28.77154
G1 X92.312 Y31.683 E28.80177
G1 X92.907 Y31.566 E28.83202
G1 X93.512 Y31.528 E28.86226
G1 X94.117 Y31.57 E28.89252
G1 X94.711 Y31.692 E28.92277
G1 X95.284 Y31.89 E28.95302
G1 X95.826 Y32.162 E28.98327
G1 X96.513 Y32.656 E29.02549
G1 X100.588 Y36.198 E29.29486
G1 X101.018 Y36.625 E29.32509
G1 X101.389 Y37.105 E29.35536
G1 X101.601 Y37.472 E29.3765
G1 X119.245 Y17.173 E30.71832
G1 X116.68 Y14.943 E30.88788
G1 X116.25 Y14.516 E30.91812
G1 X115.879 Y14.036 E30.94838
G1 X115.575 Y13.511 E30.97865
G1 X115.343 Y12.951 E31.00889
G1 X115.186 Y12.365 E31.03916
G1 X115.107 Y11.764 E31.0694
G1 X115.109 Y11.158 E31.09963
G1 X115.19 Y10.557 E31.12989
G1 X115.349 Y9.972 E31.16013
G1 X115.584 Y9.413 E31.19039
G1 X115.89 Y8.89 E31.22062
G1 X116.226 Y8.453 E31.24812
G1 X120.097 Y4 E31.54249
G1 X120.524 Y3.57 E31.57272
G1 X121.004 Y3.199 E31.60299
G1 X121.529 Y2.895 E31.63325
G1 X122.089 Y2.663 E31.6635
G1 X122.675 Y2.506 E31.69376
G1 X123.276 Y2.427 E31.724
G1 X123.882 Y2.429 E31.75424
G1 X124.483 Y2.51 E31.78449
G1 X125.068 Y2.669 E31.81474
G1 X125.627 Y2.904 E31.84499
G1 X126.15 Y3.21 E31.87522
G1 X126.586 Y3.546 E31.90268
G1 X134.133 Y10.104 E32.4015
G1 X134.564 Y10.531 E32.43176
G1 X134.934 Y11.011 E32.462
G1 X135.238 Y11.535 E32.49222
G1 X135.471 Y12.095 E32.52248
G1 X135.628 Y12.681 E32.55275
G1 X135.707 Y13.282 E32.58299
G1 X135.705 Y13.888 E32.61323
G1 X135.646 Y14.378 E32.63785
G1 X135.341 Y16.103 E32.72524
G1 X137.135 Y15.728 E32.81668
G1 X137.736 Y15.644 E32.84696
G1 X138.063 Y15.631 E32.86328
G1 X140.598 Y15.624 E32.98976
G1 X141.203 Y15.662 E33.02
G1 X141.532 Y15.717 E33.03664
G1 X144.024 Y16.226 E33.16354
G1 X144.608 Y16.386 E33.19374
G1 X144.912 Y16.504 E33.21001
G1 X147.25 Y17.504 E33.33688
G1 X147.79 Y17.778 E33.36709
G1 X148.072 Y17.96 E33.38383
G1 X150.149 Y19.408 E33.51015
G1 X150.622 Y19.786 E33.54036
G1 X150.855 Y20.014 E33.55662
G1 X152.607 Y21.86 E33.6836
G1 X152.994 Y22.327 E33.71386
G1 X153.178 Y22.6 E33.73028
G1 X154.517 Y24.756 E33.8569
G1 X154.802 Y25.291 E33.88714
G1 X154.927 Y25.598 E33.90368
G1 X155.802 Y27.982 E34.03038
G1 X155.973 Y28.564 E34.06064
G1 X156.033 Y28.885 E34.07693
G1 X156.41 Y31.401 E34.20386
G1 X156.46 Y32.006 E34.23414
G1 X156.454 Y32.336 E34.25061
G1 X156.314 Y34.876 E34.37752
G1 X156.241 Y35.478 E34.40778
G1 X156.167 Y35.802 E34.42436
G1 X155.518 Y38.249 E34.55066
G1 X155.325 Y38.824 E34.58092
G1 X155.19 Y39.121 E34.5972
G1 X154.056 Y41.398 E34.7241
G1 X153.75 Y41.921 E34.75433
G1 X153.554 Y42.19 E34.77094
G1 X151.983 Y44.188 E34.89774
G1 X151.578 Y44.639 E34.92798
G1 X151.335 Y44.859 E34.94434
G1 X150.222 Y45.799 E35.01702
G1 X113.675 Y130.261 E39.60841
G1 X100.923 Y188.96 E42.60523
G1 X100.756 Y189.542 E42.63543
G1 X100.373 Y190.349 E42.68
G1 X97.374 Y195.348 E42.97084
G1 X97.028 Y195.847 E43.00113
G1 X96.62 Y196.295 E43.03136
G1 X96.157 Y196.686 E43.0616
G1 X95.646 Y197.013 E43.09186
G1 X95.096 Y197.269 E43.12213
G1 X94.518 Y197.451 E43.15236
G1 X93.921 Y197.556 E43.18261
G1 X93.429 Y197.582 E43.20719
G1 X83.429 Y197.582 E43.70609
G1 X82.824 Y197.542 E43.73634
G1 X82.23 Y197.423 E43.76656
G1 X81.656 Y197.227 E43.79682
G1 X81.113 Y196.956 E43.8271
G1 X80.61 Y196.617 E43.85736
G1 X80.157 Y196.215 E43.88758
G1 X79.76 Y195.757 E43.91782
G1 X79.427 Y195.25 E43.94808
G1 X79.163 Y194.704 E43.97833
G1 X78.974 Y194.128 E44.00858
G1 X78.862 Y193.532 E44.03883
G1 X78.829 Y192.982 E44.06632
G1 X78.829 Y187.082 E44.36067
G1 X78.869 Y186.477 E44.39092
G1 X78.988 Y185.883 E44.42115
G1 X79.184 Y185.309 E44.45141
G1 X79.455 Y184.766 E44.48169
G1 X79.794 Y184.263 E44.51195
G1 X80.196 Y183.81 E44.54216
G1 X80.654 Y183.413 E44.5724
G1 X81.161 Y183.08 E44.60266
G1 X81.707 Y182.816 E44.63292
G1 X82.283 Y182.627 E44.66317
G1 X82.879 Y182.515 E44.69342
G1 X83.429 Y182.482 E44.72091
G1 X86.829 Y182.482 E44.89054
G1 X86.829 Y155.588 E46.23228
G1 X86.374 Y155.737 E46.25617
G1 X85.778 Y155.849 E46.28643
G1 X85.228 Y155.882 E46.31391
G1 X79.83 Y155.882 E46.58322
G1 X79.344 Y155.85 E46.60752
G1 X77.419 Y161.917 E46.92508
G1 X77.643 Y163.365 E46.99818
G1 X77.696 Y163.969 E47.02842
G1 X77.691 Y164.298 E47.04484
G1 X77.564 Y166.833 E47.17147
G1 X77.494 Y167.435 E47.20171
G1 X77.424 Y167.754 E47.218
G1 X76.789 Y170.21 E47.34456
G1 X76.598 Y170.786 E47.37484
G1 X76.464 Y171.086 E47.39123
G1 X75.343 Y173.369 E47.51812
G1 X75.041 Y173.895 E47.54838
G1 X74.847 Y174.163 E47.56488
G1 X73.288 Y176.171 E47.69171
G1 X72.886 Y176.624 E47.72193
G1 X72.639 Y176.851 E47.73866
G1 X70.709 Y178.496 E47.86518
G1 X70.223 Y178.858 E47.89542
G1 X69.947 Y179.023 E47.91146
G1 X67.719 Y180.252 E48.0384
G1 X67.17 Y180.509 E48.06865
G1 X66.854 Y180.619 E48.08534
G1 X64.431 Y181.367 E48.21185
G1 X63.841 Y181.508 E48.24212
G1 X63.516 Y181.551 E48.25847
G1 X60.987 Y181.795 E48.38523
G1 X60.381 Y181.813 E48.41548
G1 X60.053 Y181.79 E48.43188
G1 X57.522 Y181.518 E48.55888
G1 X56.925 Y181.413 E48.58912
G1 X56.602 Y181.322 E48.60586
G1 X54.186 Y180.543 E48.73251
G1 X53.623 Y180.319 E48.76274
G1 X53.336 Y180.17 E48.77887
G1 X51.13 Y178.924 E48.90527
G1 X50.623 Y178.592 E48.93551
G1 X50.365 Y178.383 E48.95207
G1 X48.447 Y176.707 E49.07915
G1 X48.018 Y176.279 E49.10938
G1 X47.809 Y176.023 E49.12587
G1 X46.275 Y174.001 E49.25249
G1 X45.941 Y173.495 E49.28274
G1 X45.79 Y173.205 E49.29905
G1 X44.695 Y170.914 E49.42573
G1 X44.47 Y170.351 E49.45598
G1 X44.379 Y170.032 E49.47253
G1 X43.771 Y167.569 E49.5991
G1 X43.665 Y166.973 E49.6293
G1 X43.64 Y166.644 E49.64576
G1 X43.542 Y164.102 E49.77268
G1 X43.559 Y163.496 E49.80292
G1 X43.601 Y163.17 E49.81932
G1 X44.017 Y160.669 E49.94581
G1 X44.156 Y160.079 E49.97605
G1 X44.264 Y159.766 E49.99257
G1 X45.182 Y157.39 E50.11965
G1 X45.437 Y156.84 E50.1499
G1 X45.607 Y156.556 E50.16641
G1 X46.982 Y154.423 E50.29302
G1 X47.343 Y153.936 E50.32326
G1 X47.564 Y153.694 E50.33961
G1 X48.599 Y152.639 E50.41335
G1 X80.459 Y57.194 E55.43341
G1 X83.333 Y42.648 E56.17314
G1 X83.49 Y42.063 E56.20336
G1 X83.722 Y41.502 E56.23364
G0 F1800 X84.104 Y41.634
G1 F1200 X84.506 Y40.994 E56.27135
G1 X90.155 Y33.582 E56.73629
G1 X90.537 Y33.147 E56.76517
G1 X90.975 Y32.768 E56.79407
G1 X91.461 Y32.453 E56.82296
G1 X91.986 Y32.208 E56.85187
G1 X92.54 Y32.038 E56.88078
G1 X93.112 Y31.946 E56.90968
G1 X93.691 Y31.933 E56.93858
G1 X94.267 Y31.999 E56.9675
G1 X94.827 Y32.145 E56.99637
G1 X95.363 Y32.366 E57.0253
G1 X95.863 Y32.659 E57.05421
G1 X96.25 Y32.958 E57.07861
G1 X100.325 Y36.5 E57.34798
G1 X100.735 Y36.909 E57.37687
G1 X101.085 Y37.371 E57.40579
G1 X101.368 Y37.877 E57.43471
G1 X101.496 Y38.203 E57.45218
G1 X119.81 Y17.133 E58.84496
G1 X116.943 Y14.641 E59.03447
G1 X116.533 Y14.231 E59.0634
G1 X116.183 Y13.77 E59.09228
G1 X115.9 Y13.264 E59.1212
G1 X115.689 Y12.724 E59.15013
G1 X115.555 Y12.161 E59.179
G1 X115.5 Y11.584 E59.20792
G1 X115.524 Y11.005 E59.23683
G1 X115.628 Y10.435 E59.26574
G1 X115.809 Y9.885 E59.29462
G1 X116.064 Y9.365 E59.32352
G1 X116.528 Y8.716 E59.36332
G1 X120.399 Y4.263 E59.65769
G1 X120.809 Y3.853 E59.68662
G1 X121.27 Y3.503 E59.71549
G1 X121.776 Y3.22 E59.74442
G1 X122.316 Y3.009 E59.77334
G1 X122.879 Y2.875 E59.80221
G1 X123.456 Y2.82 E59.83113
G1 X124.035 Y2.844 E59.86004
G1 X124.605 Y2.948 E59.88895
G1 X125.155 Y3.129 E59.91784
G1 X125.675 Y3.384 E59.94673
G1 X126.324 Y3.848 E59.98653
G1 X133.871 Y10.406 E60.48535
G1 X134.281 Y10.815 E60.51424
G1 X134.631 Y11.277 E60.54316
G1 X134.914 Y11.782 E60.57204
G1 X135.124 Y12.322 E60.60094
G1 X135.259 Y12.885 E60.62983
G1 X135.314 Y13.462 E60.65875
G1 X135.252 Y14.308 E60.70107
G1 X134.843 Y16.616 E60.81801
G1 X137.217 Y16.12 E60.939
G1 X138.064 Y16.031 E60.98149
G1 X140.599 Y16.024 E61.10797
G1 X141.452 Y16.109 E61.15073
G1 X143.944 Y16.618 E61.27763
G1 X144.755 Y16.871 E61.32001
G1 X147.093 Y17.871 E61.44687
G1 X147.843 Y18.288 E61.48969
G1 X149.92 Y19.736 E61.61601
G1 X150.564 Y20.29 E61.65839
G1 X152.316 Y22.136 E61.78536
G1 X152.838 Y22.811 E61.82793
G1 X154.177 Y24.967 E61.95455
G1 X154.552 Y25.736 E61.99723
G1 X155.427 Y28.12 E62.12393
G1 X155.638 Y28.945 E62.16641
G1 X156.015 Y31.461 E62.29334
G1 X156.055 Y32.314 E62.33594
G1 X155.915 Y34.854 E62.46286
G1 X155.781 Y35.7 E62.50559
G1 X155.132 Y38.147 E62.63189
G1 X154.832 Y38.942 E62.67428
G1 X153.698 Y41.219 E62.80119
G1 X153.24 Y41.943 E62.84393
G1 X151.669 Y43.941 E62.97074
G1 X151.077 Y44.553 E63.01322
G1 X149.892 Y45.554 E63.09061
G1 X113.292 Y130.139 E67.68868
G1 X100.532 Y188.875 E70.68739
G1 X100.371 Y189.431 E70.71626
G1 X100.03 Y190.144 E70.75569
G1 X97.031 Y195.143 E71.04653
G1 X96.699 Y195.618 E71.07545
G1 X96.305 Y196.043 E71.10436
G1 X95.857 Y196.409 E71.13322
G1 X95.362 Y196.711 E71.16215
G1 X94.831 Y196.941 E71.19102
G1 X94.272 Y197.096 E71.21996
G1 X93.429 Y197.182 E71.26224
G1 X83.429 Y197.182 E71.76114
G1 X82.851 Y197.142 E71.79004
G1 X82.284 Y197.023 E71.81895
G1 X81.739 Y196.827 E71.84784
G1 X81.226 Y196.558 E71.87674
G1 X80.755 Y196.221 E71.90564
G1 X80.335 Y195.822 E71.93454
G1 X79.973 Y195.369 E71.96347
G1 X79.678 Y194.871 E71.99234
G1 X79.453 Y194.337 E72.02125
G1 X79.305 Y193.777 E72.05015
G1 X79.229 Y192.982 E72.09
G1 X79.229 Y187.082 E72.38435
G1 X79.269 Y186.504 E72.41325
G1 X79.388 Y185.937 E72.44216
G1 X79.584 Y185.392 E72.47105
