;FLAVOR:RepRap
;TIME:920
;Filament used: 0.911212m
;Layer height: 0.15
;Generated with Cura_SteamEngine 2.5.0-BETA
M190 S55
M104 S210
M109 S210
G21 ;metric values
G90 ;absolute positioning
M82 ;set extruder to absolute mode
M107 ;start with the fan off
;G28 X0 Y0 ;move X/Y to min endstops
;G28 Z0 ;move Z to min endstops
;G1 Z15.0 F9000 ;move the platform down 15mm
G92 E0 ;zero the extruded length
G1 F200 E3 ;extrude 3mm of feed stock
G92 E0 ;zero the extruded length again
G1 F9000
;Put printing message on LCD screen
M117 Printing...
;LAYER_COUNT:66
;LAYER:0
M107
G0 F1800 X91.873 Y79.476 Z0.3
;TYPE:SKIRT
G1 F1200 X92.336 Y79.046 E0.03152
G1 X92.85 Y78.677 E0.06309
G1 X93.406 Y78.377 E0.09461
G1 X93.995 Y78.149 E0.12612
G1 X94.609 Y77.997 E0.15768
G1 X95.501 Y77.917 E0.20236
G1 X104.501 Y77.918 E0.65137
G1 X105.131 Y77.958 E0.68287
G1 X105.752 Y78.077 E0.71441
G1 X106.353 Y78.274 E0.74596
G1 X106.924 Y78.545 E0.7775
G1 X107.457 Y78.886 E0.80907
G1 X107.942 Y79.291 E0.84059
G1 X108.372 Y79.754 E0.87211
G1 X108.74 Y80.268 E0.90365
G1 X109.04 Y80.824 E0.93517
G1 X109.268 Y81.414 E0.96673
G1 X109.42 Y82.028 E0.99828
G1 X109.5 Y82.918 E1.04287
G1 X109.5 Y117.083 E2.74737
G1 X109.46 Y117.714 E2.77891
G1 X109.341 Y118.335 E2.81045
G1 X109.144 Y118.935 E2.84196
G1 X108.873 Y119.507 E2.87354
G1 X108.533 Y120.039 E2.90504
G1 X108.127 Y120.524 E2.93659
G1 X107.664 Y120.954 E2.96812
G1 X107.15 Y121.323 E2.99969
G1 X106.594 Y121.623 E3.0312
G1 X106.005 Y121.851 E3.06271
G1 X105.391 Y122.003 E3.09427
G1 X104.5 Y122.083 E3.1389
G1 X95.5 Y122.083 E3.58791
G1 X94.869 Y122.043 E3.61946
G1 X94.248 Y121.924 E3.651
G1 X93.648 Y121.727 E3.68251
G1 X93.076 Y121.456 E3.71409
G1 X92.544 Y121.116 E3.74559
G1 X92.059 Y120.71 E3.77714
G1 X91.629 Y120.247 E3.80867
G1 X91.26 Y119.733 E3.84024
G1 X90.96 Y119.177 E3.87175
G1 X90.732 Y118.588 E3.90326
G1 X90.58 Y117.974 E3.93482
G1 X90.5 Y117.083 E3.97945
G1 X90.5 Y113.896 E4.13845
G1 X90.54 Y113.265 E4.17
G1 X90.659 Y112.644 E4.20154
G1 X90.856 Y112.044 E4.23305
G1 X91.127 Y111.472 E4.26463
G1 X91.467 Y110.94 E4.29613
G1 X91.873 Y110.455 E4.32768
G1 X92.336 Y110.025 E4.35921
G1 X92.371 Y110 E4.36135
G1 X92.346 Y109.982 E4.36289
G1 X91.881 Y109.553 E4.39445
G1 X91.475 Y109.069 E4.42597
G1 X91.133 Y108.538 E4.45748
G1 X90.861 Y107.967 E4.48904
G1 X90.662 Y107.367 E4.52057
G1 X90.542 Y106.746 E4.55213
G1 X90.5 Y106.103 E4.58428
G1 X90.5 Y93.897 E5.19324
G1 X90.54 Y93.266 E5.22478
G1 X90.659 Y92.645 E5.25632
G1 X90.856 Y92.045 E5.28783
G1 X91.127 Y91.473 E5.31941
G1 X91.467 Y90.941 E5.35091
G1 X91.873 Y90.456 E5.38246
G1 X92.336 Y90.026 E5.41399
G1 X92.371 Y90.001 E5.41613
G1 X92.346 Y89.983 E5.41767
G1 X91.881 Y89.554 E5.44923
G1 X91.475 Y89.07 E5.48075
G1 X91.133 Y88.539 E5.51226
G1 X90.861 Y87.968 E5.54382
G1 X90.662 Y87.368 E5.57536
G1 X90.542 Y86.747 E5.60691
G1 X90.5 Y86.104 E5.63906
G1 X90.5 Y82.917 E5.79806
G1 X90.54 Y82.286 E5.8296
G1 X90.659 Y81.665 E5.86115
G1 X90.856 Y81.065 E5.89265
G1 X91.127 Y80.493 E5.92423
G1 X91.467 Y79.961 E5.95573
G1 X91.873 Y79.476 E5.98729
G0 F1800 X92.267 Y79.645
G1 F1200 X92.725 Y79.248 E6.01753
G1 X93.232 Y78.915 E6.04779
G1 X93.778 Y78.651 E6.07805
G1 X94.354 Y78.462 E6.10829
G1 X94.95 Y78.35 E6.13854
G1 X95.501 Y78.317 E6.16608
G1 X104.501 Y78.318 E6.61509
G1 X105.105 Y78.358 E6.64529
G1 X105.7 Y78.477 E6.67557
G1 X106.274 Y78.674 E6.70584
G1 X106.816 Y78.944 E6.73605
G1 X107.319 Y79.283 E6.76632
G1 X107.773 Y79.685 E6.79657
G1 X108.169 Y80.144 E6.82681
G1 X108.502 Y80.65 E6.85703
G1 X108.766 Y81.196 E6.88729
G1 X108.955 Y81.772 E6.91754
G1 X109.067 Y82.368 E6.94779
G1 X109.1 Y82.918 E6.97528
G1 X109.1 Y117.083 E8.67978
G1 X109.06 Y117.688 E8.71003
G1 X108.941 Y118.282 E8.74025
G1 X108.745 Y118.856 E8.77051
G1 X108.474 Y119.399 E8.80079
G1 X108.135 Y119.902 E8.83105
G1 X107.733 Y120.355 E8.86127
G1 X107.275 Y120.752 E8.89151
G1 X106.768 Y121.085 E8.92177
G1 X106.222 Y121.349 E8.95203
G1 X105.646 Y121.538 E8.98227
G1 X105.05 Y121.65 E9.01252
G1 X104.5 Y121.683 E9.04001
G1 X95.5 Y121.683 E9.48903
G1 X94.895 Y121.643 E9.51927
G1 X94.301 Y121.524 E9.5495
G1 X93.727 Y121.328 E9.57976
G1 X93.184 Y121.057 E9.61004
G1 X92.681 Y120.718 E9.6403
G1 X92.228 Y120.316 E9.67051
G1 X91.831 Y119.858 E9.70075
G1 X91.498 Y119.351 E9.73102
G1 X91.234 Y118.805 E9.76127
G1 X91.045 Y118.229 E9.79152
G1 X90.933 Y117.633 E9.82177
G1 X90.9 Y117.083 E9.84926
G1 X90.9 Y113.896 E10.00826
G1 X90.94 Y113.291 E10.03851
G1 X91.059 Y112.697 E10.06873
G1 X91.255 Y112.123 E10.09899
G1 X91.526 Y111.58 E10.12927
G1 X91.865 Y111.077 E10.15953
G1 X92.267 Y110.624 E10.18975
G1 X92.725 Y110.227 E10.21999
G1 X93.069 Y110.001 E10.24052
G1 X92.967 Y109.943 E10.24638
G1 X92.484 Y109.576 E10.27664
G1 X92.054 Y109.15 E10.30684
G1 X91.683 Y108.67 E10.33711
G1 X91.378 Y108.146 E10.36735
G1 X91.146 Y107.586 E10.39759
G1 X90.988 Y107 E10.42787
G1 X90.9 Y106.103 E10.47284
G1 X90.9 Y93.897 E11.0818
G1 X90.94 Y93.292 E11.11205
G1 X91.059 Y92.698 E11.14227
G1 X91.255 Y92.124 E11.17253
G1 X91.526 Y91.581 E11.20281
G1 X91.865 Y91.078 E11.23307
G1 X92.267 Y90.625 E11.26329
G1 X92.725 Y90.228 E11.29353
G1 X93.069 Y90.002 E11.31406
G1 X92.967 Y89.944 E11.31992
G1 X92.484 Y89.577 E11.35018
G1 X92.054 Y89.151 E11.38038
G1 X91.683 Y88.671 E11.41065
G1 X91.378 Y88.147 E11.44089
G1 X91.146 Y87.587 E11.47114
G1 X90.988 Y87.001 E11.50141
G1 X90.9 Y86.104 E11.54638
G1 X90.9 Y82.917 E11.70538
G1 X90.94 Y82.312 E11.73563
G1 X91.059 Y81.718 E11.76585
G1 X91.255 Y81.144 E11.79611
G1 X91.526 Y80.601 E11.82639
G1 X91.865 Y80.098 E11.85665
G1 X92.267 Y79.645 E11.88687
G0 F1800 X92.66 Y79.823
G1 F1200 X93.113 Y79.461 E11.9158
G1 X93.611 Y79.166 E11.94468
G1 X94.145 Y78.941 E11.97359
G1 X94.705 Y78.793 E12.00248
G1 X95.5 Y78.717 E12.04233
G1 X104.5 Y78.718 E12.49134
G1 X105.078 Y78.758 E12.52025
G1 X105.645 Y78.877 E12.54915
G1 X106.19 Y79.073 E12.57804
G1 X106.703 Y79.342 E12.60694
G1 X107.174 Y79.68 E12.63587
G1 X107.595 Y80.078 E12.66477
G1 X107.956 Y80.531 E12.69367
G1 X108.251 Y81.03 E12.72259
G1 X108.476 Y81.564 E12.7515
G1 X108.624 Y82.124 E12.7804
G1 X108.7 Y82.918 E12.82019
G1 X108.7 Y117.083 E14.52469
G1 X108.66 Y117.661 E14.55359
G1 X108.541 Y118.228 E14.5825
G1 X108.345 Y118.773 E14.61139
G1 X108.076 Y119.286 E14.64029
G1 X107.739 Y119.757 E14.66919
G1 X107.34 Y120.177 E14.69809
G1 X106.887 Y120.539 E14.72702
G1 X106.389 Y120.834 E14.7559
G1 X105.855 Y121.059 E14.78481
G1 X105.295 Y121.207 E14.8137
G1 X104.5 Y121.283 E14.85355
G1 X95.5 Y121.283 E15.30256
G1 X94.922 Y121.243 E15.33146
G1 X94.355 Y121.124 E15.36037
G1 X93.81 Y120.928 E15.38926
G1 X93.297 Y120.659 E15.41816
G1 X92.826 Y120.322 E15.44706
G1 X92.406 Y119.923 E15.47596
G1 X92.044 Y119.47 E15.50489
G1 X91.749 Y118.972 E15.53376
G1 X91.524 Y118.438 E15.56267
G1 X91.376 Y117.878 E15.59157
G1 X91.3 Y117.083 E15.63142
G1 X91.3 Y113.896 E15.79042
G1 X91.34 Y113.318 E15.81932
G1 X91.459 Y112.751 E15.84823
G1 X91.655 Y112.206 E15.87712
G1 X91.924 Y111.693 E15.90602
G1 X92.261 Y111.222 E15.93491
G1 X92.66 Y110.802 E15.96381
G1 X93.113 Y110.44 E15.99274
G1 X93.611 Y110.145 E16.02162
G1 X93.955 Y110 E16.04025
G1 X93.576 Y109.837 E16.06083
G1 X93.081 Y109.536 E16.08973
G1 X92.631 Y109.171 E16.11864
G1 X92.237 Y108.747 E16.14752
G1 X91.904 Y108.273 E16.17642
G1 X91.64 Y107.757 E16.20533
G1 X91.449 Y107.21 E16.23424
G1 X91.335 Y106.642 E16.26314
G1 X91.3 Y106.103 E16.29009
G1 X91.3 Y93.897 E16.89905
G1 X91.34 Y93.319 E16.92796
G1 X91.459 Y92.752 E16.95686
G1 X91.655 Y92.207 E16.98575
G1 X91.924 Y91.694 E17.01465
G1 X92.261 Y91.223 E17.04355
G1 X92.66 Y90.803 E17.07245
G1 X93.113 Y90.441 E17.10138
G1 X93.611 Y90.146 E17.13026
G1 X93.955 Y90.001 E17.14888
G1 X93.576 Y89.838 E17.16946
G1 X93.081 Y89.537 E17.19837
G1 X92.631 Y89.172 E17.22727
G1 X92.237 Y88.748 E17.25615
G1 X91.904 Y88.274 E17.28505
G1 X91.64 Y87.758 E17.31397
G1 X91.449 Y87.211 E17.34287
G1 X91.335 Y86.643 E17.37178
G1 X91.3 Y86.104 E17.39872
G1 X91.3 Y82.917 E17.55772
G1 X91.34 Y82.339 E17.58663
G1 X91.459 Y81.772 E17.61553
G1 X91.655 Y81.227 E17.64443
G1 X91.924 Y80.714 E17.67333
G1 X92.261 Y80.243 E17.70222
G1 X92.66 Y79.823 E17.73112
G0 F1800 X93.052 Y80.011
G1 F1200 X93.498 Y79.687 E17.75863
G1 X93.986 Y79.432 E17.7861
G1 X94.506 Y79.249 E17.8136
G1 X95.047 Y79.144 E17.84109
G1 X95.5 Y79.117 E17.86373
G1 X104.5 Y79.118 E18.31274
G1 X105.05 Y79.158 E18.34026
G1 X105.588 Y79.277 E18.36775
G1 X106.103 Y79.473 E18.39524
G1 X106.584 Y79.741 E18.42271
G1 X107.022 Y80.076 E18.45022
G1 X107.407 Y80.47 E18.4777
G1 X107.73 Y80.916 E18.50518
G1 X107.986 Y81.404 E18.53267
G1 X108.168 Y81.924 E18.56015
G1 X108.273 Y82.465 E18.58765
G1 X108.3 Y82.918 E18.61029
G1 X108.3 Y117.083 E20.31479
G1 X108.26 Y117.633 E20.3423
G1 X108.141 Y118.171 E20.36979
G1 X107.945 Y118.686 E20.39728
G1 X107.677 Y119.167 E20.42475
G1 X107.343 Y119.605 E20.45223
G1 X106.948 Y119.989 E20.47972
G1 X106.502 Y120.313 E20.50722
G1 X106.014 Y120.568 E20.53469
G1 X105.494 Y120.751 E20.56219
G1 X104.953 Y120.856 E20.58969
G1 X104.5 Y120.883 E20.61233
G1 X95.5 Y120.883 E21.06134
G1 X94.95 Y120.843 E21.08885
G1 X94.412 Y120.724 E21.11634
G1 X93.897 Y120.528 E21.14383
G1 X93.416 Y120.26 E21.1713
G1 X92.978 Y119.926 E21.19878
G1 X92.594 Y119.531 E21.22627
G1 X92.27 Y119.085 E21.25377
G1 X92.015 Y118.597 E21.28124
G1 X91.832 Y118.077 E21.30874
G1 X91.727 Y117.536 E21.33624
G1 X91.7 Y117.083 E21.35888
G1 X91.7 Y113.896 E21.51788
G1 X91.74 Y113.346 E21.54539
G1 X91.859 Y112.808 E21.57288
G1 X92.055 Y112.293 E21.60037
G1 X92.323 Y111.812 E21.62784
G1 X92.657 Y111.374 E21.65532
G1 X93.052 Y110.99 E21.6828
G1 X93.498 Y110.666 E21.71031
G1 X93.986 Y110.411 E21.73778
G1 X94.506 Y110.228 E21.76528
G1 X95.047 Y110.123 E21.79277
G1 X95.79 Y110.107 E21.82985
G1 X96.54 Y110.164 E21.86738
G1 X96.552 Y110.162 E21.86798
G1 X96.587 Y110.146 E21.8699
G1 X96.627 Y110.113 E21.87249
G1 X96.649 Y110.082 E21.87439
G1 X96.664 Y110.044 E21.87642
G1 X96.669 Y110 E21.87863
G1 X96.664 Y109.954 E21.88094
G1 X96.649 Y109.917 E21.88293
G1 X96.627 Y109.886 E21.88483
G1 X96.587 Y109.853 E21.88742
G1 X96.552 Y109.837 E21.88934
G1 X96.54 Y109.835 E21.88994
G1 X95.79 Y109.892 E21.92747
G1 X95.239 Y109.894 E21.95496
G1 X94.694 Y109.816 E21.98243
G1 X94.165 Y109.661 E22.00993
G1 X93.665 Y109.43 E22.03741
G1 X93.203 Y109.13 E22.06489
G1 X92.789 Y108.766 E22.09239
G1 X92.432 Y108.346 E22.11989
G1 X92.14 Y107.879 E22.14737
G1 X91.919 Y107.374 E22.17487
G1 X91.773 Y106.843 E22.20235
G1 X91.7 Y106.103 E22.23945
G1 X91.7 Y93.897 E22.84841
G1 X91.74 Y93.347 E22.87592
G1 X91.859 Y92.809 E22.90341
G1 X92.055 Y92.294 E22.9309
G1 X92.323 Y91.813 E22.95837
G1 X92.657 Y91.375 E22.98585
G1 X93.052 Y90.991 E23.01333
G1 X93.498 Y90.667 E23.04084
G1 X93.986 Y90.412 E23.06831
G1 X94.506 Y90.229 E23.09581
G1 X95.047 Y90.124 E23.1233
G1 X95.79 Y90.108 E23.16038
G1 X96.54 Y90.165 E23.19791
G1 X96.552 Y90.163 E23.19851
G1 X96.587 Y90.147 E23.20043
G1 X96.627 Y90.114 E23.20302
G1 X96.649 Y90.083 E23.20492
G1 X96.664 Y90.045 E23.20695
G1 X96.669 Y90.001 E23.20916
G1 X96.664 Y89.955 E23.21147
G1 X96.649 Y89.918 E23.21346
G1 X96.627 Y89.887 E23.21536
G1 X96.587 Y89.854 E23.21795
G1 X96.552 Y89.838 E23.21987
G1 X96.54 Y89.836 E23.22047
G1 X95.79 Y89.893 E23.258
G1 X95.239 Y89.895 E23.28549
G1 X94.694 Y89.817 E23.31296
G1 X94.165 Y89.662 E23.34046
G1 X93.665 Y89.431 E23.36794
G1 X93.203 Y89.131 E23.39542
G1 X92.789 Y88.767 E23.42292
G1 X92.432 Y88.347 E23.45042
G1 X92.14 Y87.88 E23.4779
G1 X91.919 Y87.375 E23.5054
G1 X91.773 Y86.844 E23.53288
G1 X91.7 Y86.104 E23.56998
G1 X91.7 Y82.917 E23.72898
G1 X91.74 Y82.367 E23.75649
G1 X91.859 Y81.829 E23.78398
G1 X92.055 Y81.314 E23.81147
G1 X92.323 Y80.833 E23.83894
G1 X92.657 Y80.395 E23.86642
G1 X93.052 Y80.011 E23.8939
G0 F1800 X93.442 Y80.211
G1 F1200 X93.88 Y79.928 E23.91992
G1 X94.355 Y79.715 E23.94589
G1 X94.858 Y79.578 E23.9719
G1 X95.5 Y79.517 E24.00407
G1 X104.5 Y79.518 E24.45309
G1 X105.02 Y79.558 E24.47911
G1 X105.527 Y79.677 E24.50509
G1 X106.011 Y79.872 E24.53112
G1 X106.458 Y80.139 E24.5571
G1 X106.86 Y80.471 E24.58311
G1 X107.206 Y80.86 E24.60908
G1 X107.489 Y81.298 E24.6351
G1 X107.702 Y81.774 E24.66111
G1 X107.839 Y82.277 E24.68712
G1 X107.9 Y82.918 E24.71925
G1 X107.9 Y117.083 E26.42375
G1 X107.86 Y117.603 E26.44977
G1 X107.741 Y118.11 E26.47575
G1 X107.546 Y118.593 E26.50173
G1 X107.28 Y119.041 E26.52773
G1 X106.948 Y119.443 E26.55374
G1 X106.558 Y119.789 E26.57975
G1 X106.12 Y120.072 E26.60577
G1 X105.645 Y120.285 E26.63174
G1 X105.142 Y120.422 E26.65775
G1 X104.5 Y120.483 E26.68992
G1 X95.5 Y120.483 E27.13893
G1 X94.98 Y120.443 E27.16495
G1 X94.473 Y120.324 E27.19093
G1 X93.99 Y120.129 E27.21692
G1 X93.542 Y119.863 E27.24291
G1 X93.14 Y119.531 E27.26893
G1 X92.794 Y119.141 E27.29494
G1 X92.511 Y118.703 E27.32095
G1 X92.298 Y118.228 E27.34692
G1 X92.161 Y117.725 E27.37293
G1 X92.1 Y117.083 E27.40511
G1 X92.1 Y113.896 E27.56411
G1 X92.14 Y113.376 E27.59013
G1 X92.259 Y112.869 E27.61611
G1 X92.454 Y112.386 E27.64209
G1 X92.72 Y111.938 E27.66809
G1 X93.052 Y111.536 E27.6941
G1 X93.442 Y111.19 E27.72011
G1 X93.88 Y110.907 E27.74613
G1 X94.355 Y110.694 E27.7721
G1 X94.858 Y110.557 E27.79811
G1 X95.376 Y110.498 E27.82412
G1 X95.76 Y110.506 E27.84328
G1 X96.562 Y110.567 E27.88341
G1 X96.672 Y110.546 E27.88899
G1 X96.808 Y110.482 E27.89649
G1 X96.917 Y110.392 E27.90354
G1 X97.003 Y110.274 E27.91083
G1 X97.053 Y110.147 E27.91764
G1 X97.072 Y109.996 E27.92523
G1 X97.054 Y109.855 E27.93232
G1 X97.003 Y109.725 E27.93929
G1 X96.917 Y109.607 E27.94658
G1 X96.808 Y109.517 E27.95363
G1 X96.672 Y109.453 E27.96113
G1 X96.562 Y109.432 E27.96671
G1 X95.76 Y109.493 E28.00684
G1 X95.238 Y109.493 E28.03288
G1 X94.723 Y109.413 E28.05888
G1 X94.227 Y109.256 E28.08484
G1 X93.76 Y109.024 E28.11086
G1 X93.334 Y108.724 E28.13685
G1 X92.959 Y108.362 E28.16285
G1 X92.643 Y107.947 E28.18888
G1 X92.395 Y107.489 E28.21486
G1 X92.22 Y106.998 E28.24087
G1 X92.122 Y106.486 E28.26687
G1 X92.1 Y106.103 E28.28601
G1 X92.1 Y93.897 E28.89497
G1 X92.14 Y93.377 E28.92099
G1 X92.259 Y92.87 E28.94698
G1 X92.454 Y92.387 E28.97296
G1 X92.72 Y91.939 E28.99896
G1 X93.052 Y91.537 E29.02497
G1 X93.442 Y91.191 E29.05098
G1 X93.88 Y90.908 E29.07699
G1 X94.355 Y90.695 E29.10297
G1 X94.858 Y90.558 E29.12897
G1 X95.376 Y90.499 E29.15498
G1 X95.76 Y90.507 E29.17415
G1 X96.562 Y90.568 E29.21427
G1 X96.672 Y90.547 E29.21986
G1 X96.808 Y90.483 E29.22736
G1 X96.917 Y90.393 E29.23441
G1 X97.003 Y90.275 E29.2417
G1 X97.053 Y90.148 E29.24851
G1 X97.072 Y89.997 E29.2561
G1 X97.054 Y89.856 E29.26319
G1 X97.003 Y89.726 E29.27016
G1 X96.917 Y89.608 E29.27744
G1 X96.808 Y89.518 E29.28449
G1 X96.672 Y89.454 E29.29199
G1 X96.562 Y89.433 E29.29758
G1 X95.76 Y89.494 E29.33771
G1 X95.238 Y89.494 E29.36375
G1 X94.723 Y89.414 E29.38975
G1 X94.227 Y89.257 E29.41571
G1 X93.76 Y89.025 E29.44172
G1 X93.334 Y88.725 E29.46772
G1 X92.959 Y88.363 E29.49372
G1 X92.643 Y87.948 E29.51974
G1 X92.395 Y87.49 E29.54573
G1 X92.22 Y86.999 E29.57173
G1 X92.122 Y86.487 E29.59774
G1 X92.1 Y86.104 E29.61688
G1 X92.1 Y82.917 E29.77588
G1 X92.14 Y82.397 E29.8019
G1 X92.259 Y81.89 E29.82788
G1 X92.454 Y81.407 E29.85387
G1 X92.72 Y80.959 E29.87986
G1 X93.052 Y80.557 E29.90587
G1 X93.442 Y80.211 E29.93189
G0 F1800 X93.829 Y80.425
G1 F1200 X94.257 Y80.187 E29.95632
G1 X94.717 Y80.021 E29.98072
G1 X95.198 Y79.932 E30.00512
G1 X95.5 Y79.917 E30.02021
G1 X104.5 Y79.918 E30.46922
G1 X104.988 Y79.958 E30.49365
G1 X105.463 Y80.077 E30.51808
G1 X105.912 Y80.271 E30.54248
G1 X106.324 Y80.536 E30.56692
G1 X106.687 Y80.864 E30.59133
G1 X106.992 Y81.247 E30.61575
G1 X107.23 Y81.675 E30.64018
G1 X107.396 Y82.135 E30.66458
G1 X107.485 Y82.617 E30.68904
G1 X107.5 Y82.918 E30.70407
G1 X107.5 Y117.083 E32.40857
G1 X107.46 Y117.571 E32.433
G1 X107.341 Y118.046 E32.45743
G1 X107.147 Y118.495 E32.48183
G1 X106.882 Y118.907 E32.50627
G1 X106.554 Y119.27 E32.53068
G1 X106.171 Y119.575 E32.55511
G1 X105.743 Y119.813 E32.57954
G1 X105.283 Y119.979 E32.60394
G1 X104.802 Y120.068 E32.62834
G1 X104.5 Y120.083 E32.64343
G1 X95.5 Y120.083 E33.09244
