;FLAVOR:RepRap
;TIME:4914
;Filament used: 4.02249m
;Layer height: 0.15
;Generated with Cura_SteamEngine 2.5.0-BETA
M190 S55
M104 S210
M109 S210
G21 ;metric values
G90 ;absolute positioning
M82 ;set extruder to absolute mode
M107 ;start with the fan off
;G28 X0 Y0 ;move X/Y to min endstops
;G28 Z0 ;move Z to min endstops
;G1 Z15.0 F9000 ;move the platform down 15mm
G92 E0 ;zero the extruded length
G1 F200 E3 ;extrude 3mm of feed stock
G92 E0 ;zero the extruded length again
G1 F9000
;Put printing message on LCD screen
M117 Printing...
;LAYER_COUNT:99
;LAYER:0
M107
G0 F1800 X70.836 Y82.629 Z0.3
;TYPE:SKIRT
G1 F1200 X71.35 Y82.26 E0.03157
G1 X71.906 Y81.96 E0.06309
G1 X72.495 Y81.732 E0.0946
G1 X73.109 Y81.58 E0.12615
G1 X74 Y81.5 E0.17079
G1 X126 Y81.5 E2.76508
G1 X126.631 Y81.54 E2.79662
G1 X127.252 Y81.659 E2.82817
G1 X127.852 Y81.856 E2.85967
G1 X128.424 Y82.127 E2.89125
G1 X128.956 Y82.467 E2.92275
G1 X129.441 Y82.873 E2.9543
G1 X129.871 Y83.336 E2.98583
G1 X130.24 Y83.85 E3.0174
G1 X130.54 Y84.406 E3.04892
G1 X130.768 Y84.995 E3.08043
G1 X130.92 Y85.609 E3.11198
G1 X131 Y86.5 E3.15661
G1 X131 Y89.5 E3.30628
G1 X130.96 Y90.131 E3.33783
G1 X130.841 Y90.752 E3.36937
G1 X130.644 Y91.352 E3.40088
G1 X130.373 Y91.924 E3.43246
G1 X130.033 Y92.456 E3.46396
G1 X129.627 Y92.941 E3.49551
G1 X129.5 Y93.059 E3.50416
G1 X129.5 Y96.5 E3.67583
G1 X129.46 Y97.131 E3.70738
G1 X129.341 Y97.752 E3.73892
G1 X129.144 Y98.352 E3.77043
G1 X128.873 Y98.924 E3.80201
G1 X128.533 Y99.456 E3.83351
G1 X128.127 Y99.941 E3.86506
G1 X127.664 Y100.371 E3.89659
G1 X127.15 Y100.74 E3.92815
G1 X126.594 Y101.04 E3.95967
G1 X126.005 Y101.268 E3.99118
G1 X125.391 Y101.42 E4.02274
G1 X124.5 Y101.5 E4.06737
G1 X118 Y101.5 E4.39166
G1 X118 Y112.358 E4.93337
G1 X117.96 Y112.989 E4.96491
G1 X117.841 Y113.61 E4.99646
G1 X117.644 Y114.21 E5.02796
G1 X117.373 Y114.782 E5.05954
G1 X117.033 Y115.314 E5.09104
G1 X116.536 Y115.894 E5.12915
G1 X115.394 Y117.036 E5.20972
G1 X114.919 Y117.453 E5.24125
G1 X114.396 Y117.808 E5.27279
G1 X113.832 Y118.094 E5.30434
G1 X113.237 Y118.306 E5.33585
G1 X112.619 Y118.442 E5.36742
G1 X111.858 Y118.5 E5.4055
G1 X84.142 Y118.5 E6.78825
G1 X83.511 Y118.46 E6.8198
G1 X82.89 Y118.341 E6.85134
G1 X82.29 Y118.144 E6.88285
G1 X81.718 Y117.873 E6.91443
G1 X81.186 Y117.533 E6.94593
G1 X80.606 Y117.036 E6.98403
G1 X79.464 Y115.894 E7.06461
G1 X79.047 Y115.419 E7.09614
G1 X78.692 Y114.896 E7.12768
G1 X78.406 Y114.332 E7.15923
G1 X78.194 Y113.737 E7.19074
G1 X78.058 Y113.119 E7.22231
G1 X78 Y112.358 E7.26039
G1 X78 Y101.5 E7.80209
G1 X74 Y101.5 E8.00166
G1 X73.369 Y101.46 E8.0332
G1 X72.748 Y101.341 E8.06474
G1 X72.148 Y101.144 E8.09625
G1 X71.576 Y100.873 E8.12783
G1 X71.044 Y100.533 E8.15933
G1 X70.559 Y100.127 E8.19088
G1 X70.129 Y99.664 E8.22241
G1 X69.76 Y99.15 E8.25398
G1 X69.46 Y98.594 E8.28549
G1 X69.232 Y98.005 E8.317
G1 X69.08 Y97.391 E8.34856
G1 X69 Y96.5 E8.39319
G1 X69 Y86.5 E8.8921
G1 X69.04 Y85.869 E8.92364
G1 X69.159 Y85.248 E8.95518
G1 X69.356 Y84.648 E8.98669
G1 X69.627 Y84.076 E9.01827
G1 X69.967 Y83.544 E9.04977
G1 X70.373 Y83.059 E9.08132
G1 X70.836 Y82.629 E9.11285
G0 F1800 X71.225 Y82.831
G1 F1200 X71.732 Y82.498 E9.14311
G1 X72.278 Y82.234 E9.17337
G1 X72.854 Y82.045 E9.20361
G1 X73.45 Y81.933 E9.23387
G1 X74 Y81.9 E9.26136
G1 X126 Y81.9 E11.85565
G1 X126.605 Y81.94 E11.8859
G1 X127.199 Y82.059 E11.91612
G1 X127.773 Y82.255 E11.94638
G1 X128.316 Y82.526 E11.97666
G1 X128.819 Y82.865 E12.00692
G1 X129.272 Y83.267 E12.03713
G1 X129.669 Y83.725 E12.06737
G1 X130.002 Y84.232 E12.09764
G1 X130.266 Y84.778 E12.12789
G1 X130.455 Y85.354 E12.15814
G1 X130.567 Y85.95 E12.18839
G1 X130.6 Y86.5 E12.21588
G1 X130.6 Y89.5 E12.36555
G1 X130.56 Y90.105 E12.3958
G1 X130.441 Y90.699 E12.42603
G1 X130.245 Y91.273 E12.45629
G1 X129.974 Y91.816 E12.48656
G1 X129.635 Y92.319 E12.51682
G1 X129.233 Y92.772 E12.54704
G1 X129.1 Y92.887 E12.55581
G1 X129.1 Y96.5 E12.73607
G1 X129.06 Y97.105 E12.76632
G1 X128.941 Y97.699 E12.79654
G1 X128.745 Y98.273 E12.8268
G1 X128.474 Y98.816 E12.85708
G1 X128.135 Y99.319 E12.88734
G1 X127.733 Y99.772 E12.91755
G1 X127.275 Y100.169 E12.94779
G1 X126.768 Y100.502 E12.97806
G1 X126.222 Y100.766 E13.00831
G1 X125.646 Y100.955 E13.03856
G1 X125.05 Y101.067 E13.06881
G1 X124.5 Y101.1 E13.0963
G1 X117.6 Y101.1 E13.44054
G1 X117.6 Y112.358 E14.00221
G1 X117.56 Y112.963 E14.03246
G1 X117.441 Y113.557 E14.06268
G1 X117.245 Y114.131 E14.09294
G1 X116.974 Y114.674 E14.12322
G1 X116.635 Y115.177 E14.15348
G1 X116.253 Y115.611 E14.18232
G1 X115.111 Y116.753 E14.2629
G1 X114.655 Y117.152 E14.29313
G1 X114.15 Y117.488 E14.32339
G1 X113.606 Y117.755 E14.35362
G1 X113.031 Y117.948 E14.38388
G1 X112.436 Y118.064 E14.41413
G1 X111.858 Y118.1 E14.44302
G1 X84.142 Y118.1 E15.82578
G1 X83.537 Y118.06 E15.85602
G1 X82.943 Y117.941 E15.88625
G1 X82.369 Y117.745 E15.91651
G1 X81.826 Y117.474 E15.94679
G1 X81.323 Y117.135 E15.97705
G1 X80.889 Y116.753 E16.00589
G1 X79.747 Y115.611 E16.08647
G1 X79.348 Y115.155 E16.1167
G1 X79.012 Y114.65 E16.14696
G1 X78.745 Y114.106 E16.17719
G1 X78.552 Y113.531 E16.20745
G1 X78.436 Y112.936 E16.23769
G1 X78.4 Y112.358 E16.26659
G1 X78.4 Y101.1 E16.82825
G1 X74 Y101.1 E17.04777
G1 X73.395 Y101.06 E17.07802
G1 X72.801 Y100.941 E17.10824
G1 X72.227 Y100.745 E17.1385
G1 X71.684 Y100.474 E17.16878
G1 X71.181 Y100.135 E17.19904
G1 X70.728 Y99.733 E17.22926
G1 X70.331 Y99.275 E17.2595
G1 X69.998 Y98.768 E17.28976
G1 X69.734 Y98.222 E17.32001
G1 X69.545 Y97.646 E17.35026
G1 X69.433 Y97.05 E17.38051
G1 X69.4 Y96.5 E17.408
G1 X69.4 Y86.5 E17.9069
G1 X69.44 Y85.895 E17.93715
G1 X69.559 Y85.301 E17.96738
G1 X69.755 Y84.727 E17.99764
G1 X70.026 Y84.184 E18.02792
G1 X70.365 Y83.681 E18.05818
G1 X70.767 Y83.228 E18.08839
G1 X71.225 Y82.831 E18.11863
G0 F1800 X71.613 Y83.044
G1 F1200 X72.111 Y82.749 E18.14751
G1 X72.645 Y82.524 E18.17642
G1 X73.205 Y82.376 E18.20532
G1 X74 Y82.3 E18.24516
G1 X126 Y82.3 E20.83945
G1 X126.578 Y82.34 E20.86836
G1 X127.145 Y82.459 E20.89726
G1 X127.69 Y82.655 E20.92616
G1 X128.203 Y82.924 E20.95505
G1 X128.674 Y83.261 E20.98395
G1 X129.094 Y83.66 E21.01285
G1 X129.456 Y84.113 E21.04178
G1 X129.751 Y84.611 E21.07066
G1 X129.976 Y85.145 E21.09957
G1 X130.124 Y85.705 E21.12847
G1 X130.2 Y86.5 E21.16831
G1 X130.2 Y89.5 E21.31798
G1 X130.16 Y90.078 E21.34688
G1 X130.041 Y90.645 E21.37579
G1 X129.845 Y91.19 E21.40468
G1 X129.576 Y91.703 E21.43358
G1 X129.239 Y92.174 E21.46248
G1 X128.84 Y92.594 E21.49138
G1 X128.7 Y92.706 E21.50032
G1 X128.7 Y96.5 E21.68961
G1 X128.66 Y97.078 E21.71851
G1 X128.541 Y97.645 E21.74742
G1 X128.345 Y98.19 E21.77631
G1 X128.076 Y98.703 E21.80521
G1 X127.739 Y99.174 E21.8341
G1 X127.34 Y99.594 E21.86301
G1 X126.887 Y99.956 E21.89194
G1 X126.389 Y100.251 E21.92081
G1 X125.855 Y100.476 E21.94972
G1 X125.295 Y100.624 E21.97862
G1 X124.5 Y100.7 E22.01846
G1 X117.2 Y100.7 E22.38266
G1 X117.2 Y112.358 E22.96428
G1 X117.16 Y112.936 E22.99319
G1 X117.041 Y113.503 E23.02209
G1 X116.845 Y114.048 E23.05099
G1 X116.576 Y114.561 E23.07989
G1 X116.239 Y115.032 E23.10878
G1 X115.97 Y115.328 E23.12873
G1 X114.828 Y116.47 E23.20931
G1 X114.391 Y116.85 E23.2382
G1 X113.906 Y117.167 E23.26711
G1 X113.382 Y117.414 E23.29601
G1 X112.829 Y117.586 E23.3249
G1 X112.257 Y117.681 E23.35383
G1 X111.858 Y117.7 E23.37376
G1 X84.142 Y117.7 E24.75651
G1 X83.564 Y117.66 E24.78542
G1 X82.997 Y117.541 E24.81432
G1 X82.452 Y117.345 E24.84322
G1 X81.939 Y117.076 E24.87212
G1 X81.468 Y116.739 E24.90101
G1 X81.172 Y116.47 E24.92097
G1 X80.03 Y115.328 E25.00154
G1 X79.65 Y114.891 E25.03043
G1 X79.333 Y114.406 E25.05934
G1 X79.086 Y113.882 E25.08824
G1 X78.914 Y113.329 E25.11713
G1 X78.819 Y112.757 E25.14606
G1 X78.8 Y112.358 E25.16599
G1 X78.8 Y100.7 E25.74761
G1 X74 Y100.7 E25.98708
G1 X73.422 Y100.66 E26.01599
G1 X72.855 Y100.541 E26.04489
G1 X72.31 Y100.345 E26.07379
G1 X71.797 Y100.076 E26.10269
G1 X71.326 Y99.739 E26.13158
G1 X70.906 Y99.34 E26.16048
G1 X70.544 Y98.887 E26.18941
G1 X70.249 Y98.389 E26.21829
G1 X70.024 Y97.855 E26.2472
G1 X69.876 Y97.295 E26.2761
G1 X69.8 Y96.5 E26.31594
G1 X69.8 Y86.5 E26.81484
G1 X69.84 Y85.922 E26.84375
G1 X69.959 Y85.355 E26.87265
G1 X70.155 Y84.81 E26.90155
G1 X70.424 Y84.297 E26.93045
G1 X70.761 Y83.826 E26.95934
G1 X71.16 Y83.406 E26.98824
G1 X71.613 Y83.044 E27.01717
G0 F1800 X71.998 Y83.27
G1 F1200 X72.486 Y83.015 E27.04464
G1 X73.006 Y82.832 E27.07214
G1 X73.547 Y82.727 E27.09964
G1 X74 Y82.7 E27.12228
G1 X126 Y82.7 E29.71657
G1 X126.55 Y82.74 E29.74408
G1 X127.088 Y82.859 E29.77157
G1 X127.603 Y83.055 E29.79906
G1 X128.084 Y83.323 E29.82653
G1 X128.522 Y83.657 E29.85401
G1 X128.906 Y84.052 E29.8815
G1 X129.23 Y84.498 E29.909
G1 X129.485 Y84.986 E29.93647
G1 X129.668 Y85.506 E29.96397
G1 X129.773 Y86.047 E29.99147
G1 X129.8 Y86.5 E30.01411
G1 X129.8 Y89.5 E30.16378
G1 X129.76 Y90.05 E30.19129
G1 X129.641 Y90.588 E30.21878
G1 X129.445 Y91.103 E30.24627
G1 X129.177 Y91.584 E30.27374
G1 X128.843 Y92.022 E30.30122
G1 X128.448 Y92.406 E30.32871
G1 X128.3 Y92.514 E30.33785
G1 X128.3 Y96.5 E30.53671
G1 X128.26 Y97.05 E30.56422
G1 X128.141 Y97.588 E30.59171
G1 X127.945 Y98.103 E30.6192
G1 X127.677 Y98.584 E30.64667
G1 X127.343 Y99.022 E30.67415
G1 X126.948 Y99.406 E30.70164
G1 X126.502 Y99.73 E30.72914
G1 X126.014 Y99.985 E30.75661
G1 X125.494 Y100.168 E30.78411
G1 X124.953 Y100.273 E30.81161
G1 X124.5 Y100.3 E30.83425
G1 X116.8 Y100.3 E31.2184
G1 X116.8 Y112.358 E31.81998
G1 X116.76 Y112.908 E31.84749
G1 X116.641 Y113.446 E31.87498
G1 X116.445 Y113.961 E31.90247
G1 X116.177 Y114.442 E31.92994
G1 X115.687 Y115.045 E31.96871
G1 X114.545 Y116.187 E32.04928
G1 X114.128 Y116.547 E32.07676
G1 X113.664 Y116.844 E32.10425
G1 X113.161 Y117.07 E32.13176
G1 X112.631 Y117.221 E32.15926
G1 X111.858 Y117.3 E32.19802
G1 X84.142 Y117.3 E33.58078
G1 X83.592 Y117.26 E33.60829
G1 X83.054 Y117.141 E33.63578
G1 X82.539 Y116.945 E33.66327
G1 X82.058 Y116.677 E33.69074
G1 X81.455 Y116.187 E33.72951
G1 X80.313 Y115.045 E33.81008
G1 X79.953 Y114.628 E33.83756
G1 X79.656 Y114.164 E33.86505
G1 X79.43 Y113.661 E33.89256
G1 X79.279 Y113.131 E33.92006
G1 X79.2 Y112.358 E33.95882
G1 X79.2 Y100.3 E34.5604
G1 X74 Y100.3 E34.81983
G1 X73.45 Y100.26 E34.84734
G1 X72.912 Y100.141 E34.87483
G1 X72.397 Y99.945 E34.90232
G1 X71.916 Y99.677 E34.92979
G1 X71.478 Y99.343 E34.95727
G1 X71.094 Y98.948 E34.98475
G1 X70.77 Y98.502 E35.01226
G1 X70.515 Y98.014 E35.03973
G1 X70.332 Y97.494 E35.06723
G1 X70.227 Y96.953 E35.09472
G1 X70.2 Y96.5 E35.11736
G1 X70.2 Y86.5 E35.61627
G1 X70.24 Y85.95 E35.64378
G1 X70.359 Y85.412 E35.67127
G1 X70.555 Y84.897 E35.69876
G1 X70.823 Y84.416 E35.72623
G1 X71.157 Y83.978 E35.75371
G1 X71.552 Y83.594 E35.78119
G1 X71.998 Y83.27 E35.8087
G0 F1800 X72.38 Y83.511
G1 F1200 X72.855 Y83.298 E35.83467
G1 X73.358 Y83.161 E35.86068
G1 X74 Y83.1 E35.89285
G1 X126 Y83.1 E38.48714
G1 X126.52 Y83.14 E38.51316
G1 X127.027 Y83.259 E38.53914
G1 X127.51 Y83.454 E38.56513
G1 X127.958 Y83.72 E38.59112
G1 X128.36 Y84.052 E38.61714
G1 X128.706 Y84.442 E38.64315
G1 X128.989 Y84.88 E38.66916
G1 X129.202 Y85.355 E38.69513
G1 X129.339 Y85.858 E38.72114
G1 X129.4 Y86.5 E38.75332
G1 X129.4 Y89.5 E38.90299
G1 X129.36 Y90.02 E38.92901
G1 X129.241 Y90.527 E38.95499
G1 X129.046 Y91.01 E38.98097
G1 X128.78 Y91.458 E39.00697
G1 X128.448 Y91.86 E39.03298
G1 X128.058 Y92.206 E39.05899
G1 X127.9 Y92.308 E39.06837
G1 X127.9 Y96.5 E39.27751
G1 X127.86 Y97.02 E39.30353
G1 X127.741 Y97.527 E39.32951
G1 X127.546 Y98.01 E39.3555
G1 X127.28 Y98.458 E39.38149
G1 X126.948 Y98.86 E39.40751
G1 X126.558 Y99.206 E39.43352
G1 X126.12 Y99.489 E39.45953
G1 X125.645 Y99.702 E39.4855
G1 X125.142 Y99.839 E39.51151
G1 X124.5 Y99.9 E39.54369
G1 X116.4 Y99.9 E39.9478
G1 X116.4 Y112.358 E40.56933
G1 X116.36 Y112.878 E40.59535
G1 X116.241 Y113.385 E40.62133
G1 X116.046 Y113.868 E40.64732
G1 X115.78 Y114.316 E40.67331
G1 X115.404 Y114.762 E40.70241
G1 X114.262 Y115.904 E40.78299
G1 X113.866 Y116.243 E40.809
G1 X113.424 Y116.518 E40.83497
G1 X112.944 Y116.722 E40.86099
G1 X112.439 Y116.85 E40.88698
G1 X111.858 Y116.9 E40.91607
G1 X84.142 Y116.9 E42.29883
G1 X83.622 Y116.86 E42.32485
G1 X83.115 Y116.741 E42.35083
G1 X82.632 Y116.546 E42.37682
G1 X82.184 Y116.28 E42.40281
G1 X81.738 Y115.904 E42.43191
G1 X80.596 Y114.762 E42.51249
G1 X80.257 Y114.366 E42.5385
G1 X79.982 Y113.924 E42.56447
G1 X79.778 Y113.444 E42.59049
G1 X79.65 Y112.939 E42.61648
G1 X79.6 Y112.358 E42.64557
G1 X79.6 Y99.9 E43.2671
G1 X74 Y99.9 E43.54649
G1 X73.48 Y99.86 E43.57251
G1 X72.973 Y99.741 E43.59849
G1 X72.49 Y99.546 E43.62448
G1 X72.042 Y99.28 E43.65047
G1 X71.64 Y98.948 E43.67648
G1 X71.294 Y98.558 E43.70249
G1 X71.011 Y98.12 E43.72851
G1 X70.798 Y97.645 E43.75448
G1 X70.661 Y97.142 E43.78049
G1 X70.6 Y96.5 E43.81266
G1 X70.6 Y86.5 E44.31156
G1 X70.64 Y85.98 E44.33758
G1 X70.759 Y85.473 E44.36357
G1 X70.954 Y84.99 E44.38955
G1 X71.22 Y84.542 E44.41555
G1 X71.552 Y84.14 E44.44156
G1 X71.942 Y83.794 E44.46757
G1 X72.38 Y83.511 E44.49358
G0 F1800 X72.757 Y83.77
G1 F1200 X73.217 Y83.604 E44.51798
G1 X73.698 Y83.515 E44.54239
G1 X74 Y83.5 E44.55747
G1 X126 Y83.5 E47.15176
G1 X126.488 Y83.54 E47.17619
G1 X126.963 Y83.659 E47.20062
G1 X127.412 Y83.853 E47.22502
G1 X127.824 Y84.118 E47.24946
G1 X128.187 Y84.446 E47.27387
G1 X128.492 Y84.829 E47.2983
G1 X128.73 Y85.257 E47.32273
G1 X128.896 Y85.717 E47.34713
G1 X128.985 Y86.198 E47.37153
G1 X129 Y86.5 E47.38662
G1 X129 Y89.5 E47.53629
G1 X128.96 Y89.988 E47.56072
G1 X128.841 Y90.463 E47.58515
G1 X128.647 Y90.912 E47.60955
G1 X128.382 Y91.324 E47.63399
G1 X128.054 Y91.687 E47.6584
G1 X127.671 Y91.992 E47.68282
G1 X127.5 Y92.087 E47.69258
G1 X127.5 Y96.5 E47.91275
G1 X127.46 Y96.988 E47.93718
G1 X127.341 Y97.463 E47.96161
G1 X127.147 Y97.912 E47.98601
G1 X126.882 Y98.324 E48.01045
G1 X126.554 Y98.687 E48.03486
G1 X126.171 Y98.992 E48.05928
G1 X125.743 Y99.23 E48.08372
G1 X125.283 Y99.396 E48.10811
G1 X124.802 Y99.485 E48.13252
G1 X124.5 Y99.5 E48.1476
G1 X116 Y99.5 E48.57167
G1 X116 Y112.358 E49.21316
G1 X115.96 Y112.846 E49.23759
G1 X115.841 Y113.321 E49.26202
G1 X115.647 Y113.77 E49.28642
G1 X115.382 Y114.182 E49.31086
G1 X115.121 Y114.479 E49.33058
G1 X113.979 Y115.621 E49.41116
G1 X113.606 Y115.938 E49.43558
G1 X113.186 Y116.19 E49.46002
G1 X112.731 Y116.37 E49.48443
G1 X112.253 Y116.474 E49.50883
G1 X111.858 Y116.5 E49.52858
G1 X84.142 Y116.5 E50.91134
G1 X83.654 Y116.46 E50.93577
G1 X83.179 Y116.341 E50.9602
G1 X82.73 Y116.147 E50.9846
G1 X82.318 Y115.882 E51.00904
G1 X82.021 Y115.621 E51.02877
G1 X80.879 Y114.479 E51.10934
G1 X80.562 Y114.106 E51.13376
G1 X80.31 Y113.686 E51.1582
G1 X80.13 Y113.231 E51.18261
G1 X80.026 Y112.753 E51.20702
G1 X80 Y112.358 E51.22676
G1 X80 Y99.5 E51.86825
G1 X74 Y99.5 E52.16759
G1 X73.512 Y99.46 E52.19202
G1 X73.037 Y99.341 E52.21645
G1 X72.588 Y99.147 E52.24085
G1 X72.176 Y98.882 E52.26529
G1 X71.813 Y98.554 E52.2897
G1 X71.508 Y98.171 E52.31413
G1 X71.27 Y97.743 E52.33856
G1 X71.104 Y97.283 E52.36296
G1 X71.015 Y96.802 E52.38736
G1 X71 Y96.5 E52.40245
G1 X71 Y86.5 E52.90135
G1 X71.04 Y86.012 E52.92578
G1 X71.159 Y85.537 E52.95021
G1 X71.353 Y85.088 E52.97461
G1 X71.618 Y84.676 E52.99905
G1 X71.946 Y84.313 E53.02346
G1 X72.329 Y84.008 E53.04789
G1 X72.757 Y83.77 E53.07232
G0 F1800 X72.713 Y84.241
G1 F1200 X73.127 Y84.051 E53.09504
G1 X73.568 Y83.936 E53.11778
G1 X74 Y83.9 E53.13941
G1 X126 Y83.9 E55.7337
G1 X126.454 Y83.94 E55.75644
G1 X126.894 Y84.058 E55.77916
G1 X127.306 Y84.252 E55.80188
G1 X127.679 Y84.515 E55.82465
G1 X128 Y84.838 E55.84737
G1 X128.259 Y85.213 E55.87011
G1 X128.449 Y85.627 E55.89284
G1 X128.564 Y86.068 E55.91557
G1 X128.6 Y86.5 E55.9372
G1 X128.6 Y89.5 E56.08687
G1 X128.56 Y89.954 E56.10961
G1 X128.442 Y90.394 E56.13234
G1 X128.248 Y90.806 E56.15506
G1 X127.985 Y91.179 E56.17783
G1 X127.662 Y91.5 E56.20054
G1 X127.287 Y91.759 E56.22328
G1 X127.1 Y91.845 E56.23355
G1 X127.1 Y96.5 E56.46579
G1 X127.06 Y96.954 E56.48853
G1 X126.942 Y97.394 E56.51125
G1 X126.748 Y97.806 E56.53397
G1 X126.485 Y98.179 E56.55674
G1 X126.162 Y98.5 E56.57946
