;FLAVOR:Marlin
;TIME:6881
;Filament used: 4.83385m
;Layer height: 0.2
;Generated with Cura_SteamEngine 2.7.0
M190 S60
M104 S220
M109 S220
G21 ;metric values
G90 ;absolute positioning
M82 ;set extruder to absolute mode
M107 ;start with the fan off
G92 E0 ;zero the extruded length
G1 F200 E3 ;extrude 3mm of feed stock
G92 E0 ;zero the extruded length again
G1 F9000
M301 P26.92 I2.54 D71.46 ;set PID tuning for E0
M117 Printing...
;LAYER_COUNT:120
;LAYER:0
M107
M204 S5000
G0 F2400 X50.565 Y80.933 Z0.3
M204 S200
;TYPE:SKIRT
G1 F1200 X51.116 Y80.652 E0.03078
G1 X51.7 Y80.445 E0.06162
G1 X52.305 Y80.315 E0.09241
G1 X52.881 Y80.265 E0.12118
G1 X59.08 Y80.1 E0.42979
G1 X64.453 Y79.643 E0.69814
G1 X69.788 Y78.883 E0.96632
G1 X75.081 Y77.822 E1.23497
G1 X77.643 Y77.193 E1.36626
G1 X80.24 Y76.48 E1.50028
G1 X85.397 Y74.821 E1.76987
G1 X90.419 Y72.886 E2.03771
G1 X96.507 Y70.1 E2.3709
G1 X97.085 Y69.879 E2.40169
G1 X97.687 Y69.735 E2.4325
G1 X98.505 Y69.665 E2.47335
G1 X102.504 Y69.667 E2.67236
G1 X103.122 Y69.707 E2.70318
G1 X103.73 Y69.827 E2.73402
G1 X104.317 Y70.024 E2.76484
G1 X104.676 Y70.188 E2.78448
G1 X110.205 Y72.999 E3.09315
G1 X115.12 Y75.139 E3.35993
G1 X120.201 Y77.016 E3.62949
G1 X125.331 Y78.589 E3.89652
G1 X130.637 Y79.892 E4.16842
G1 X132.942 Y80.358 E4.28545
G1 X133.54 Y80.52 E4.31628
G1 X134.112 Y80.757 E4.34709
G1 X134.648 Y81.066 E4.37788
G1 X135.14 Y81.442 E4.4087
G1 X135.58 Y81.878 E4.43953
G1 X135.96 Y82.366 E4.47031
G1 X136.274 Y82.9 E4.50114
G1 X136.516 Y83.47 E4.53195
G1 X136.683 Y84.066 E4.56275
G1 X136.772 Y84.679 E4.59358
G1 X136.787 Y85.06 E4.61256
G1 X136.786 Y88.967 E4.80699
G1 X136.776 Y89.269 E4.82203
G1 X136.408 Y95.079 E5.11174
G1 X136.381 Y95.369 E5.12624
G1 X135.747 Y100.454 E5.38126
G1 X135.364 Y105.87 E5.65146
G1 X135.283 Y108.814 E5.79802
G1 X135.226 Y109.431 E5.82886
G1 X135.09 Y110.035 E5.85967
G1 X134.878 Y110.616 E5.89045
G1 X134.592 Y111.165 E5.92125
G1 X134.238 Y111.673 E5.95207
G1 X133.821 Y112.131 E5.98289
G1 X133.349 Y112.532 E6.01371
G1 X132.83 Y112.868 E6.04448
G1 X132.271 Y113.135 E6.07531
G1 X131.683 Y113.327 E6.1061
G1 X131.074 Y113.442 E6.13694
G1 X130.472 Y113.478 E6.16695
G1 X123.428 Y113.453 E6.5175
G1 X123.257 Y113.449 E6.52601
G1 X118.936 Y113.28 E6.74121
G1 X113.463 Y113.354 E7.01361
G1 X111.229 Y113.471 E7.12493
G1 X110.985 Y113.478 E7.13708
G1 X105.207 Y113.486 E7.42463
G1 X104.792 Y113.469 E7.4453
G1 X99.267 Y112.998 E7.72125
G1 X93.858 Y112.768 E7.99067
G1 X88.46 Y112.844 E8.25933
G1 X83.039 Y113.228 E8.52979
G1 X80.643 Y113.464 E8.6496
G1 X80.163 Y113.487 E8.67352
G1 X73.98 Y113.476 E8.98122
G1 X73.732 Y113.469 E8.99357
G1 X71.636 Y113.356 E9.09803
G1 X66.213 Y113.277 E9.36793
G1 X60.856 Y113.483 E9.63472
G1 X60.648 Y113.487 E9.64508
G1 X54.485 Y113.456 E9.95178
G1 X53.867 Y113.413 E9.98261
G1 X53.26 Y113.291 E10.01343
G1 X52.674 Y113.091 E10.04424
G1 X52.119 Y112.818 E10.07502
G1 X51.603 Y112.475 E10.10586
G1 X51.136 Y112.069 E10.13665
G1 X50.725 Y111.606 E10.16746
G1 X50.377 Y111.094 E10.19827
G1 X50.098 Y110.542 E10.22905
G1 X49.892 Y109.958 E10.25987
G1 X49.763 Y109.352 E10.2907
G1 X49.715 Y108.8 E10.31827
G1 X49.676 Y107.475 E10.38424
G1 X49.291 Y100.927 E10.71067
G1 X48.619 Y95.401 E10.9877
G1 X48.593 Y95.113 E11.00209
G1 X48.213 Y88.863 E11.3137
G1 X48.204 Y88.56 E11.32878
G1 X48.213 Y85.047 E11.50361
G1 X48.255 Y84.429 E11.53444
G1 X48.375 Y83.822 E11.56523
G1 X48.573 Y83.235 E11.59606
G1 X48.845 Y82.679 E11.62686
G1 X49.186 Y82.162 E11.65768
G1 X49.591 Y81.694 E11.68848
G1 X50.053 Y81.282 E11.71929
G1 X50.565 Y80.933 E11.75013
M204 S5000
G0 F2400 X50.944 Y81.177
M204 S200
G1 F1200 X51.485 Y80.935 E11.77962
G1 X52.053 Y80.767 E11.8091
G1 X52.892 Y80.664 E11.85116
G1 X59.108 Y80.499 E12.16062
G1 X64.492 Y80.041 E12.42952
G1 X69.852 Y79.277 E12.69896
G1 X75.181 Y78.209 E12.96943
G1 X77.739 Y77.581 E13.10051
G1 X80.351 Y76.863 E13.23532
G1 X85.542 Y75.193 E13.50669
G1 X90.564 Y73.259 E13.77451
G1 X96.673 Y70.463 E14.10886
G1 X97.227 Y70.253 E14.13834
G1 X97.805 Y70.12 E14.16786
G1 X98.505 Y70.064 E14.2028
G1 X102.504 Y70.066 E14.40181
G1 X103.096 Y70.106 E14.43134
G1 X103.676 Y70.226 E14.46082
G1 X104.495 Y70.543 E14.50452
G1 X110.049 Y73.367 E14.8146
G1 X114.958 Y75.504 E15.08104
G1 X120.072 Y77.393 E15.35235
G1 X125.24 Y78.978 E15.62136
G1 X130.536 Y80.278 E15.89274
G1 X132.863 Y80.749 E16.0109
G1 X133.435 Y80.906 E16.04041
G1 X133.98 Y81.138 E16.06989
G1 X134.49 Y81.441 E16.09941
G1 X134.953 Y81.81 E16.12888
G1 X135.364 Y82.238 E16.15841
G1 X135.712 Y82.717 E16.18787
G1 X135.994 Y83.239 E16.2174
G1 X136.202 Y83.794 E16.24689
G1 X136.334 Y84.372 E16.2764
G1 X136.388 Y85.06 E16.31074
G1 X136.387 Y88.967 E16.50518
G1 X136.378 Y89.244 E16.51897
G1 X136.01 Y95.054 E16.80869
G1 X135.985 Y95.32 E16.82198
G1 X135.35 Y100.414 E17.07745
G1 X134.965 Y105.854 E17.34885
G1 X134.884 Y108.803 E17.49566
G1 X134.828 Y109.393 E17.52516
G1 X134.693 Y109.97 E17.55465
G1 X134.482 Y110.524 E17.58415
G1 X134.198 Y111.044 E17.61364
G1 X133.846 Y111.522 E17.64318
G1 X133.434 Y111.947 E17.67263
G1 X132.968 Y112.314 E17.70215
G1 X132.457 Y112.614 E17.73164
G1 X131.91 Y112.843 E17.76115
G1 X131.337 Y112.996 E17.79067
G1 X130.473 Y113.079 E17.83386
G1 X123.429 Y113.054 E18.18441
G1 X123.273 Y113.051 E18.19218
G1 X118.928 Y112.881 E18.40858
G1 X113.462 Y112.955 E18.68062
G1 X111.208 Y113.073 E18.79294
G1 X110.984 Y113.079 E18.80409
G1 X105.206 Y113.087 E19.09164
G1 X104.826 Y113.071 E19.11057
G1 X99.295 Y112.599 E19.38682
G1 X93.869 Y112.369 E19.65709
G1 X88.445 Y112.445 E19.92705
G1 X83.008 Y112.83 E20.1983
G1 X80.604 Y113.067 E20.31851
G1 X80.164 Y113.088 E20.34044
G1 X73.981 Y113.077 E20.64814
G1 X73.753 Y113.071 E20.65949
G1 X71.663 Y112.959 E20.76365
G1 X66.204 Y112.879 E21.03534
G1 X60.841 Y113.085 E21.30243
G1 X60.65 Y113.088 E21.31194
G1 X54.487 Y113.057 E21.61865
G1 X53.896 Y113.014 E21.64814
G1 X53.316 Y112.892 E21.67763
G1 X52.757 Y112.693 E21.70716
G1 X52.231 Y112.421 E21.73663
G1 X51.746 Y112.08 E21.76614
G1 X51.311 Y111.677 E21.79565
G1 X50.934 Y111.22 E21.82513
G1 X50.622 Y110.716 E21.85463
G1 X50.381 Y110.174 E21.88415
G1 X50.215 Y109.605 E21.91364
G1 X50.114 Y108.788 E21.95461
G1 X50.075 Y107.441 E22.02167
G1 X49.689 Y100.902 E22.34766
G1 X49.015 Y95.352 E22.62589
G1 X48.991 Y95.089 E22.63903
G1 X48.611 Y88.839 E22.95064
G1 X48.603 Y88.561 E22.96448
G1 X48.612 Y85.048 E23.1393
G1 X48.653 Y84.456 E23.16884
G1 X48.774 Y83.876 E23.19832
G1 X48.972 Y83.317 E23.22783
G1 X49.243 Y82.79 E23.25732
G1 X49.582 Y82.304 E23.28681
G1 X49.984 Y81.868 E23.31633
G1 X50.44 Y81.49 E23.3458
G1 X50.944 Y81.177 E23.37533
M204 S5000
G0 F2400 X51.319 Y81.436
M204 S200
G1 F1200 X51.847 Y81.234 E23.40346
G1 X52.398 Y81.108 E23.43159
G1 X52.903 Y81.062 E23.45682
G1 X59.133 Y80.896 E23.76697
G1 X64.548 Y80.436 E24.03742
G1 X69.915 Y79.671 E24.30721
G1 X75.262 Y78.599 E24.57861
G1 X77.869 Y77.959 E24.7122
G1 X80.465 Y77.246 E24.84617
G1 X85.66 Y75.575 E25.11775
G1 X90.728 Y73.623 E25.38802
G1 X96.839 Y70.826 E25.72248
G1 X97.368 Y70.627 E25.75061
G1 X97.92 Y70.506 E25.77873
G1 X98.505 Y70.463 E25.80792
G1 X102.504 Y70.465 E26.00693
G1 X103.068 Y70.505 E26.03507
G1 X103.62 Y70.625 E26.06318
G1 X104.314 Y70.899 E26.10031
G1 X109.86 Y73.719 E26.40994
G1 X114.839 Y75.886 E26.68018
G1 X119.937 Y77.77 E26.95065
G1 X125.117 Y79.358 E27.22028
G1 X130.459 Y80.67 E27.49403
G1 X132.784 Y81.14 E27.61207
G1 X133.328 Y81.291 E27.64017
G1 X133.846 Y81.518 E27.66831
G1 X134.327 Y81.815 E27.69645
G1 X134.761 Y82.177 E27.72457
G1 X135.14 Y82.596 E27.75269
G1 X135.456 Y83.065 E27.78083
G1 X135.703 Y83.573 E27.80894
G1 X135.875 Y84.111 E27.83705
G1 X135.97 Y84.669 E27.86522
G1 X135.989 Y85.06 E27.8847
G1 X135.988 Y88.967 E28.07913
G1 X135.98 Y89.219 E28.09168
G1 X135.612 Y95.029 E28.3814
G1 X135.589 Y95.271 E28.3935
G1 X134.953 Y100.375 E28.64946
G1 X134.566 Y105.838 E28.92201
G1 X134.485 Y108.792 E29.06908
G1 X134.43 Y109.355 E29.09723
G1 X134.296 Y109.904 E29.12535
G1 X134.086 Y110.428 E29.15344
G1 X133.803 Y110.918 E29.1816
G1 X133.455 Y111.363 E29.20972
G1 X133.047 Y111.754 E29.23784
G1 X132.588 Y112.084 E29.26597
G1 X132.088 Y112.346 E29.29406
G1 X131.555 Y112.535 E29.32221
G1 X131.001 Y112.647 E29.35034
G1 X130.475 Y112.68 E29.37656
G1 X123.431 Y112.655 E29.72711
G1 X123.288 Y112.652 E29.73423
G1 X118.937 Y112.481 E29.95093
G1 X113.461 Y112.556 E30.22347
G1 X111.187 Y112.675 E30.33679
G1 X110.984 Y112.68 E30.3469
G1 X105.206 Y112.688 E30.63444
G1 X104.86 Y112.674 E30.65168
G1 X99.299 Y112.2 E30.92942
G1 X93.88 Y111.969 E31.19935
G1 X88.428 Y112.047 E31.4707
G1 X82.977 Y112.432 E31.74265
G1 X80.565 Y112.67 E31.86326
G1 X80.165 Y112.689 E31.88319
G1 X73.982 Y112.678 E32.19089
G1 X73.775 Y112.672 E32.2012
G1 X71.691 Y112.56 E32.30506
G1 X66.195 Y112.479 E32.5786
G1 X60.826 Y112.686 E32.84599
G1 X60.652 Y112.689 E32.85465
G1 X54.489 Y112.658 E33.16136
G1 X53.925 Y112.615 E33.18951
G1 X53.373 Y112.493 E33.21764
G1 X52.844 Y112.295 E33.24575
G1 X52.348 Y112.024 E33.27388
G1 X51.896 Y111.686 E33.30196
G1 X51.495 Y111.287 E33.33012
G1 X51.155 Y110.835 E33.35826
G1 X50.881 Y110.341 E33.38638
G1 X50.681 Y109.812 E33.41452
G1 X50.556 Y109.261 E33.44264
G1 X50.513 Y108.777 E33.46682
G1 X50.474 Y107.438 E33.53348
G1 X50.087 Y100.863 E33.86126
G1 X49.411 Y95.304 E34.13994
G1 X49.389 Y95.065 E34.15189
G1 X49.009 Y88.815 E34.4635
G1 X49.002 Y88.562 E34.47609
G1 X49.011 Y85.049 E34.65092
G1 X49.052 Y84.485 E34.67906
G1 X49.173 Y83.933 E34.70718
G1 X49.37 Y83.403 E34.73532
G1 X49.64 Y82.907 E34.76342
G1 X49.977 Y82.453 E34.79156
G1 X50.375 Y82.051 E34.81971
G1 X50.825 Y81.71 E34.84781
G1 X51.319 Y81.436 E34.87593
M204 S5000
G0 F2400 X51.69 Y81.71
M204 S200
G1 F1200 X52.202 Y81.552 E34.90259
G1 X52.913 Y81.461 E34.93826
G1 X59.161 Y81.295 E35.24931
G1 X64.584 Y80.834 E35.52016
G1 X69.978 Y80.065 E35.79131
G1 X75.372 Y78.983 E36.06509
G1 X77.947 Y78.352 E36.19703
G1 X80.58 Y77.628 E36.33292
G1 X85.79 Y75.952 E36.60529
G1 X90.873 Y73.995 E36.87635
G1 X97.005 Y71.188 E37.21196
G1 X97.508 Y71.002 E37.23865
G1 X98.033 Y70.893 E37.26533
G1 X98.505 Y70.862 E37.28887
G1 X102.504 Y70.864 E37.48789
G1 X103.038 Y70.904 E37.51453
G1 X103.561 Y71.023 E37.54123
G1 X104.133 Y71.255 E37.57195
G1 X109.685 Y74.078 E37.88191
G1 X114.683 Y76.254 E38.15319
G1 X119.808 Y78.147 E38.42508
G1 X125.03 Y79.748 E38.69689
G1 X130.353 Y81.055 E38.96966
G1 X132.705 Y81.531 E39.08908
G1 X133.221 Y81.677 E39.11577
G1 X133.71 Y81.897 E39.14246
G1 X134.16 Y82.187 E39.1691
G1 X134.563 Y82.542 E39.19583
G1 X134.909 Y82.952 E39.22252
G1 X135.189 Y83.409 E39.2492
G1 X135.399 Y83.902 E39.27586
G1 X135.533 Y84.421 E39.30254
G1 X135.59 Y85.06 E39.33446
G1 X135.589 Y88.967 E39.5289
G1 X135.582 Y89.194 E39.5402
G1 X135.214 Y95.004 E39.82992
G1 X135.193 Y95.221 E39.84077
G1 X134.556 Y100.333 E40.09714
G1 X134.169 Y105.8 E40.36988
G1 X134.087 Y108.781 E40.51829
G1 X134.032 Y109.314 E40.54496
G1 X133.899 Y109.834 E40.57167
G1 X133.69 Y110.328 E40.59836
G1 X133.41 Y110.785 E40.62503
G1 X133.065 Y111.196 E40.65174
G1 X132.663 Y111.55 E40.6784
G1 X132.212 Y111.841 E40.70511
G1 X131.724 Y112.062 E40.73177
G1 X131.208 Y112.208 E40.75845
G1 X130.476 Y112.281 E40.79506
G1 X123.432 Y112.256 E41.14561
G1 X123.304 Y112.253 E41.15198
G1 X118.948 Y112.082 E41.36893
G1 X113.435 Y112.157 E41.64331
G1 X111.166 Y112.276 E41.75639
G1 X110.983 Y112.281 E41.7655
G1 X105.205 Y112.289 E42.05304
G1 X104.894 Y112.276 E42.06853
G1 X99.35 Y111.803 E42.34543
G1 X93.874 Y111.57 E42.6182
G1 X88.413 Y111.648 E42.88999
G1 X82.942 Y112.035 E43.16294
G1 X80.525 Y112.273 E43.2838
G1 X80.166 Y112.29 E43.30169
G1 X73.983 Y112.279 E43.60939
G1 X73.796 Y112.274 E43.6187
G1 X71.692 Y112.161 E43.72356
G1 X66.185 Y112.08 E43.99765
G1 X60.81 Y112.287 E44.26533
G1 X60.654 Y112.29 E44.2731
G1 X54.491 Y112.259 E44.57981
G1 X53.956 Y112.216 E44.60652
G1 X53.434 Y112.095 E44.63318
G1 X52.936 Y111.897 E44.65985
G1 X52.472 Y111.627 E44.68657
G1 X52.054 Y111.292 E44.71323
G1 X51.69 Y110.898 E44.73992
G1 X51.389 Y110.454 E44.76662
G1 X51.157 Y109.971 E44.79328
G1 X51 Y109.458 E44.81998
G1 X50.912 Y108.765 E44.85475
G1 X50.873 Y107.437 E44.92086
G1 X50.484 Y100.823 E45.25058
G1 X49.807 Y95.256 E45.52967
G1 X49.788 Y95.04 E45.54046
G1 X49.408 Y88.79 E45.85207
G1 X49.401 Y88.563 E45.86337
G1 X49.41 Y85.05 E46.0382
G1 X49.451 Y84.515 E46.0649
G1 X49.572 Y83.993 E46.09156
G1 X49.768 Y83.494 E46.11824
G1 X50.037 Y83.03 E46.14493
G1 X50.371 Y82.611 E46.1716
G1 X50.764 Y82.246 E46.19829
G1 X51.207 Y81.944 E46.22497
G1 X51.69 Y81.71 E46.25168
M204 S5000
G0 F2400 X52.054 Y82.005
M204 S200
G1 F1200 X52.547 Y81.893 E46.27684
G1 X52.924 Y81.86 E46.29568
G1 X59.171 Y81.694 E46.60667
G1 X64.638 Y81.229 E46.87972
G1 X70.044 Y80.458 E47.15148
G1 X75.449 Y79.375 E47.4258
G1 X78.043 Y78.739 E47.55872
G1 X80.71 Y78.005 E47.69638
G1 X85.929 Y76.327 E47.9692
G1 X91.023 Y74.365 E48.24086
G1 X97.171 Y71.551 E48.57734
G1 X97.646 Y71.378 E48.6025
G1 X98.142 Y71.281 E48.62765
G1 X98.505 Y71.261 E48.64574
G1 X102.504 Y71.263 E48.84476
G1 X103.008 Y71.303 E48.86992
G1 X103.499 Y71.422 E48.89506
G1 X103.952 Y71.61 E48.91947
G1 X109.529 Y74.445 E49.23081
G1 X114.521 Y76.619 E49.50178
G1 X119.695 Y78.53 E49.77626
G1 X124.906 Y80.128 E50.04751
G1 X130.298 Y81.452 E50.32382
G1 X132.626 Y81.923 E50.44202
G1 X133.112 Y82.062 E50.46717
G1 X133.57 Y82.276 E50.49233
G1 X133.988 Y82.559 E50.51745
G1 X134.357 Y82.905 E50.54263
G1 X134.667 Y83.304 E50.56777
G1 X134.91 Y83.748 E50.59296
G1 X135.08 Y84.224 E50.61811
G1 X135.173 Y84.721 E50.64328
G1 X135.191 Y85.06 E50.66017
G1 X135.19 Y88.967 E50.85461
G1 X135.184 Y89.168 E50.86461
G1 X134.816 Y94.978 E51.15433
G1 X134.797 Y95.172 E51.16403
G1 X134.159 Y100.294 E51.4209
G1 X133.77 Y105.784 E51.6948
G1 X133.688 Y108.77 E51.84345
G1 X133.634 Y109.273 E51.86863
G1 X133.502 Y109.761 E51.89379
G1 X133.294 Y110.222 E51.91896
G1 X133.017 Y110.644 E51.94408
G1 X132.676 Y111.018 E51.96926
G1 X132.281 Y111.333 E51.99441
G1 X131.841 Y111.582 E52.01957
G1 X131.367 Y111.759 E52.04475
G1 X130.872 Y111.859 E52.06988
G1 X130.478 Y111.882 E52.08952
G1 X123.434 Y111.857 E52.44007
G1 X123.32 Y111.855 E52.44574
G1 X118.939 Y111.683 E52.66393
G1 X113.434 Y111.758 E52.93792
G1 X111.145 Y111.878 E53.05199
G1 X110.982 Y111.882 E53.0601
G1 X105.204 Y111.89 E53.34765
G1 X104.928 Y111.878 E53.36139
G1 X99.377 Y111.404 E53.63865
G1 X93.885 Y111.171 E53.91221
G1 X88.397 Y111.249 E54.18535
G1 X82.911 Y111.637 E54.45904
G1 X80.486 Y111.876 E54.58031
G1 X80.166 Y111.891 E54.59625
G1 X73.983 Y111.88 E54.90395
G1 X73.817 Y111.875 E54.91222
G1 X71.719 Y111.762 E55.01678
G1 X66.194 Y111.681 E55.29176
G1 X60.795 Y111.889 E55.56064
G1 X60.656 Y111.891 E55.56756
G1 X54.493 Y111.86 E55.87427
G1 X53.989 Y111.817 E55.89944
G1 X53.498 Y111.696 E55.92461
G1 X53.033 Y111.499 E55.94974
G1 X52.604 Y111.231 E55.97491
G1 X52.223 Y110.899 E56.00006
G1 X51.899 Y110.511 E56.02522
G1 X51.64 Y110.077 E56.05037
G1 X51.452 Y109.607 E56.07556
G1 X51.341 Y109.114 E56.10071
G1 X51.31 Y108.753 E56.11874
G1 X51.27 Y107.368 E56.1877
G1 X50.883 Y100.801 E56.51507
G1 X50.203 Y95.208 E56.79546
G1 X50.186 Y95.016 E56.80505
G1 X49.806 Y88.766 E57.11666
G1 X49.8 Y88.564 E57.12672
G1 X49.809 Y85.051 E57.30154
G1 X49.85 Y84.547 E57.32671
G1 X49.97 Y84.056 E57.35186
G1 X50.166 Y83.59 E57.37702
G1 X50.433 Y83.16 E57.40221
G1 X50.764 Y82.778 E57.42736
G1 X51.152 Y82.453 E57.45255
G1 X51.585 Y82.193 E57.47769
G1 X52.054 Y82.005 E57.50283
M204 S5000
G1 F1500 E55.50283
G0 F2400 X52.336 Y89.038
G0 X52.397 Y89.258
G0 X53.601 Y91.36
M204 S200
;TYPE:SUPPORT
G1 F1500 E57.50283
G1 F1200 X53.601 Y94.479 E57.65805
G1 X53.569 Y94.496 E57.65985
G1 X53.569 Y91.335 E57.81716
G1 X53.576 Y91.332 E57.81754
G1 X53.601 Y91.36 E57.81941
M204 S5000
G1 F1500 E55.81941
G0 F2400 X53.839 Y108.847
G0 X54.343 Y109.351
G0 X61.157 Y109.352
G0 X61.661 Y108.848
G0 X67.503 Y94.456
M204 S200
G1 F1500 E57.81941
G1 F1200 X68.944 Y94.646 E57.89174
G1 X70.299 Y95.208 E57.96475
G1 X70.352 Y95.249 E57.96808
G1 X70.354 Y95.271 E57.96918
G1 X68.921 Y94.674 E58.04643
G1 X67.401 Y94.47 E58.12276
