;FLAVOR:Marlin
;TIME:3011
;Filament used: 1.98945m
;Layer height: 0.2
;Generated with Cura_SteamEngine 2.7.0
M190 S60
M104 S220
M109 S220
G21 ;metric values
G90 ;absolute positioning
M82 ;set extruder to absolute mode
M107 ;start with the fan off
G92 E0 ;zero the extruded length
G1 F200 E3 ;extrude 3mm of feed stock
G92 E0 ;zero the extruded length again
G1 F9000
M301 P26.92 I2.54 D71.46 ;set PID tuning for E0
M117 Printing...
;LAYER_COUNT:65
;LAYER:0
M107
M204 S5000
G0 F2400 X69.634 Y68.754 Z0.3
M204 S200
;TYPE:SKIRT
G1 F1200 X70.095 Y68.34 E0.03084
G1 X70.605 Y67.99 E0.06162
G1 X71.156 Y67.708 E0.09242
G1 X71.739 Y67.499 E0.12324
G1 X72.344 Y67.368 E0.15405
G1 X73.061 Y67.314 E0.18983
G1 X78.045 Y67.315 E0.43786
G1 X78.663 Y67.355 E0.46868
G1 X79.023 Y67.416 E0.48685
G1 X83.141 Y68.275 E0.6962
G1 X88.485 Y69.124 E0.96548
G1 X93.939 Y69.676 E1.23829
G1 X96.751 Y69.9 E1.37867
G1 X97.299 Y69.976 E1.4062
G1 X99.488 Y70.408 E1.51724
G1 X100.109 Y70.574 E1.54923
G1 X102.416 Y71.362 E1.67055
G1 X102.905 Y71.56 E1.69681
G1 X104.374 Y72.25 E1.77758
G1 X104.818 Y72.488 E1.80265
G1 X106.723 Y73.641 E1.91346
G1 X107.247 Y74.008 E1.9453
G1 X109.097 Y75.497 E2.06348
G1 X109.481 Y75.842 E2.08917
G1 X110.615 Y76.976 E2.16898
G1 X110.957 Y77.356 E2.19442
G1 X112.4 Y79.145 E2.3088
G1 X112.773 Y79.677 E2.34114
G1 X114.013 Y81.731 E2.46054
G1 X114.256 Y82.188 E2.4863
G1 X114.928 Y83.633 E2.5656
G1 X115.117 Y84.102 E2.59077
G1 X115.855 Y86.258 E2.70417
G1 X115.997 Y86.763 E2.73028
G1 X116.341 Y88.299 E2.80861
G1 X116.415 Y88.714 E2.82959
G1 X116.623 Y90.277 E2.90806
G1 X116.664 Y90.821 E2.93521
G1 X116.709 Y93.234 E3.05532
G1 X116.682 Y93.838 E3.0854
G1 X116.435 Y96.127 E3.19998
G1 X116.323 Y96.76 E3.23197
G1 X115.76 Y99.043 E3.34899
G1 X115.581 Y99.615 E3.37881
G1 X114.108 Y103.449 E3.58321
G1 X112.314 Y108.582 E3.85381
G1 X110.801 Y113.82 E4.12514
G1 X110.591 Y114.403 E4.15598
G1 X110.308 Y114.954 E4.1868
G1 X109.956 Y115.463 E4.2176
G1 X109.542 Y115.923 E4.2484
G1 X109.072 Y116.326 E4.27921
G1 X108.554 Y116.665 E4.31002
G1 X107.996 Y116.934 E4.34085
G1 X107.409 Y117.129 E4.37163
G1 X106.801 Y117.247 E4.40245
G1 X106.193 Y117.286 E4.43277
G1 X93.445 Y117.286 E5.06718
G1 X93.292 Y117.284 E5.07479
G1 X89.732 Y117.171 E5.25205
G1 X84.323 Y117.246 E5.52126
G1 X78.398 Y117.673 E5.81688
G1 X78.054 Y117.685 E5.83401
G1 X73.06 Y117.686 E6.08254
G1 X72.442 Y117.646 E6.11336
G1 X71.835 Y117.527 E6.14414
G1 X71.247 Y117.331 E6.17499
G1 X70.691 Y117.06 E6.20577
G1 X70.173 Y116.721 E6.23658
G1 X69.704 Y116.317 E6.26738
G1 X69.29 Y115.856 E6.29822
G1 X68.94 Y115.346 E6.329
G1 X68.657 Y114.795 E6.35983
G1 X68.449 Y114.212 E6.39063
G1 X68.317 Y113.607 E6.42145
G1 X68.263 Y112.89 E6.45723
G1 X68.264 Y99.913 E7.10304
G1 X68.272 Y99.636 E7.11683
G1 X68.445 Y96.643 E7.26602
G1 X68.523 Y91.219 E7.53598
G1 X68.267 Y85.298 E7.83092
G1 X68.263 Y85.091 E7.84122
G1 X68.264 Y72.11 E8.48723
G1 X68.304 Y71.492 E8.51804
G1 X68.423 Y70.884 E8.54888
G1 X68.62 Y70.297 E8.57969
G1 X68.89 Y69.74 E8.61049
G1 X69.23 Y69.223 E8.64129
G1 X69.634 Y68.754 E8.67209
M204 S5000
G0 F2400 X70.027 Y68.927
M204 S200
G1 F1200 X70.483 Y68.548 E8.7016
G1 X70.985 Y68.233 E8.73109
G1 X71.525 Y67.989 E8.76058
G1 X72.094 Y67.821 E8.79011
G1 X72.679 Y67.73 E8.81957
G1 X73.061 Y67.713 E8.8386
G1 X78.045 Y67.714 E9.08663
G1 X78.636 Y67.754 E9.11611
G1 X78.942 Y67.807 E9.13157
G1 X83.06 Y68.666 E9.34091
G1 X88.437 Y69.52 E9.61185
G1 X93.915 Y70.075 E9.88587
G1 X96.719 Y70.298 E10.02585
G1 X97.221 Y70.367 E10.05107
G1 X99.41 Y70.799 E10.1621
G1 X99.98 Y70.952 E10.19147
G1 X102.287 Y71.74 E10.3128
G1 X102.735 Y71.921 E10.33684
G1 X104.204 Y72.611 E10.41761
G1 X104.612 Y72.829 E10.44063
G1 X106.517 Y73.982 E10.55145
G1 X106.997 Y74.319 E10.58063
G1 X108.847 Y75.808 E10.69882
G1 X109.199 Y76.124 E10.72236
G1 X110.333 Y77.258 E10.80217
G1 X110.646 Y77.606 E10.82546
G1 X112.089 Y79.395 E10.93984
G1 X112.431 Y79.884 E10.96954
G1 X113.671 Y81.938 E11.08894
G1 X113.894 Y82.356 E11.11252
G1 X114.566 Y83.801 E11.19182
G1 X114.739 Y84.231 E11.21489
G1 X115.477 Y86.387 E11.32829
G1 X115.608 Y86.85 E11.35224
G1 X115.952 Y88.386 E11.43057
G1 X116.02 Y88.767 E11.44983
G1 X116.228 Y90.33 E11.5283
G1 X116.265 Y90.828 E11.55316
G1 X116.31 Y93.241 E11.67326
G1 X116.286 Y93.795 E11.70086
G1 X116.039 Y96.084 E11.81543
G1 X115.936 Y96.665 E11.84479
G1 X115.373 Y98.948 E11.96181
G1 X115.209 Y99.472 E11.98914
G1 X113.735 Y103.311 E12.19379
G1 X111.928 Y108.477 E12.46615
G1 X110.417 Y113.71 E12.73721
G1 X110.215 Y114.267 E12.7667
G1 X109.939 Y114.792 E12.79621
G1 X109.596 Y115.275 E12.82569
G1 X109.19 Y115.707 E12.8552
G1 X108.73 Y116.081 E12.8847
G1 X108.224 Y116.39 E12.91421
G1 X107.681 Y116.627 E12.94369
G1 X107.111 Y116.79 E12.97319
G1 X106.525 Y116.874 E13.00265
G1 X106.193 Y116.887 E13.01919
G1 X93.445 Y116.887 E13.6536
G1 X93.305 Y116.885 E13.66057
G1 X89.739 Y116.771 E13.83812
G1 X84.306 Y116.847 E14.10852
G1 X78.369 Y117.275 E14.40475
G1 X78.054 Y117.286 E14.42043
G1 X73.06 Y117.287 E14.66896
G1 X72.468 Y117.247 E14.69849
G1 X71.888 Y117.128 E14.72796
G1 X71.328 Y116.932 E14.75748
G1 X70.8 Y116.663 E14.78697
G1 X70.314 Y116.325 E14.81643
G1 X69.877 Y115.924 E14.84595
G1 X69.497 Y115.468 E14.87549
G1 X69.183 Y114.966 E14.90496
G1 X68.939 Y114.426 E14.93444
G1 X68.77 Y113.858 E14.96394
G1 X68.679 Y113.272 E14.99345
G1 X68.662 Y112.89 E15.01248
G1 X68.663 Y99.913 E15.65828
G1 X68.67 Y99.659 E15.67093
G1 X68.844 Y96.649 E15.82097
G1 X68.922 Y91.208 E16.09178
G1 X68.666 Y85.281 E16.38701
G1 X68.662 Y85.091 E16.39647
G1 X68.663 Y72.11 E17.04247
G1 X68.703 Y71.518 E17.072
G1 X68.822 Y70.938 E17.10147
G1 X69.018 Y70.378 E17.13099
G1 X69.288 Y69.85 E17.16051
G1 X69.626 Y69.364 E17.18997
G1 X70.027 Y68.927 E17.21948
M204 S5000
G0 F2400 X70.418 Y69.109
M204 S200
G1 F1200 X70.868 Y68.767 E17.24761
G1 X71.361 Y68.491 E17.27573
G1 X71.889 Y68.287 E17.3039
G1 X72.439 Y68.16 E17.33199
G1 X73.061 Y68.112 E17.36303
G1 X78.045 Y68.113 E17.61107
G1 X78.86 Y68.197 E17.65184
G1 X82.998 Y69.06 E17.8622
G1 X88.385 Y69.916 E18.13365
G1 X93.888 Y70.473 E18.40891
G1 X96.688 Y70.696 E18.54869
G1 X97.144 Y70.759 E18.5716
G1 X99.333 Y71.191 E18.68264
G1 X99.851 Y71.33 E18.70933
G1 X102.158 Y72.118 E18.83065
G1 X102.566 Y72.282 E18.85253
G1 X104.035 Y72.972 E18.9333
G1 X104.405 Y73.171 E18.95421
G1 X106.31 Y74.324 E19.06503
G1 X106.747 Y74.629 E19.09155
G1 X108.597 Y76.118 E19.20973
G1 X108.917 Y76.406 E19.23115
G1 X110.051 Y77.54 E19.31096
G1 X110.336 Y77.857 E19.33218
G1 X111.779 Y79.646 E19.44656
G1 X112.09 Y80.09 E19.47354
G1 X113.33 Y82.144 E19.59294
G1 X113.532 Y82.524 E19.61435
G1 X114.204 Y83.969 E19.69366
G1 X114.362 Y84.36 E19.71465
G1 X115.1 Y86.516 E19.82805
G1 X115.218 Y86.937 E19.84981
G1 X115.562 Y88.473 E19.92815
G1 X115.624 Y88.82 E19.94569
G1 X115.832 Y90.383 E20.02416
G1 X115.866 Y90.835 E20.04672
G1 X115.911 Y93.248 E20.16682
G1 X115.889 Y93.752 E20.19193
G1 X115.642 Y96.041 E20.3065
G1 X115.549 Y96.569 E20.33318
G1 X114.986 Y98.852 E20.4502
G1 X114.836 Y99.328 E20.47504
G1 X113.368 Y103.151 E20.67883
G1 X111.55 Y108.349 E20.95288
G1 X110.034 Y113.599 E21.22482
G1 X109.839 Y114.13 E21.25297
G1 X109.572 Y114.627 E21.28105
G1 X109.236 Y115.083 E21.30924
G1 X108.84 Y115.486 E21.33736
G1 X108.392 Y115.829 E21.36544
G1 X107.899 Y116.106 E21.39358
G1 X107.372 Y116.31 E21.4217
G1 X106.821 Y116.438 E21.44985
G1 X106.193 Y116.488 E21.4812
G1 X93.445 Y116.488 E22.11561
G1 X93.318 Y116.486 E22.12193
G1 X89.746 Y116.372 E22.29979
G1 X84.288 Y116.448 E22.57143
G1 X78.34 Y116.877 E22.86821
G1 X78.054 Y116.887 E22.88245
G1 X73.06 Y116.888 E23.13098
G1 X72.496 Y116.848 E23.15912
G1 X71.943 Y116.729 E23.18727
G1 X71.413 Y116.534 E23.21537
G1 X70.916 Y116.265 E23.24349
G1 X70.461 Y115.929 E23.27164
G1 X70.059 Y115.532 E23.29976
G1 X69.716 Y115.083 E23.32788
G1 X69.44 Y114.59 E23.356
G1 X69.237 Y114.062 E23.38415
G1 X69.11 Y113.512 E23.41224
G1 X69.061 Y112.89 E23.44329
G1 X69.062 Y99.913 E24.08909
G1 X69.069 Y99.682 E24.1006
G1 X69.243 Y96.677 E24.25039
G1 X69.322 Y91.196 E24.52318
G1 X69.065 Y85.264 E24.81867
G1 X69.061 Y85.091 E24.82728
G1 X69.062 Y72.11 E25.47329
G1 X69.102 Y71.546 E25.50143
G1 X69.221 Y70.993 E25.52958
G1 X69.417 Y70.463 E25.5577
G1 X69.686 Y69.966 E25.58582
G1 X70.022 Y69.512 E25.61393
G1 X70.418 Y69.109 E25.64205
M204 S5000
G0 F2400 X70.808 Y69.302
M204 S200
G1 F1200 X71.25 Y68.999 E25.66872
G1 X71.733 Y68.765 E25.69542
G1 X72.244 Y68.605 E25.72207
G1 X72.774 Y68.522 E25.74877
G1 X73.061 Y68.511 E25.76306
G1 X78.045 Y68.512 E26.01109
G1 X78.779 Y68.588 E26.04782
G1 X82.94 Y69.456 E26.25935
G1 X88.316 Y70.31 E26.53024
G1 X93.819 Y70.867 E26.8055
G1 X96.656 Y71.093 E26.94713
G1 X97.067 Y71.15 E26.96778
G1 X99.256 Y71.582 E27.07882
G1 X99.722 Y71.707 E27.10283
G1 X102.029 Y72.495 E27.22415
G1 X102.396 Y72.643 E27.24385
G1 X103.865 Y73.333 E27.32461
G1 X104.199 Y73.512 E27.34347
G1 X106.104 Y74.665 E27.45429
G1 X106.497 Y74.94 E27.47816
G1 X108.347 Y76.429 E27.59634
G1 X108.635 Y76.688 E27.61562
G1 X109.769 Y77.822 E27.69543
G1 X110.025 Y78.107 E27.71449
G1 X111.468 Y79.896 E27.82887
G1 X111.748 Y80.296 E27.85317
G1 X112.988 Y82.35 E27.97257
G1 X113.17 Y82.692 E27.99185
G1 X113.842 Y84.137 E28.07116
G1 X113.984 Y84.489 E28.09005
G1 X114.722 Y86.645 E28.20345
G1 X114.829 Y87.024 E28.22305
G1 X115.173 Y88.56 E28.30139
G1 X115.229 Y88.872 E28.31716
G1 X115.437 Y90.435 E28.39563
G1 X115.467 Y90.843 E28.41599
G1 X115.512 Y93.256 E28.53609
G1 X115.492 Y93.709 E28.55866
G1 X115.245 Y95.998 E28.67324
G1 X115.161 Y96.474 E28.69729
G1 X114.598 Y98.757 E28.81431
G1 X114.464 Y99.185 E28.83663
G1 X112.983 Y103.041 E29.04219
G1 X111.173 Y108.216 E29.31502
G1 X109.651 Y113.488 E29.5881
G1 X109.464 Y113.991 E29.61481
G1 X109.205 Y114.46 E29.64147
G1 X108.879 Y114.886 E29.66817
G1 X108.493 Y115.258 E29.69484
G1 X108.056 Y115.569 E29.72154
G1 X107.578 Y115.812 E29.74822
G1 X107.069 Y115.981 E29.77491
G1 X106.54 Y116.072 E29.80162
G1 X106.193 Y116.089 E29.81891
G1 X93.445 Y116.089 E30.45332
G1 X93.33 Y116.087 E30.45905
G1 X89.753 Y115.973 E30.63715
G1 X84.272 Y116.05 E30.90994
G1 X78.312 Y116.479 E31.20731
G1 X78.054 Y116.488 E31.22016
G1 X73.06 Y116.489 E31.46869
G1 X72.525 Y116.449 E31.49539
G1 X72.002 Y116.33 E31.52208
G1 X71.503 Y116.135 E31.54874
G1 X71.038 Y115.868 E31.57542
G1 X70.618 Y115.535 E31.6021
G1 X70.252 Y115.142 E31.62882
G1 X69.949 Y114.7 E31.65549
G1 X69.714 Y114.218 E31.68218
G1 X69.554 Y113.706 E31.70887
G1 X69.471 Y113.177 E31.73552
G1 X69.46 Y112.89 E31.74982
G1 X69.461 Y99.913 E32.39562
G1 X69.467 Y99.705 E32.40598
G1 X69.642 Y96.683 E32.55662
G1 X69.721 Y91.201 E32.82946
G1 X69.463 Y85.246 E33.12609
G1 X69.46 Y85.091 E33.13381
G1 X69.461 Y72.11 E33.77982
G1 X69.501 Y71.575 E33.80651
G1 X69.62 Y71.052 E33.83321
G1 X69.815 Y70.553 E33.85987
G1 X70.083 Y70.088 E33.88658
G1 X70.416 Y69.668 E33.91325
G1 X70.808 Y69.302 E33.93994
M204 S5000
G0 F2400 X71.196 Y69.509
M204 S200
G1 F1200 X71.629 Y69.248 E33.9651
G1 X72.098 Y69.058 E33.99028
G1 X72.59 Y68.945 E34.01541
G1 X73.061 Y68.91 E34.03891
G1 X78.045 Y68.911 E34.28694
G1 X78.697 Y68.978 E34.31956
G1 X82.874 Y69.849 E34.5319
G1 X88.27 Y70.706 E34.8038
G1 X93.791 Y71.265 E35.07996
G1 X96.624 Y71.491 E35.22139
G1 X96.99 Y71.542 E35.23978
G1 X99.179 Y71.974 E35.35082
G1 X99.593 Y72.085 E35.37215
G1 X101.9 Y72.873 E35.49347
G1 X102.226 Y73.005 E35.51098
G1 X103.695 Y73.695 E35.59175
G1 X103.992 Y73.853 E35.60849
G1 X105.897 Y75.006 E35.7193
G1 X106.246 Y75.251 E35.74052
G1 X108.096 Y76.74 E35.85871
G1 X108.353 Y76.97 E35.87587
G1 X109.487 Y78.104 E35.95568
G1 X109.715 Y78.358 E35.97267
G1 X111.158 Y80.147 E36.08705
G1 X111.406 Y80.502 E36.1086
G1 X112.646 Y82.556 E36.228
G1 X112.809 Y82.861 E36.24521
G1 X113.481 Y84.306 E36.32452
G1 X113.607 Y84.619 E36.34131
G1 X114.345 Y86.775 E36.45471
G1 X114.44 Y87.112 E36.47214
G1 X114.784 Y88.648 E36.55047
G1 X114.833 Y88.925 E36.56447
G1 X115.041 Y90.488 E36.64294
G1 X115.068 Y90.85 E36.66101
G1 X115.113 Y93.263 E36.78111
G1 X115.096 Y93.666 E36.80118
G1 X114.849 Y95.955 E36.91576
G1 X114.774 Y96.378 E36.93714
G1 X114.211 Y98.661 E37.05416
G1 X114.091 Y99.042 E37.07403
G1 X112.619 Y102.874 E37.27832
G1 X110.788 Y108.111 E37.55441
G1 X109.267 Y113.378 E37.82724
G1 X109.089 Y113.851 E37.85239
G1 X108.839 Y114.29 E37.87753
G1 X108.522 Y114.684 E37.9027
G1 X108.148 Y115.024 E37.92785
G1 X107.724 Y115.3 E37.95303
G1 X107.262 Y115.506 E37.9782
G1 X106.774 Y115.637 E38.00335
G1 X106.193 Y115.69 E38.03238
G1 X93.445 Y115.69 E38.66679
G1 X93.343 Y115.688 E38.67187
G1 X89.76 Y115.574 E38.85027
G1 X84.255 Y115.651 E39.12425
G1 X78.283 Y116.081 E39.42222
G1 X78.054 Y116.089 E39.43363
G1 X73.06 Y116.09 E39.68215
G1 X72.556 Y116.05 E39.70732
G1 X72.064 Y115.931 E39.73251
G1 X71.598 Y115.737 E39.75763
G1 X71.167 Y115.471 E39.78283
G1 X70.785 Y115.141 E39.80795
G1 X70.458 Y114.755 E39.83313
G1 X70.197 Y114.322 E39.85829
G1 X70.007 Y113.853 E39.88347
G1 X69.894 Y113.361 E39.90859
G1 X69.859 Y112.89 E39.9321
G1 X69.86 Y99.913 E40.5779
G1 X69.865 Y99.728 E40.58711
G1 X70.041 Y96.689 E40.73861
G1 X70.12 Y91.19 E41.01229
G1 X69.862 Y85.229 E41.30922
G1 X69.859 Y85.091 E41.31609
G1 X69.86 Y72.11 E41.9621
G1 X69.9 Y71.606 E41.98726
G1 X70.019 Y71.114 E42.01245
G1 X70.214 Y70.648 E42.03759
G1 X70.479 Y70.218 E42.06273
G1 X70.81 Y69.835 E42.08792
G1 X71.196 Y69.509 E42.11306
M204 S5000
G1 F1500 E40.11306
G0 F2400 X78.207 Y71.44
G0 X83.985 Y76.112
M204 S200
;TYPE:SUPPORT
G1 F1500 E42.11306
G1 F1200 X84.325 Y76.244 E42.13121
G1 X83.075 Y77.042 E42.20501
G1 X83.985 Y76.112 E42.26977
M204 S5000
G1 F1500 E40.26977
G0 F2400 X84.27 Y76.559
G0 X84.946 Y77.623
G0 X85.298 Y77.516
G0 X85.249 Y77.43
M204 S200
;TYPE:WALL-INNER
G1 F1500 E42.26977
G1 F1200 X86.596 Y76.73 E42.34531
G1 X87.996 Y76.149 E42.42075
G1 X89.452 Y75.689 E42.49673
G1 X90.927 Y75.363 E42.57191
G1 X92.428 Y75.165 E42.64725
G1 X93.95 Y75.098 E42.72307
G1 X95.472 Y75.165 E42.79889
G1 X96.972 Y75.363 E42.87418
G1 X98.447 Y75.689 E42.94936
G1 X99.907 Y76.15 E43.02555
G1 X101.301 Y76.728 E43.10065
G1 X102.651 Y77.43 E43.17638
G1 X103.936 Y78.248 E43.25218
G1 X105.139 Y79.171 E43.32764
G1 X106.255 Y80.195 E43.40302
G1 X107.279 Y81.311 E43.47839
G1 X108.201 Y82.514 E43.55382
G1 X109.019 Y83.799 E43.62963
G1 X109.724 Y85.153 E43.7056
G1 X110.3 Y86.543 E43.78047
G1 X110.761 Y88.005 E43.85676
G1 X111.087 Y89.478 E43.93184
G1 X111.285 Y90.975 E44.00699
G1 X111.352 Y92.5 E44.08295
G1 X111.285 Y94.022 E44.15877
G1 X111.087 Y95.522 E44.23407
G1 X110.761 Y96.995 E44.30914
G1 X110.3 Y98.457 E44.38543
G1 X109.724 Y99.847 E44.46031
G1 X109.019 Y101.201 E44.53628
G1 X108.201 Y102.486 E44.61209
G1 X107.279 Y103.689 E44.68751
G1 X106.256 Y104.805 E44.76286
G1 X105.603 Y105.403 E44.80692
G1 X105.603 Y111.903 E45.1304
G1 X94.047 Y111.903 E45.70549
G1 X94.047 Y109.907 E45.80482
G1 X92.428 Y109.835 E45.88547
G1 X90.927 Y109.637 E45.96081
G1 X89.452 Y109.311 E46.03599
G1 X87.996 Y108.851 E46.11198
G1 X86.596 Y108.27 E46.18741
G1 X85.249 Y107.57 E46.26296
G1 X83.963 Y106.752 E46.3388
G1 X82.761 Y105.829 E46.41422
G1 X81.651 Y104.811 E46.48918
G1 X81.184 Y104.302 E46.52355
G1 X77.453 Y104.302 E46.70923
G1 X77.453 Y112.302 E47.10735
G1 X73.647 Y112.302 E47.29676
G1 X73.647 Y100.496 E47.88429
G1 X78.146 Y100.496 E48.10819
G1 X78.147 Y100.496 E48.10824
G1 X78.444 Y100.496 E48.12302
G1 X78.33 Y100.221 E48.13167
G1 X77.599 Y98.457 E48.2267
G1 X77.138 Y96.995 E48.30298
G1 X76.812 Y95.522 E48.37806
G1 X76.614 Y94.022 E48.45336
G1 X76.548 Y92.5 E48.52917
G1 X76.614 Y90.975 E48.60514
G1 X76.812 Y89.478 E48.68028
G1 X77.138 Y88.005 E48.75536
G1 X77.599 Y86.543 E48.83165
G1 X78.33 Y84.779 E48.92668
G1 X78.444 Y84.504 E48.94149
G1 X78.147 Y84.504 E48.95013
G1 X78.146 Y84.504 E48.95018
G1 X73.647 Y84.504 E49.17407
G1 X73.647 Y72.698 E49.7616
G1 X77.453 Y72.698 E49.95101
G1 X77.453 Y80.698 E50.34913
G1 X81.184 Y80.698 E50.53481
G1 X81.651 Y80.189 E50.56918
G1 X82.761 Y79.171 E50.64414
G1 X83.963 Y78.248 E50.71956
G1 X85.249 Y77.43 E50.7954
M204 S5000
G0 F2400 X85.298 Y77.516
G0 X84.943 Y80.444
G0 X84.905 Y80.536
