;FLAVOR:Marlin
;TIME:3792
;Filament used: 3.05737m
;Layer height: 0.2
;Generated with Cura_SteamEngine 2.7.0
M190 S60
M104 S220
M109 S220
G21 ;metric values
G90 ;absolute positioning
M82 ;set extruder to absolute mode
M107 ;start with the fan off
G92 E0 ;zero the extruded length
G1 F200 E3 ;extrude 3mm of feed stock
G92 E0 ;zero the extruded length again
G1 F9000
M301 P26.92 I2.54 D71.46 ;set PID tuning for E0
M117 Printing...
;LAYER_COUNT:53
;LAYER:0
M107
M204 S5000
G0 F2400 X61.793 Y78.218 Z0.3
G0 X61.42 Y78.539
M204 S200
;TYPE:SKIRT
G1 F1200 X61.793 Y78.218 E0.02449
G1 X62.287 Y77.845 E0.05529
G1 X62.809 Y77.547 E0.08521
G1 X63.284 Y77.314 E0.11154
G1 X63.856 Y77.078 E0.14233
G1 X64.565 Y76.897 E0.17875
G1 X65.196 Y76.786 E0.21063
G1 X66.027 Y76.713 E0.25214
G1 X118.973 Y76.714 E2.88703
G1 X119.591 Y76.754 E2.91785
G1 X120.131 Y76.856 E2.9452
G1 X121.039 Y77.082 E2.99176
G1 X121.629 Y77.27 E3.02258
G1 X122.19 Y77.532 E3.05339
G1 X122.601 Y77.786 E3.07743
G1 X123.028 Y78.08 E3.10323
G1 X123.514 Y78.463 E3.13403
G1 X123.937 Y78.894 E3.16408
G1 X124.255 Y79.262 E3.18829
G1 X124.629 Y79.756 E3.21912
G1 X124.984 Y80.396 E3.25554
G1 X125.328 Y81.145 E3.29656
G1 X125.596 Y81.882 E3.33559
G1 X126.468 Y85.072 E3.50016
G1 X126.581 Y85.602 E3.52713
G1 X127.041 Y88.568 E3.6765
G1 X127.088 Y88.988 E3.69753
G1 X127.25 Y91.446 E3.82012
G1 X127.258 Y91.912 E3.84332
G1 X127.148 Y95.404 E4.01718
G1 X127.1 Y95.94 E4.04396
G1 X126.658 Y98.992 E4.19743
G1 X126.572 Y99.441 E4.22018
G1 X125.924 Y102.099 E4.35633
G1 X125.799 Y102.525 E4.37843
G1 X125.394 Y103.701 E4.44033
G1 X125.155 Y104.272 E4.47113
G1 X124.985 Y104.584 E4.48881
G1 X124.578 Y105.271 E4.52855
G1 X124.229 Y105.782 E4.55935
G1 X123.817 Y106.244 E4.59015
G1 X123.587 Y106.456 E4.60572
G1 X123.22 Y106.773 E4.62985
G1 X122.726 Y107.146 E4.66066
G1 X122.205 Y107.445 E4.69055
G1 X121.724 Y107.682 E4.71724
G1 X121.152 Y107.919 E4.74805
G1 X120.554 Y108.081 E4.77888
G1 X120.247 Y108.133 E4.79438
G1 X119.368 Y108.252 E4.83852
G1 X118.724 Y108.295 E4.87064
G1 X65.983 Y108.283 E7.49532
G1 X65.33 Y108.238 E7.5279
G1 X64.865 Y108.174 E7.55125
G1 X64.258 Y108.05 E7.58209
G1 X63.729 Y107.873 E7.60985
G1 X63.269 Y107.688 E7.63452
G1 X62.711 Y107.42 E7.66533
G1 X62.218 Y107.102 E7.69452
G1 X61.795 Y106.791 E7.72065
G1 X61.321 Y106.393 E7.75145
G1 X60.873 Y105.9 E7.7846
G1 X60.553 Y105.495 E7.81029
G1 X60.201 Y104.986 E7.84109
G1 X59.88 Y104.345 E7.87676
G1 X59.522 Y103.474 E7.92363
G1 X59.326 Y102.894 E7.9541
G1 X58.537 Y99.953 E8.10563
G1 X58.431 Y99.452 E8.13112
G1 X57.968 Y96.494 E8.28011
G1 X57.918 Y96.037 E8.30299
G1 X57.73 Y92.883 E8.46023
G1 X57.727 Y92.381 E8.48521
G1 X57.858 Y89.493 E8.62908
G1 X57.903 Y89.019 E8.65278
G1 X58.342 Y86.004 E8.8044
G1 X58.428 Y85.559 E8.82696
G1 X59.076 Y82.901 E8.96311
G1 X59.201 Y82.475 E8.98521
G1 X59.606 Y81.299 E9.0471
G1 X59.845 Y80.728 E9.07791
G1 X60.015 Y80.416 E9.09559
G1 X60.422 Y79.729 E9.13533
G1 X60.771 Y79.218 E9.16612
G1 X61.183 Y78.756 E9.19693
G1 X61.42 Y78.539 E9.21292
M204 S5000
G0 F2400 X61.68 Y78.841
M204 S200
G1 F1200 X62.053 Y78.52 E9.23741
G1 X62.527 Y78.165 E9.26688
G1 X62.985 Y77.905 E9.29309
G1 X63.46 Y77.672 E9.31942
G1 X64.008 Y77.448 E9.34888
G1 X64.634 Y77.289 E9.38102
G1 X65.265 Y77.178 E9.41291
G1 X66.027 Y77.112 E9.45097
G1 X118.973 Y77.113 E12.08585
G1 X119.564 Y77.153 E12.11533
G1 X120.035 Y77.243 E12.1392
G1 X120.943 Y77.469 E12.18576
G1 X121.507 Y77.651 E12.21526
G1 X122.042 Y77.907 E12.24477
G1 X122.375 Y78.114 E12.26428
G1 X122.802 Y78.408 E12.29008
G1 X123.266 Y78.777 E12.31959
G1 X123.635 Y79.155 E12.34588
G1 X123.953 Y79.523 E12.37008
G1 X124.309 Y79.997 E12.39958
G1 X124.622 Y80.563 E12.43177
G1 X124.966 Y81.312 E12.47279
G1 X125.211 Y81.988 E12.50857
G1 X126.083 Y85.178 E12.67314
G1 X126.187 Y85.663 E12.69783
G1 X126.647 Y88.629 E12.8472
G1 X126.689 Y89.014 E12.86647
G1 X126.851 Y91.472 E12.98906
G1 X126.859 Y91.899 E13.01031
G1 X126.749 Y95.391 E13.18418
G1 X126.706 Y95.883 E13.20876
G1 X126.264 Y98.935 E13.36223
G1 X126.184 Y99.346 E13.38307
G1 X125.536 Y102.004 E13.51922
G1 X125.421 Y102.395 E13.5395
G1 X125.016 Y103.571 E13.6014
G1 X124.786 Y104.117 E13.63088
G1 X124.642 Y104.38 E13.6458
G1 X124.235 Y105.067 E13.68554
G1 X123.899 Y105.556 E13.71507
G1 X123.326 Y106.154 E13.75628
G1 X122.959 Y106.471 E13.78042
G1 X122.486 Y106.827 E13.80988
G1 X122.028 Y107.087 E13.83609
G1 X121.547 Y107.324 E13.86277
G1 X120.999 Y107.55 E13.89227
G1 X120.194 Y107.737 E13.9334
G1 X119.315 Y107.856 E13.97754
G1 X118.724 Y107.896 E14.00702
G1 X65.983 Y107.884 E16.6317
G1 X65.384 Y107.843 E16.66158
G1 X64.919 Y107.779 E16.68494
G1 X64.339 Y107.659 E16.71442
G1 X63.878 Y107.502 E16.73865
G1 X63.418 Y107.317 E16.76333
G1 X62.885 Y107.06 E16.79277
G1 X62.454 Y106.781 E16.81832
G1 X62.031 Y106.47 E16.84445
G1 X61.579 Y106.087 E16.87394
G1 X61.186 Y105.653 E16.90307
G1 X60.866 Y105.248 E16.92876
G1 X60.531 Y104.759 E16.95826
G1 X60.249 Y104.194 E16.98968
G1 X59.891 Y103.323 E17.03655
G1 X59.711 Y102.79 E17.06454
G1 X58.922 Y99.849 E17.21608
G1 X58.825 Y99.39 E17.23943
G1 X58.362 Y96.432 E17.38843
G1 X58.317 Y96.014 E17.40935
G1 X58.129 Y92.86 E17.56659
G1 X58.126 Y92.399 E17.58953
G1 X58.257 Y89.511 E17.7334
G1 X58.298 Y89.076 E17.75514
G1 X58.737 Y86.061 E17.90677
G1 X58.816 Y85.654 E17.9274
G1 X59.464 Y82.996 E18.06355
G1 X59.579 Y82.605 E18.08383
G1 X59.984 Y81.429 E18.14573
G1 X60.214 Y80.883 E18.17522
G1 X60.358 Y80.62 E18.19014
G1 X60.765 Y79.933 E18.22988
G1 X61.101 Y79.444 E18.2594
G1 X61.68 Y78.841 E18.30101
M204 S5000
G0 F2400 X61.94 Y79.144
M204 S200
G1 F1200 X62.313 Y78.823 E18.3255
G1 X62.767 Y78.485 E18.35366
G1 X63.16 Y78.264 E18.3761
G1 X63.635 Y78.031 E18.40243
G1 X64.159 Y77.818 E18.43058
G1 X64.703 Y77.682 E18.45849
G1 X65.334 Y77.571 E18.49037
G1 X66.027 Y77.511 E18.52499
G1 X118.973 Y77.512 E21.15987
G1 X119.537 Y77.552 E21.18801
G1 X119.939 Y77.63 E21.20839
G1 X120.847 Y77.856 E21.25495
G1 X121.384 Y78.031 E21.28306
G1 X121.891 Y78.28 E21.31117
G1 X122.148 Y78.443 E21.32631
G1 X122.575 Y78.737 E21.35211
G1 X123.017 Y79.09 E21.38026
G1 X123.333 Y79.416 E21.40286
G1 X123.651 Y79.784 E21.42706
G1 X123.989 Y80.237 E21.45519
G1 X124.259 Y80.729 E21.48312
G1 X124.603 Y81.478 E21.52414
G1 X124.827 Y82.093 E21.55671
G1 X125.699 Y85.283 E21.72129
G1 X125.793 Y85.724 E21.74373
G1 X126.253 Y88.69 E21.89309
G1 X126.291 Y89.04 E21.91061
G1 X126.453 Y91.498 E22.0332
G1 X126.46 Y91.887 E22.05257
G1 X126.35 Y95.379 E22.22643
G1 X126.311 Y95.826 E22.24876
G1 X125.869 Y98.878 E22.40223
G1 X125.796 Y99.252 E22.42119
G1 X125.148 Y101.91 E22.55735
G1 X125.044 Y102.265 E22.57576
G1 X124.639 Y103.441 E22.63765
G1 X124.299 Y104.177 E22.678
G1 X123.892 Y104.864 E22.71774
G1 X123.57 Y105.328 E22.74584
G1 X123.065 Y105.852 E22.78206
G1 X122.698 Y106.169 E22.80619
G1 X122.246 Y106.507 E22.83428
G1 X121.852 Y106.729 E22.85679
G1 X121.371 Y106.966 E22.88347
G1 X120.848 Y107.18 E22.91159
G1 X120.14 Y107.342 E22.94774
G1 X119.261 Y107.461 E22.99188
G1 X118.724 Y107.497 E23.01867
G1 X65.983 Y107.485 E25.64335
G1 X65.439 Y107.448 E25.67048
G1 X64.974 Y107.384 E25.69384
G1 X64.421 Y107.267 E25.72197
G1 X64.027 Y107.132 E25.7427
G1 X63.567 Y106.947 E25.76737
G1 X63.059 Y106.7 E25.79548
G1 X62.691 Y106.459 E25.81737
G1 X62.268 Y106.148 E25.8435
G1 X61.837 Y105.782 E25.87164
G1 X61.499 Y105.406 E25.8968
G1 X61.179 Y105.001 E25.92249
G1 X60.861 Y104.533 E25.95065
G1 X60.618 Y104.042 E25.97791
G1 X60.26 Y103.171 E26.02478
G1 X60.097 Y102.687 E26.05019
G1 X59.308 Y99.746 E26.20173
G1 X59.219 Y99.328 E26.22299
G1 X58.756 Y96.37 E26.37199
G1 X58.715 Y95.99 E26.39101
G1 X58.527 Y92.836 E26.54825
G1 X58.524 Y92.417 E26.56911
G1 X58.655 Y89.529 E26.71298
G1 X58.693 Y89.134 E26.73272
G1 X59.132 Y86.119 E26.88435
G1 X59.204 Y85.748 E26.90316
G1 X59.852 Y83.09 E27.03931
G1 X59.956 Y82.735 E27.05772
G1 X60.361 Y81.559 E27.11961
G1 X60.701 Y80.823 E27.15996
G1 X61.108 Y80.136 E27.1997
G1 X61.43 Y79.672 E27.22781
G1 X61.94 Y79.144 E27.26434
M204 S5000
G0 F2400 X62.2 Y79.446
M204 S200
G1 F1200 X62.573 Y79.125 E27.28883
G1 X63.005 Y78.807 E27.31552
G1 X63.336 Y78.622 E27.33439
G1 X63.811 Y78.389 E27.36072
G1 X64.309 Y78.189 E27.38743
G1 X64.772 Y78.075 E27.41116
G1 X65.403 Y77.964 E27.44304
G1 X66.027 Y77.91 E27.47421
G1 X118.973 Y77.911 E30.1091
G1 X119.508 Y77.951 E30.1358
G1 X119.842 Y78.018 E30.15275
G1 X120.75 Y78.244 E30.19931
G1 X121.26 Y78.411 E30.22602
G1 X121.922 Y78.772 E30.26355
G1 X122.349 Y79.066 E30.28935
G1 X122.767 Y79.402 E30.31603
G1 X123.031 Y79.677 E30.33501
G1 X123.349 Y80.045 E30.35921
G1 X123.669 Y80.476 E30.38592
G1 X123.897 Y80.896 E30.40971
G1 X124.241 Y81.645 E30.45072
G1 X124.442 Y82.198 E30.48001
G1 X125.314 Y85.388 E30.64458
G1 X125.398 Y85.785 E30.66478
G1 X125.858 Y88.751 E30.81415
G1 X125.893 Y89.066 E30.82992
G1 X126.055 Y91.524 E30.95251
G1 X126.061 Y91.874 E30.96993
G1 X125.951 Y95.366 E31.1438
G1 X125.916 Y95.769 E31.16393
G1 X125.474 Y98.821 E31.31739
G1 X125.409 Y99.157 E31.33443
G1 X124.761 Y101.815 E31.47058
G1 X124.667 Y102.135 E31.48717
G1 X124.262 Y103.311 E31.54907
G1 X123.955 Y103.973 E31.58539
G1 X123.548 Y104.66 E31.62513
G1 X123.241 Y105.1 E31.65183
G1 X122.805 Y105.55 E31.68301
G1 X122.438 Y105.867 E31.70714
G1 X122.007 Y106.186 E31.73383
G1 X121.676 Y106.371 E31.7527
G1 X121.195 Y106.608 E31.77938
G1 X120.697 Y106.809 E31.80611
G1 X120.087 Y106.946 E31.83722
G1 X119.208 Y107.065 E31.88136
G1 X118.724 Y107.098 E31.90551
G1 X65.983 Y107.086 E34.53019
G1 X65.493 Y107.052 E34.55463
G1 X65.028 Y106.988 E34.57799
G1 X64.504 Y106.876 E34.60466
G1 X64.176 Y106.762 E34.62194
G1 X63.716 Y106.577 E34.64661
G1 X63.235 Y106.341 E34.67327
G1 X62.927 Y106.138 E34.69163
G1 X62.504 Y105.827 E34.71776
G1 X62.097 Y105.478 E34.74444
G1 X61.812 Y105.158 E34.76577
G1 X61.492 Y104.753 E34.79145
G1 X61.192 Y104.309 E34.81812
G1 X60.987 Y103.89 E34.84133
G1 X60.629 Y103.019 E34.8882
G1 X60.482 Y102.584 E34.91105
G1 X59.693 Y99.643 E35.06258
G1 X59.613 Y99.267 E35.08172
G1 X59.15 Y96.309 E35.23071
G1 X59.113 Y95.966 E35.24788
G1 X58.925 Y92.812 E35.40512
G1 X58.923 Y92.435 E35.42388
G1 X59.054 Y89.547 E35.56775
G1 X59.088 Y89.191 E35.58555
G1 X59.527 Y86.176 E35.73718
G1 X59.591 Y85.843 E35.75405
G1 X60.239 Y83.185 E35.8902
G1 X60.333 Y82.865 E35.9068
G1 X60.738 Y81.689 E35.9687
G1 X61.045 Y81.027 E36.00501
G1 X61.452 Y80.34 E36.04475
G1 X61.759 Y79.9 E36.07145
G1 X62.2 Y79.446 E36.10295
M204 S5000
G0 F2400 X62.461 Y79.749
M204 S200
G1 F1200 X62.834 Y79.428 E36.12744
G1 X63.242 Y79.129 E36.15261
G1 X63.512 Y78.98 E36.16796
G1 X63.987 Y78.747 E36.19429
G1 X64.457 Y78.561 E36.21944
G1 X64.842 Y78.468 E36.23915
G1 X65.473 Y78.357 E36.27104
G1 X66.027 Y78.309 E36.29871
G1 X118.973 Y78.31 E38.93359
G1 X119.477 Y78.35 E38.95875
G1 X119.746 Y78.405 E38.97242
G1 X120.654 Y78.631 E39.01898
G1 X121.133 Y78.791 E39.04412
G1 X121.696 Y79.1 E39.07608
G1 X122.123 Y79.394 E39.10188
G1 X122.515 Y79.713 E39.12703
G1 X122.729 Y79.938 E39.14248
G1 X123.047 Y80.306 E39.16668
G1 X123.347 Y80.713 E39.19185
G1 X123.534 Y81.062 E39.21155
G1 X123.878 Y81.811 E39.25257
G1 X124.057 Y82.303 E39.27862
G1 X124.929 Y85.493 E39.4432
G1 X125.004 Y85.847 E39.46121
G1 X125.464 Y88.813 E39.61058
G1 X125.495 Y89.093 E39.6246
G1 X125.657 Y91.551 E39.74719
G1 X125.662 Y91.862 E39.76266
G1 X125.552 Y95.354 E39.93653
G1 X125.521 Y95.712 E39.95441
G1 X125.079 Y98.764 E40.10788
G1 X125.021 Y99.063 E40.12304
G1 X124.373 Y101.721 E40.25919
G1 X124.29 Y102.005 E40.27392
G1 X123.885 Y103.181 E40.33581
G1 X123.612 Y103.77 E40.36812
G1 X123.205 Y104.457 E40.40786
G1 X122.914 Y104.87 E40.433
G1 X122.544 Y105.248 E40.45932
G1 X122.177 Y105.565 E40.48346
G1 X121.769 Y105.864 E40.50863
G1 X121.499 Y106.013 E40.52398
G1 X121.018 Y106.25 E40.55066
G1 X120.549 Y106.437 E40.57579
G1 X120.033 Y106.551 E40.60209
G1 X119.154 Y106.67 E40.64623
G1 X118.724 Y106.699 E40.66768
G1 X65.983 Y106.687 E43.29236
G1 X65.548 Y106.657 E43.31406
G1 X65.083 Y106.593 E43.33742
G1 X64.589 Y106.485 E43.36258
G1 X64.325 Y106.392 E43.37651
G1 X63.865 Y106.207 E43.40119
G1 X63.412 Y105.982 E43.42636
G1 X63.163 Y105.816 E43.44125
G1 X62.74 Y105.505 E43.46738
G1 X62.358 Y105.174 E43.49253
G1 X62.125 Y104.911 E43.51002
G1 X61.805 Y104.506 E43.53571
G1 X61.524 Y104.086 E43.56085
G1 X61.356 Y103.739 E43.58004
G1 X60.998 Y102.868 E43.62691
G1 X60.867 Y102.48 E43.64729
G1 X60.078 Y99.539 E43.79882
G1 X60.007 Y99.205 E43.81581
G1 X59.544 Y96.247 E43.96481
G1 X59.512 Y95.942 E43.98007
G1 X59.324 Y92.788 E44.13731
G1 X59.321 Y92.453 E44.15399
G1 X59.452 Y89.565 E44.29786
G1 X59.482 Y89.249 E44.31365
G1 X59.921 Y86.234 E44.46528
G1 X59.979 Y85.937 E44.48034
G1 X60.627 Y83.279 E44.61649
G1 X60.71 Y82.995 E44.63121
G1 X61.115 Y81.819 E44.69311
G1 X61.388 Y81.23 E44.72542
G1 X61.795 Y80.543 E44.76516
G1 X62.086 Y80.13 E44.7903
G1 X62.461 Y79.749 E44.8169
M204 S5000
G1 F1500 E42.8169
G0 F2400 X63.555 Y82.556
G0 X63.584 Y82.63
G0 X66.203 Y89.345
G0 X66.232 Y89.419
G0 X66.319 Y89.64
M204 S200
;TYPE:SUPPORT
G1 F1500 E44.8169
G1 F1200 X66.913 Y89.462 E44.84776
G1 X67.51 Y89.405 E44.87761
G1 X68.089 Y89.465 E44.90658
G1 X68.689 Y89.645 E44.93775
G1 X69.224 Y89.93 E44.96792
G1 X69.688 Y90.313 E44.99786
G1 X70.112 Y90.852 E45.03199
G1 X70.36 Y91.322 E45.05843
G1 X70.531 Y91.89 E45.08795
G1 X70.59 Y92.51 E45.11895
G1 X70.529 Y93.131 E45.15
G1 X70.363 Y93.68 E45.17854
G1 X70.074 Y94.219 E45.20898
G1 X69.705 Y94.67 E45.23798
G1 X69.218 Y95.074 E45.26947
G1 X68.671 Y95.365 E45.3003
G1 X68.073 Y95.539 E45.33129
G1 X67.501 Y95.596 E45.3599
G1 X66.948 Y95.541 E45.38756
G1 X66.309 Y95.358 E45.42064
G1 X65.765 Y95.062 E45.45146
G1 X65.334 Y94.709 E45.47918
G1 X65.118 Y94.452 E45.49589
G1 X64.907 Y94.183 E45.5129
G1 X64.637 Y93.677 E45.54144
G1 X64.467 Y93.118 E45.57052
G1 X64.409 Y92.476 E45.6026
G1 X64.467 Y91.885 E45.63215
G1 X64.644 Y91.313 E45.66195
G1 X64.928 Y90.784 E45.69183
G1 X65.322 Y90.303 E45.72277
G1 X65.792 Y89.924 E45.75282
G1 X66.319 Y89.64 E45.78261
M204 S5000
G0 F2400 X66.4 Y89.783
M204 S200
G1 F1200 X66.4 Y95.217 E46.05304
M204 S5000
G0 F2400 X66.354 Y95.2
M204 S200
G1 F1200 X68.641 Y95.2 E46.16685
M204 S5000
G0 F2400 X68.8 Y95.116
M204 S200
G1 F1200 X68.8 Y89.886 E46.42713
M204 S5000
G0 F2400 X68 Y89.618
M204 S200
G1 F1200 X68 Y95.386 E46.71417
M204 S5000
G0 F2400 X67.2 Y95.405
M204 S200
G1 F1200 X67.2 Y89.595 E47.00331
M204 S5000
G0 F2400 X67.154 Y89.6
M204 S200
G1 F1200 X67.836 Y89.6 E47.03725
M204 S5000
G0 F2400 X69.543 Y90.4
M204 S200
G1 F1200 X65.456 Y90.4 E47.24064
M204 S5000
G0 F2400 X65.6 Y90.284
M204 S200
G1 F1200 X65.6 Y94.72 E47.4614
M204 S5000
G0 F2400 X65.282 Y94.4
M204 S200
G1 F1200 X69.72 Y94.4 E47.68226
M204 S5000
G0 F2400 X69.6 Y94.547
M204 S200
G1 F1200 X69.6 Y90.46 E47.88565
M204 S5000
G0 F2400 X70.115 Y91.2
M204 S200
G1 F1200 X64.885 Y91.2 E48.14593
M204 S5000
G0 F2400 X64.8 Y91.36
M204 S200
G1 F1200 X64.8 Y93.641 E48.25944
M204 S5000
G0 F2400 X64.779 Y93.6
M204 S200
G1 F1200 X70.22 Y93.6 E48.53021
M204 S5000
G0 F2400 X70.4 Y92.806
M204 S200
G1 F1200 X70.4 Y92.207 E48.56002
M204 S5000
G0 F2400 X70.381 Y92
M204 S200
G1 F1200 X64.616 Y92 E48.84692
M204 S5000
G0 F2400 X64.598 Y92.8
M204 S200
G1 F1200 X70.4 Y92.8 E49.13566
M204 S5000
G1 F1500 E47.13566
G0 F2400 X70.801 Y92.797
G0 X70.881 Y92.796
G0 X73.785 Y92.776
G0 X73.864 Y88.443
G0 X81.136 Y88.443
G0 X81.213 Y92.726
G0 X90.977 Y92.66
G0 X91.071 Y92.787
G0 X93.929 Y92.787
G0 X94.022 Y92.639
G0 X103.785 Y92.573
G0 X103.864 Y88.443
G0 X111.136 Y88.443
G0 X111.214 Y92.522
G0 X114.087 Y92.503
G0 X114.167 Y92.502
G0 X114.41 Y92.501
M204 S200
G1 F1500 E49.13566
G1 F1200 X114.471 Y91.872 E49.16711
G1 X114.646 Y91.309 E49.19645
G1 X114.929 Y90.778 E49.2264
G1 X115.321 Y90.302 E49.25708
G1 X115.772 Y89.937 E49.28596
G1 X116.325 Y89.637 E49.31727
G1 X116.93 Y89.46 E49.34864
G1 X117.504 Y89.406 E49.37733
G1 X118.081 Y89.464 E49.40619
G1 X118.703 Y89.649 E49.43848
G1 X119.231 Y89.933 E49.46832
G1 X119.703 Y90.329 E49.49898
G1 X120.086 Y90.803 E49.5293
G1 X120.36 Y91.322 E49.55851
G1 X120.538 Y91.911 E49.58913
G1 X120.594 Y92.482 E49.61769
