;FLAVOR:Marlin
;TIME:3998
;Filament used: 2.40946m
;Layer height: 0.2
;Generated with Cura_SteamEngine 2.7.0
M190 S60
M104 S220
M109 S220
G21 ;metric values
G90 ;absolute positioning
M82 ;set extruder to absolute mode
M107 ;start with the fan off
G92 E0 ;zero the extruded length
G1 F200 E3 ;extrude 3mm of feed stock
G92 E0 ;zero the extruded length again
G1 F9000
M301 P26.92 I2.54 D71.46 ;set PID tuning for E0
M117 Printing...
;LAYER_COUNT:35
;LAYER:0
M107
M204 S5000
G0 F2400 X57.135 Y58.579 Z0.3
G0 X57.369 Y58.355
M204 S200
;TYPE:SKIRT
G1 F1200 X59.091 Y56.814 E0.115
G1 X59.802 Y56.287 E0.15904
G1 X64.451 Y53.467 E0.42964
G1 X65 Y53.181 E0.46045
G1 X65.581 Y52.968 E0.49124
G1 X66.185 Y52.832 E0.52205
G1 X66.938 Y52.772 E0.55964
G1 X68.082 Y52.772 E0.61658
G1 X68.598 Y52.8 E0.64229
G1 X70.401 Y52.995 E0.73254
G1 X75.855 Y53.388 E1.00467
G1 X81.213 Y53.472 E1.27134
G1 X86.632 Y53.248 E1.54125
G1 X92.163 Y52.78 E1.81749
G1 X92.987 Y52.781 E1.8585
G1 X98.137 Y53.232 E2.11577
G1 X103.516 Y53.467 E2.38371
G1 X108.928 Y53.399 E2.65307
G1 X114.316 Y53.023 E2.92185
G1 X116.403 Y52.8 E3.02631
G1 X116.917 Y52.773 E3.05192
G1 X118.081 Y52.774 E3.10985
G1 X118.699 Y52.814 E3.14067
G1 X119.306 Y52.934 E3.17146
G1 X119.893 Y53.131 E3.20227
G1 X120.566 Y53.47 E3.23977
G1 X125.178 Y56.27 E3.50828
G1 X125.875 Y56.785 E3.55141
G1 X126.557 Y57.391 E3.59681
G1 X126.603 Y57.433 E3.59991
G1 X127.641 Y58.38 E3.66983
G1 X128.071 Y58.826 E3.70067
G1 X128.439 Y59.323 E3.73144
G1 X128.741 Y59.864 E3.76228
G1 X128.97 Y60.439 E3.79308
G1 X129.123 Y61.039 E3.82389
G1 X129.205 Y61.953 E3.86956
G1 X129.195 Y63.576 E3.95033
G1 X129.184 Y63.872 E3.96507
G1 X128.871 Y68.466 E4.19422
G1 X128.796 Y73.866 E4.46298
G1 X129.027 Y79.287 E4.73301
G1 X129.211 Y81.518 E4.84441
G1 X129.226 Y82.023 E4.86955
G1 X129.186 Y83.758 E4.95592
G1 X129.176 Y83.975 E4.96673
G1 X128.876 Y88.353 E5.18511
G1 X128.793 Y93.725 E5.45249
G1 X129.018 Y99.167 E5.72354
G1 X129.226 Y102.173 E5.87349
G1 X129.228 Y102.806 E5.905
G1 X128.871 Y108.471 E6.18748
G1 X128.796 Y113.875 E6.45643
G1 X129.029 Y119.328 E6.72805
G1 X129.222 Y122.799 E6.90106
G1 X129.216 Y123.418 E6.93186
G1 X129.131 Y124.031 E6.96266
G1 X128.967 Y124.628 E6.99347
G1 X128.728 Y125.199 E7.02428
G1 X128.417 Y125.735 E7.05512
G1 X128.04 Y126.226 E7.08592
G1 X127.637 Y126.634 E7.11446
G1 X125.896 Y128.197 E7.2309
G1 X125.176 Y128.731 E7.27551
G1 X120.548 Y131.533 E7.54474
G1 X119.999 Y131.818 E7.57553
G1 X119.417 Y132.031 E7.60637
G1 X118.813 Y132.167 E7.63718
G1 X118.068 Y132.226 E7.67437
G1 X116.923 Y132.227 E7.73135
G1 X116.406 Y132.199 E7.75712
G1 X114.509 Y131.995 E7.85207
G1 X109.08 Y131.609 E8.12293
G1 X103.685 Y131.532 E8.39144
G1 X98.289 Y131.759 E8.66021
G1 X93.549 Y132.203 E8.89713
G1 X93.114 Y132.224 E8.91881
G1 X91.931 Y132.227 E8.97768
G1 X91.406 Y132.199 E9.00384
G1 X89.521 Y131.996 E9.09819
G1 X84.071 Y131.608 E9.3701
G1 X78.714 Y131.529 E9.63672
G1 X73.257 Y131.759 E9.90854
G1 X67.291 Y132.214 E10.2063
G1 X66.672 Y132.221 E10.23711
G1 X66.057 Y132.149 E10.26792
G1 X65.456 Y131.997 E10.29877
G1 X64.881 Y131.77 E10.32954
G1 X64.436 Y131.531 E10.35467
G1 X59.815 Y128.724 E10.62374
G1 X59.091 Y128.185 E10.66866
G1 X57.354 Y126.617 E10.78511
G1 X56.923 Y126.173 E10.81591
G1 X56.551 Y125.678 E10.84672
G1 X56.247 Y125.139 E10.87752
G1 X56.015 Y124.565 E10.90833
G1 X55.859 Y123.966 E10.93913
G1 X55.781 Y123.351 E10.96998
G1 X55.773 Y122.947 E10.99009
G1 X55.812 Y121.252 E11.07447
G1 X55.822 Y121.034 E11.08533
G1 X56.122 Y116.659 E11.30356
G1 X56.206 Y111.287 E11.57094
G1 X55.983 Y105.855 E11.84149
G1 X55.789 Y103.481 E11.96003
G1 X55.774 Y102.986 E11.98467
G1 X55.812 Y101.257 E12.07074
G1 X55.822 Y101.034 E12.08185
G1 X56.122 Y96.659 E12.30008
G1 X56.206 Y91.287 E12.56746
G1 X55.983 Y85.855 E12.83801
G1 X55.788 Y83.468 E12.95719
G1 X55.773 Y82.969 E12.98204
G1 X55.812 Y81.253 E13.06746
G1 X55.822 Y81.034 E13.07837
G1 X56.122 Y76.659 E13.2966
G1 X56.206 Y71.287 E13.56398
G1 X55.983 Y65.855 E13.83453
G1 X55.789 Y63.481 E13.95307
G1 X55.773 Y63.099 E13.97209
G1 X55.771 Y61.937 E14.02992
G1 X55.81 Y61.319 E14.06074
G1 X55.928 Y60.712 E14.09151
G1 X56.124 Y60.124 E14.12236
G1 X56.393 Y59.567 E14.15314
G1 X56.732 Y59.049 E14.18395
G1 X57.135 Y58.579 E14.21476
G1 X57.369 Y58.355 E14.23088
M204 S5000
G0 F2400 X57.635 Y58.652
M204 S200
G1 F1200 X59.357 Y57.111 E14.34588
G1 X60.009 Y56.629 E14.38623
G1 X64.658 Y53.809 E14.65683
G1 X65.184 Y53.536 E14.68632
G1 X65.742 Y53.337 E14.7158
G1 X66.322 Y53.214 E14.74531
G1 X66.938 Y53.171 E14.77604
G1 X68.082 Y53.171 E14.83297
G1 X68.555 Y53.196 E14.85654
G1 X70.386 Y53.394 E14.94819
G1 X75.837 Y53.787 E15.22017
G1 X81.223 Y53.871 E15.48824
G1 X86.659 Y53.647 E15.75899
G1 X92.197 Y53.178 E16.03558
G1 X92.952 Y53.179 E16.07315
G1 X98.084 Y53.629 E16.32953
G1 X103.521 Y53.866 E16.60036
G1 X108.944 Y53.797 E16.87026
G1 X114.357 Y53.42 E17.14029
G1 X116.445 Y53.197 E17.24479
G1 X116.917 Y53.172 E17.26832
G1 X118.081 Y53.173 E17.32624
G1 X118.672 Y53.213 E17.35572
G1 X119.253 Y53.333 E17.38525
G1 X119.812 Y53.53 E17.41474
G1 X120.359 Y53.811 E17.44535
G1 X124.971 Y56.611 E17.71385
G1 X125.61 Y57.083 E17.75339
G1 X126.292 Y57.689 E17.79879
G1 X126.335 Y57.728 E17.80168
G1 X127.373 Y58.675 E17.8716
G1 X127.782 Y59.103 E17.90106
G1 X128.131 Y59.582 E17.93056
G1 X128.412 Y60.104 E17.96006
G1 X128.62 Y60.659 E17.98956
G1 X128.752 Y61.237 E18.01906
G1 X128.806 Y61.95 E18.05465
G1 X128.796 Y63.573 E18.13542
G1 X128.786 Y63.845 E18.14896
G1 X128.472 Y68.452 E18.37876
G1 X128.397 Y73.877 E18.64877
G1 X128.628 Y79.312 E18.91949
G1 X128.813 Y81.551 E19.03129
G1 X128.827 Y82.013 E19.05429
G1 X128.787 Y83.748 E19.14066
G1 X128.778 Y83.948 E19.15062
G1 X128.477 Y88.339 E19.36966
G1 X128.394 Y93.736 E19.63827
G1 X128.62 Y99.212 E19.91102
G1 X128.827 Y102.201 E20.06012
G1 X128.829 Y102.781 E20.08899
G1 X128.473 Y108.441 E20.37122
G1 X128.397 Y113.887 E20.64227
G1 X128.633 Y119.397 E20.91673
G1 X128.823 Y122.821 E21.08739
G1 X128.816 Y123.414 E21.1169
G1 X128.729 Y124 E21.14638
G1 X128.565 Y124.569 E21.17585
G1 X128.325 Y125.111 E21.20535
G1 X128.014 Y125.616 E21.23486
G1 X127.638 Y126.075 E21.26439
G1 X127.37 Y126.337 E21.28304
G1 X125.629 Y127.9 E21.39948
G1 X124.969 Y128.389 E21.44036
G1 X120.341 Y131.191 E21.70959
G1 X119.815 Y131.463 E21.73906
G1 X119.256 Y131.662 E21.76859
G1 X118.676 Y131.784 E21.79809
G1 X118.068 Y131.827 E21.82842
G1 X116.923 Y131.828 E21.8854
G1 X116.449 Y131.803 E21.90902
G1 X114.526 Y131.596 E22.00528
G1 X109.096 Y131.21 E22.27618
G1 X103.674 Y131.133 E22.54604
G1 X98.275 Y131.36 E22.81496
G1 X93.512 Y131.806 E23.05303
G1 X93.113 Y131.825 E23.07291
G1 X91.93 Y131.828 E23.13178
G1 X91.448 Y131.803 E23.1558
G1 X89.533 Y131.597 E23.25165
G1 X84.106 Y131.21 E23.52242
G1 X78.685 Y131.131 E23.79222
G1 X73.238 Y131.36 E24.06354
G1 X67.26 Y131.816 E24.3619
G1 X66.668 Y131.821 E24.39136
G1 X66.08 Y131.747 E24.42085
G1 X65.507 Y131.594 E24.45037
G1 X64.96 Y131.365 E24.47988
G1 X64.643 Y131.19 E24.4979
G1 X60.022 Y128.383 E24.76697
G1 X59.359 Y127.889 E24.80811
G1 X57.622 Y126.321 E24.92457
G1 X57.209 Y125.895 E24.95409
G1 X56.858 Y125.417 E24.98361
G1 X56.574 Y124.897 E25.01309
G1 X56.363 Y124.343 E25.0426
G1 X56.229 Y123.766 E25.07207
G1 X56.172 Y122.956 E25.11248
G1 X56.211 Y121.261 E25.19686
G1 X56.22 Y121.061 E25.20682
G1 X56.521 Y116.673 E25.42571
G1 X56.605 Y111.277 E25.69427
G1 X56.382 Y105.833 E25.96542
G1 X56.187 Y103.449 E26.08446
G1 X56.173 Y102.994 E26.10711
G1 X56.211 Y101.265 E26.19318
G1 X56.22 Y101.061 E26.20334
G1 X56.521 Y96.673 E26.42223
G1 X56.605 Y91.277 E26.69079
G1 X56.382 Y85.833 E26.96194
G1 X56.186 Y83.436 E27.08163
G1 X56.172 Y82.978 E27.10443
G1 X56.211 Y81.262 E27.18985
G1 X56.22 Y81.061 E27.19987
G1 X56.521 Y76.673 E27.41875
G1 X56.605 Y71.277 E27.68732
G1 X56.382 Y65.833 E27.95847
G1 X56.187 Y63.449 E28.0775
G1 X56.172 Y63.099 E28.09494
G1 X56.17 Y61.937 E28.15277
G1 X56.209 Y61.345 E28.18229
G1 X56.327 Y60.764 E28.21179
G1 X56.522 Y60.205 E28.24126
G1 X56.791 Y59.676 E28.27079
G1 X57.128 Y59.189 E28.30026
G1 X57.635 Y58.652 E28.33702
M204 S5000
G0 F2400 X57.901 Y58.95
M204 S200
G1 F1200 X59.623 Y57.409 E28.45202
G1 X60.216 Y56.97 E28.48873
G1 X64.865 Y54.15 E28.75933
G1 X65.367 Y53.891 E28.78744
G1 X65.901 Y53.707 E28.81555
G1 X66.456 Y53.599 E28.84369
G1 X66.938 Y53.57 E28.86772
G1 X68.082 Y53.57 E28.92465
G1 X68.512 Y53.593 E28.94608
G1 X70.34 Y53.791 E29.03758
G1 X75.803 Y54.185 E29.31016
G1 X81.233 Y54.269 E29.58042
G1 X86.687 Y54.044 E29.85207
G1 X92.231 Y53.575 E30.12895
G1 X92.917 Y53.576 E30.16309
G1 X98.077 Y54.028 E30.42087
G1 X103.509 Y54.266 E30.69145
G1 X108.958 Y54.196 E30.96265
G1 X114.403 Y53.817 E31.23428
G1 X116.488 Y53.594 E31.33863
G1 X116.916 Y53.571 E31.35996
G1 X118.08 Y53.572 E31.41789
G1 X118.644 Y53.612 E31.44602
G1 X119.197 Y53.732 E31.47418
G1 X119.727 Y53.928 E31.50231
G1 X120.152 Y54.153 E31.52624
G1 X124.764 Y56.953 E31.79474
G1 X125.345 Y57.381 E31.83065
G1 X126.027 Y57.987 E31.87606
G1 X126.066 Y58.022 E31.87867
G1 X127.104 Y58.969 E31.94859
G1 X127.493 Y59.379 E31.97672
G1 X127.821 Y59.839 E32.00483
G1 X128.081 Y60.341 E32.03297
G1 X128.267 Y60.875 E32.06111
G1 X128.376 Y61.429 E32.08921
G1 X128.407 Y61.948 E32.11508
G1 X128.397 Y63.571 E32.19585
G1 X128.388 Y63.818 E32.20815
G1 X128.074 Y68.437 E32.43855
G1 X127.997 Y73.888 E32.70985
G1 X128.23 Y79.337 E32.98127
G1 X128.415 Y81.584 E33.09347
G1 X128.428 Y82.004 E33.11438
G1 X128.388 Y83.739 E33.20075
G1 X128.38 Y83.92 E33.20976
G1 X128.079 Y88.305 E33.4285
G1 X127.996 Y93.745 E33.69925
G1 X128.223 Y99.255 E33.97369
G1 X128.429 Y102.228 E34.122
G1 X128.431 Y102.756 E34.14828
G1 X128.074 Y108.43 E34.4312
G1 X127.997 Y113.898 E34.70335
G1 X128.232 Y119.372 E34.97602
G1 X128.425 Y122.843 E35.14902
G1 X128.416 Y123.408 E35.17714
G1 X128.328 Y123.966 E35.20525
G1 X128.162 Y124.507 E35.23341
G1 X127.921 Y125.018 E35.26153
G1 X127.611 Y125.491 E35.28968
G1 X127.104 Y126.04 E35.32686
G1 X125.363 Y127.603 E35.4433
G1 X124.763 Y128.048 E35.48047
G1 X120.135 Y130.85 E35.74971
G1 X119.632 Y131.108 E35.77785
G1 X119.097 Y131.292 E35.806
G1 X118.542 Y131.399 E35.83413
G1 X118.067 Y131.428 E35.85781
G1 X116.922 Y131.429 E35.91479
G1 X116.491 Y131.406 E35.93627
G1 X114.566 Y131.199 E36.03262
G1 X109.113 Y130.811 E36.30468
G1 X103.663 Y130.733 E36.57593
G1 X98.26 Y130.961 E36.84505
G1 X93.475 Y131.409 E37.08422
G1 X93.112 Y131.426 E37.10231
G1 X91.929 Y131.429 E37.16118
G1 X91.491 Y131.406 E37.18301
G1 X89.578 Y131.2 E37.27876
G1 X84.122 Y130.811 E37.55097
G1 X78.674 Y130.731 E37.82212
G1 X73.221 Y130.961 E38.09373
G1 X67.23 Y131.418 E38.39274
G1 X66.665 Y131.421 E38.42086
G1 X66.105 Y131.345 E38.44899
G1 X65.561 Y131.19 E38.47714
G1 X64.85 Y130.849 E38.51638
G1 X60.229 Y128.042 E38.78545
G1 X59.626 Y127.593 E38.82286
G1 X57.889 Y126.025 E38.93931
G1 X57.497 Y125.617 E38.96747
G1 X57.167 Y125.159 E38.99556
G1 X56.905 Y124.658 E39.0237
G1 X56.715 Y124.125 E39.05186
G1 X56.603 Y123.572 E39.07994
G1 X56.571 Y122.965 E39.11019
G1 X56.61 Y121.27 E39.19456
G1 X56.618 Y121.088 E39.20363
G1 X56.919 Y116.706 E39.42222
G1 X57.003 Y111.267 E39.69292
G1 X56.779 Y105.807 E39.96487
G1 X56.584 Y103.416 E40.08425
G1 X56.572 Y103.003 E40.10482
G1 X56.61 Y101.274 E40.19088
G1 X56.618 Y101.088 E40.20015
G1 X56.919 Y96.706 E40.41873
G1 X57.003 Y91.267 E40.68944
G1 X56.779 Y85.807 E40.96139
G1 X56.583 Y83.403 E41.08142
G1 X56.571 Y82.987 E41.10213
G1 X56.61 Y81.271 E41.18755
G1 X56.618 Y81.088 E41.19667
G1 X56.919 Y76.706 E41.41525
G1 X57.003 Y71.267 E41.68596
G1 X56.779 Y65.807 E41.95791
G1 X56.584 Y63.416 E42.07729
G1 X56.571 Y63.098 E42.09313
G1 X56.569 Y61.936 E42.15096
G1 X56.608 Y61.372 E42.17909
G1 X56.726 Y60.819 E42.20723
G1 X56.921 Y60.289 E42.23534
G1 X57.189 Y59.791 E42.26348
G1 X57.524 Y59.336 E42.2916
G1 X57.901 Y58.95 E42.31845
M204 S5000
G0 F2400 X58.167 Y59.247
M204 S200
G1 F1200 X59.889 Y57.706 E42.43345
G1 X60.422 Y57.311 E42.46647
G1 X65.071 Y54.491 E42.73706
G1 X65.549 Y54.248 E42.76375
G1 X66.058 Y54.078 E42.79045
G1 X66.586 Y53.986 E42.81713
G1 X66.938 Y53.969 E42.83466
G1 X68.082 Y53.969 E42.8916
G1 X68.469 Y53.99 E42.91088
G1 X70.297 Y54.188 E43.00239
G1 X75.786 Y54.584 E43.27626
G1 X81.244 Y54.669 E43.54791
G1 X86.712 Y54.443 E43.82026
G1 X92.264 Y53.973 E44.09755
G1 X92.882 Y53.974 E44.1283
G1 X98.025 Y54.425 E44.38523
G1 X103.514 Y54.665 E44.65865
G1 X108.974 Y54.595 E44.9304
G1 X114.418 Y54.216 E45.20197
G1 X116.53 Y53.99 E45.30768
G1 X116.916 Y53.97 E45.32691
G1 X118.08 Y53.971 E45.38484
G1 X118.615 Y54.011 E45.41154
G1 X119.138 Y54.131 E45.43824
G1 X119.637 Y54.327 E45.46492
G1 X119.945 Y54.494 E45.48236
G1 X124.557 Y57.294 E45.75087
G1 X125.08 Y57.68 E45.78321
G1 X125.762 Y58.286 E45.82862
G1 X125.797 Y58.317 E45.83094
G1 X126.835 Y59.264 E45.90087
G1 X127.203 Y59.654 E45.92755
G1 X127.509 Y60.094 E45.95422
G1 X127.746 Y60.575 E45.98091
G1 X127.909 Y61.086 E46.0076
G1 X127.995 Y61.615 E46.03427
G1 X128.008 Y61.945 E46.05071
G1 X127.998 Y63.568 E46.13148
G1 X127.99 Y63.79 E46.14253
G1 X127.675 Y68.422 E46.37358
G1 X127.598 Y73.882 E46.64533
G1 X127.832 Y79.36 E46.91819
G1 X128.018 Y81.616 E47.03084
G1 X128.029 Y81.995 E47.04971
G1 X127.989 Y83.73 E47.13608
G1 X127.982 Y83.893 E47.1442
G1 X127.681 Y88.291 E47.36358
G1 X127.596 Y93.756 E47.63558
G1 X127.824 Y99.263 E47.90987
G1 X128.031 Y102.256 E48.05918
G1 X128.033 Y102.731 E48.08282
G1 X127.675 Y108.42 E48.36649
G1 X127.598 Y113.892 E48.63883
G1 X127.836 Y119.44 E48.91519
G1 X128.026 Y122.865 E49.0859
G1 X128.016 Y123.401 E49.11258
G1 X127.927 Y123.93 E49.13927
G1 X127.759 Y124.439 E49.16595
G1 X127.518 Y124.918 E49.19263
G1 X127.209 Y125.356 E49.21931
G1 X126.837 Y125.743 E49.24602
G1 X125.096 Y127.306 E49.36246
G1 X124.556 Y127.707 E49.39593
G1 X119.928 Y130.509 E49.66517
G1 X119.45 Y130.751 E49.69183
G1 X118.941 Y130.921 E49.71853
G1 X118.413 Y131.012 E49.7452
G1 X118.067 Y131.029 E49.76244
G1 X116.922 Y131.03 E49.81942
G1 X116.534 Y131.009 E49.83876
G1 X114.611 Y130.802 E49.93501
G1 X109.129 Y130.413 E50.20851
G1 X103.669 Y130.334 E50.48026
G1 X98.207 Y130.564 E50.75232
G1 X93.438 Y131.011 E50.99069
G1 X93.111 Y131.027 E51.00698
G1 X91.928 Y131.03 E51.06585
G1 X91.534 Y131.009 E51.08549
G1 X89.623 Y130.803 E51.18114
G1 X84.138 Y130.413 E51.4548
G1 X78.68 Y130.332 E51.72644
G1 X73.205 Y130.563 E51.99915
G1 X67.2 Y131.021 E52.29886
G1 X66.663 Y131.021 E52.32559
G1 X66.133 Y130.943 E52.35225
G1 X65.62 Y130.786 E52.37895
G1 X65.058 Y130.508 E52.41015
G1 X60.437 Y127.701 E52.67922
G1 X59.893 Y127.297 E52.71294
G1 X58.156 Y125.729 E52.82939
G1 X57.786 Y125.341 E52.85607
G1 X57.478 Y124.902 E52.88276
G1 X57.238 Y124.422 E52.90947
G1 X57.072 Y123.912 E52.93616
G1 X56.984 Y123.384 E52.9628
G1 X56.97 Y122.974 E52.98321
G1 X57.009 Y121.279 E53.06759
G1 X57.016 Y121.116 E53.07571
G1 X57.317 Y116.722 E53.29489
G1 X57.403 Y111.257 E53.56689
G1 X57.178 Y105.784 E53.83949
G1 X56.982 Y103.384 E53.95932
G1 X56.971 Y103.012 E53.97784
G1 X57.009 Y101.283 E54.06391
G1 X57.016 Y101.116 E54.07223
G1 X57.317 Y96.722 E54.29141
G1 X57.403 Y91.257 E54.56341
G1 X57.178 Y85.784 E54.83601
G1 X56.981 Y83.371 E54.95649
G1 X56.97 Y82.996 E54.97516
G1 X57.009 Y81.28 E55.06058
G1 X57.016 Y81.116 E55.06875
G1 X57.317 Y76.722 E55.28793
G1 X57.403 Y71.257 E55.55993
G1 X57.178 Y65.784 E55.83253
G1 X56.982 Y63.384 E55.95237
G1 X56.97 Y63.097 E55.96666
G1 X56.968 Y61.935 E56.02449
G1 X57.007 Y61.4 E56.05118
G1 X57.125 Y60.877 E56.07786
G1 X57.32 Y60.378 E56.10453
G1 X57.586 Y59.912 E56.13123
G1 X57.919 Y59.492 E56.1579
G1 X58.167 Y59.247 E56.17525
M204 S5000
G0 F2400 X58.433 Y59.544
M204 S200
G1 F1200 X60.155 Y58.003 E56.29025
G1 X60.629 Y57.652 E56.3196
G1 X65.278 Y54.832 E56.5902
G1 X65.73 Y54.605 E56.61537
G1 X66.212 Y54.451 E56.64055
G1 X66.938 Y54.368 E56.67692
G1 X68.082 Y54.368 E56.73385
G1 X68.426 Y54.387 E56.751
G1 X70.254 Y54.585 E56.8425
G1 X75.768 Y54.982 E57.11762
G1 X81.254 Y55.068 E57.39066
G1 X86.717 Y54.842 E57.66276
G1 X92.298 Y54.37 E57.9415
G1 X92.847 Y54.371 E57.96882
G1 X98.017 Y54.824 E58.22709
