;FLAVOR:Marlin
;TIME:4786
;Filament used: 3.05273m
;Layer height: 0.2
;Generated with Cura_SteamEngine 2.7.0
M190 S60
M104 S220
M109 S220
G21 ;metric values
G90 ;absolute positioning
M82 ;set extruder to absolute mode
M107 ;start with the fan off
G92 E0 ;zero the extruded length
G1 F200 E3 ;extrude 3mm of feed stock
G92 E0 ;zero the extruded length again
G1 F9000
M301 P26.92 I2.54 D71.46 ;set PID tuning for E0
M117 Printing...
;LAYER_COUNT:35
;LAYER:0
M107
M204 S5000
G0 F2400 X56.339 Y57.182 Z0.3
M204 S200
;TYPE:SKIRT
G1 F1200 X56.796 Y56.764 E0.03082
G1 X57.304 Y56.409 E0.06166
G1 X57.852 Y56.123 E0.09243
G1 X58.299 Y55.951 E0.11626
G1 X61.148 Y55.016 E0.26548
G1 X61.747 Y54.861 E0.29627
G1 X62.623 Y54.777 E0.34007
G1 X64.321 Y54.77 E0.42457
G1 X65.167 Y54.842 E0.46682
G1 X68.726 Y55.465 E0.64663
G1 X74.092 Y56.151 E0.91585
G1 X79.46 Y56.533 E1.18366
G1 X84.855 Y56.609 E1.45218
G1 X90.228 Y56.382 E1.7198
G1 X95.641 Y55.844 E1.99051
G1 X98.252 Y55.473 E2.12176
G1 X101.793 Y54.85 E2.30068
G1 X102.604 Y54.777 E2.3412
G1 X104.323 Y54.77 E2.42675
G1 X104.941 Y54.807 E2.45756
G1 X105.549 Y54.924 E2.48837
G1 X105.852 Y55.013 E2.50409
G1 X110.181 Y56.447 E2.73104
G1 X115.392 Y57.885 E3.00006
G1 X127.569 Y60.698 E3.62201
G1 X128.162 Y60.876 E3.65282
G1 X128.728 Y61.129 E3.68368
G1 X129.255 Y61.453 E3.71446
G1 X129.737 Y61.841 E3.74526
G1 X130.165 Y62.289 E3.77609
G1 X130.531 Y62.788 E3.80689
G1 X130.83 Y63.33 E3.83769
G1 X131.057 Y63.906 E3.8685
G1 X131.207 Y64.507 E3.89933
G1 X131.286 Y65.371 E3.94251
G1 X131.286 Y69.626 E4.15426
G1 X131.273 Y69.974 E4.17159
G1 X130.839 Y75.936 E4.46908
G1 X130.763 Y81.331 E4.73759
G1 X130.993 Y86.758 E5.00791
G1 X131.268 Y89.958 E5.16774
G1 X131.286 Y90.368 E5.18817
G1 X131.286 Y94.626 E5.40007
G1 X131.273 Y94.974 E5.4174
G1 X130.839 Y100.936 E5.71489
G1 X130.763 Y106.331 E5.9834
G1 X130.993 Y111.758 E6.25372
G1 X131.268 Y114.958 E6.41355
G1 X131.286 Y115.368 E6.43398
G1 X131.286 Y119.627 E6.64593
G1 X131.246 Y120.245 E6.67675
G1 X131.127 Y120.852 E6.70753
G1 X130.93 Y121.439 E6.73834
G1 X130.66 Y121.996 E6.76915
G1 X130.32 Y122.514 E6.79998
G1 X129.916 Y122.983 E6.83079
G1 X129.455 Y123.396 E6.86159
G1 X128.945 Y123.747 E6.8924
G1 X128.394 Y124.029 E6.9232
G1 X127.579 Y124.298 E6.96592
G1 X114.187 Y127.419 E7.65023
G1 X108.974 Y128.929 E7.92033
G1 X105.903 Y129.97 E8.0817
G1 X105.305 Y130.131 E8.11252
G1 X104.692 Y130.213 E8.14329
G1 X104.377 Y130.224 E8.15898
G1 X102.676 Y130.229 E8.24363
G1 X101.837 Y130.158 E8.28553
G1 X98.23 Y129.529 E8.46775
G1 X92.887 Y128.847 E8.7358
G1 X87.521 Y128.468 E9.00351
G1 X82.126 Y128.393 E9.27202
G1 X76.733 Y128.624 E9.54065
G1 X71.406 Y129.154 E9.80706
G1 X65.112 Y130.168 E10.12432
G1 X64.349 Y130.229 E10.16241
G1 X62.659 Y130.229 E10.24652
G1 X62.041 Y130.189 E10.27734
G1 X61.159 Y129.988 E10.32236
G1 X58.293 Y129.044 E10.47252
G1 X57.718 Y128.813 E10.50336
G1 X57.179 Y128.51 E10.53413
G1 X56.682 Y128.139 E10.565
G1 X56.238 Y127.708 E10.59579
G1 X55.853 Y127.224 E10.62657
G1 X55.534 Y126.693 E10.65739
G1 X55.285 Y126.126 E10.68821
G1 X55.112 Y125.532 E10.719
G1 X55.016 Y124.92 E10.74983
G1 X54.997 Y124.424 E10.77453
G1 X55.07 Y118.995 E11.04473
G1 X54.988 Y111.258 E11.42979
G1 X54.989 Y111.115 E11.43691
G1 X55.134 Y103.549 E11.8135
G1 X54.989 Y97.522 E12.11353
G1 X54.989 Y97.29 E12.12507
G1 X55.07 Y93.971 E12.29029
G1 X54.988 Y86.258 E12.67415
G1 X54.989 Y86.115 E12.68127
G1 X55.134 Y78.549 E13.05787
G1 X54.989 Y72.522 E13.35789
G1 X54.989 Y72.29 E13.36943
G1 X55.07 Y68.963 E13.53505
G1 X54.998 Y60.549 E13.9538
G1 X55.033 Y59.931 E13.9846
G1 X55.147 Y59.323 E14.01538
G1 X55.338 Y58.734 E14.0462
G1 X55.604 Y58.175 E14.07701
G1 X55.939 Y57.654 E14.10783
G1 X56.339 Y57.182 E14.13862
M204 S5000
G0 F2400 X56.733 Y57.351
M204 S200
G1 F1200 X57.186 Y56.968 E14.16814
G1 X57.686 Y56.649 E14.19766
G1 X58.423 Y56.33 E14.23762
G1 X61.272 Y55.395 E14.38685
G1 X61.846 Y55.249 E14.41632
G1 X62.625 Y55.176 E14.45526
G1 X64.323 Y55.169 E14.53976
G1 X65.099 Y55.235 E14.57852
G1 X68.675 Y55.861 E14.75919
G1 X74.047 Y56.548 E15.0287
G1 X79.444 Y56.932 E15.29797
G1 X84.866 Y57.008 E15.56782
G1 X90.266 Y56.78 E15.83679
G1 X95.666 Y56.244 E16.10685
G1 X98.316 Y55.867 E16.24006
G1 X101.862 Y55.243 E16.41923
G1 X102.606 Y55.176 E16.45641
G1 X104.325 Y55.169 E16.54196
G1 X104.917 Y55.207 E16.57148
G1 X105.726 Y55.392 E16.61278
G1 X110.046 Y56.823 E16.83925
G1 X115.31 Y58.276 E17.11102
G1 X127.48 Y61.087 E17.73261
G1 X128.047 Y61.259 E17.76209
G1 X128.586 Y61.506 E17.7916
G1 X129.087 Y61.823 E17.8211
G1 X129.54 Y62.204 E17.85056
G1 X129.939 Y62.643 E17.88008
G1 X130.274 Y63.132 E17.90958
G1 X130.541 Y63.661 E17.93907
G1 X130.734 Y64.222 E17.9686
G1 X130.85 Y64.803 E17.99808
G1 X130.887 Y65.371 E18.02641
G1 X130.887 Y69.626 E18.23816
G1 X130.875 Y69.945 E18.25405
G1 X130.44 Y75.918 E18.55208
G1 X130.364 Y81.342 E18.82204
G1 X130.594 Y86.763 E19.09206
G1 X130.871 Y89.992 E19.25334
G1 X130.887 Y90.368 E19.27207
G1 X130.887 Y94.626 E19.48397
G1 X130.875 Y94.945 E19.49986
G1 X130.44 Y100.918 E19.79789
G1 X130.364 Y106.342 E20.06785
G1 X130.594 Y111.763 E20.33787
G1 X130.871 Y114.992 E20.49915
G1 X130.887 Y115.368 E20.51788
G1 X130.887 Y119.627 E20.72983
G1 X130.847 Y120.218 E20.75931
G1 X130.728 Y120.799 E20.78883
G1 X130.532 Y121.358 E20.8183
G1 X130.262 Y121.886 E20.84782
G1 X129.924 Y122.373 E20.87732
G1 X129.523 Y122.81 E20.90683
G1 X129.068 Y123.189 E20.9363
G1 X128.565 Y123.504 E20.96584
G1 X128.025 Y123.747 E20.99531
G1 X127.488 Y123.909 E21.02322
G1 X114.1 Y127.03 E21.70735
G1 X108.848 Y128.55 E21.97944
G1 X105.775 Y129.592 E22.14092
G1 X105.202 Y129.744 E22.17042
G1 X104.376 Y129.825 E22.21173
G1 X102.675 Y129.83 E22.29638
G1 X101.906 Y129.765 E22.33479
G1 X98.308 Y129.137 E22.51655
G1 X92.912 Y128.449 E22.78726
G1 X87.537 Y128.069 E23.05541
G1 X82.114 Y127.994 E23.32532
G1 X76.711 Y128.225 E23.59445
G1 X71.354 Y128.758 E23.86236
G1 X65.049 Y129.774 E24.18018
G1 X64.349 Y129.83 E24.21512
G1 X62.659 Y129.83 E24.29923
G1 X62.068 Y129.79 E24.3287
G1 X61.283 Y129.609 E24.3688
G1 X58.417 Y128.665 E24.51896
G1 X57.868 Y128.442 E24.54845
G1 X57.354 Y128.148 E24.57792
G1 X56.884 Y127.786 E24.60744
G1 X56.467 Y127.365 E24.63693
G1 X56.11 Y126.891 E24.66646
G1 X55.821 Y126.374 E24.69594
G1 X55.603 Y125.823 E24.72543
G1 X55.462 Y125.247 E24.75494
G1 X55.396 Y124.43 E24.79573
G1 X55.469 Y118.997 E25.06613
G1 X55.387 Y111.254 E25.45148
G1 X55.388 Y111.123 E25.458
G1 X55.533 Y103.548 E25.83505
G1 X55.388 Y97.513 E26.13547
G1 X55.388 Y97.3 E26.14607
G1 X55.469 Y93.977 E26.31149
G1 X55.387 Y86.254 E26.69585
G1 X55.388 Y86.123 E26.70237
G1 X55.533 Y78.548 E27.07941
G1 X55.388 Y72.513 E27.37983
G1 X55.388 Y72.3 E27.39043
G1 X55.469 Y68.97 E27.5562
G1 X55.397 Y60.546 E27.97544
G1 X55.432 Y59.954 E28.00495
G1 X55.546 Y59.372 E28.03447
G1 X55.738 Y58.811 E28.06397
G1 X56.003 Y58.281 E28.09346
G1 X56.337 Y57.791 E28.12297
G1 X56.733 Y57.351 E28.15243
M204 S5000
G0 F2400 X57.126 Y57.53
M204 S200
G1 F1200 X57.573 Y57.184 E28.18056
G1 X58.064 Y56.904 E28.20869
G1 X58.547 Y56.709 E28.23461
G1 X61.396 Y55.774 E28.38384
G1 X61.944 Y55.636 E28.41196
G1 X62.627 Y55.575 E28.44608
G1 X64.325 Y55.568 E28.53059
G1 X65.03 Y55.628 E28.5658
G1 X68.597 Y56.252 E28.74601
G1 X74.023 Y56.946 E29.01824
G1 X79.426 Y57.331 E29.2878
G1 X84.878 Y57.408 E29.55915
G1 X90.288 Y57.179 E29.82862
G1 X95.716 Y56.64 E30.10008
G1 X98.376 Y56.262 E30.23378
G1 X101.931 Y55.636 E30.41342
G1 X102.608 Y55.575 E30.44725
G1 X104.327 Y55.568 E30.5328
G1 X104.891 Y55.606 E30.56093
G1 X105.601 Y55.771 E30.5972
G1 X109.934 Y57.207 E30.82437
G1 X115.21 Y58.662 E31.09673
G1 X127.39 Y61.476 E31.71884
G1 X127.93 Y61.641 E31.74694
G1 X128.442 Y61.882 E31.7751
G1 X128.914 Y62.192 E31.80321
G1 X129.338 Y62.565 E31.83131
G1 X129.705 Y62.995 E31.85944
G1 X130.008 Y63.472 E31.88757
G1 X130.241 Y63.987 E31.9157
G1 X130.399 Y64.53 E31.94384
G1 X130.488 Y65.371 E31.98593
G1 X130.488 Y69.626 E32.19768
G1 X130.477 Y69.916 E32.21212
G1 X130.042 Y75.901 E32.51075
G1 X129.964 Y81.353 E32.7821
G1 X130.195 Y86.79 E33.05292
G1 X130.473 Y90.026 E33.21456
G1 X130.488 Y90.368 E33.23159
G1 X130.488 Y94.626 E33.44349
G1 X130.477 Y94.916 E33.45794
G1 X130.042 Y100.901 E33.75657
G1 X129.964 Y106.353 E34.02792
G1 X130.195 Y111.79 E34.29874
G1 X130.473 Y115.026 E34.46037
G1 X130.488 Y115.368 E34.47741
G1 X130.488 Y119.627 E34.68936
G1 X130.448 Y120.191 E34.7175
G1 X130.329 Y120.743 E34.7456
G1 X130.133 Y121.273 E34.77372
G1 X129.865 Y121.771 E34.80186
G1 X129.529 Y122.225 E34.82997
G1 X129.132 Y122.628 E34.85812
G1 X128.682 Y122.97 E34.88625
G1 X128.189 Y123.246 E34.91437
G1 X127.398 Y123.521 E34.95604
G1 X113.973 Y126.65 E35.64205
G1 X108.741 Y128.165 E35.91312
G1 X105.647 Y129.214 E36.07571
G1 X105.1 Y129.357 E36.10384
G1 X104.375 Y129.426 E36.14008
G1 X102.674 Y129.431 E36.22474
G1 X101.975 Y129.371 E36.25965
G1 X98.384 Y128.744 E36.44106
G1 X92.956 Y128.052 E36.71337
G1 X87.553 Y127.671 E36.98293
G1 X82.103 Y127.594 E37.25417
G1 X76.691 Y127.826 E37.52375
G1 X71.298 Y128.363 E37.79346
G1 X64.985 Y129.38 E38.11168
G1 X64.349 Y129.431 E38.14344
G1 X62.659 Y129.431 E38.22754
G1 X62.095 Y129.391 E38.25568
G1 X61.408 Y129.23 E38.29079
G1 X58.542 Y128.286 E38.44096
G1 X58.019 Y128.072 E38.46908
G1 X57.532 Y127.786 E38.49719
G1 X57.089 Y127.434 E38.52535
G1 X56.701 Y127.024 E38.55344
G1 X56.375 Y126.562 E38.58158
G1 X56.116 Y126.059 E38.60973
G1 X55.932 Y125.525 E38.63784
G1 X55.824 Y124.97 E38.66598
G1 X55.795 Y124.435 E38.69264
G1 X55.868 Y118.998 E38.96324
G1 X55.786 Y111.25 E39.34885
G1 X55.787 Y111.13 E39.35482
G1 X55.932 Y103.545 E39.73236
G1 X55.787 Y97.503 E40.03313
G1 X55.787 Y97.309 E40.04278
G1 X55.868 Y93.982 E40.2084
G1 X55.786 Y86.25 E40.59321
G1 X55.787 Y86.13 E40.59918
G1 X55.932 Y78.545 E40.97672
G1 X55.787 Y72.503 E41.27749
G1 X55.787 Y72.309 E41.28715
G1 X55.868 Y68.976 E41.45306
G1 X55.796 Y60.542 E41.8728
G1 X55.831 Y59.978 E41.90092
G1 X55.946 Y59.425 E41.92903
G1 X56.137 Y58.893 E41.95716
G1 X56.401 Y58.393 E41.9853
G1 X56.733 Y57.936 E42.01341
G1 X57.126 Y57.53 E42.04153
M204 S5000
G0 F2400 X57.518 Y57.72
M204 S200
G1 F1200 X57.958 Y57.413 E42.06823
G1 X58.672 Y57.088 E42.10727
G1 X61.521 Y56.153 E42.25649
G1 X62.041 Y56.025 E42.28314
G1 X62.628 Y55.974 E42.31247
G1 X64.326 Y55.967 E42.39697
G1 X64.961 Y56.021 E42.42868
G1 X68.543 Y56.648 E42.60965
G1 X73.979 Y57.343 E42.88238
G1 X79.411 Y57.729 E43.15339
G1 X84.871 Y57.807 E43.42514
G1 X90.326 Y57.576 E43.69685
G1 X95.765 Y57.036 E43.96886
G1 X98.411 Y56.66 E44.10186
G1 X102 Y56.028 E44.28321
G1 X102.609 Y55.974 E44.31364
G1 X104.328 Y55.967 E44.39919
G1 X104.863 Y56.005 E44.42588
G1 X105.475 Y56.15 E44.45718
G1 X109.817 Y57.589 E44.68482
G1 X115.089 Y59.043 E44.95698
G1 X127.3 Y61.864 E45.58067
G1 X127.812 Y62.024 E45.60736
G1 X128.295 Y62.257 E45.63405
G1 X128.737 Y62.56 E45.66072
G1 X129.13 Y62.925 E45.68741
G1 X129.464 Y63.344 E45.71408
G1 X129.732 Y63.809 E45.74079
G1 X129.928 Y64.308 E45.76747
G1 X130.048 Y64.83 E45.79412
G1 X130.089 Y65.371 E45.82112
G1 X130.089 Y69.626 E46.03287
G1 X130.08 Y69.887 E46.04587
G1 X129.642 Y75.9 E46.3459
G1 X129.565 Y81.347 E46.617
G1 X129.798 Y86.818 E46.88952
G1 X130.076 Y90.06 E47.05145
G1 X130.089 Y90.368 E47.06679
G1 X130.089 Y94.626 E47.27869
G1 X130.08 Y94.887 E47.29169
G1 X129.642 Y100.9 E47.59172
G1 X129.565 Y106.347 E47.86282
G1 X129.798 Y111.818 E48.13533
G1 X130.076 Y115.06 E48.29727
G1 X130.089 Y115.368 E48.31261
G1 X130.089 Y119.627 E48.52456
G1 X130.049 Y120.162 E48.55126
G1 X129.93 Y120.685 E48.57795
G1 X129.735 Y121.184 E48.60461
G1 X129.467 Y121.649 E48.63132
G1 X129.134 Y122.069 E48.65799
G1 X128.742 Y122.434 E48.68465
G1 X128.3 Y122.738 E48.71135
G1 X127.818 Y122.972 E48.73801
G1 X127.307 Y123.132 E48.76466
G1 X113.885 Y126.26 E49.45051
G1 X108.615 Y127.786 E49.72355
G1 X105.519 Y128.836 E49.88624
G1 X105 Y128.97 E49.91292
G1 X104.374 Y129.027 E49.9442
G1 X102.673 Y129.032 E50.02885
G1 X102.043 Y128.978 E50.06032
G1 X98.437 Y128.349 E50.24248
G1 X92.999 Y127.655 E50.5153
G1 X87.569 Y127.272 E50.7862
G1 X82.109 Y127.195 E51.05795
G1 X76.651 Y127.429 E51.32981
G1 X71.247 Y127.967 E51.60008
G1 X64.922 Y128.986 E51.9189
G1 X64.349 Y129.032 E51.94751
G1 X62.659 Y129.032 E52.03161
G1 X62.124 Y128.992 E52.05831
G1 X61.533 Y128.851 E52.08855
G1 X58.667 Y127.907 E52.23871
G1 X58.172 Y127.702 E52.26538
G1 X57.712 Y127.426 E52.29207
G1 X57.299 Y127.084 E52.31876
G1 X56.941 Y126.685 E52.34544
G1 X56.647 Y126.236 E52.37215
G1 X56.422 Y125.75 E52.3988
G1 X56.272 Y125.235 E52.42549
G1 X56.194 Y124.44 E52.46525
G1 X56.267 Y118.998 E52.73609
G1 X56.185 Y111.245 E53.12195
G1 X56.186 Y111.138 E53.12727
G1 X56.331 Y103.543 E53.50531
G1 X56.186 Y97.493 E53.80648
G1 X56.186 Y97.319 E53.81514
G1 X56.267 Y93.988 E53.98095
G1 X56.185 Y86.245 E54.36631
G1 X56.186 Y86.138 E54.37164
G1 X56.331 Y78.543 E54.74967
G1 X56.186 Y72.493 E55.05084
G1 X56.186 Y72.319 E55.0595
G1 X56.268 Y68.982 E55.22562
G1 X56.195 Y60.539 E55.6458
G1 X56.23 Y60.004 E55.67248
G1 X56.345 Y59.48 E55.69918
G1 X56.536 Y58.979 E55.72586
G1 X56.799 Y58.512 E55.75254
G1 X57.129 Y58.089 E55.77924
G1 X57.518 Y57.72 E55.80592
M204 S5000
G0 F2400 X57.908 Y57.923
M204 S200
G1 F1200 X58.338 Y57.658 E55.83106
G1 X58.796 Y57.468 E55.85573
G1 X61.645 Y56.533 E56.00495
G1 X62.136 Y56.413 E56.03011
G1 X62.63 Y56.373 E56.05477
G1 X64.328 Y56.366 E56.13928
G1 X64.892 Y56.414 E56.16744
G1 X68.489 Y57.043 E56.34917
G1 X73.934 Y57.74 E56.62235
G1 X79.395 Y58.128 E56.89481
G1 X84.882 Y58.206 E57.1679
G1 X90.348 Y57.975 E57.44016
G1 X95.811 Y57.432 E57.71337
G1 X98.476 Y57.053 E57.84732
G1 X102.069 Y56.421 E58.02888
G1 X102.611 Y56.373 E58.05596
G1 X104.33 Y56.366 E58.1415
G1 X104.834 Y56.404 E58.16666
G1 X105.35 Y56.528 E58.19307
G1 X109.706 Y57.971 E58.42143
G1 X115.012 Y59.435 E58.69535
G1 X127.21 Y62.253 E59.31838
G1 X127.692 Y62.405 E59.34353
G1 X128.144 Y62.632 E59.3687
G1 X128.555 Y62.927 E59.39388
G1 X128.914 Y63.282 E59.41901
G1 X129.213 Y63.69 E59.44418
G1 X129.444 Y64.14 E59.46935
G1 X129.601 Y64.621 E59.49453
G1 X129.69 Y65.371 E59.53212
G1 X129.69 Y69.626 E59.74387
G1 X129.682 Y69.858 E59.75542
G1 X129.244 Y75.883 E60.05605
G1 X129.166 Y81.358 E60.32854
G1 X129.399 Y86.845 E60.60185
G1 X129.678 Y90.094 E60.76414
G1 X129.69 Y90.368 E60.77778
G1 X129.69 Y94.626 E60.98969
G1 X129.682 Y94.858 E61.00124
G1 X129.244 Y100.883 E61.30187
G1 X129.166 Y106.358 E61.57436
G1 X129.399 Y111.845 E61.84767
G1 X129.678 Y115.094 E62.00995
G1 X129.69 Y115.368 E62.0236
G1 X129.69 Y119.627 E62.23555
G1 X129.65 Y120.131 E62.26071
G1 X129.531 Y120.622 E62.28586
G1 X129.337 Y121.089 E62.31102
G1 X129.071 Y121.519 E62.33618
G1 X128.741 Y121.902 E62.36134
G1 X128.354 Y122.228 E62.38653
G1 X127.921 Y122.489 E62.41169
G1 X127.216 Y122.743 E62.44898
G1 X113.798 Y125.87 E63.13462
G1 X108.509 Y127.402 E63.40865
G1 X105.391 Y128.459 E63.5725
G1 X104.901 Y128.583 E63.59765
G1 X104.372 Y128.628 E63.62407
G1 X102.671 Y128.633 E63.70872
G1 X102.112 Y128.585 E63.73664
G1 X98.491 Y127.953 E63.91957
G1 X93.043 Y127.258 E64.19289
G1 X87.585 Y126.873 E64.46518
G1 X82.097 Y126.796 E64.73832
G1 X76.631 Y127.03 E65.01059
G1 X71.191 Y127.571 E65.28265
G1 X64.858 Y128.592 E65.60188
G1 X64.349 Y128.633 E65.6273
G1 X62.659 Y128.633 E65.7114
G1 X62.155 Y128.593 E65.73656
G1 X61.658 Y128.472 E65.76202
G1 X58.792 Y127.528 E65.91218
G1 X58.326 Y127.333 E65.93732
G1 X57.896 Y127.066 E65.96251
G1 X57.514 Y126.735 E65.98766
G1 X57.189 Y126.348 E66.01281
G1 X56.928 Y125.915 E66.03797
G1 X56.739 Y125.446 E66.06314
G1 X56.627 Y124.953 E66.0883
G1 X56.593 Y124.446 E66.11359
G1 X56.667 Y119 E66.38463
G1 X56.584 Y111.241 E66.77079
G1 X56.585 Y111.146 E66.77551
G1 X56.731 Y103.542 E67.154
G1 X56.585 Y97.484 E67.45557
G1 X56.585 Y97.329 E67.46328
G1 X56.666 Y93.993 E67.62935
G1 X56.584 Y86.241 E68.01515
G1 X56.585 Y86.146 E68.01988
G1 X56.731 Y78.542 E68.39837
G1 X56.585 Y72.484 E68.69993
G1 X56.585 Y72.329 E68.70765
G1 X56.667 Y68.989 E68.87391
G1 X56.594 Y60.535 E69.29465
G1 X56.63 Y60.031 E69.31979
G1 X56.744 Y59.539 E69.34492
