;FLAVOR:Marlin
;TIME:9150
;Filament used: 7.3472m
;Layer height: 0.2
;Generated with Cura_SteamEngine 2.7.0
M190 S60
M104 S220
M109 S220
G21 ;metric values
G90 ;absolute positioning
M82 ;set extruder to absolute mode
M107 ;start with the fan off
G92 E0 ;zero the extruded length
G1 F200 E3 ;extrude 3mm of feed stock
G92 E0 ;zero the extruded length again
G1 F9000
M301 P26.92 I2.54 D71.46 ;set PID tuning for E0
M117 Printing...
;LAYER_COUNT:40
;LAYER:0
M107
M204 S5000
G0 F2400 X76.057 Y46.082 Z0.3
M204 S200
;TYPE:SKIRT
G1 F1200 X76.401 Y45.567 E0.03082
G1 X76.809 Y45.102 E0.06161
G1 X77.273 Y44.692 E0.09242
G1 X77.786 Y44.346 E0.12321
G1 X78.34 Y44.068 E0.15406
G1 X78.925 Y43.865 E0.18488
G1 X79.531 Y43.738 E0.21569
G1 X80.148 Y43.69 E0.24649
G1 X80.668 Y43.712 E0.27239
G1 X85.832 Y44.211 E0.53058
G1 X91.226 Y44.435 E0.79924
G1 X96.624 Y44.354 E1.06791
G1 X99.251 Y44.203 E1.19886
G1 X104.329 Y43.711 E1.45275
G1 X104.947 Y43.692 E1.48352
G1 X105.563 Y43.752 E1.51432
G1 X106.167 Y43.891 E1.54516
G1 X106.747 Y44.106 E1.57595
G1 X107.295 Y44.395 E1.60678
G1 X107.801 Y44.751 E1.63757
G1 X108.257 Y45.17 E1.66838
G1 X108.655 Y45.644 E1.69919
G1 X108.94 Y46.079 E1.72507
G1 X111.855 Y51.106 E2.01425
G1 X111.944 Y51.266 E2.02337
G1 X114.587 Y56.253 E2.30425
G1 X117.377 Y60.929 E2.57522
G1 X118.799 Y63.142 E2.70613
G1 X118.922 Y63.345 E2.71794
G1 X121.953 Y68.617 E3.02058
G1 X122.185 Y69.075 E3.04613
G1 X122.994 Y70.914 E3.14611
G1 X125.376 Y75.815 E3.41729
G1 X126.625 Y78.125 E3.54798
G1 X129.396 Y82.773 E3.81728
G1 X132.44 Y87.281 E4.08797
G1 X133.666 Y88.957 E4.19131
G1 X133.95 Y89.394 E4.21725
G1 X137.199 Y95.027 E4.54087
G1 X137.32 Y95.25 E4.55349
G1 X138.246 Y97.072 E4.6552
G1 X140.896 Y101.825 E4.92602
G1 X143.751 Y106.358 E5.19262
G1 X143.85 Y106.522 E5.20215
G1 X146.944 Y111.899 E5.51088
G1 X147.217 Y112.454 E5.54166
G1 X147.417 Y113.04 E5.57248
G1 X147.54 Y113.647 E5.6033
G1 X147.583 Y114.265 E5.63413
G1 X147.546 Y114.883 E5.66494
G1 X147.43 Y115.491 E5.69574
G1 X147.237 Y116.079 E5.72654
G1 X146.97 Y116.638 E5.75737
G1 X146.651 Y117.132 E5.78663
G1 X145.262 Y119.021 E5.90332
G1 X142.222 Y123.522 E6.17362
G1 X139.462 Y128.157 E6.44208
G1 X136.973 Y132.927 E6.70983
G1 X134.854 Y137.576 E6.96409
G1 X134.561 Y138.122 E6.99493
G1 X134.201 Y138.625 E7.02571
G1 X133.778 Y139.078 E7.05655
G1 X133.301 Y139.473 E7.08737
G1 X132.777 Y139.802 E7.11817
G1 X132.215 Y140.062 E7.14898
G1 X131.625 Y140.247 E7.17975
G1 X131.015 Y140.354 E7.21057
G1 X130.473 Y140.383 E7.23758
G1 X123.428 Y140.358 E7.58818
G1 X123.257 Y140.354 E7.5967
G1 X118.936 Y140.185 E7.8119
G1 X113.463 Y140.259 E8.08429
G1 X111.229 Y140.376 E8.19562
G1 X110.977 Y140.383 E8.20816
G1 X104.503 Y140.381 E8.53035
G1 X103.985 Y140.353 E8.55616
G1 X101.958 Y140.132 E8.65763
G1 X96.554 Y139.749 E8.92724
G1 X91.159 Y139.673 E9.19575
G1 X85.757 Y139.901 E9.46482
G1 X80.609 Y140.372 E9.72209
G1 X80.163 Y140.392 E9.74431
G1 X73.98 Y140.381 E10.05201
G1 X73.732 Y140.374 E10.06435
G1 X71.636 Y140.261 E10.16881
G1 X66.213 Y140.182 E10.43872
G1 X60.856 Y140.388 E10.70551
G1 X60.648 Y140.392 E10.71586
G1 X54.473 Y140.361 E11.02317
G1 X53.855 Y140.318 E11.054
G1 X53.248 Y140.196 E11.08481
G1 X52.662 Y139.996 E11.11562
G1 X52.107 Y139.723 E11.1464
G1 X51.591 Y139.38 E11.17724
G1 X51.124 Y138.974 E11.20803
G1 X50.713 Y138.511 E11.23884
G1 X50.365 Y137.999 E11.26965
G1 X50.104 Y137.489 E11.29816
G1 X49.161 Y135.335 E11.41518
G1 X46.793 Y130.478 E11.68409
G1 X44.145 Y125.745 E11.95399
G1 X41.27 Y121.226 E12.22053
G1 X38.319 Y117.091 E12.47334
G1 X37.993 Y116.565 E12.50414
G1 X37.737 Y116.001 E12.53496
G1 X37.556 Y115.409 E12.56577
G1 X37.453 Y114.799 E12.59656
G1 X37.429 Y114.18 E12.62738
G1 X37.485 Y113.564 E12.65817
G1 X37.62 Y112.96 E12.68897
G1 X37.831 Y112.378 E12.71977
G1 X38.059 Y111.925 E12.74501
G1 X40.934 Y106.896 E13.03329
G1 X41.034 Y106.729 E13.04298
G1 X44.043 Y101.93 E13.32487
G1 X46.707 Y97.16 E13.59676
G1 X47.862 Y94.909 E13.72267
G1 X47.98 Y94.694 E13.73487
G1 X51.058 Y89.384 E14.04031
G1 X51.299 Y89.009 E14.0625
G1 X54.091 Y85.084 E14.30221
G1 X56.996 Y80.513 E14.57174
G1 X59.621 Y75.822 E14.83925
G1 X62.013 Y70.904 E15.11141
G1 X63.055 Y68.626 E15.23607
G1 X63.267 Y68.217 E15.259
G1 X66.315 Y62.959 E15.56145
G1 X66.443 Y62.75 E15.57365
G1 X67.619 Y60.941 E15.68103
G1 X70.399 Y56.278 E15.95119
G1 X72.878 Y51.578 E16.21563
G1 X72.97 Y51.411 E16.22512
G1 X76.057 Y46.082 E16.5316
M204 S5000
G0 F2400 X76.402 Y46.282
M204 S200
G1 F1200 X76.733 Y45.79 E16.56111
G1 X77.127 Y45.348 E16.59058
G1 X77.578 Y44.962 E16.62012
G1 X78.075 Y44.64 E16.64959
G1 X78.612 Y44.388 E16.67911
G1 X79.178 Y44.211 E16.70863
G1 X79.762 Y44.112 E16.7381
G1 X80.63 Y44.109 E16.7813
G1 X85.813 Y44.609 E17.04043
G1 X91.198 Y44.833 E17.30865
G1 X96.653 Y44.751 E17.58015
G1 X99.285 Y44.6 E17.71135
G1 X104.367 Y44.108 E17.96544
G1 X104.96 Y44.091 E17.99496
G1 X105.549 Y44.154 E18.02444
G1 X106.125 Y44.295 E18.05395
G1 X106.676 Y44.513 E18.08344
G1 X107.193 Y44.802 E18.11292
G1 X107.667 Y45.159 E18.14245
G1 X108.088 Y45.576 E18.17194
G1 X108.595 Y46.279 E18.21507
G1 X111.51 Y51.306 E18.50426
G1 X111.591 Y51.453 E18.51261
G1 X114.235 Y56.442 E18.79361
G1 X117.043 Y61.149 E19.06637
G1 X118.463 Y63.358 E19.19705
G1 X118.576 Y63.543 E19.20784
G1 X121.607 Y68.815 E19.51048
G1 X121.82 Y69.236 E19.53396
G1 X122.628 Y71.071 E19.63374
G1 X125.028 Y76.01 E19.90701
G1 X126.277 Y78.321 E20.03774
G1 X129.059 Y82.988 E20.30813
G1 X132.115 Y87.514 E20.57991
G1 X133.344 Y89.193 E20.68345
G1 X133.605 Y89.593 E20.70722
G1 X136.854 Y95.226 E21.03084
G1 X136.965 Y95.43 E21.0424
G1 X137.9 Y97.269 E21.14507
G1 X140.555 Y102.032 E21.41644
G1 X143.414 Y106.571 E21.6834
G1 X143.504 Y106.721 E21.6921
G1 X146.598 Y112.098 E22.00083
G1 X146.858 Y112.631 E22.03034
G1 X147.045 Y113.193 E22.05982
G1 X147.154 Y113.776 E22.08933
G1 X147.183 Y114.368 E22.11883
G1 X147.133 Y114.959 E22.14835
G1 X147.004 Y115.537 E22.17782
G1 X146.798 Y116.093 E22.20733
G1 X146.519 Y116.616 E22.23682
G1 X146.329 Y116.896 E22.25366
G1 X144.937 Y118.789 E22.3706
G1 X141.888 Y123.304 E22.64172
G1 X139.114 Y127.961 E22.91148
G1 X136.617 Y132.749 E23.18022
G1 X134.491 Y137.411 E23.43521
G1 X134.209 Y137.933 E23.46473
G1 X133.86 Y138.411 E23.49419
G1 X133.449 Y138.839 E23.52372
G1 X132.985 Y139.208 E23.55322
G1 X132.475 Y139.51 E23.58272
G1 X131.93 Y139.742 E23.61219
G1 X131.358 Y139.898 E23.6417
G1 X130.474 Y139.984 E23.6859
G1 X123.429 Y139.959 E24.0365
G1 X123.273 Y139.956 E24.04427
G1 X118.928 Y139.786 E24.26066
G1 X113.462 Y139.86 E24.5327
G1 X111.208 Y139.978 E24.64503
G1 X110.977 Y139.984 E24.65653
G1 X104.503 Y139.982 E24.97871
G1 X104.028 Y139.956 E25.00239
G1 X102.003 Y139.735 E25.10376
G1 X96.57 Y139.35 E25.37481
G1 X91.148 Y139.274 E25.64467
G1 X85.743 Y139.502 E25.91389
G1 X80.572 Y139.975 E26.1723
G1 X80.164 Y139.993 E26.19262
G1 X73.981 Y139.982 E26.50033
G1 X73.753 Y139.976 E26.51168
G1 X71.663 Y139.864 E26.61583
G1 X66.204 Y139.784 E26.88753
G1 X60.841 Y139.99 E27.15462
G1 X60.65 Y139.993 E27.16413
G1 X54.475 Y139.962 E27.47143
G1 X53.884 Y139.919 E27.50092
G1 X53.304 Y139.797 E27.53042
G1 X52.745 Y139.598 E27.55995
G1 X52.219 Y139.326 E27.58942
G1 X51.734 Y138.985 E27.61892
G1 X51.299 Y138.582 E27.64843
G1 X50.922 Y138.125 E27.67792
G1 X50.61 Y137.621 E27.70741
G1 X50.469 Y137.329 E27.72355
G1 X49.514 Y135.149 E27.84199
G1 X47.144 Y130.287 E28.11117
G1 X44.501 Y125.562 E28.3806
G1 X41.591 Y120.988 E28.65039
G1 X38.644 Y116.859 E28.90284
G1 X38.333 Y116.355 E28.93231
G1 X38.093 Y115.813 E28.96181
G1 X37.927 Y115.244 E28.99131
G1 X37.84 Y114.657 E29.02084
G1 X37.833 Y114.065 E29.0503
G1 X37.905 Y113.476 E29.07983
G1 X38.055 Y112.903 E29.10931
G1 X38.406 Y112.123 E29.15187
G1 X41.281 Y107.094 E29.44016
G1 X41.372 Y106.941 E29.44901
G1 X44.389 Y102.128 E29.7317
G1 X47.045 Y97.375 E30.00266
G1 X48.217 Y95.091 E30.13042
G1 X48.325 Y94.894 E30.1416
G1 X51.403 Y89.584 E30.44704
G1 X51.624 Y89.24 E30.46739
G1 X54.427 Y85.3 E30.70802
G1 X57.34 Y80.716 E30.97831
G1 X59.975 Y76.005 E31.24694
G1 X62.37 Y71.083 E31.51934
G1 X63.418 Y68.792 E31.64472
G1 X63.612 Y68.417 E31.66573
G1 X66.66 Y63.159 E31.96818
G1 X66.777 Y62.968 E31.97933
G1 X67.949 Y61.165 E32.08635
G1 X70.754 Y56.46 E32.35895
G1 X73.231 Y51.764 E32.62316
G1 X73.315 Y51.611 E32.63185
G1 X76.402 Y46.282 E32.93833
M204 S5000
G0 F2400 X76.748 Y46.482
M204 S200
G1 F1200 X77.065 Y46.014 E32.96646
G1 X77.445 Y45.596 E32.99458
G1 X77.88 Y45.235 E33.02271
G1 X78.362 Y44.939 E33.05086
G1 X78.88 Y44.715 E33.07894
G1 X79.425 Y44.565 E33.10707
G1 X79.986 Y44.494 E33.13521
G1 X80.591 Y44.507 E33.16533
G1 X85.758 Y45.006 E33.42366
G1 X91.205 Y45.232 E33.69497
G1 X96.682 Y45.15 E33.96756
G1 X99.32 Y44.999 E34.09906
G1 X104.405 Y44.506 E34.3533
G1 X104.97 Y44.491 E34.38143
G1 X105.532 Y44.556 E34.40959
G1 X106.079 Y44.7 E34.43774
G1 X106.599 Y44.919 E34.46582
G1 X107.084 Y45.21 E34.49396
G1 X107.523 Y45.566 E34.52209
G1 X107.907 Y45.981 E34.55023
G1 X108.25 Y46.479 E34.58032
G1 X111.165 Y51.506 E34.86951
G1 X111.238 Y51.64 E34.8771
G1 X113.888 Y56.64 E35.15872
G1 X116.701 Y61.355 E35.43195
G1 X118.127 Y63.574 E35.56322
G1 X118.23 Y63.742 E35.57302
G1 X121.261 Y69.014 E35.87566
G1 X121.454 Y69.397 E35.897
G1 X122.25 Y71.207 E35.9954
G1 X124.675 Y76.196 E36.27146
G1 X125.93 Y78.518 E36.40281
G1 X128.727 Y83.211 E36.67469
G1 X131.781 Y87.734 E36.94629
G1 X133.022 Y89.429 E37.05083
G1 X133.259 Y89.792 E37.07241
G1 X136.508 Y95.425 E37.39602
G1 X136.609 Y95.611 E37.40656
G1 X137.546 Y97.455 E37.50949
G1 X140.209 Y102.231 E37.78162
G1 X143.076 Y106.783 E38.04934
G1 X143.158 Y106.92 E38.05729
G1 X146.252 Y112.297 E38.36601
G1 X146.499 Y112.806 E38.39417
G1 X146.671 Y113.344 E38.42228
G1 X146.766 Y113.901 E38.4504
G1 X146.781 Y114.466 E38.47852
G1 X146.717 Y115.028 E38.50667
G1 X146.573 Y115.574 E38.53477
G1 X146.355 Y116.095 E38.56288
G1 X146.008 Y116.659 E38.59584
G1 X144.61 Y118.561 E38.71331
G1 X141.549 Y123.093 E38.98547
G1 X138.77 Y127.758 E39.2557
G1 X136.253 Y132.584 E39.52657
G1 X134.128 Y137.245 E39.78149
G1 X133.858 Y137.742 E39.80964
G1 X133.52 Y138.195 E39.83777
G1 X133.122 Y138.596 E39.86589
G1 X132.671 Y138.938 E39.89405
G1 X132.177 Y139.212 E39.92217
G1 X131.649 Y139.413 E39.95028
G1 X131.098 Y139.539 E39.97841
G1 X130.476 Y139.585 E40.00945
G1 X123.431 Y139.56 E40.36005
G1 X123.288 Y139.557 E40.36717
G1 X118.937 Y139.386 E40.58386
G1 X113.461 Y139.461 E40.8564
G1 X111.187 Y139.58 E40.96973
G1 X110.977 Y139.585 E40.98018
G1 X104.503 Y139.583 E41.30236
G1 X104.071 Y139.56 E41.32389
G1 X102.021 Y139.337 E41.42651
G1 X96.586 Y138.951 E41.69767
G1 X91.136 Y138.874 E41.96892
G1 X85.711 Y139.104 E42.23914
G1 X80.536 Y139.577 E42.49775
G1 X80.165 Y139.594 E42.51623
G1 X73.982 Y139.583 E42.82393
G1 X73.775 Y139.577 E42.83424
G1 X71.691 Y139.465 E42.9381
G1 X66.195 Y139.384 E43.21164
G1 X60.826 Y139.591 E43.47903
G1 X60.652 Y139.594 E43.48769
G1 X54.477 Y139.563 E43.79499
G1 X53.913 Y139.52 E43.82314
G1 X53.361 Y139.398 E43.85128
G1 X52.832 Y139.2 E43.87939
G1 X52.336 Y138.929 E43.90751
G1 X51.884 Y138.591 E43.9356
G1 X51.483 Y138.192 E43.96375
G1 X51.143 Y137.741 E43.99186
G1 X50.835 Y137.169 E44.02419
G1 X49.891 Y135.013 E44.14132
G1 X47.491 Y130.089 E44.41392
G1 X44.841 Y125.353 E44.684
G1 X41.927 Y120.773 E44.95415
G1 X38.969 Y116.628 E45.20756
G1 X38.674 Y116.146 E45.23569
G1 X38.45 Y115.627 E45.26382
G1 X38.301 Y115.081 E45.29198
G1 X38.231 Y114.521 E45.32007
G1 X38.24 Y113.955 E45.34824
G1 X38.329 Y113.397 E45.37636
G1 X38.496 Y112.857 E45.40449
G1 X38.752 Y112.321 E45.43405
G1 X41.627 Y107.292 E45.72233
G1 X41.711 Y107.153 E45.73041
G1 X44.724 Y102.347 E46.0127
G1 X47.397 Y97.563 E46.28542
G1 X48.572 Y95.273 E46.41351
G1 X48.67 Y95.094 E46.42367
G1 X51.748 Y89.784 E46.72911
G1 X51.949 Y89.472 E46.74758
G1 X54.757 Y85.524 E46.98868
G1 X57.68 Y80.925 E47.25986
G1 X60.329 Y76.189 E47.52992
G1 X62.734 Y71.245 E47.80352
G1 X63.781 Y68.958 E47.9287
G1 X63.957 Y68.617 E47.94779
G1 X67.005 Y63.359 E48.25025
G1 X67.112 Y63.185 E48.26041
G1 X68.294 Y61.366 E48.36837
G1 X71.097 Y56.665 E48.64075
G1 X73.584 Y51.95 E48.90603
G1 X73.661 Y51.811 E48.91394
G1 X76.748 Y46.482 E49.22042
M204 S5000
G0 F2400 X77.093 Y46.682
M204 S200
G1 F1200 X77.395 Y46.239 E49.2471
G1 X77.76 Y45.847 E49.27376
G1 X78.18 Y45.512 E49.3005
G1 X78.644 Y45.244 E49.32716
G1 X79.143 Y45.048 E49.35384
G1 X79.666 Y44.928 E49.38055
G1 X80.2 Y44.887 E49.4072
G1 X80.553 Y44.904 E49.42479
G1 X85.74 Y45.405 E49.68412
G1 X91.195 Y45.632 E49.95583
G1 X96.688 Y45.549 E50.22922
G1 X99.357 Y45.396 E50.36226
G1 X104.444 Y44.903 E50.61661
G1 X104.98 Y44.891 E50.64329
G1 X105.512 Y44.959 E50.66998
G1 X106.028 Y45.105 E50.69666
G1 X106.516 Y45.326 E50.72332
G1 X106.966 Y45.618 E50.75002
G1 X107.368 Y45.973 E50.77671
G1 X107.713 Y46.384 E50.80341
G1 X107.904 Y46.68 E50.82094
G1 X110.819 Y51.707 E51.11013
G1 X110.886 Y51.826 E51.11693
G1 X113.542 Y56.837 E51.39917
G1 X116.36 Y61.561 E51.67291
G1 X117.792 Y63.789 E51.80472
G1 X117.884 Y63.941 E51.81356
G1 X120.915 Y69.213 E52.11619
G1 X121.089 Y69.557 E52.13538
G1 X121.902 Y71.405 E52.23585
G1 X124.317 Y76.373 E52.51075
G1 X125.572 Y78.696 E52.64214
G1 X128.391 Y83.425 E52.91613
G1 X131.461 Y87.971 E53.18912
G1 X132.7 Y89.664 E53.29352
G1 X132.914 Y89.992 E53.31301
G1 X136.163 Y95.625 E53.63663
G1 X136.253 Y95.792 E53.64607
G1 X137.188 Y97.632 E53.74878
G1 X139.871 Y102.444 E54.02296
G1 X142.738 Y106.996 E54.29068
G1 X142.812 Y107.119 E54.29782
G1 X145.906 Y112.496 E54.60655
G1 X146.139 Y112.979 E54.63324
G1 X146.296 Y113.492 E54.65994
G1 X146.376 Y114.022 E54.68661
G1 X146.376 Y114.558 E54.71329
G1 X146.296 Y115.089 E54.74001
G1 X146.139 Y115.601 E54.76666
G1 X145.907 Y116.085 E54.79337
G1 X145.687 Y116.423 E54.81344
G1 X144.278 Y118.34 E54.93184
G1 X141.21 Y122.883 E55.20465
G1 X138.423 Y127.562 E55.47568
G1 X135.896 Y132.405 E55.74753
G1 X133.765 Y137.08 E56.00321
G1 X133.507 Y137.55 E56.0299
G1 X133.181 Y137.976 E56.05659
G1 X132.797 Y138.35 E56.08327
G1 X132.361 Y138.662 E56.10995
G1 X131.883 Y138.906 E56.13666
G1 X131.374 Y139.076 E56.16336
G1 X130.846 Y139.168 E56.19003
G1 X130.477 Y139.186 E56.20842
G1 X123.432 Y139.161 E56.55902
G1 X123.304 Y139.158 E56.56539
G1 X118.948 Y138.987 E56.78234
G1 X113.435 Y139.062 E57.05672
G1 X111.166 Y139.181 E57.16979
G1 X110.977 Y139.186 E57.1792
G1 X104.503 Y139.184 E57.50138
G1 X104.114 Y139.163 E57.52077
G1 X102.064 Y138.94 E57.62339
G1 X96.603 Y138.553 E57.89584
G1 X91.143 Y138.475 E58.16759
G1 X85.679 Y138.706 E58.43975
G1 X80.5 Y139.18 E58.69856
G1 X80.166 Y139.195 E58.7152
G1 X73.983 Y139.184 E59.0229
G1 X73.796 Y139.179 E59.03221
G1 X71.692 Y139.066 E59.13707
G1 X66.185 Y138.985 E59.41116
G1 X60.81 Y139.192 E59.67884
G1 X60.654 Y139.195 E59.68661
G1 X54.479 Y139.164 E59.99391
G1 X53.944 Y139.121 E60.02063
G1 X53.422 Y139 E60.04729
G1 X52.924 Y138.802 E60.07396
G1 X52.46 Y138.532 E60.10068
G1 X52.042 Y138.197 E60.12734
G1 X51.678 Y137.803 E60.15403
G1 X51.377 Y137.359 E60.18073
G1 X51.2 Y137.009 E60.20024
G1 X50.244 Y134.826 E60.31884
G1 X47.848 Y129.911 E60.59096
G1 X45.188 Y125.157 E60.86206
G1 X42.248 Y120.535 E61.13466
G1 X39.294 Y116.396 E61.38772
G1 X39.015 Y115.937 E61.41445
G1 X38.809 Y115.443 E61.44109
G1 X38.677 Y114.923 E61.46779
G1 X38.625 Y114.389 E61.49449
G1 X38.652 Y113.854 E61.52115
G1 X38.759 Y113.328 E61.54786
G1 X38.943 Y112.824 E61.57456
G1 X39.099 Y112.519 E61.59161
G1 X41.974 Y107.49 E61.87989
G1 X42.049 Y107.364 E61.88719
G1 X45.071 Y102.542 E62.17039
G1 X47.755 Y97.739 E62.4442
G1 X48.927 Y95.456 E62.57191
G1 X49.015 Y95.294 E62.58109
G1 X52.093 Y89.984 E62.88653
G1 X52.274 Y89.703 E62.90316
G1 X55.094 Y85.739 E63.14526
G1 X58.02 Y81.135 E63.41673
G1 X60.687 Y76.367 E63.68861
G1 X63.075 Y71.458 E63.96028
G1 X64.143 Y69.124 E64.08802
G1 X64.302 Y68.817 E64.10522
G1 X67.35 Y63.559 E64.40768
G1 X67.446 Y63.403 E64.41679
G1 X68.636 Y61.572 E64.52547
G1 X71.444 Y56.862 E64.79836
G1 X73.937 Y52.136 E65.06427
G1 X74.006 Y52.011 E65.07137
G1 X77.093 Y46.682 E65.37785
M204 S5000
G0 F2400 X77.438 Y46.882
M204 S200
