;FLAVOR:RepRap
;TIME:7335
;Filament used: 5.13979m
;Layer height: 0.15
;Generated with Cura_SteamEngine 2.6.2
M190 S60
M104 S220
M109 S220
G21 ;metric values
G90 ;absolute positioning
M82 ;set extruder to absolute mode
M107 ;start with the fan off
G92 E0 ;zero the extruded length
G1 F200 E3 ;extrude 3mm of feed stock
G92 E0 ;zero the extruded length again
G1 F9000
M117 Printing...
;LAYER_COUNT:97
;LAYER:0
M107
M204 S5000
G0 F2400 X85.004 Y60.483 Z0.3
M204 S200
;TYPE:SKIRT
G1 F1200 X85.33 Y60.062 E0.0265
G1 X85.841 Y59.489 E0.06471
G1 X86.225 Y59.115 E0.09138
G1 X86.809 Y58.622 E0.12942
G1 X87.228 Y58.315 E0.15527
G1 X87.867 Y57.911 E0.19289
G1 X88.329 Y57.662 E0.21901
G1 X89.031 Y57.344 E0.25736
G1 X89.53 Y57.159 E0.28384
G1 X90.261 Y56.945 E0.32175
G1 X90.776 Y56.832 E0.34799
G1 X91.533 Y56.721 E0.38606
G1 X92.189 Y56.682 E0.41877
G1 X93.33 Y56.714 E0.47557
G1 X93.979 Y56.789 E0.50809
G1 X94.727 Y56.941 E0.54607
G1 X95.233 Y57.081 E0.5722
G1 X95.953 Y57.335 E0.61019
G1 X96.435 Y57.544 E0.63634
G1 X97.107 Y57.892 E0.674
G1 X97.553 Y58.163 E0.69997
G1 X98.185 Y58.61 E0.73849
G1 X98.61 Y58.959 E0.76586
G1 X99.169 Y59.491 E0.80427
G1 X99.513 Y59.866 E0.82959
G1 X99.989 Y60.46 E0.86747
G1 X100.185 Y60.728 E0.88399
G1 X110.353 Y75.981 E1.79627
G1 X110.625 Y76.46 E1.82368
G1 X110.824 Y76.973 E1.85106
G1 X110.946 Y77.51 E1.87847
G1 X110.99 Y78.082 E1.90702
G1 X111.006 Y109.392 E3.46518
G1 X110.966 Y109.941 E3.49257
G1 X110.848 Y110.478 E3.51993
G1 X110.652 Y110.993 E3.54735
G1 X110.385 Y111.474 E3.57473
G1 X109.896 Y112.075 E3.61329
G1 X109.779 Y112.192 E3.62152
G1 X109.362 Y112.552 E3.64894
G1 X108.898 Y112.847 E3.6763
G1 X108.396 Y113.073 E3.7037
G1 X107.867 Y113.223 E3.73106
G1 X107.098 Y113.302 E3.76954
G1 X106.283 Y113.302 E3.81009
G1 X106.261 Y123.549 E4.32004
G1 X106.22 Y124.098 E4.34744
G1 X106.1 Y124.635 E4.37482
G1 X105.903 Y125.149 E4.40222
G1 X105.634 Y125.629 E4.4296
G1 X105.298 Y126.065 E4.45699
G1 X105.093 Y126.278 E4.4717
G1 X104.081 Y127.248 E4.54147
G1 X103.657 Y127.599 E4.56886
G1 X103.187 Y127.885 E4.59624
G1 X102.68 Y128.1 E4.62364
G1 X102.148 Y128.239 E4.65101
G1 X101.452 Y128.302 E4.68579
G1 X83.464 Y128.272 E5.58097
G1 X82.915 Y128.231 E5.60837
G1 X82.378 Y128.111 E5.63575
G1 X81.864 Y127.915 E5.66313
G1 X81.383 Y127.646 E5.69055
G1 X80.947 Y127.311 E5.71792
G1 X80.733 Y127.104 E5.73273
G1 X79.763 Y126.092 E5.80249
G1 X79.412 Y125.668 E5.82989
G1 X79.126 Y125.198 E5.85727
G1 X78.911 Y124.691 E5.88467
G1 X78.772 Y124.159 E5.91204
G1 X78.709 Y123.469 E5.94652
G1 X78.709 Y113.302 E6.45248
G1 X77.932 Y113.302 E6.49115
G1 X77.383 Y113.262 E6.51854
G1 X76.846 Y113.143 E6.54592
G1 X76.331 Y112.948 E6.57332
G1 X75.851 Y112.68 E6.60068
G1 X75.251 Y112.192 E6.63917
G1 X75.134 Y112.075 E6.6474
G1 X74.774 Y111.658 E6.67482
G1 X74.479 Y111.194 E6.70218
G1 X74.253 Y110.692 E6.72958
G1 X74.103 Y110.163 E6.75694
G1 X74.024 Y109.392 E6.79551
G1 X74.04 Y78.08 E8.35377
G1 X74.08 Y77.531 E8.38116
G1 X74.2 Y76.994 E8.40855
G1 X74.395 Y76.48 E8.4359
G1 X74.676 Y75.98 E8.46445
G1 X85.004 Y60.483 E9.39124
M204 S5000
G0 F2400 X85.336 Y60.704
M204 S200
G1 F1200 X85.627 Y60.327 E9.41494
G1 X86.138 Y59.754 E9.45315
G1 X86.482 Y59.42 E9.47701
G1 X87.066 Y58.927 E9.51504
G1 X87.441 Y58.652 E9.53819
G1 X88.08 Y58.248 E9.57581
G1 X88.493 Y58.025 E9.59917
G1 X89.195 Y57.707 E9.63752
G1 X89.642 Y57.542 E9.66123
G1 X90.373 Y57.328 E9.69914
G1 X90.834 Y57.227 E9.72262
G1 X91.591 Y57.116 E9.7607
G1 X92.178 Y57.081 E9.78996
G1 X93.319 Y57.113 E9.84677
G1 X93.899 Y57.18 E9.87582
G1 X94.647 Y57.332 E9.91381
G1 X95.1 Y57.457 E9.9372
G1 X95.82 Y57.711 E9.97519
G1 X96.252 Y57.898 E9.99862
G1 X96.924 Y58.246 E10.03628
G1 X97.323 Y58.489 E10.05953
G1 X97.955 Y58.936 E10.09805
G1 X98.334 Y59.248 E10.12248
G1 X98.893 Y59.78 E10.16088
G1 X99.202 Y60.116 E10.1836
G1 X99.678 Y60.71 E10.22148
G1 X99.853 Y60.95 E10.23626
G1 X110.021 Y76.203 E11.14854
G1 X110.276 Y76.657 E11.17445
G1 X110.458 Y77.144 E11.20032
G1 X110.564 Y77.654 E11.22625
G1 X110.591 Y78.082 E11.24759
G1 X110.607 Y109.392 E12.80575
G1 X110.567 Y109.911 E12.83165
G1 X110.449 Y110.418 E12.85756
G1 X110.254 Y110.901 E12.88348
G1 X109.988 Y111.348 E12.90936
G1 X109.614 Y111.793 E12.93829
G1 X109.497 Y111.91 E12.94653
G1 X109.101 Y112.248 E12.97244
G1 X108.659 Y112.523 E12.99834
G1 X108.18 Y112.726 E13.02423
G1 X107.675 Y112.854 E13.05016
G1 X107.098 Y112.903 E13.07898
G1 X105.885 Y112.903 E13.13934
G1 X105.862 Y123.548 E13.6691
G1 X105.821 Y124.067 E13.69501
G1 X105.701 Y124.574 E13.72093
G1 X105.505 Y125.056 E13.74683
G1 X105.237 Y125.502 E13.77272
G1 X104.817 Y125.99 E13.80476
G1 X103.805 Y126.96 E13.87453
G1 X103.403 Y127.29 E13.90041
G1 X102.955 Y127.555 E13.92631
G1 X102.471 Y127.748 E13.95224
G1 X101.964 Y127.865 E13.97814
G1 X101.452 Y127.903 E14.00369
G1 X83.464 Y127.873 E14.89887
G1 X82.945 Y127.832 E14.92478
G1 X82.439 Y127.712 E14.95066
G1 X81.957 Y127.517 E14.97653
G1 X81.51 Y127.249 E15.00247
G1 X81.021 Y126.828 E15.03458
G1 X80.051 Y125.816 E15.10434
G1 X79.721 Y125.414 E15.13023
G1 X79.456 Y124.966 E15.15613
G1 X79.263 Y124.482 E15.18206
G1 X79.146 Y123.975 E15.20796
G1 X79.108 Y123.469 E15.23321
G1 X79.108 Y112.903 E15.75903
G1 X77.932 Y112.903 E15.81755
G1 X77.413 Y112.863 E15.84346
G1 X76.906 Y112.744 E15.86938
G1 X76.424 Y112.549 E15.89525
G1 X75.976 Y112.283 E15.92118
G1 X75.533 Y111.91 E15.95
G1 X75.416 Y111.793 E15.95823
G1 X75.078 Y111.397 E15.98414
G1 X74.803 Y110.955 E16.01005
G1 X74.6 Y110.476 E16.03594
G1 X74.472 Y109.971 E16.06187
G1 X74.423 Y109.392 E16.09078
G1 X74.439 Y78.08 E17.64904
G1 X74.479 Y77.561 E17.67495
G1 X74.598 Y77.055 E17.70081
G1 X74.794 Y76.572 E17.72675
G1 X75.008 Y76.201 E17.74807
G1 X85.336 Y60.704 E18.67486
M204 S5000
G0 F2400 X85.668 Y60.925
M204 S200
G1 F1200 X85.925 Y60.593 E18.69576
G1 X86.436 Y60.02 E18.73396
G1 X86.739 Y59.725 E18.75501
G1 X87.323 Y59.232 E18.79304
G1 X87.655 Y58.989 E18.81352
G1 X88.294 Y58.585 E18.85114
G1 X88.658 Y58.389 E18.87171
G1 X89.36 Y58.071 E18.91007
G1 X89.754 Y57.925 E18.93098
G1 X90.485 Y57.711 E18.96888
G1 X90.892 Y57.622 E18.98962
G1 X91.649 Y57.511 E19.02769
G1 X92.167 Y57.48 E19.05352
G1 X93.308 Y57.512 E19.11032
G1 X93.82 Y57.571 E19.13597
G1 X94.568 Y57.723 E19.17395
G1 X94.968 Y57.833 E19.1946
G1 X95.688 Y58.087 E19.2326
G1 X96.068 Y58.252 E19.25321
G1 X96.74 Y58.6 E19.29087
G1 X97.092 Y58.814 E19.31137
G1 X97.724 Y59.261 E19.3499
G1 X98.059 Y59.537 E19.3715
G1 X98.618 Y60.069 E19.4099
G1 X98.891 Y60.365 E19.42994
G1 X99.367 Y60.959 E19.46782
G1 X99.521 Y61.171 E19.48086
G1 X109.689 Y76.424 E20.39314
G1 X109.926 Y76.851 E20.41744
G1 X110.091 Y77.312 E20.44181
G1 X110.178 Y77.793 E20.46613
G1 X110.192 Y78.082 E20.48053
G1 X110.208 Y109.392 E22.03869
G1 X110.168 Y109.88 E22.06305
G1 X110.05 Y110.354 E22.08736
G1 X109.856 Y110.803 E22.1117
G1 X109.591 Y111.214 E22.13604
G1 X109.331 Y111.51 E22.15565
G1 X109.214 Y111.627 E22.16388
G1 X108.842 Y111.944 E22.1882
G1 X108.422 Y112.195 E22.21255
G1 X107.968 Y112.375 E22.23686
G1 X107.49 Y112.478 E22.26119
G1 X107.098 Y112.504 E22.28074
G1 X105.487 Y112.504 E22.36092
G1 X105.463 Y123.547 E22.91048
G1 X105.422 Y124.035 E22.93485
G1 X105.302 Y124.509 E22.95918
G1 X105.107 Y124.957 E22.9835
G1 X104.841 Y125.367 E23.00782
G1 X104.541 Y125.702 E23.0302
G1 X103.529 Y126.672 E23.09996
G1 X103.15 Y126.98 E23.12426
G1 X102.725 Y127.223 E23.14863
G1 X102.267 Y127.393 E23.17294
G1 X101.787 Y127.486 E23.19727
G1 X101.453 Y127.504 E23.21392
G1 X83.465 Y127.474 E24.1091
G1 X82.978 Y127.433 E24.13342
G1 X82.504 Y127.314 E24.15774
G1 X82.055 Y127.119 E24.1821
G1 X81.645 Y126.853 E24.20642
G1 X81.309 Y126.552 E24.22887
G1 X80.339 Y125.54 E24.29863
G1 X80.031 Y125.161 E24.32294
G1 X79.788 Y124.736 E24.3473
G1 X79.618 Y124.278 E24.37161
G1 X79.525 Y123.798 E24.39595
G1 X79.507 Y123.469 E24.41234
G1 X79.507 Y112.504 E24.95802
G1 X77.932 Y112.504 E25.0364
G1 X77.445 Y112.464 E25.06072
G1 X76.97 Y112.345 E25.08509
G1 X76.522 Y112.151 E25.10938
G1 X76.111 Y111.886 E25.13372
G1 X75.816 Y111.627 E25.15326
G1 X75.699 Y111.51 E25.16149
G1 X75.382 Y111.138 E25.18581
G1 X75.131 Y110.718 E25.21016
G1 X74.951 Y110.264 E25.23447
G1 X74.848 Y109.786 E25.2588
G1 X74.822 Y109.392 E25.27845
G1 X74.838 Y78.08 E26.83671
G1 X74.878 Y77.593 E26.86103
G1 X74.997 Y77.119 E26.88535
G1 X75.192 Y76.67 E26.90971
G1 X75.34 Y76.422 E26.92408
G1 X85.668 Y60.925 E27.85087
M204 S5000
G0 F2400 X86 Y61.146
M204 S200
G1 F1200 X86.223 Y60.858 E27.869
G1 X86.734 Y60.285 E27.90721
G1 X86.997 Y60.03 E27.92544
G1 X87.581 Y59.537 E27.96347
G1 X87.868 Y59.326 E27.9812
G1 X88.507 Y58.922 E28.01882
G1 X88.823 Y58.752 E28.03668
G1 X89.525 Y58.434 E28.07503
G1 X89.866 Y58.307 E28.09314
G1 X90.597 Y58.093 E28.13105
G1 X90.95 Y58.016 E28.14903
G1 X91.707 Y57.905 E28.1871
G1 X92.156 Y57.879 E28.20949
G1 X93.297 Y57.911 E28.26629
G1 X93.741 Y57.962 E28.28853
G1 X94.489 Y58.114 E28.32652
G1 X94.835 Y58.21 E28.34439
G1 X95.555 Y58.464 E28.38238
G1 X95.885 Y58.607 E28.40028
G1 X96.557 Y58.955 E28.43794
G1 X96.862 Y59.14 E28.45569
G1 X97.494 Y59.587 E28.49422
G1 X97.784 Y59.826 E28.51292
G1 X98.343 Y60.358 E28.55132
G1 X98.579 Y60.615 E28.56869
G1 X99.055 Y61.209 E28.60657
G1 X99.189 Y61.392 E28.61785
G1 X109.357 Y76.645 E29.53013
G1 X109.576 Y77.045 E29.55282
G1 X109.721 Y77.476 E29.57545
G1 X109.793 Y78.083 E29.60587
G1 X109.809 Y109.393 E31.16403
G1 X109.769 Y109.846 E31.18666
G1 X109.651 Y110.286 E31.20933
G1 X109.458 Y110.698 E31.23197
G1 X109.049 Y111.228 E31.26529
G1 X108.932 Y111.345 E31.27352
G1 X108.583 Y111.638 E31.2962
G1 X108.189 Y111.864 E31.3188
G1 X107.761 Y112.019 E31.34146
G1 X107.098 Y112.105 E31.37473
G1 X105.088 Y112.105 E31.47476
G1 X105.064 Y123.547 E32.04418
G1 X105.023 Y124 E32.06681
G1 X104.904 Y124.439 E32.08945
G1 X104.709 Y124.85 E32.11209
G1 X104.446 Y125.222 E32.13476
G1 X104.265 Y125.414 E32.14789
G1 X103.253 Y126.384 E32.21765
G1 X102.898 Y126.669 E32.24031
G1 X102.499 Y126.887 E32.26293
G1 X102.068 Y127.032 E32.28556
G1 X101.454 Y127.105 E32.31633
G1 X83.466 Y127.075 E33.21152
G1 X83.012 Y127.034 E33.2342
G1 X82.573 Y126.915 E33.25684
G1 X82.162 Y126.721 E33.27946
G1 X81.79 Y126.458 E33.30213
G1 X81.597 Y126.276 E33.31533
G1 X80.627 Y125.264 E33.38509
G1 X80.342 Y124.909 E33.40775
G1 X80.124 Y124.51 E33.43037
G1 X79.979 Y124.079 E33.453
G1 X79.906 Y123.469 E33.48358
G1 X79.906 Y112.105 E34.04911
G1 X77.932 Y112.105 E34.14735
G1 X77.479 Y112.065 E34.16998
G1 X77.039 Y111.947 E34.19265
G1 X76.627 Y111.753 E34.21531
G1 X76.098 Y111.345 E34.24856
G1 X75.981 Y111.228 E34.25679
G1 X75.688 Y110.879 E34.27947
G1 X75.462 Y110.485 E34.30208
G1 X75.307 Y110.057 E34.32473
G1 X75.221 Y109.393 E34.35805
G1 X75.237 Y78.081 E35.91631
G1 X75.277 Y77.627 E35.93899
G1 X75.396 Y77.188 E35.96162
G1 X75.672 Y76.643 E35.99202
G1 X86 Y61.146 E36.91882
M204 S5000
G0 F2400 X86.332 Y61.368
M204 S200
G1 F1200 X86.521 Y61.124 E36.93418
G1 X87.032 Y60.551 E36.97239
G1 X87.254 Y60.335 E36.9878
G1 X87.838 Y59.842 E37.02583
G1 X88.081 Y59.664 E37.04082
G1 X88.72 Y59.26 E37.07845
G1 X88.987 Y59.116 E37.09354
G1 X89.689 Y58.798 E37.1319
G1 X89.978 Y58.69 E37.14725
G1 X90.709 Y58.476 E37.18516
G1 X91.008 Y58.411 E37.20038
G1 X91.765 Y58.3 E37.23846
G1 X92.145 Y58.278 E37.2574
G1 X93.286 Y58.31 E37.31421
G1 X93.661 Y58.353 E37.33299
G1 X94.409 Y58.505 E37.37098
G1 X94.702 Y58.586 E37.3861
G1 X95.422 Y58.84 E37.4241
G1 X95.701 Y58.961 E37.43923
G1 X96.373 Y59.309 E37.47689
G1 X96.631 Y59.466 E37.49192
G1 X97.263 Y59.913 E37.53045
G1 X97.509 Y60.115 E37.54629
G1 X98.068 Y60.647 E37.58469
G1 X98.268 Y60.864 E37.59938
G1 X98.744 Y61.458 E37.63726
G1 X98.857 Y61.613 E37.6468
G1 X109.025 Y76.866 E38.55908
G1 X109.223 Y77.235 E38.57992
G1 X109.348 Y77.635 E38.60077
G1 X109.394 Y78.083 E38.62319
G1 X109.41 Y109.393 E40.18134
G1 X109.37 Y109.81 E40.20219
G1 X109.252 Y110.211 E40.22299
G1 X109.06 Y110.583 E40.24383
G1 X108.767 Y110.946 E40.26704
G1 X108.65 Y111.063 E40.27528
G1 X108.327 Y111.33 E40.29613
G1 X107.96 Y111.53 E40.31693
G1 X107.561 Y111.657 E40.33777
G1 X107.098 Y111.706 E40.36094
G1 X104.69 Y111.706 E40.48077
G1 X104.665 Y123.546 E41.07
G1 X104.624 Y123.962 E41.0908
G1 X104.505 Y124.364 E41.11167
G1 X104.312 Y124.735 E41.13248
G1 X103.989 Y125.126 E41.15772
G1 X102.977 Y126.096 E41.22748
G1 X102.648 Y126.355 E41.24832
G1 X102.277 Y126.548 E41.26913
G1 X101.875 Y126.666 E41.28998
G1 X101.454 Y126.706 E41.31102
G1 X83.466 Y126.676 E42.2062
G1 X83.05 Y126.635 E42.22701
G1 X82.648 Y126.516 E42.24787
G1 X82.277 Y126.323 E42.26868
G1 X81.885 Y126 E42.29396
G1 X80.915 Y124.988 E42.36372
G1 X80.656 Y124.659 E42.38456
G1 X80.463 Y124.288 E42.40537
G1 X80.345 Y123.886 E42.42622
G1 X80.305 Y123.469 E42.44707
G1 X80.305 Y111.706 E43.03246
G1 X77.932 Y111.706 E43.15055
G1 X77.515 Y111.666 E43.1714
G1 X77.114 Y111.548 E43.1922
G1 X76.742 Y111.355 E43.21306
G1 X76.38 Y111.063 E43.2362
G1 X76.263 Y110.946 E43.24444
G1 X75.996 Y110.623 E43.26529
G1 X75.796 Y110.256 E43.28609
G1 X75.669 Y109.857 E43.30693
G1 X75.62 Y109.393 E43.33015
G1 X75.636 Y78.081 E44.88841
G1 X75.676 Y77.664 E44.90926
G1 X75.795 Y77.263 E44.93007
G1 X76.004 Y76.865 E44.95244
G1 X86.332 Y61.368 E45.87924
M204 S5000
G0 F2400 X86.664 Y61.589
M204 S200
G1 F1200 X86.819 Y61.39 E45.89179
G1 X87.33 Y60.817 E45.93
G1 X87.511 Y60.64 E45.9426
G1 X88.095 Y60.147 E45.98063
G1 X88.294 Y60.001 E45.99291
G1 X88.933 Y59.597 E46.03054
G1 X89.152 Y59.479 E46.04292
G1 X89.854 Y59.161 E46.08127
G1 X90.09 Y59.073 E46.0938
G1 X90.821 Y58.859 E46.13171
G1 X91.065 Y58.806 E46.14413
G1 X91.822 Y58.695 E46.18221
G1 X92.133 Y58.677 E46.19771
G1 X93.274 Y58.709 E46.25452
G1 X93.582 Y58.744 E46.26994
G1 X94.33 Y58.896 E46.30793
G1 X94.569 Y58.962 E46.32027
G1 X95.289 Y59.216 E46.35826
G1 X95.518 Y59.315 E46.37068
G1 X96.19 Y59.663 E46.40834
G1 X96.401 Y59.792 E46.42065
G1 X97.033 Y60.239 E46.45917
G1 X97.234 Y60.404 E46.47211
G1 X97.793 Y60.936 E46.51052
G1 X97.957 Y61.114 E46.52256
G1 X98.433 Y61.708 E46.56044
G1 X98.525 Y61.835 E46.56825
G1 X108.693 Y77.088 E47.48052
G1 X108.869 Y77.423 E47.49935
G1 X108.97 Y77.788 E47.5182
G1 X108.995 Y78.083 E47.53293
G1 X109.011 Y109.393 E49.09109
G1 X108.971 Y109.77 E49.10996
G1 X108.854 Y110.129 E49.12875
G1 X108.663 Y110.456 E49.14759
G1 X108.485 Y110.664 E49.16122
G1 X108.368 Y110.781 E49.16945
G1 X108.074 Y111.019 E49.18828
G1 X107.736 Y111.19 E49.20713
G1 X107.37 Y111.286 E49.22596
G1 X107.098 Y111.307 E49.23953
G1 X104.292 Y111.307 E49.37918
G1 X104.266 Y123.545 E49.98821
G1 X104.225 Y123.921 E50.00703
G1 X104.107 Y124.281 E50.02588
G1 X103.915 Y124.607 E50.04471
G1 X103.713 Y124.838 E50.05998
G1 X102.701 Y125.808 E50.12974
G1 X102.401 Y126.039 E50.14859
G1 X102.06 Y126.203 E50.16742
G1 X101.692 Y126.292 E50.18626
G1 X101.455 Y126.307 E50.19808
G1 X83.467 Y126.277 E51.09326
G1 X83.091 Y126.236 E51.11208
G1 X82.731 Y126.118 E51.13094
G1 X82.404 Y125.927 E51.14978
G1 X82.173 Y125.724 E51.16509
G1 X81.203 Y124.712 E51.23485
G1 X80.972 Y124.412 E51.25369
G1 X80.808 Y124.071 E51.27252
G1 X80.719 Y123.703 E51.29136
G1 X80.704 Y123.469 E51.30303
G1 X80.704 Y111.307 E51.90828
G1 X77.932 Y111.307 E52.04623
G1 X77.556 Y111.267 E52.06505
G1 X77.196 Y111.149 E52.0839
G1 X76.869 Y110.959 E52.10272
G1 X76.662 Y110.781 E52.11631
G1 X76.545 Y110.664 E52.12454
G1 X76.307 Y110.37 E52.14337
G1 X76.136 Y110.032 E52.16222
G1 X76.04 Y109.666 E52.18105
G1 X76.019 Y109.393 E52.19467
G1 X76.035 Y78.081 E53.75293
G1 X76.075 Y77.705 E53.77175
G1 X76.193 Y77.345 E53.7906
G1 X76.336 Y77.086 E53.80532
G1 X86.664 Y61.589 E54.73212
M204 S5000
G0 F2400 X86.997 Y61.81
M204 S200
G1 F1200 X87.116 Y61.655 E54.74184
G1 X87.627 Y61.082 E54.78005
G1 X87.769 Y60.945 E54.78987
G1 X88.353 Y60.452 E54.8279
G1 X88.507 Y60.338 E54.83744
G1 X89.146 Y59.934 E54.87506
G1 X89.317 Y59.842 E54.88472
G1 X90.019 Y59.524 E54.92308
G1 X90.203 Y59.456 E54.93284
G1 X90.934 Y59.242 E54.97074
G1 X91.123 Y59.201 E54.98037
G1 X91.88 Y59.09 E55.01844
G1 X92.122 Y59.076 E55.03051
G1 X93.263 Y59.108 E55.08731
G1 X93.502 Y59.135 E55.09928
G1 X94.25 Y59.287 E55.13727
