;FLAVOR:RepRap
;TIME:2547
;Filament used: 1.53271m
;Layer height: 0.15
;Generated with Cura_SteamEngine 2.6.2
M190 S60
M104 S220
M109 S220
G21 ;metric values
G90 ;absolute positioning
M82 ;set extruder to absolute mode
M107 ;start with the fan off
G92 E0 ;zero the extruded length
G1 F200 E3 ;extrude 3mm of feed stock
G92 E0 ;zero the extruded length again
G1 F9000
M117 Printing...
;LAYER_COUNT:56
;LAYER:0
M107
M204 S5000
G0 F2400 X69.909 Y80.8 Z0.3
G0 X69.492 Y81.16
M204 S200
;TYPE:SKIRT
G1 F1200 X69.909 Y80.8 E0.02742
G1 X70.373 Y80.505 E0.05478
G1 X70.875 Y80.279 E0.08218
G1 X71.404 Y80.129 E0.10954
G1 X72.173 Y80.05 E0.14801
G1 X112.827 Y80.05 E2.17118
G1 X113.376 Y80.09 E2.19857
G1 X113.913 Y80.209 E2.22594
G1 X114.428 Y80.404 E2.25335
G1 X114.908 Y80.672 E2.28071
G1 X115.508 Y81.16 E2.31919
G1 X115.625 Y81.277 E2.32743
G1 X115.985 Y81.694 E2.35484
G1 X116.28 Y82.158 E2.38221
G1 X116.506 Y82.66 E2.4096
G1 X116.656 Y83.189 E2.43697
G1 X116.735 Y83.959 E2.47549
G1 X116.731 Y101.045 E3.32578
G1 X116.691 Y101.594 E3.35318
G1 X116.572 Y102.131 E3.38055
G1 X116.376 Y102.645 E3.40792
G1 X116.108 Y103.126 E3.43533
G1 X115.621 Y103.725 E3.47374
G1 X115.504 Y103.842 E3.48198
G1 X115.087 Y104.202 E3.50939
G1 X114.623 Y104.497 E3.53676
G1 X114.121 Y104.723 E3.56415
G1 X113.592 Y104.873 E3.59152
G1 X112.823 Y104.952 E3.62999
G1 X72.177 Y104.952 E5.65276
G1 X71.628 Y104.912 E5.68015
G1 X71.091 Y104.793 E5.70752
G1 X70.576 Y104.598 E5.73493
G1 X70.096 Y104.33 E5.76229
G1 X69.496 Y103.842 E5.80078
G1 X69.379 Y103.725 E5.80901
G1 X69.019 Y103.308 E5.83643
G1 X68.724 Y102.844 E5.86379
G1 X68.498 Y102.342 E5.89119
G1 X68.348 Y101.813 E5.91855
G1 X68.269 Y101.045 E5.95697
G1 X68.265 Y83.959 E6.80726
G1 X68.305 Y83.41 E6.83466
G1 X68.424 Y82.873 E6.86203
G1 X68.619 Y82.358 E6.88943
G1 X68.887 Y81.877 E6.91684
G1 X69.375 Y81.277 E6.95533
G1 X69.492 Y81.16 E6.96356
M204 S5000
G0 F2400 X69.774 Y81.442
M204 S200
G1 F1200 X70.17 Y81.104 E6.98947
G1 X70.612 Y80.829 E7.01538
G1 X71.091 Y80.626 E7.04127
G1 X71.596 Y80.498 E7.06719
G1 X72.173 Y80.449 E7.09601
G1 X112.827 Y80.449 E9.11918
G1 X113.346 Y80.489 E9.14508
G1 X113.853 Y80.608 E9.171
G1 X114.335 Y80.803 E9.19687
G1 X114.783 Y81.069 E9.2228
G1 X115.226 Y81.442 E9.25162
G1 X115.343 Y81.559 E9.25986
G1 X115.681 Y81.955 E9.28577
G1 X115.956 Y82.397 E9.31167
G1 X116.159 Y82.876 E9.33756
G1 X116.287 Y83.381 E9.36349
G1 X116.336 Y83.959 E9.39236
G1 X116.332 Y101.045 E10.24265
G1 X116.292 Y101.564 E10.26855
G1 X116.173 Y102.071 E10.29447
G1 X115.978 Y102.553 E10.32035
G1 X115.711 Y103 E10.34626
G1 X115.339 Y103.443 E10.37505
G1 X115.222 Y103.56 E10.38328
G1 X114.826 Y103.898 E10.40919
G1 X114.384 Y104.173 E10.4351
G1 X113.905 Y104.376 E10.46099
G1 X113.4 Y104.504 E10.48691
G1 X112.823 Y104.553 E10.51573
G1 X72.177 Y104.553 E12.5385
G1 X71.658 Y104.513 E12.5644
G1 X71.151 Y104.394 E12.59032
G1 X70.669 Y104.199 E12.61619
G1 X70.221 Y103.933 E12.64212
G1 X69.778 Y103.56 E12.67094
G1 X69.661 Y103.443 E12.67918
G1 X69.323 Y103.047 E12.70509
G1 X69.048 Y102.605 E12.73099
G1 X68.845 Y102.126 E12.75688
G1 X68.717 Y101.621 E12.78281
G1 X68.668 Y101.045 E12.81158
G1 X68.664 Y83.959 E13.66187
G1 X68.704 Y83.44 E13.68778
G1 X68.823 Y82.933 E13.71369
G1 X69.017 Y82.45 E13.7396
G1 X69.284 Y82.003 E13.76551
G1 X69.657 Y81.559 E13.79437
G1 X69.774 Y81.442 E13.8026
M204 S5000
G0 F2400 X69.94 Y81.842
M204 S200
G1 F1200 X70.057 Y81.725 E13.81083
G1 X70.429 Y81.408 E13.83516
G1 X70.849 Y81.157 E13.85951
G1 X71.303 Y80.977 E13.88381
G1 X71.781 Y80.874 E13.90815
G1 X72.173 Y80.848 E13.9277
G1 X112.827 Y80.848 E15.95086
G1 X113.314 Y80.888 E15.97518
G1 X113.789 Y81.007 E15.99955
G1 X114.237 Y81.201 E16.02384
G1 X114.648 Y81.466 E16.04818
G1 X114.943 Y81.725 E16.06772
G1 X115.06 Y81.842 E16.07595
G1 X115.377 Y82.214 E16.10027
G1 X115.628 Y82.634 E16.12462
G1 X115.808 Y83.088 E16.14893
G1 X115.911 Y83.566 E16.17326
G1 X115.937 Y83.959 E16.19286
G1 X115.933 Y101.045 E17.04316
G1 X115.893 Y101.532 E17.06747
G1 X115.774 Y102.006 E17.09179
G1 X115.58 Y102.455 E17.11613
G1 X115.315 Y102.866 E17.14047
G1 X115.056 Y103.16 E17.15997
G1 X114.939 Y103.277 E17.1682
G1 X114.567 Y103.594 E17.19253
G1 X114.147 Y103.845 E17.21688
G1 X113.693 Y104.025 E17.24118
G1 X113.215 Y104.128 E17.26552
G1 X112.823 Y104.154 E17.28507
G1 X72.177 Y104.154 E19.30783
G1 X71.69 Y104.114 E19.33215
G1 X71.215 Y103.995 E19.35652
G1 X70.767 Y103.801 E19.38082
G1 X70.356 Y103.536 E19.40515
G1 X70.061 Y103.277 E19.42469
G1 X69.944 Y103.16 E19.43292
G1 X69.627 Y102.788 E19.45725
G1 X69.376 Y102.368 E19.48159
G1 X69.196 Y101.914 E19.5059
G1 X69.093 Y101.436 E19.53023
G1 X69.067 Y101.045 E19.54973
G1 X69.063 Y83.959 E20.40003
G1 X69.103 Y83.471 E20.42439
G1 X69.221 Y82.997 E20.4487
G1 X69.416 Y82.548 E20.47306
G1 X69.68 Y82.137 E20.49737
G1 X69.94 Y81.842 E20.51694
M204 S5000
G0 F2400 X70.339 Y82.007
M204 S200
G1 F1200 X70.688 Y81.714 E20.53962
G1 X71.082 Y81.488 E20.56222
G1 X71.51 Y81.333 E20.58488
G1 X72.173 Y81.247 E20.61815
G1 X112.827 Y81.247 E22.64131
G1 X113.28 Y81.287 E22.66395
G1 X113.72 Y81.405 E22.68662
G1 X114.132 Y81.599 E22.70928
G1 X114.661 Y82.007 E22.74253
G1 X114.778 Y82.124 E22.75076
G1 X115.071 Y82.473 E22.77344
G1 X115.297 Y82.867 E22.79604
G1 X115.452 Y83.295 E22.8187
G1 X115.538 Y83.959 E22.85202
G1 X115.534 Y101.045 E23.70231
G1 X115.494 Y101.498 E23.72494
G1 X115.375 Y101.937 E23.74758
G1 X115.182 Y102.349 E23.77022
G1 X114.774 Y102.878 E23.80346
G1 X114.657 Y102.995 E23.8117
G1 X114.308 Y103.288 E23.83438
G1 X113.914 Y103.514 E23.85698
G1 X113.486 Y103.669 E23.87963
G1 X112.823 Y103.755 E23.9129
G1 X72.177 Y103.755 E25.93567
G1 X71.724 Y103.715 E25.9583
G1 X71.284 Y103.597 E25.98097
G1 X70.872 Y103.403 E26.00364
G1 X70.343 Y102.995 E26.03688
G1 X70.226 Y102.878 E26.04512
G1 X69.933 Y102.529 E26.06779
G1 X69.707 Y102.135 E26.0904
G1 X69.552 Y101.707 E26.11305
G1 X69.466 Y101.045 E26.14627
G1 X69.462 Y83.959 E26.99657
G1 X69.502 Y83.505 E27.01925
G1 X69.62 Y83.066 E27.04187
G1 X69.814 Y82.654 E27.06453
G1 X70.222 Y82.124 E27.09782
G1 X70.339 Y82.007 E27.10605
M204 S5000
G0 F2400 X70.621 Y82.289
M204 S200
G1 F1200 X70.944 Y82.022 E27.12691
G1 X71.311 Y81.822 E27.14771
G1 X71.71 Y81.695 E27.16855
G1 X72.173 Y81.646 E27.19172
G1 X112.827 Y81.646 E29.21488
G1 X113.244 Y81.686 E29.23573
G1 X113.645 Y81.804 E29.25653
G1 X114.017 Y81.997 E29.27739
G1 X114.379 Y82.289 E29.30053
G1 X114.496 Y82.406 E29.30877
G1 X114.763 Y82.729 E29.32962
G1 X114.963 Y83.096 E29.35042
G1 X115.09 Y83.495 E29.37126
G1 X115.139 Y83.959 E29.39448
G1 X115.135 Y101.045 E30.24477
G1 X115.095 Y101.461 E30.26557
G1 X114.977 Y101.863 E30.28642
G1 X114.784 Y102.234 E30.30723
G1 X114.492 Y102.596 E30.33038
G1 X114.375 Y102.713 E30.33861
G1 X114.052 Y102.98 E30.35947
G1 X113.685 Y103.18 E30.38027
G1 X113.286 Y103.307 E30.4011
G1 X112.823 Y103.356 E30.42427
G1 X72.177 Y103.356 E32.44704
G1 X71.76 Y103.316 E32.46789
G1 X71.359 Y103.198 E32.48869
G1 X70.987 Y103.005 E32.50955
G1 X70.625 Y102.713 E32.53269
G1 X70.508 Y102.596 E32.54093
G1 X70.241 Y102.273 E32.56178
G1 X70.041 Y101.906 E32.58258
G1 X69.914 Y101.507 E32.60342
G1 X69.865 Y101.045 E32.62654
G1 X69.861 Y83.959 E33.47683
G1 X69.901 Y83.542 E33.49768
G1 X70.019 Y83.14 E33.51853
G1 X70.211 Y82.768 E33.53936
G1 X70.504 Y82.406 E33.56254
G1 X70.621 Y82.289 E33.57078
M204 S5000
G0 F2400 X70.786 Y82.688
M204 S200
G1 F1200 X70.903 Y82.571 E33.57901
G1 X71.197 Y82.333 E33.59783
G1 X71.535 Y82.162 E33.61668
G1 X71.901 Y82.066 E33.63552
G1 X72.173 Y82.045 E33.64909
G1 X112.827 Y82.045 E35.67226
G1 X113.203 Y82.085 E35.69107
G1 X113.563 Y82.203 E35.70993
G1 X113.89 Y82.393 E35.72875
G1 X114.097 Y82.571 E35.74234
G1 X114.214 Y82.688 E35.75057
G1 X114.452 Y82.982 E35.76939
G1 X114.623 Y83.32 E35.78824
G1 X114.719 Y83.686 E35.80708
G1 X114.74 Y83.958 E35.82065
G1 X114.736 Y101.044 E36.67094
G1 X114.696 Y101.421 E36.68981
G1 X114.578 Y101.78 E36.70862
G1 X114.387 Y102.107 E36.72746
G1 X114.21 Y102.314 E36.74102
G1 X114.093 Y102.431 E36.74925
G1 X113.799 Y102.669 E36.76808
G1 X113.461 Y102.84 E36.78693
G1 X113.095 Y102.936 E36.80576
G1 X112.823 Y102.957 E36.81933
G1 X72.177 Y102.957 E38.8421
G1 X71.801 Y102.917 E38.86092
G1 X71.441 Y102.799 E38.87977
G1 X71.114 Y102.609 E38.89859
G1 X70.907 Y102.431 E38.91218
G1 X70.79 Y102.314 E38.92041
G1 X70.552 Y102.02 E38.93924
G1 X70.381 Y101.682 E38.95809
G1 X70.285 Y101.316 E38.97692
G1 X70.264 Y101.044 E38.9905
G1 X70.26 Y83.958 E39.84079
G1 X70.3 Y83.582 E39.85961
G1 X70.418 Y83.222 E39.87846
G1 X70.608 Y82.895 E39.89728
G1 X70.786 Y82.688 E39.91087
M204 S5000
G0 F2400 X71.185 Y82.853
M204 S200
G1 F1200 X71.448 Y82.647 E39.92749
G1 X71.751 Y82.509 E39.94406
G1 X72.173 Y82.444 E39.96531
G1 X112.827 Y82.444 E41.98848
G1 X113.158 Y82.484 E42.00507
G1 X113.471 Y82.601 E42.0217
G1 X113.815 Y82.853 E42.04292
G1 X113.932 Y82.97 E42.05115
G1 X114.138 Y83.233 E42.06778
G1 X114.276 Y83.536 E42.08435
G1 X114.341 Y83.958 E42.1056
G1 X114.337 Y101.044 E42.95589
G1 X114.297 Y101.376 E42.97253
G1 X114.18 Y101.688 E42.98911
G1 X113.928 Y102.032 E43.01033
G1 X113.811 Y102.149 E43.01857
G1 X113.548 Y102.355 E43.03519
G1 X113.245 Y102.493 E43.05176
G1 X112.823 Y102.558 E43.07301
G1 X72.177 Y102.558 E45.09578
G1 X71.846 Y102.518 E45.11237
G1 X71.533 Y102.401 E45.129
G1 X71.189 Y102.149 E45.15022
G1 X71.072 Y102.032 E45.15846
G1 X70.866 Y101.769 E45.17508
G1 X70.728 Y101.466 E45.19165
G1 X70.663 Y101.044 E45.2129
G1 X70.659 Y83.958 E46.06319
G1 X70.699 Y83.627 E46.07979
G1 X70.816 Y83.315 E46.09637
G1 X71.068 Y82.97 E46.11763
G1 X71.185 Y82.853 E46.12586
M204 S5000
G0 F2400 X71.35 Y83.252
M204 S200
G1 F1200 X71.467 Y83.135 E46.1341
G1 X71.693 Y82.966 E46.14814
G1 X71.957 Y82.867 E46.16217
G1 X72.173 Y82.843 E46.17299
G1 X112.827 Y82.843 E48.19615
G1 X113.106 Y82.883 E48.21018
G1 X113.363 Y82.999 E48.22421
G1 X113.533 Y83.135 E48.23505
G1 X113.65 Y83.252 E48.24328
G1 X113.819 Y83.478 E48.25733
G1 X113.918 Y83.742 E48.27136
G1 X113.942 Y83.958 E48.28217
G1 X113.938 Y101.044 E49.13247
G1 X113.898 Y101.323 E49.14649
G1 X113.782 Y101.58 E49.16052
G1 X113.646 Y101.75 E49.17136
G1 X113.529 Y101.867 E49.17959
G1 X113.303 Y102.036 E49.19364
G1 X113.039 Y102.135 E49.20767
G1 X112.823 Y102.159 E49.21848
G1 X72.177 Y102.159 E51.24125
G1 X71.898 Y102.119 E51.25528
G1 X71.641 Y102.003 E51.26931
G1 X71.471 Y101.867 E51.28014
G1 X71.354 Y101.75 E51.28838
G1 X71.185 Y101.524 E51.30242
G1 X71.086 Y101.26 E51.31645
G1 X71.062 Y101.044 E51.32727
G1 X71.058 Y83.958 E52.17756
G1 X71.098 Y83.679 E52.19159
G1 X71.214 Y83.422 E52.20562
G1 X71.35 Y83.252 E52.21646
M204 S5000
G0 F2400 X71.749 Y83.417
M204 S200
G1 F1200 X71.929 Y83.294 E52.22731
G1 X72.173 Y83.242 E52.23972
G1 X112.827 Y83.242 E54.26289
G1 X113.041 Y83.282 E54.27372
G1 X113.251 Y83.417 E54.28614
G1 X113.368 Y83.534 E54.29438
G1 X113.491 Y83.714 E54.30523
G1 X113.543 Y83.958 E54.31764
G1 X113.539 Y101.044 E55.16794
G1 X113.499 Y101.258 E55.17877
G1 X113.364 Y101.468 E55.19119
G1 X113.247 Y101.585 E55.19943
G1 X113.067 Y101.708 E55.21028
G1 X112.823 Y101.76 E55.22269
G1 X72.177 Y101.76 E57.24546
G1 X71.963 Y101.72 E57.2563
G1 X71.753 Y101.585 E57.26872
G1 X71.636 Y101.468 E57.27695
G1 X71.513 Y101.288 E57.2878
G1 X71.461 Y101.044 E57.30022
G1 X71.457 Y83.958 E58.15051
G1 X71.497 Y83.744 E58.16135
G1 X71.632 Y83.534 E58.17377
G1 X71.749 Y83.417 E58.182
M204 S5000
G0 F2400 X72.032 Y83.7
M204 S200
G1 F1200 X72.173 Y83.641 E58.18961
G1 X112.827 Y83.641 E60.21278
G1 X112.968 Y83.7 E60.22038
G1 X113.085 Y83.817 E60.22862
G1 X113.144 Y83.958 E60.23622
G1 X113.14 Y101.044 E61.08652
G1 X113.081 Y101.185 E61.09412
G1 X112.964 Y101.302 E61.10236
G1 X112.823 Y101.361 E61.10996
G1 X72.177 Y101.361 E63.13273
G1 X72.036 Y101.302 E63.14034
G1 X71.919 Y101.185 E63.14857
G1 X71.86 Y101.044 E63.15618
G1 X71.856 Y83.958 E64.00647
G1 X71.915 Y83.817 E64.01408
G1 X72.032 Y83.7 E64.02231
M204 S5000
G1 F1500 E62.02231
G0 F2400 X71.702 Y83.372
G0 X71.701 Y83.372
G0 X71.746 Y83.439
G0 X76.261 Y90.095
G0 X76.306 Y90.161
G0 X76.471 Y90.402
M204 S200
;TYPE:SUPPORT
G1 F1500 E64.02231
G1 F1200 X82.027 Y90.403 E64.29881
G1 X89.045 Y90.403 E64.64806
G1 X89.048 Y94.604 E64.85713
G1 X76.468 Y94.604 E65.48318
G1 X76.471 Y90.402 E65.69229
M204 S5000
G0 F2400 X76.632 Y90.661
M204 S200
G1 F1200 X88.885 Y90.661 E66.30207
M204 S5000
G0 F2400 X85.328 Y90.564
M204 S200
G1 F1200 X85.328 Y94.443 E66.49511
M204 S5000
G0 F2400 X79.995 Y94.443
M204 S200
G1 F1200 X79.995 Y90.564 E66.68815
M204 S5000
G1 F1500 E64.68815
G0 F2400 X86.226 Y90.13
G0 X86.306 Y90.125
G0 X95.46 Y89.489
G0 X95.54 Y89.483
G0 X96.252 Y89.435
M204 S200
G1 F1500 E66.68815
G1 F1200 X98.417 Y89.435 E66.79589
G1 X98.45 Y89.402 E66.79821
G1 X105.005 Y89.403 E67.12443
G1 X108.845 Y89.403 E67.31553
G1 X108.877 Y89.435 E67.31778
G1 X109.603 Y89.435 E67.35391
G1 X109.603 Y95.601 E67.66076
G1 X106.813 Y95.602 E67.79961
G1 X96.251 Y95.603 E68.32523
G1 X96.252 Y89.435 E68.63219
M204 S5000
G0 F2400 X96.413 Y90.661
M204 S200
G1 F1200 X109.442 Y90.661 E69.28058
M204 S5000
G0 F2400 X106.66 Y89.564
M204 S200
G1 F1200 X106.66 Y95.442 E69.5731
M204 S5000
G0 F2400 X101.327 Y95.442
M204 S200
G1 F1200 X101.327 Y89.564 E69.86562
M204 S5000
G1 F1500 E67.86562
G0 F2400 X101.328 Y89.169
G0 X101.328 Y87.887
G0 X95.007 Y87.807
G0 X95.006 Y88.304
M204 S200
;TYPE:WALL-OUTER
G1 F1500 E69.86562
G1 F1200 X94.825 Y88.815 E69.8926
G1 X94.718 Y89.2 E69.91249
G1 X94.638 Y89.591 E69.93235
G1 X94.605 Y89.801 E69.94293
G1 X94.564 Y90.199 E69.96284
G1 X94.551 Y90.597 E69.98266
G1 X94.555 Y94.609 E70.18231
G1 X94.582 Y95.008 E70.20222
G1 X94.636 Y95.404 E70.22211
G1 X94.675 Y95.613 E70.23269
G1 X94.769 Y96 E70.25251
G1 X94.89 Y96.381 E70.2724
G1 X95.008 Y96.703 E70.28947
G1 X111.175 Y96.701 E71.09402
G1 X111.291 Y96.384 E71.11082
G1 X111.411 Y96.007 E71.13051
G1 X111.466 Y95.8 E71.14117
G1 X111.545 Y95.409 E71.16102
G1 X111.6 Y95.013 E71.18092
G1 X111.619 Y94.802 E71.19146
G1 X111.631 Y94.407 E71.21113
G1 X111.631 Y90.601 E71.40054
G1 X111.618 Y90.204 E71.4203
G1 X111.599 Y89.992 E71.4309
G1 X111.545 Y89.598 E71.45069
G1 X111.465 Y89.205 E71.47065
G1 X111.41 Y89 E71.48121
G1 X111.291 Y88.621 E71.50098
G1 X111.173 Y88.305 E71.51776
G1 X95.006 Y88.304 E72.32232
M204 S5000
G0 F2400 X94.94 Y88.492
G0 X94.471 Y88.325
G0 X90.315 Y88.807
G0 X90.314 Y89.305
M204 S200
G1 F1200 X73.505 Y89.304 E73.15883
G1 X73.418 Y89.838 E73.18576
G1 X73.396 Y90.039 E73.19582
G1 X73.371 Y90.414 E73.21452
G1 X73.372 Y94.594 E73.42254
G1 X73.397 Y94.969 E73.44125
G1 X73.419 Y95.169 E73.45126
G1 X73.504 Y95.703 E73.47817
G1 X90.313 Y95.702 E74.31468
G1 X90.401 Y95.162 E74.3419
G1 X90.437 Y94.786 E74.3607
G1 X90.449 Y94.41 E74.37942
G1 X90.446 Y90.413 E74.57833
G1 X90.421 Y90.038 E74.59704
G1 X90.399 Y89.837 E74.6071
G1 X90.314 Y89.305 E74.63391
M204 S5000
G0 F2400 X90.114 Y89.305
G0 X90.115 Y88.807
G0 X72.723 Y84.508
G0 X72.454 Y84.04
M204 S200
G1 F1200 X112.546 Y84.04 E76.62911
G1 X112.745 Y84.04 E76.63901
G1 X112.745 Y84.239 E76.64542
G1 X112.741 Y100.962 E77.47765
G1 X72.259 Y100.962 E79.49225
G1 X72.255 Y84.239 E80.32448
G1 X72.255 Y84.04 E80.33439
G1 X72.454 Y84.04 E80.34079
M204 S5000
G0 F2400 X72.654 Y84.04
G0 X72.852 Y84.438
M204 S200
;TYPE:WALL-INNER
G1 F1200 X112.347 Y84.438 E82.30628
G1 X112.347 Y89.603 E82.56332
G1 X112.347 Y89.947 E82.58044
G1 X112.347 Y90.18 E82.59203
G1 X112.347 Y90.594 E82.61264
G1 X112.347 Y94.413 E82.80269
G1 X112.346 Y94.826 E82.82324
G1 X112.345 Y95.058 E82.83479
G1 X112.345 Y95.421 E82.85285
G1 X112.343 Y100.564 E83.1088
G1 X72.657 Y100.564 E85.08379
G1 X72.657 Y95.424 E85.33959
G1 X72.657 Y95.222 E85.34964
G1 X72.657 Y95.004 E85.36049
G1 X72.657 Y94.607 E85.38024
G1 X72.657 Y90.402 E85.58951
G1 X72.656 Y90.005 E85.60927
G1 X72.655 Y89.785 E85.62021
G1 X72.655 Y89.596 E85.62962
G1 X72.653 Y84.637 E85.87641
G1 X72.653 Y84.438 E85.88631
G1 X72.852 Y84.438 E85.89272
M204 S5000
G0 F2400 X72.852 Y84.538
G0 X73.103 Y88.83
G0 X73.167 Y88.906
M204 S200
G1 F1200 X73.053 Y89.598 E85.92762
G1 X73.023 Y89.784 E85.93663
G1 X72.999 Y90.004 E85.94645
