;FLAVOR:RepRap
;TIME:7713
;Filament used: 6.21731m
;Layer height: 0.15
;Generated with Cura_SteamEngine 2.6.2
M190 S60
M104 S220
M109 S220
G21 ;metric values
G90 ;absolute positioning
M82 ;set extruder to absolute mode
M107 ;start with the fan off
G92 E0 ;zero the extruded length
G1 F200 E3 ;extrude 3mm of feed stock
G92 E0 ;zero the extruded length again
G1 F9000
M117 Printing...
;LAYER_COUNT:39
;LAYER:0
M107
M204 S5000
G0 F2400 X63.882 Y63.014 Z0.3
M204 S200
;TYPE:SKIRT
G1 F1200 X64.028 Y62.873 E0.0101
G1 X65.477 Y61.546 E0.10788
G1 X65.678 Y61.374 E0.12105
G1 X68.216 Y59.357 E0.28238
G1 X68.481 Y59.165 E0.29867
G1 X71.198 Y57.365 E0.46086
G1 X71.485 Y57.192 E0.47754
G1 X74.342 Y55.643 E0.63927
G1 X74.636 Y55.5 E0.65554
G1 X77.615 Y54.203 E0.81723
G1 X77.896 Y54.094 E0.83223
G1 X80.36 Y53.247 E0.9619
G1 X80.607 Y53.171 E0.97476
G1 X83.124 Y52.494 E1.10447
G1 X83.357 Y52.439 E1.11638
G1 X85.274 Y52.051 E1.21372
G1 X85.497 Y52.013 E1.22497
G1 X88.075 Y51.65 E1.35454
G1 X88.373 Y51.62 E1.36944
G1 X91.619 Y51.422 E1.53128
G1 X91.916 Y51.416 E1.54606
G1 X94.515 Y51.461 E1.67542
G1 X94.746 Y51.472 E1.68693
G1 X96.694 Y51.625 E1.78417
G1 X96.958 Y51.655 E1.7974
G1 X100.181 Y52.137 E1.95957
G1 X100.506 Y52.2 E1.97605
G1 X103.665 Y52.959 E2.13773
G1 X103.949 Y53.039 E2.15242
G1 X106.43 Y53.844 E2.28222
G1 X106.649 Y53.923 E2.29381
G1 X108.464 Y54.638 E2.39089
G1 X108.678 Y54.729 E2.40246
G1 X111.036 Y55.829 E2.53195
G1 X111.241 Y55.933 E2.54339
G1 X112.959 Y56.865 E2.64065
G1 X113.189 Y57.001 E2.65395
G1 X115.932 Y58.75 E2.81585
G1 X116.202 Y58.938 E2.83222
G1 X118.78 Y60.916 E2.99393
G1 X119.008 Y61.106 E3.0087
G1 X120.946 Y62.85 E3.13844
G1 X121.114 Y63.011 E3.15002
G1 X122.482 Y64.403 E3.24715
G1 X122.639 Y64.572 E3.25863
G1 X124.347 Y66.536 E3.38816
G1 X124.534 Y66.77 E3.40307
G1 X126.471 Y69.389 E3.56518
G1 X126.655 Y69.662 E3.58156
G1 X128.355 Y72.435 E3.74343
G1 X128.516 Y72.724 E3.75989
G1 X129.967 Y75.634 E3.92171
G1 X130.089 Y75.906 E3.93655
G1 X131.065 Y78.321 E4.06618
G1 X131.155 Y78.569 E4.07931
G1 X131.961 Y81.048 E4.20903
G1 X132.042 Y81.336 E4.22392
G1 X132.8 Y84.496 E4.38564
G1 X132.863 Y84.819 E4.40202
G1 X133.345 Y88.04 E4.5641
G1 X133.378 Y88.337 E4.57897
G1 X133.559 Y90.933 E4.70847
G1 X133.567 Y91.263 E4.7249
G1 X133.499 Y95.173 E4.91951
G1 X133.476 Y95.535 E4.93756
G1 X133.11 Y98.757 E5.09894
G1 X133.051 Y99.118 E5.11714
G1 X132.237 Y102.945 E5.31186
G1 X132.144 Y103.296 E5.32993
G1 X131.166 Y106.397 E5.49174
G1 X131.078 Y106.646 E5.50488
G1 X130.362 Y108.464 E5.60212
G1 X130.271 Y108.678 E5.6137
G1 X129.171 Y111.036 E5.74318
G1 X129.034 Y111.3 E5.75798
G1 X127.431 Y114.133 E5.91997
G1 X127.256 Y114.414 E5.93645
G1 X125.413 Y117.095 E6.09835
G1 X125.236 Y117.331 E6.11304
G1 X123.601 Y119.352 E6.2424
G1 X123.425 Y119.555 E6.25577
G1 X121.646 Y121.461 E6.38552
G1 X121.462 Y121.645 E6.39847
G1 X119.555 Y123.425 E6.52829
G1 X119.327 Y123.622 E6.54329
G1 X116.784 Y125.643 E6.70494
G1 X116.519 Y125.835 E6.72123
G1 X113.802 Y127.635 E6.88342
G1 X113.515 Y127.808 E6.9001
G1 X110.658 Y129.357 E7.06183
G1 X110.364 Y129.5 E7.0781
G1 X107.385 Y130.797 E7.23979
G1 X107.104 Y130.906 E7.25479
G1 X104.64 Y131.753 E7.38446
G1 X104.393 Y131.829 E7.39732
G1 X101.876 Y132.506 E7.52703
G1 X101.643 Y132.561 E7.53894
G1 X99.726 Y132.949 E7.63628
G1 X99.503 Y132.987 E7.64754
G1 X96.925 Y133.35 E7.7771
G1 X96.627 Y133.38 E7.792
G1 X93.381 Y133.578 E7.95384
G1 X93.084 Y133.584 E7.96862
G1 X90.485 Y133.539 E8.09798
G1 X90.155 Y133.519 E8.11444
G1 X86.263 Y133.11 E8.30919
G1 X85.903 Y133.055 E8.32731
G1 X82.724 Y132.408 E8.48876
G1 X82.435 Y132.337 E8.50357
G1 X79.931 Y131.619 E8.63321
G1 X79.679 Y131.537 E8.64639
G1 X77.231 Y130.646 E8.77604
G1 X77.02 Y130.562 E8.78734
G1 X75.226 Y129.784 E8.88465
G1 X74.952 Y129.652 E8.89979
G1 X71.507 Y127.817 E9.09404
G1 X71.253 Y127.669 E9.10867
G1 X69.607 Y126.621 E9.20577
G1 X69.389 Y126.471 E9.21894
G1 X66.769 Y124.533 E9.38112
G1 X66.534 Y124.345 E9.3961
G1 X64.57 Y122.636 E9.52566
G1 X64.379 Y122.457 E9.53869
G1 X62.54 Y120.619 E9.66808
G1 X62.359 Y120.425 E9.68128
G1 X60.654 Y118.464 E9.8106
G1 X60.467 Y118.231 E9.82547
G1 X58.529 Y115.61 E9.98769
G1 X58.364 Y115.367 E10.00231
G1 X56.982 Y113.159 E10.13194
G1 X56.831 Y112.897 E10.14699
G1 X55.33 Y110.01 E10.30892
G1 X55.179 Y109.681 E10.32693
G1 X53.716 Y106.06 E10.52129
G1 X53.605 Y105.746 E10.53786
G1 X52.845 Y103.255 E10.66747
G1 X52.778 Y103.005 E10.68035
G1 X52.191 Y100.472 E10.80974
G1 X52.144 Y100.238 E10.82162
G1 X51.823 Y98.309 E10.91894
G1 X51.79 Y98.051 E10.93188
G1 X51.478 Y94.816 E11.09362
G1 X51.461 Y94.518 E11.10848
G1 X51.416 Y91.917 E11.23794
G1 X51.42 Y91.653 E11.25108
G1 X51.556 Y89.053 E11.38064
G1 X51.579 Y88.791 E11.39373
G1 X51.895 Y86.207 E11.52328
G1 X51.943 Y85.909 E11.5383
G1 X52.593 Y82.722 E11.70017
G1 X52.663 Y82.437 E11.71478
G1 X53.379 Y79.936 E11.84424
G1 X53.462 Y79.683 E11.85749
G1 X54.355 Y77.229 E11.98745
G1 X54.439 Y77.016 E11.99885
G1 X55.217 Y75.223 E12.09611
G1 X55.349 Y74.95 E12.1112
G1 X57.183 Y71.507 E12.30534
G1 X57.331 Y71.253 E12.31997
G1 X58.377 Y69.61 E12.4169
G1 X58.527 Y69.391 E12.43011
G1 X60.469 Y66.766 E12.5926
G1 X60.657 Y66.533 E12.6075
G1 X62.36 Y64.575 E12.73664
G1 X62.514 Y64.408 E12.74795
G1 X63.882 Y63.014 E12.84515
M204 S5000
G0 F2400 X64.167 Y63.293
M204 S200
G1 F1200 X64.297 Y63.167 E12.85416
G1 X65.746 Y61.84 E12.95194
G1 X65.927 Y61.686 E12.96376
G1 X68.465 Y59.669 E13.1251
G1 X68.702 Y59.497 E13.13967
G1 X71.419 Y57.697 E13.30186
G1 X71.675 Y57.543 E13.31673
G1 X74.532 Y55.994 E13.47846
G1 X74.795 Y55.866 E13.49302
G1 X77.774 Y54.569 E13.65471
G1 X78.025 Y54.471 E13.66812
G1 X80.489 Y53.624 E13.79779
G1 X80.711 Y53.556 E13.80934
G1 X83.228 Y52.879 E13.93905
G1 X83.436 Y52.83 E13.94969
G1 X85.353 Y52.442 E14.04702
G1 X85.553 Y52.408 E14.05712
G1 X88.131 Y52.045 E14.18668
G1 X88.397 Y52.018 E14.19999
G1 X91.643 Y51.82 E14.36182
G1 X91.909 Y51.815 E14.37506
G1 X94.508 Y51.86 E14.50442
G1 X94.715 Y51.869 E14.51474
G1 X96.663 Y52.022 E14.61198
G1 X96.899 Y52.049 E14.6238
G1 X100.122 Y52.531 E14.78598
G1 X100.412 Y52.588 E14.80068
G1 X103.571 Y53.347 E14.96237
G1 X103.826 Y53.419 E14.97555
G1 X106.307 Y54.224 E15.10536
G1 X106.503 Y54.294 E15.11572
G1 X108.318 Y55.009 E15.2128
G1 X108.509 Y55.091 E15.22314
G1 X110.867 Y56.191 E15.35263
G1 X111.05 Y56.283 E15.36282
G1 X112.768 Y57.215 E15.46009
G1 X112.975 Y57.337 E15.47205
G1 X115.718 Y59.086 E15.63394
G1 X115.959 Y59.255 E15.64859
G1 X118.537 Y61.233 E15.8103
G1 X118.741 Y61.403 E15.82351
G1 X120.679 Y63.147 E15.95326
G1 X120.829 Y63.29 E15.96357
G1 X122.197 Y64.682 E16.0607
G1 X122.338 Y64.834 E16.07102
G1 X124.046 Y66.798 E16.20055
G1 X124.213 Y67.007 E16.21386
G1 X126.15 Y69.626 E16.37597
G1 X126.315 Y69.87 E16.39063
G1 X128.015 Y72.643 E16.5525
G1 X128.159 Y72.902 E16.56725
G1 X129.61 Y75.812 E16.72907
G1 X129.719 Y76.055 E16.74232
G1 X130.695 Y78.47 E16.87195
G1 X130.776 Y78.692 E16.88371
G1 X131.582 Y81.171 E17.01343
G1 X131.654 Y81.429 E17.02676
G1 X132.412 Y84.589 E17.18848
G1 X132.469 Y84.878 E17.20314
G1 X132.951 Y88.099 E17.36522
G1 X132.98 Y88.365 E17.37854
G1 X133.161 Y90.961 E17.50804
G1 X133.168 Y91.256 E17.52273
G1 X133.1 Y95.166 E17.71734
G1 X133.079 Y95.49 E17.7335
G1 X132.713 Y98.712 E17.89487
G1 X132.661 Y99.035 E17.91116
G1 X131.847 Y102.862 E18.10587
G1 X131.764 Y103.176 E18.12203
G1 X130.786 Y106.277 E18.28385
G1 X130.707 Y106.5 E18.29562
G1 X129.991 Y108.318 E18.39286
G1 X129.909 Y108.509 E18.4032
G1 X128.809 Y110.867 E18.53269
G1 X128.687 Y111.103 E18.54591
G1 X127.084 Y113.936 E18.7079
G1 X126.927 Y114.188 E18.72268
G1 X125.084 Y116.869 E18.88458
G1 X124.926 Y117.08 E18.8977
G1 X123.291 Y119.101 E19.02707
G1 X123.134 Y119.282 E19.03899
G1 X121.355 Y121.188 E19.16874
G1 X121.19 Y121.354 E19.18039
G1 X119.283 Y123.134 E19.31021
G1 X119.078 Y123.31 E19.32366
G1 X116.535 Y125.331 E19.48531
G1 X116.298 Y125.503 E19.49988
G1 X113.581 Y127.303 E19.66208
G1 X113.325 Y127.457 E19.67694
G1 X110.468 Y129.006 E19.83868
G1 X110.205 Y129.134 E19.85323
G1 X107.226 Y130.431 E20.01493
G1 X106.975 Y130.529 E20.02833
G1 X104.511 Y131.376 E20.158
G1 X104.289 Y131.444 E20.16955
G1 X101.772 Y132.121 E20.29927
G1 X101.564 Y132.17 E20.3099
G1 X99.647 Y132.558 E20.40724
G1 X99.447 Y132.592 E20.41733
G1 X96.869 Y132.955 E20.54689
G1 X96.603 Y132.982 E20.5602
G1 X93.357 Y133.18 E20.72204
G1 X93.091 Y133.185 E20.73528
G1 X90.492 Y133.14 E20.86464
G1 X90.196 Y133.122 E20.87939
G1 X86.304 Y132.713 E21.07415
G1 X85.983 Y132.664 E21.09031
G1 X82.804 Y132.017 E21.25176
G1 X82.545 Y131.954 E21.26502
G1 X80.041 Y131.236 E21.39466
G1 X79.816 Y131.162 E21.40644
G1 X77.368 Y130.271 E21.53609
G1 X77.178 Y130.196 E21.54625
G1 X75.384 Y129.418 E21.64357
G1 X75.139 Y129.3 E21.6571
G1 X71.694 Y127.465 E21.85134
G1 X71.467 Y127.332 E21.86444
G1 X69.821 Y126.284 E21.96155
G1 X69.626 Y126.15 E21.97332
G1 X67.006 Y124.212 E22.1355
G1 X66.796 Y124.044 E22.14888
G1 X64.832 Y122.335 E22.27845
G1 X64.661 Y122.175 E22.2901
G1 X62.822 Y120.337 E22.41949
G1 X62.66 Y120.164 E22.43129
G1 X60.955 Y118.203 E22.5606
G1 X60.788 Y117.994 E22.57392
G1 X58.85 Y115.373 E22.73614
G1 X58.702 Y115.156 E22.74921
G1 X57.32 Y112.948 E22.87884
G1 X57.185 Y112.713 E22.89233
G1 X55.684 Y109.826 E23.05426
G1 X55.549 Y109.532 E23.07036
G1 X54.086 Y105.911 E23.26471
G1 X53.987 Y105.63 E23.27954
G1 X53.227 Y103.139 E23.40915
G1 X53.167 Y102.915 E23.42069
G1 X52.58 Y100.382 E23.55008
G1 X52.538 Y100.173 E23.56069
G1 X52.217 Y98.244 E23.65801
G1 X52.187 Y98.013 E23.6696
G1 X51.875 Y94.778 E23.83134
G1 X51.86 Y94.511 E23.84465
G1 X51.815 Y91.91 E23.97411
G1 X51.819 Y91.674 E23.98585
G1 X51.955 Y89.074 E24.11542
G1 X51.975 Y88.839 E24.12716
G1 X52.291 Y86.255 E24.25671
G1 X52.334 Y85.989 E24.27012
G1 X52.984 Y82.802 E24.43199
G1 X53.047 Y82.546 E24.44511
G1 X53.763 Y80.045 E24.57457
G1 X53.836 Y79.819 E24.58639
G1 X54.729 Y77.365 E24.71635
G1 X54.805 Y77.175 E24.72653
G1 X55.583 Y75.382 E24.8238
G1 X55.701 Y75.137 E24.83733
G1 X57.535 Y71.694 E25.03147
G1 X57.668 Y71.467 E25.04456
G1 X58.714 Y69.824 E25.14149
G1 X58.848 Y69.629 E25.15326
G1 X60.79 Y67.004 E25.31576
G1 X60.958 Y66.795 E25.32911
G1 X62.661 Y64.837 E25.45825
G1 X62.799 Y64.687 E25.46839
G1 X64.167 Y63.293 E25.56559
M204 S5000
G0 F2400 X64.452 Y63.573
M204 S200
G1 F1200 X64.567 Y63.462 E25.57354
G1 X66.016 Y62.135 E25.67132
G1 X66.175 Y61.999 E25.68174
G1 X68.713 Y59.982 E25.84307
G1 X68.922 Y59.83 E25.85593
G1 X71.639 Y58.03 E26.01812
G1 X71.865 Y57.894 E26.03125
G1 X74.722 Y56.345 E26.19298
G1 X74.954 Y56.232 E26.20583
G1 X77.933 Y54.935 E26.36752
G1 X78.155 Y54.849 E26.37937
G1 X80.619 Y54.002 E26.50903
G1 X80.815 Y53.942 E26.51923
G1 X83.332 Y53.265 E26.64894
G1 X83.515 Y53.221 E26.65831
G1 X85.432 Y52.833 E26.75564
G1 X85.609 Y52.803 E26.76458
G1 X88.187 Y52.44 E26.89414
G1 X88.422 Y52.417 E26.90589
G1 X91.668 Y52.219 E27.06773
G1 X91.902 Y52.213 E27.07938
G1 X94.501 Y52.258 E27.20874
G1 X94.683 Y52.267 E27.21781
G1 X96.631 Y52.42 E27.31505
G1 X96.84 Y52.444 E27.32552
G1 X100.063 Y52.926 E27.4877
G1 X100.319 Y52.976 E27.50068
G1 X103.478 Y53.735 E27.66236
G1 X103.703 Y53.798 E27.67399
G1 X106.184 Y54.603 E27.80379
G1 X106.357 Y54.665 E27.81294
G1 X108.172 Y55.38 E27.91002
G1 X108.34 Y55.453 E27.91913
G1 X110.698 Y56.553 E28.04862
G1 X110.86 Y56.634 E28.05763
G1 X112.578 Y57.566 E28.1549
G1 X112.76 Y57.673 E28.16541
G1 X115.503 Y59.422 E28.3273
G1 X115.716 Y59.571 E28.34024
G1 X118.294 Y61.549 E28.50195
G1 X118.474 Y61.699 E28.51361
G1 X120.412 Y63.443 E28.64336
G1 X120.545 Y63.57 E28.65251
G1 X121.913 Y64.962 E28.74963
G1 X122.036 Y65.096 E28.75869
G1 X123.744 Y67.06 E28.88822
G1 X123.892 Y67.244 E28.89997
G1 X125.829 Y69.863 E29.06208
G1 X125.975 Y70.079 E29.07505
G1 X127.675 Y72.852 E29.23692
G1 X127.801 Y73.08 E29.24988
G1 X129.252 Y75.99 E29.41171
G1 X129.349 Y76.205 E29.42344
G1 X130.325 Y78.62 E29.55307
G1 X130.396 Y78.816 E29.56345
G1 X131.202 Y81.295 E29.69317
G1 X131.266 Y81.522 E29.70491
G1 X132.024 Y84.682 E29.86663
G1 X132.074 Y84.937 E29.87956
G1 X132.556 Y88.158 E30.04164
G1 X132.582 Y88.393 E30.05341
G1 X132.763 Y90.989 E30.18291
G1 X132.77 Y91.249 E30.19585
G1 X132.702 Y95.159 E30.39047
G1 X132.683 Y95.445 E30.40473
G1 X132.317 Y98.667 E30.56611
G1 X132.271 Y98.952 E30.58047
G1 X131.457 Y102.779 E30.77519
G1 X131.383 Y103.056 E30.78945
G1 X130.405 Y106.157 E30.95127
G1 X130.336 Y106.354 E30.96166
G1 X129.62 Y108.172 E31.0589
G1 X129.547 Y108.34 E31.06801
G1 X128.447 Y110.698 E31.1975
G1 X128.34 Y110.907 E31.20918
G1 X126.737 Y113.74 E31.37117
G1 X126.598 Y113.962 E31.38421
G1 X124.755 Y116.643 E31.54611
G1 X124.616 Y116.829 E31.55767
G1 X122.981 Y118.85 E31.68704
G1 X122.842 Y119.01 E31.69758
G1 X121.063 Y120.916 E31.82734
G1 X120.917 Y121.062 E31.83761
G1 X119.01 Y122.842 E31.96743
G1 X118.83 Y122.997 E31.97925
G1 X116.287 Y125.018 E32.1409
G1 X116.078 Y125.17 E32.15377
G1 X113.361 Y126.97 E32.31596
G1 X113.135 Y127.106 E32.32909
G1 X110.278 Y128.655 E32.49082
G1 X110.046 Y128.768 E32.50366
G1 X107.067 Y130.065 E32.66535
G1 X106.845 Y130.151 E32.6772
G1 X104.381 Y130.998 E32.80687
G1 X104.185 Y131.058 E32.81707
G1 X101.668 Y131.735 E32.94678
G1 X101.485 Y131.779 E32.95614
G1 X99.568 Y132.167 E33.05348
G1 X99.391 Y132.197 E33.06241
G1 X96.813 Y132.56 E33.19197
G1 X96.578 Y132.583 E33.20373
G1 X93.332 Y132.781 E33.36556
G1 X93.098 Y132.787 E33.37721
G1 X90.499 Y132.742 E33.50657
G1 X90.238 Y132.726 E33.51959
G1 X86.346 Y132.317 E33.71434
G1 X86.062 Y132.273 E33.72864
G1 X82.883 Y131.626 E33.89009
G1 X82.655 Y131.57 E33.90177
G1 X80.151 Y130.852 E34.03141
G1 X79.952 Y130.787 E34.04183
G1 X77.504 Y129.896 E34.17147
G1 X77.337 Y129.83 E34.18041
G1 X75.543 Y129.052 E34.27772
G1 X75.327 Y128.948 E34.28965
G1 X71.882 Y127.113 E34.4839
G1 X71.682 Y126.996 E34.49543
G1 X70.036 Y125.948 E34.59254
G1 X69.863 Y125.829 E34.60299
G1 X67.243 Y123.891 E34.76517
G1 X67.058 Y123.743 E34.77696
G1 X65.094 Y122.034 E34.90652
G1 X64.943 Y121.893 E34.9168
G1 X63.104 Y120.055 E35.04619
G1 X62.961 Y119.902 E35.05661
G1 X61.256 Y117.941 E35.18593
G1 X61.108 Y117.756 E35.19772
G1 X59.17 Y115.135 E35.35994
G1 X59.04 Y114.944 E35.37144
G1 X57.658 Y112.736 E35.50107
G1 X57.539 Y112.529 E35.51295
G1 X56.038 Y109.642 E35.67488
G1 X55.919 Y109.382 E35.68911
G1 X54.456 Y105.761 E35.88347
G1 X54.368 Y105.513 E35.89656
G1 X53.608 Y103.022 E36.02617
G1 X53.555 Y102.825 E36.03632
G1 X52.968 Y100.292 E36.16572
G1 X52.932 Y100.107 E36.1751
G1 X52.611 Y98.178 E36.27242
G1 X52.584 Y97.974 E36.28266
G1 X52.272 Y94.739 E36.44439
G1 X52.258 Y94.504 E36.45611
G1 X52.213 Y91.903 E36.58557
G1 X52.217 Y91.695 E36.59592
G1 X52.353 Y89.095 E36.72549
G1 X52.371 Y88.888 E36.73583
G1 X52.687 Y86.304 E36.86538
G1 X52.725 Y86.069 E36.87723
G1 X53.375 Y82.882 E37.0391
G1 X53.431 Y82.656 E37.05068
G1 X54.147 Y80.155 E37.18015
G1 X54.211 Y79.956 E37.19055
G1 X55.104 Y77.502 E37.32051
G1 X55.171 Y77.334 E37.32951
G1 X55.949 Y75.541 E37.42678
G1 X56.053 Y75.325 E37.43871
G1 X57.887 Y71.882 E37.63284
G1 X58.004 Y71.682 E37.64437
G1 X59.05 Y70.039 E37.7413
G1 X59.169 Y69.866 E37.75175
G1 X61.111 Y67.241 E37.91425
G1 X61.259 Y67.057 E37.926
G1 X62.962 Y65.099 E38.05514
G1 X63.084 Y64.967 E38.06409
G1 X64.452 Y63.573 E38.16129
M204 S5000
G0 F2400 X64.737 Y63.852
M204 S200
G1 F1200 X64.836 Y63.756 E38.16815
G1 X66.285 Y62.429 E38.26593
G1 X66.423 Y62.311 E38.27496
G1 X68.961 Y60.294 E38.4363
G1 X69.142 Y60.163 E38.44742
G1 X71.859 Y58.363 E38.60961
G1 X72.056 Y58.245 E38.62104
G1 X74.913 Y56.696 E38.78277
G1 X75.114 Y56.598 E38.7939
G1 X78.093 Y55.301 E38.95559
G1 X78.285 Y55.226 E38.96585
G1 X80.749 Y54.379 E39.09552
G1 X80.918 Y54.327 E39.10431
G1 X83.435 Y53.65 E39.23403
G1 X83.594 Y53.613 E39.24215
G1 X85.511 Y53.225 E39.33949
G1 X85.664 Y53.198 E39.34722
G1 X88.242 Y52.835 E39.47678
G1 X88.446 Y52.815 E39.48698
G1 X91.692 Y52.617 E39.64882
G1 X91.895 Y52.612 E39.65892
G1 X94.494 Y52.657 E39.78828
G1 X94.652 Y52.665 E39.79616
G1 X96.6 Y52.818 E39.8934
G1 X96.781 Y52.839 E39.90247
G1 X100.004 Y53.321 E40.06464
