;FLAVOR:RepRap
;TIME:915
;Filament used: 0.458931m
;Layer height: 0.15
;Generated with Cura_SteamEngine 2.6.2
M190 S60
M104 S220
M109 S220
G21 ;metric values
G90 ;absolute positioning
M82 ;set extruder to absolute mode
M107 ;start with the fan off
G92 E0 ;zero the extruded length
G1 F200 E3 ;extrude 3mm of feed stock
G92 E0 ;zero the extruded length again
G1 F9000
M117 Printing...
;LAYER_COUNT:96
;LAYER:0
M107
M204 S5000
G0 F2400 X85.874 Y86.486 Z0.3
M204 S200
;TYPE:SKIRT
G1 F1200 X86.457 Y85.922 E0.04037
G1 X87.594 Y85.036 E0.1121
G1 X88.051 Y84.73 E0.13947
G1 X88.507 Y84.51 E0.16467
G1 X89.825 Y83.979 E0.23538
G1 X90.349 Y83.811 E0.26277
G1 X90.84 Y83.725 E0.28757
G1 X92.275 Y83.572 E0.35939
G1 X93.088 Y83.573 E0.39985
G1 X93.831 Y83.654 E0.43705
G1 X94.472 Y83.781 E0.46957
G1 X95.49 Y84.075 E0.5223
G1 X96.09 Y84.305 E0.55428
G1 X96.728 Y84.614 E0.58955
G1 X97.407 Y85.036 E0.62934
G1 X98.541 Y85.92 E0.70089
G1 X99.119 Y86.48 E0.74095
G1 X99.591 Y87.045 E0.77758
G1 X100.032 Y87.7 E0.81688
G1 X100.704 Y88.968 E0.8883
G1 X100.925 Y89.471 E0.91564
G1 X101.063 Y89.957 E0.94078
G1 X101.358 Y91.349 E1.01159
G1 X101.432 Y91.894 E1.03896
G1 X101.431 Y92.396 E1.06394
G1 X101.332 Y93.833 E1.13563
G1 X101.195 Y94.614 E1.17509
G1 X100.998 Y95.303 E1.21075
G1 X100.701 Y96.039 E1.25025
G1 X100.03 Y97.303 E1.32146
G1 X99.588 Y97.96 E1.36087
G1 X99.118 Y98.521 E1.39729
G1 X98.747 Y98.905 E1.42386
G1 X98.21 Y99.388 E1.45981
G1 X97.797 Y99.71 E1.48587
G1 X97.199 Y100.114 E1.52178
G1 X96.495 Y100.489 E1.56148
G1 X95.176 Y101.021 E1.63226
G1 X94.652 Y101.189 E1.65964
G1 X94.16 Y101.275 E1.6845
G1 X92.725 Y101.428 E1.75632
G1 X92.175 Y101.446 E1.7837
G1 X91.882 Y101.423 E1.79833
G1 X91.139 Y101.336 E1.83556
G1 X91.139 Y101.333 E1.83571
G1 X90.928 Y101.312 E1.84626
G1 X90.528 Y101.219 E1.8667
G1 X89.51 Y100.925 E1.91943
G1 X88.907 Y100.694 E1.95156
G1 X88.268 Y100.384 E1.98691
G1 X87.588 Y99.96 E2.02679
G1 X86.452 Y99.072 E2.09854
G1 X85.881 Y98.52 E2.13807
G1 X85.411 Y97.959 E2.17449
G1 X84.967 Y97.298 E2.21412
G1 X84.296 Y96.031 E2.28547
G1 X84.074 Y95.527 E2.31287
G1 X83.937 Y95.039 E2.3381
G1 X83.642 Y93.64 E2.40925
G1 X83.567 Y93.095 E2.43663
G1 X83.569 Y92.596 E2.46146
G1 X83.668 Y91.166 E2.5328
G1 X83.805 Y90.386 E2.57221
G1 X84.002 Y89.697 E2.60787
G1 X84.299 Y88.961 E2.64737
G1 X84.97 Y87.697 E2.71858
G1 X85.405 Y87.049 E2.75742
G1 X85.874 Y86.486 E2.79389
M204 S5000
G0 F2400 X86.181 Y86.741
M204 S200
G1 F1200 X86.702 Y86.236 E2.83
G1 X87.839 Y85.35 E2.90173
G1 X88.273 Y85.063 E2.92763
G1 X88.656 Y84.88 E2.94875
G1 X89.974 Y84.349 E3.01947
G1 X90.471 Y84.192 E3.0454
G1 X90.882 Y84.122 E3.06615
G1 X92.317 Y83.969 E3.13797
G1 X93.045 Y83.97 E3.1742
G1 X93.788 Y84.051 E3.21139
G1 X94.361 Y84.164 E3.24046
G1 X95.379 Y84.458 E3.29319
G1 X95.917 Y84.664 E3.32186
G1 X96.555 Y84.973 E3.35714
G1 X97.161 Y85.351 E3.39268
G1 X98.295 Y86.235 E3.46424
G1 X98.813 Y86.735 E3.50007
G1 X99.285 Y87.3 E3.5367
G1 X99.679 Y87.887 E3.57189
G1 X100.351 Y89.155 E3.6433
G1 X100.559 Y89.632 E3.6692
G1 X100.672 Y90.04 E3.69027
G1 X100.967 Y91.432 E3.76108
G1 X101.036 Y91.948 E3.78699
G1 X101.033 Y92.368 E3.80789
G1 X100.934 Y93.805 E3.87957
G1 X100.811 Y94.504 E3.91489
G1 X100.614 Y95.193 E3.95056
G1 X100.349 Y95.851 E3.98586
G1 X99.678 Y97.115 E4.05707
G1 X99.282 Y97.703 E4.09235
G1 X98.812 Y98.264 E4.12878
G1 X98.48 Y98.608 E4.15257
G1 X97.943 Y99.091 E4.18851
G1 X97.574 Y99.38 E4.21184
G1 X96.976 Y99.784 E4.24775
G1 X96.346 Y100.119 E4.28326
G1 X95.027 Y100.651 E4.35404
G1 X94.531 Y100.808 E4.37993
G1 X94.118 Y100.878 E4.40078
G1 X92.683 Y101.031 E4.47259
G1 X91.929 Y101.027 E4.51012
G1 X91.257 Y100.948 E4.54379
G1 X91.178 Y100.945 E4.54772
G1 X90.639 Y100.836 E4.57509
G1 X89.621 Y100.542 E4.62782
G1 X89.081 Y100.335 E4.6566
G1 X88.442 Y100.025 E4.69195
G1 X87.834 Y99.645 E4.72763
G1 X86.698 Y98.757 E4.79939
G1 X86.187 Y98.263 E4.83476
G1 X85.717 Y97.702 E4.87118
G1 X85.319 Y97.112 E4.90659
G1 X84.648 Y95.845 E4.97794
G1 X84.441 Y95.367 E5.00387
G1 X84.327 Y94.957 E5.02504
G1 X84.032 Y93.558 E5.0962
G1 X83.964 Y93.042 E5.1221
G1 X83.967 Y92.624 E5.1429
G1 X84.066 Y91.194 E5.21424
G1 X84.189 Y90.496 E5.24951
G1 X84.386 Y89.807 E5.28517
G1 X84.651 Y89.149 E5.32047
G1 X85.322 Y87.885 E5.39169
G1 X85.712 Y87.304 E5.42651
G1 X86.181 Y86.741 E5.46298
M204 S5000
G0 F2400 X86.487 Y86.996
M204 S200
G1 F1200 X86.947 Y86.551 E5.49483
G1 X88.084 Y85.665 E5.56656
G1 X88.493 Y85.397 E5.5909
G1 X88.806 Y85.25 E5.60811
G1 X90.124 Y84.719 E5.67882
G1 X90.59 Y84.574 E5.70311
G1 X90.925 Y84.519 E5.72
G1 X92.36 Y84.366 E5.79182
G1 X93.001 Y84.367 E5.82372
G1 X93.744 Y84.448 E5.86092
G1 X94.25 Y84.548 E5.88658
G1 X95.268 Y84.842 E5.93932
G1 X95.743 Y85.023 E5.96461
G1 X96.381 Y85.332 E5.99989
G1 X96.916 Y85.665 E6.03125
G1 X98.05 Y86.549 E6.10281
G1 X98.507 Y86.991 E6.13445
G1 X98.979 Y87.556 E6.17108
G1 X99.327 Y88.073 E6.2021
G1 X99.999 Y89.341 E6.27352
G1 X100.191 Y89.791 E6.29786
G1 X100.282 Y90.122 E6.31495
G1 X100.577 Y91.514 E6.38576
G1 X100.639 Y91.999 E6.41009
G1 X100.635 Y92.341 E6.42711
G1 X100.536 Y93.778 E6.4988
G1 X100.428 Y94.395 E6.52997
G1 X100.231 Y95.084 E6.56563
G1 X99.997 Y95.664 E6.59675
G1 X99.326 Y96.928 E6.66797
G1 X98.976 Y97.447 E6.69912
G1 X98.506 Y98.008 E6.73555
G1 X98.214 Y98.311 E6.75649
G1 X97.677 Y98.794 E6.79243
G1 X97.35 Y99.049 E6.81307
G1 X96.752 Y99.453 E6.84898
G1 X96.197 Y99.749 E6.88028
G1 X94.878 Y100.281 E6.95106
G1 X94.411 Y100.426 E6.9754
G1 X94.075 Y100.481 E6.99234
G1 X92.64 Y100.634 E7.06416
G1 X91.975 Y100.631 E7.09725
G1 X91.401 Y100.564 E7.12601
G1 X91.387 Y100.564 E7.12671
G1 X91.355 Y100.558 E7.12833
G1 X91.232 Y100.544 E7.13449
G1 X91.233 Y100.537 E7.13484
G1 X90.75 Y100.452 E7.15925
G1 X89.732 Y100.158 E7.21198
G1 X89.256 Y99.976 E7.23734
G1 X88.617 Y99.666 E7.27269
G1 X88.08 Y99.331 E7.30418
G1 X86.944 Y98.443 E7.37594
G1 X86.493 Y98.007 E7.40716
G1 X86.023 Y97.446 E7.44358
G1 X85.672 Y96.925 E7.47484
G1 X85.001 Y95.658 E7.54619
G1 X84.808 Y95.208 E7.57056
G1 X84.717 Y94.875 E7.58774
G1 X84.422 Y93.476 E7.65889
G1 X84.361 Y92.991 E7.68322
G1 X84.365 Y92.651 E7.70014
G1 X84.464 Y91.221 E7.77147
G1 X84.572 Y90.605 E7.8026
G1 X84.769 Y89.916 E7.83826
G1 X85.003 Y89.336 E7.86938
G1 X85.674 Y88.072 E7.9406
G1 X86.018 Y87.559 E7.97134
G1 X86.487 Y86.996 E8.00781
M204 S5000
G0 F2400 X86.794 Y87.252
M204 S200
G1 F1200 X87.193 Y86.866 E8.03543
G1 X88.33 Y85.98 E8.10717
G1 X88.712 Y85.733 E8.12981
G1 X88.955 Y85.62 E8.14314
G1 X90.273 Y85.089 E8.21386
G1 X90.708 Y84.957 E8.23648
G1 X90.967 Y84.916 E8.24953
G1 X92.402 Y84.763 E8.32135
G1 X92.958 Y84.763 E8.34902
G1 X93.701 Y84.844 E8.38621
G1 X94.14 Y84.931 E8.40848
G1 X95.158 Y85.225 E8.46122
G1 X95.569 Y85.382 E8.48311
G1 X96.207 Y85.691 E8.51839
G1 X96.671 Y85.98 E8.54559
G1 X97.805 Y86.864 E8.61715
G1 X98.201 Y87.247 E8.64456
G1 X98.673 Y87.812 E8.6812
G1 X98.974 Y88.26 E8.70806
G1 X99.646 Y89.528 E8.77948
G1 X99.823 Y89.948 E8.80216
G1 X99.892 Y90.205 E8.8154
G1 X100.187 Y91.597 E8.88622
G1 X100.242 Y92.049 E8.90888
G1 X100.237 Y92.313 E8.92202
G1 X100.138 Y93.75 E8.9937
G1 X100.044 Y94.285 E9.02073
G1 X99.847 Y94.974 E9.05639
G1 X99.644 Y95.477 E9.08339
G1 X98.973 Y96.741 E9.1546
G1 X98.67 Y97.191 E9.1816
G1 X98.2 Y97.752 E9.21802
G1 X97.947 Y98.015 E9.23618
G1 X97.41 Y98.498 E9.27213
G1 X97.127 Y98.718 E9.28997
G1 X96.529 Y99.122 E9.32588
G1 X96.047 Y99.379 E9.35307
G1 X94.728 Y99.911 E9.42384
G1 X94.293 Y100.043 E9.44647
G1 X94.033 Y100.084 E9.45957
G1 X92.598 Y100.237 E9.53138
G1 X92.021 Y100.234 E9.5601
G1 X91.278 Y100.147 E9.59733
G1 X91.278 Y100.144 E9.59748
G1 X91.101 Y100.126 E9.60633
G1 X90.86 Y100.069 E9.61865
G1 X89.842 Y99.775 E9.67139
G1 X89.43 Y99.617 E9.69335
G1 X88.791 Y99.307 E9.72869
G1 X88.325 Y99.017 E9.75601
G1 X87.189 Y98.129 E9.82776
G1 X86.799 Y97.751 E9.85479
G1 X86.329 Y97.19 E9.89121
G1 X86.025 Y96.738 E9.91832
G1 X85.354 Y95.471 E9.98967
G1 X85.177 Y95.052 E10.01231
G1 X85.108 Y94.792 E10.02569
G1 X84.813 Y93.393 E10.09685
G1 X84.758 Y92.941 E10.1195
G1 X84.763 Y92.679 E10.13255
G1 X84.862 Y91.249 E10.20388
G1 X84.956 Y90.715 E10.23086
G1 X85.153 Y90.026 E10.26653
G1 X85.356 Y89.523 E10.29352
G1 X86.027 Y88.259 E10.36474
G1 X86.325 Y87.815 E10.39135
G1 X86.794 Y87.252 E10.42782
M204 S5000
G0 F2400 X87.101 Y87.507
M204 S200
G1 F1200 X87.438 Y87.181 E10.45115
G1 X88.575 Y86.295 E10.52288
G1 X89.104 Y85.99 E10.55327
G1 X90.422 Y85.459 E10.62399
G1 X91.009 Y85.312 E10.6541
G1 X92.444 Y85.159 E10.72592
G1 X92.915 Y85.16 E10.74936
G1 X93.658 Y85.241 E10.78655
G1 X94.029 Y85.314 E10.80537
G1 X95.047 Y85.608 E10.8581
G1 X95.395 Y85.742 E10.87666
G1 X96.033 Y86.051 E10.91194
G1 X96.426 Y86.295 E10.93496
G1 X97.56 Y87.179 E11.00651
G1 X97.895 Y87.503 E11.02971
G1 X98.367 Y88.068 E11.06634
G1 X98.621 Y88.447 E11.08905
G1 X99.293 Y89.715 E11.16047
G1 X99.501 Y90.288 E11.1908
G1 X99.796 Y91.68 E11.26161
G1 X99.839 Y92.286 E11.29185
G1 X99.74 Y93.723 E11.36353
G1 X99.66 Y94.175 E11.38637
G1 X99.463 Y94.864 E11.42204
G1 X99.292 Y95.29 E11.44488
G1 X98.621 Y96.554 E11.5161
G1 X98.365 Y96.935 E11.53894
G1 X97.895 Y97.496 E11.57536
G1 X97.68 Y97.718 E11.59074
G1 X97.143 Y98.201 E11.62669
G1 X96.904 Y98.388 E11.64179
G1 X96.306 Y98.792 E11.6777
G1 X95.898 Y99.009 E11.7007
G1 X94.579 Y99.541 E11.77148
G1 X93.991 Y99.688 E11.80164
G1 X92.556 Y99.841 E11.87346
G1 X92.068 Y99.838 E11.89775
G1 X91.335 Y99.752 E11.93447
G1 X91.256 Y99.748 E11.93841
G1 X90.971 Y99.686 E11.95293
G1 X89.953 Y99.392 E12.00566
G1 X89.604 Y99.258 E12.02426
G1 X88.965 Y98.948 E12.05961
G1 X88.571 Y98.702 E12.08272
G1 X87.435 Y97.814 E12.15448
G1 X87.104 Y97.495 E12.17736
G1 X86.634 Y96.934 E12.21378
G1 X86.377 Y96.551 E12.23673
G1 X85.706 Y95.284 E12.30808
G1 X85.498 Y94.71 E12.33846
G1 X85.203 Y93.311 E12.40962
G1 X85.161 Y92.706 E12.4398
G1 X85.26 Y91.276 E12.51113
G1 X85.34 Y90.825 E12.53393
G1 X85.537 Y90.136 E12.56959
G1 X85.708 Y89.71 E12.59243
G1 X86.379 Y88.446 E12.66365
G1 X86.632 Y88.07 E12.6862
G1 X87.101 Y87.507 E12.72267
M204 S5000
G0 F2400 X87.407 Y87.762
M204 S200
G1 F1200 X87.683 Y87.495 E12.74178
G1 X88.82 Y86.609 E12.81351
G1 X89.253 Y86.36 E12.83837
G1 X90.571 Y85.829 E12.90909
G1 X91.052 Y85.709 E12.93376
G1 X92.487 Y85.556 E13.00557
G1 X92.872 Y85.557 E13.02473
G1 X93.615 Y85.638 E13.06193
G1 X93.918 Y85.698 E13.0773
G1 X94.936 Y85.992 E13.13003
G1 X95.221 Y86.101 E13.14522
G1 X95.859 Y86.41 E13.1805
G1 X96.18 Y86.61 E13.19932
G1 X97.314 Y87.494 E13.27087
G1 X97.588 Y87.759 E13.28984
G1 X98.06 Y88.324 E13.32648
G1 X98.269 Y88.634 E13.34509
G1 X98.941 Y89.902 E13.4165
G1 X99.111 Y90.371 E13.44133
G1 X99.406 Y91.763 E13.51214
G1 X99.441 Y92.258 E13.53684
G1 X99.342 Y93.695 E13.60852
G1 X99.277 Y94.066 E13.62726
G1 X99.08 Y94.755 E13.66293
G1 X98.939 Y95.103 E13.68161
G1 X98.268 Y96.367 E13.75283
G1 X98.059 Y96.678 E13.77148
G1 X97.589 Y97.239 E13.8079
G1 X97.413 Y97.421 E13.8205
G1 X96.876 Y97.904 E13.85644
G1 X96.68 Y98.057 E13.86882
G1 X96.082 Y98.461 E13.90473
G1 X95.749 Y98.639 E13.92352
G1 X94.43 Y99.171 E13.9943
G1 X93.948 Y99.291 E14.01902
G1 X92.513 Y99.444 E14.09084
G1 X92.114 Y99.442 E14.11069
G1 X91.42 Y99.361 E14.14547
G1 X91.368 Y99.36 E14.14805
G1 X91.082 Y99.302 E14.16258
G1 X90.064 Y99.008 E14.21531
G1 X89.778 Y98.899 E14.23054
G1 X89.139 Y98.589 E14.26588
G1 X88.817 Y98.388 E14.28477
G1 X87.681 Y97.5 E14.35653
G1 X87.41 Y97.238 E14.37529
G1 X86.94 Y96.677 E14.41171
G1 X86.73 Y96.365 E14.43043
G1 X86.059 Y95.098 E14.50178
G1 X85.889 Y94.628 E14.52665
G1 X85.594 Y93.229 E14.5978
G1 X85.559 Y92.734 E14.6225
G1 X85.658 Y91.304 E14.69383
G1 X85.723 Y90.934 E14.71253
G1 X85.92 Y90.245 E14.74819
G1 X86.061 Y89.897 E14.76688
G1 X86.732 Y88.633 E14.83809
G1 X86.938 Y88.325 E14.85653
G1 X87.407 Y87.762 E14.893
M204 S5000
G0 F2400 X87.714 Y88.018
M204 S200
G1 F1200 X87.928 Y87.81 E14.90785
G1 X89.065 Y86.924 E14.97959
G1 X89.402 Y86.73 E14.99894
G1 X90.72 Y86.199 E15.06965
G1 X91.094 Y86.106 E15.08883
G1 X92.529 Y85.953 E15.16065
G1 X92.828 Y85.953 E15.17553
G1 X93.571 Y86.034 E15.21272
G1 X93.808 Y86.081 E15.22475
G1 X94.826 Y86.375 E15.27748
G1 X95.047 Y86.46 E15.28926
G1 X95.685 Y86.769 E15.32454
G1 X95.935 Y86.924 E15.33918
G1 X97.069 Y87.808 E15.41073
G1 X97.282 Y88.014 E15.42548
G1 X97.754 Y88.579 E15.46212
G1 X97.916 Y88.821 E15.47661
G1 X98.588 Y90.089 E15.54803
G1 X98.721 Y90.453 E15.56731
G1 X99.016 Y91.845 E15.63813
G1 X99.043 Y92.231 E15.65738
G1 X98.944 Y93.668 E15.72907
G1 X98.893 Y93.956 E15.74362
G1 X98.696 Y94.645 E15.77928
G1 X98.587 Y94.916 E15.79382
G1 X97.916 Y96.18 E15.86504
G1 X97.753 Y96.422 E15.87956
G1 X97.283 Y96.983 E15.91598
G1 X97.146 Y97.125 E15.9258
G1 X96.609 Y97.608 E15.96174
G1 X96.457 Y97.727 E15.97135
G1 X95.859 Y98.131 E16.00726
G1 X95.6 Y98.269 E16.02187
G1 X94.281 Y98.801 E16.09265
G1 X93.906 Y98.894 E16.11187
G1 X92.471 Y99.047 E16.18369
G1 X92.161 Y99.046 E16.19912
G1 X91.473 Y98.965 E16.23359
G1 X91.433 Y98.966 E16.23559
G1 X91.192 Y98.919 E16.24781
G1 X90.174 Y98.625 E16.30054
G1 X89.952 Y98.54 E16.31237
G1 X89.313 Y98.23 E16.34771
G1 X89.063 Y98.074 E16.36238
G1 X87.927 Y97.186 E16.43413
G1 X87.716 Y96.982 E16.44874
G1 X87.246 Y96.421 E16.48516
G1 X87.082 Y96.178 E16.49975
G1 X86.411 Y94.911 E16.5711
G1 X86.279 Y94.545 E16.59046
G1 X85.984 Y93.146 E16.66161
G1 X85.957 Y92.762 E16.68077
G1 X86.056 Y91.332 E16.75211
G1 X86.107 Y91.044 E16.76666
G1 X86.304 Y90.355 E16.80232
G1 X86.413 Y90.084 E16.81686
G1 X87.084 Y88.82 E16.88808
G1 X87.245 Y88.581 E16.90242
G1 X87.714 Y88.018 E16.93889
M204 S5000
G0 F2400 X88.02 Y88.273
M204 S200
G1 F1200 X88.174 Y88.125 E16.94951
G1 X89.311 Y87.239 E17.02125
G1 X89.551 Y87.1 E17.03505
G1 X90.869 Y86.569 E17.10576
G1 X91.136 Y86.503 E17.11945
G1 X92.571 Y86.35 E17.19127
G1 X92.785 Y86.35 E17.20192
G1 X93.528 Y86.431 E17.23912
G1 X93.697 Y86.464 E17.24768
G1 X94.715 Y86.758 E17.30042
G1 X94.873 Y86.819 E17.30884
G1 X95.511 Y87.128 E17.34412
G1 X95.69 Y87.239 E17.3546
G1 X96.824 Y88.123 E17.42616
G1 X96.976 Y88.27 E17.43668
G1 X97.448 Y88.835 E17.47332
G1 X97.564 Y89.008 E17.48369
G1 X98.236 Y90.276 E17.5551
G1 X98.33 Y90.536 E17.56886
G1 X98.625 Y91.928 E17.63967
G1 X98.645 Y92.204 E17.65345
G1 X98.546 Y93.641 E17.72513
G1 X98.51 Y93.846 E17.73549
G1 X98.313 Y94.535 E17.77115
G1 X98.234 Y94.729 E17.78157
G1 X97.563 Y95.993 E17.85279
G1 X97.447 Y96.166 E17.86316
G1 X96.977 Y96.727 E17.89958
G1 X96.879 Y96.828 E17.90658
G1 X96.342 Y97.311 E17.94252
G1 X96.234 Y97.396 E17.94936
G1 X95.636 Y97.8 E17.98528
G1 X95.45 Y97.899 E17.99576
G1 X94.131 Y98.431 E18.06654
G1 X93.864 Y98.497 E18.08023
G1 X92.429 Y98.65 E18.15205
G1 X92.207 Y98.649 E18.1631
G1 X91.501 Y98.566 E18.19847
G1 X91.451 Y98.567 E18.20096
G1 X91.303 Y98.536 E18.20849
G1 X90.285 Y98.242 E18.26122
G1 X90.126 Y98.181 E18.26969
G1 X89.487 Y97.871 E18.30504
G1 X89.308 Y97.759 E18.31555
G1 X88.172 Y96.871 E18.3873
G1 X88.022 Y96.726 E18.39769
G1 X87.552 Y96.165 E18.43411
G1 X87.435 Y95.991 E18.44454
G1 X86.764 Y94.724 E18.51589
G1 X86.669 Y94.463 E18.52971
G1 X86.374 Y93.064 E18.60087
G1 X86.355 Y92.789 E18.61458
G1 X86.454 Y91.359 E18.68592
G1 X86.49 Y91.154 E18.69628
G1 X86.687 Y90.465 E18.73194
G1 X86.766 Y90.271 E18.74236
G1 X87.437 Y89.007 E18.81358
G1 X87.551 Y88.836 E18.82381
G1 X88.02 Y88.273 E18.86027
M204 S5000
G0 F2400 X88.327 Y88.529
M204 S200
G1 F1200 X88.419 Y88.44 E18.86665
G1 X89.556 Y87.554 E18.93838
G1 X89.7 Y87.47 E18.94668
G1 X91.018 Y86.939 E19.01739
G1 X91.178 Y86.899 E19.0256
G1 X92.613 Y86.746 E19.09742
G1 X92.742 Y86.747 E19.10384
G1 X93.485 Y86.828 E19.14103
G1 X93.586 Y86.848 E19.14615
G1 X94.604 Y87.142 E19.19889
G1 X94.699 Y87.178 E19.20394
G1 X95.337 Y87.487 E19.23922
G1 X95.444 Y87.554 E19.2455
G1 X96.578 Y88.438 E19.31706
G1 X96.67 Y88.526 E19.32339
G1 X97.142 Y89.091 E19.36003
G1 X97.211 Y89.195 E19.36624
G1 X97.883 Y90.463 E19.43766
G1 X97.94 Y90.619 E19.44592
G1 X98.235 Y92.011 E19.51674
G1 X98.247 Y92.176 E19.52497
G1 X98.148 Y93.613 E19.59665
G1 X98.126 Y93.737 E19.60292
G1 X97.929 Y94.426 E19.63858
G1 X97.882 Y94.542 E19.64481
G1 X97.211 Y95.806 E19.71603
