;FLAVOR:RepRap
;TIME:874
;Filament used: 0.64521m
;Layer height: 0.15
;Generated with Cura_SteamEngine 2.6.2
M190 S60
M104 S220
M109 S220
G21 ;metric values
G90 ;absolute positioning
M82 ;set extruder to absolute mode
M107 ;start with the fan off
G92 E0 ;zero the extruded length
G1 F200 E3 ;extrude 3mm of feed stock
G92 E0 ;zero the extruded length again
G1 F9000
M117 Printing...
;LAYER_COUNT:40
;LAYER:0
M107
M204 S5000
G0 F2400 X80.025 Y80.919 Z0.3
M204 S200
;TYPE:SKIRT
G1 F1200 X80.442 Y80.559 E0.02742
G1 X80.906 Y80.264 E0.05478
G1 X81.408 Y80.038 E0.08218
G1 X81.937 Y79.888 E0.10954
G1 X82.706 Y79.809 E0.14801
G1 X102.164 Y79.809 E1.11635
G1 X102.713 Y79.849 E1.14374
G1 X103.25 Y79.968 E1.17111
G1 X103.765 Y80.163 E1.19852
G1 X104.245 Y80.431 E1.22588
G1 X104.845 Y80.919 E1.26437
G1 X104.962 Y81.036 E1.2726
G1 X105.322 Y81.453 E1.30002
G1 X105.617 Y81.917 E1.32738
G1 X105.843 Y82.419 E1.35478
G1 X105.993 Y82.948 E1.38214
G1 X106.072 Y83.717 E1.42061
G1 X106.072 Y101.283 E2.29479
G1 X106.032 Y101.832 E2.32218
G1 X105.913 Y102.369 E2.34956
G1 X105.718 Y102.884 E2.37696
G1 X105.45 Y103.364 E2.40432
G1 X104.962 Y103.964 E2.44281
G1 X104.845 Y104.081 E2.45104
G1 X104.428 Y104.441 E2.47846
G1 X103.964 Y104.736 E2.50582
G1 X103.462 Y104.962 E2.53322
G1 X102.933 Y105.112 E2.56058
G1 X102.164 Y105.191 E2.59905
G1 X82.706 Y105.191 E3.56739
G1 X82.157 Y105.151 E3.59478
G1 X81.62 Y105.032 E3.62216
G1 X81.105 Y104.837 E3.64956
G1 X80.625 Y104.569 E3.67692
G1 X80.025 Y104.081 E3.71541
G1 X79.908 Y103.964 E3.72364
G1 X79.548 Y103.547 E3.75106
G1 X79.253 Y103.083 E3.77842
G1 X79.027 Y102.581 E3.80582
G1 X78.877 Y102.052 E3.83318
G1 X78.798 Y101.283 E3.87165
G1 X78.798 Y83.717 E4.74583
G1 X78.838 Y83.168 E4.77323
G1 X78.957 Y82.631 E4.8006
G1 X79.152 Y82.116 E4.82801
G1 X79.42 Y81.636 E4.85536
G1 X79.908 Y81.036 E4.89385
G1 X80.025 Y80.919 E4.90209
M204 S5000
G0 F2400 X80.307 Y81.201
M204 S200
G1 F1200 X80.703 Y80.863 E4.928
G1 X81.145 Y80.588 E4.9539
G1 X81.624 Y80.385 E4.97979
G1 X82.129 Y80.257 E5.00572
G1 X82.706 Y80.208 E5.03454
G1 X102.164 Y80.208 E6.00287
G1 X102.683 Y80.248 E6.02878
G1 X103.19 Y80.367 E6.05469
G1 X103.672 Y80.562 E6.08057
G1 X104.12 Y80.828 E6.1065
G1 X104.563 Y81.201 E6.13532
G1 X104.68 Y81.318 E6.14355
G1 X105.018 Y81.714 E6.16946
G1 X105.293 Y82.156 E6.19537
G1 X105.496 Y82.635 E6.22126
G1 X105.624 Y83.14 E6.24719
G1 X105.673 Y83.717 E6.276
G1 X105.673 Y101.283 E7.15018
G1 X105.633 Y101.802 E7.17609
G1 X105.514 Y102.309 E7.20201
G1 X105.319 Y102.791 E7.22788
G1 X105.053 Y103.239 E7.25381
G1 X104.68 Y103.682 E7.28263
G1 X104.563 Y103.799 E7.29086
G1 X104.167 Y104.137 E7.31677
G1 X103.725 Y104.412 E7.34268
G1 X103.246 Y104.615 E7.36857
G1 X102.741 Y104.743 E7.3945
G1 X102.164 Y104.792 E7.42331
G1 X82.706 Y104.792 E8.39165
G1 X82.187 Y104.752 E8.41756
G1 X81.68 Y104.633 E8.44347
G1 X81.198 Y104.438 E8.46935
G1 X80.75 Y104.172 E8.49528
G1 X80.307 Y103.799 E8.5241
G1 X80.19 Y103.682 E8.53233
G1 X79.852 Y103.286 E8.55824
G1 X79.577 Y102.844 E8.58415
G1 X79.374 Y102.365 E8.61004
G1 X79.246 Y101.86 E8.63596
G1 X79.197 Y101.283 E8.66478
G1 X79.197 Y83.717 E9.53896
G1 X79.237 Y83.198 E9.56487
G1 X79.356 Y82.691 E9.59078
G1 X79.551 Y82.209 E9.61666
G1 X79.817 Y81.761 E9.64259
G1 X80.19 Y81.318 E9.67141
G1 X80.307 Y81.201 E9.67964
M204 S5000
G0 F2400 X80.473 Y81.601
M204 S200
G1 F1200 X80.59 Y81.484 E9.68788
G1 X80.962 Y81.167 E9.7122
G1 X81.382 Y80.916 E9.73655
G1 X81.836 Y80.736 E9.76085
G1 X82.314 Y80.633 E9.78519
G1 X82.706 Y80.607 E9.80474
G1 X102.164 Y80.607 E10.77308
G1 X102.651 Y80.647 E10.79739
G1 X103.126 Y80.766 E10.82176
G1 X103.574 Y80.96 E10.84606
G1 X103.985 Y81.225 E10.87039
G1 X104.28 Y81.484 E10.88993
G1 X104.397 Y81.601 E10.89816
G1 X104.714 Y81.973 E10.92249
G1 X104.965 Y82.393 E10.94684
G1 X105.145 Y82.847 E10.97114
G1 X105.248 Y83.325 E10.99548
G1 X105.274 Y83.717 E11.01503
G1 X105.274 Y101.283 E11.88921
G1 X105.234 Y101.77 E11.91352
G1 X105.115 Y102.245 E11.93789
G1 X104.921 Y102.693 E11.96219
G1 X104.656 Y103.104 E11.98653
G1 X104.397 Y103.399 E12.00606
G1 X104.28 Y103.516 E12.0143
G1 X103.908 Y103.833 E12.03862
G1 X103.488 Y104.084 E12.06297
G1 X103.034 Y104.264 E12.08727
G1 X102.556 Y104.367 E12.11161
G1 X102.164 Y104.393 E12.13116
G1 X82.706 Y104.393 E13.09949
G1 X82.219 Y104.353 E13.12381
G1 X81.744 Y104.234 E13.14818
G1 X81.296 Y104.04 E13.17248
G1 X80.885 Y103.775 E13.19681
G1 X80.59 Y103.516 E13.21635
G1 X80.473 Y103.399 E13.22458
G1 X80.156 Y103.027 E13.24891
G1 X79.905 Y102.607 E13.27326
G1 X79.725 Y102.153 E13.29756
G1 X79.622 Y101.675 E13.32189
G1 X79.596 Y101.283 E13.34144
G1 X79.596 Y83.717 E14.21562
G1 X79.636 Y83.23 E14.23994
G1 X79.755 Y82.755 E14.26431
G1 X79.949 Y82.307 E14.28861
G1 X80.214 Y81.896 E14.31294
G1 X80.473 Y81.601 E14.33248
M204 S5000
G0 F2400 X80.872 Y81.766
M204 S200
G1 F1200 X81.221 Y81.473 E14.35516
G1 X81.615 Y81.247 E14.37776
G1 X82.043 Y81.092 E14.40041
G1 X82.706 Y81.006 E14.43369
G1 X102.164 Y81.006 E15.40202
G1 X102.617 Y81.046 E15.42465
G1 X103.057 Y81.164 E15.44732
G1 X103.469 Y81.358 E15.46999
G1 X103.998 Y81.766 E15.50323
G1 X104.115 Y81.883 E15.51147
G1 X104.408 Y82.232 E15.53415
G1 X104.634 Y82.626 E15.55675
G1 X104.789 Y83.054 E15.5794
G1 X104.875 Y83.717 E15.61267
G1 X104.875 Y101.283 E16.48685
G1 X104.835 Y101.736 E16.50949
G1 X104.717 Y102.176 E16.53216
G1 X104.523 Y102.588 E16.55482
G1 X104.115 Y103.117 E16.58807
G1 X103.998 Y103.234 E16.5963
G1 X103.649 Y103.527 E16.61898
G1 X103.255 Y103.753 E16.64158
G1 X102.827 Y103.908 E16.66423
G1 X102.164 Y103.994 E16.69751
G1 X82.706 Y103.994 E17.66584
G1 X82.253 Y103.954 E17.68847
G1 X81.813 Y103.836 E17.71114
G1 X81.401 Y103.642 E17.73381
G1 X80.872 Y103.234 E17.76705
G1 X80.755 Y103.117 E17.77529
G1 X80.462 Y102.768 E17.79797
G1 X80.236 Y102.374 E17.82057
G1 X80.081 Y101.946 E17.84322
G1 X79.995 Y101.283 E17.87649
G1 X79.995 Y83.717 E18.75067
G1 X80.035 Y83.264 E18.77331
G1 X80.153 Y82.824 E18.79598
G1 X80.347 Y82.412 E18.81864
G1 X80.755 Y81.883 E18.85189
G1 X80.872 Y81.766 E18.86012
M204 S5000
G0 F2400 X81.154 Y82.048
M204 S200
G1 F1200 X81.477 Y81.781 E18.88097
G1 X81.844 Y81.581 E18.90177
G1 X82.243 Y81.454 E18.92261
G1 X82.706 Y81.405 E18.94578
G1 X102.164 Y81.405 E19.91412
G1 X102.581 Y81.445 E19.93497
G1 X102.982 Y81.563 E19.95577
G1 X103.354 Y81.756 E19.97662
G1 X103.716 Y82.048 E19.99977
G1 X103.833 Y82.165 E20.008
G1 X104.1 Y82.488 E20.02886
G1 X104.3 Y82.855 E20.04966
G1 X104.427 Y83.254 E20.0705
G1 X104.476 Y83.717 E20.09367
G1 X104.476 Y101.283 E20.96785
G1 X104.436 Y101.7 E20.9887
G1 X104.318 Y102.101 E21.0095
G1 X104.125 Y102.473 E21.03035
G1 X103.833 Y102.835 E21.0535
G1 X103.716 Y102.952 E21.06173
G1 X103.393 Y103.219 E21.08259
G1 X103.026 Y103.419 E21.10339
G1 X102.627 Y103.546 E21.12423
G1 X102.164 Y103.595 E21.1474
G1 X82.706 Y103.595 E22.11573
G1 X82.289 Y103.555 E22.13658
G1 X81.888 Y103.437 E22.15738
G1 X81.516 Y103.244 E22.17824
G1 X81.154 Y102.952 E22.20138
G1 X81.037 Y102.835 E22.20962
G1 X80.77 Y102.512 E22.23047
G1 X80.57 Y102.145 E22.25127
G1 X80.443 Y101.746 E22.27211
G1 X80.394 Y101.283 E22.29528
G1 X80.394 Y83.717 E23.16946
G1 X80.434 Y83.3 E23.19031
G1 X80.552 Y82.899 E23.21111
G1 X80.745 Y82.527 E23.23197
G1 X81.037 Y82.165 E23.25511
G1 X81.154 Y82.048 E23.26335
M204 S5000
G0 F2400 X81.319 Y82.447
M204 S200
G1 F1200 X81.436 Y82.33 E23.27158
G1 X81.73 Y82.092 E23.29041
G1 X82.068 Y81.921 E23.30926
G1 X82.434 Y81.825 E23.32809
G1 X82.706 Y81.804 E23.34166
G1 X102.164 Y81.804 E24.31
G1 X102.54 Y81.844 E24.32882
G1 X102.9 Y81.962 E24.34767
G1 X103.227 Y82.152 E24.36649
G1 X103.434 Y82.33 E24.38008
G1 X103.551 Y82.447 E24.38831
G1 X103.789 Y82.741 E24.40714
G1 X103.96 Y83.079 E24.42599
G1 X104.056 Y83.445 E24.44482
G1 X104.077 Y83.717 E24.45839
G1 X104.077 Y101.283 E25.33257
G1 X104.037 Y101.659 E25.35139
G1 X103.919 Y102.019 E25.37025
G1 X103.729 Y102.346 E25.38907
G1 X103.551 Y102.553 E25.40265
G1 X103.434 Y102.67 E25.41089
G1 X103.14 Y102.908 E25.42971
G1 X102.802 Y103.079 E25.44856
G1 X102.436 Y103.175 E25.46739
G1 X102.164 Y103.196 E25.48097
G1 X82.706 Y103.196 E26.44931
G1 X82.33 Y103.156 E26.46812
G1 X81.97 Y103.038 E26.48698
G1 X81.643 Y102.848 E26.5058
G1 X81.436 Y102.67 E26.51938
G1 X81.319 Y102.553 E26.52762
G1 X81.081 Y102.259 E26.54644
G1 X80.91 Y101.921 E26.56529
G1 X80.814 Y101.555 E26.58412
G1 X80.793 Y101.283 E26.5977
G1 X80.793 Y83.717 E27.47188
G1 X80.833 Y83.341 E27.4907
G1 X80.951 Y82.981 E27.50955
G1 X81.141 Y82.654 E27.52837
G1 X81.319 Y82.447 E27.54196
M204 S5000
G0 F2400 X81.718 Y82.612
M204 S200
G1 F1200 X81.981 Y82.406 E27.55858
G1 X82.284 Y82.268 E27.57515
G1 X82.706 Y82.203 E27.5964
G1 X102.164 Y82.203 E28.56474
G1 X102.495 Y82.243 E28.58133
G1 X102.808 Y82.36 E28.59796
G1 X103.152 Y82.612 E28.61918
G1 X103.269 Y82.729 E28.62742
G1 X103.475 Y82.992 E28.64404
G1 X103.613 Y83.295 E28.66061
G1 X103.678 Y83.717 E28.68186
G1 X103.678 Y101.283 E29.55604
G1 X103.638 Y101.614 E29.57263
G1 X103.521 Y101.927 E29.58926
G1 X103.269 Y102.271 E29.61048
G1 X103.152 Y102.388 E29.61872
G1 X102.889 Y102.594 E29.63534
G1 X102.586 Y102.732 E29.65191
G1 X102.164 Y102.797 E29.67316
G1 X82.706 Y102.797 E30.6415
G1 X82.375 Y102.757 E30.65809
G1 X82.062 Y102.64 E30.67472
G1 X81.718 Y102.388 E30.69594
G1 X81.601 Y102.271 E30.70417
G1 X81.395 Y102.008 E30.7208
G1 X81.257 Y101.705 E30.73737
G1 X81.192 Y101.283 E30.75862
G1 X81.192 Y83.717 E31.6328
G1 X81.232 Y83.386 E31.64939
G1 X81.349 Y83.073 E31.66602
G1 X81.601 Y82.729 E31.68724
G1 X81.718 Y82.612 E31.69547
M204 S5000
G0 F2400 X81.883 Y83.011
M204 S200
G1 F1200 X82 Y82.894 E31.70371
G1 X82.226 Y82.725 E31.71775
G1 X82.49 Y82.626 E31.73178
G1 X82.706 Y82.602 E31.7426
G1 X102.164 Y82.602 E32.71094
G1 X102.443 Y82.642 E32.72496
G1 X102.7 Y82.758 E32.73899
G1 X102.87 Y82.894 E32.74983
G1 X102.987 Y83.011 E32.75806
G1 X103.156 Y83.237 E32.77211
G1 X103.255 Y83.501 E32.78614
G1 X103.279 Y83.717 E32.79695
G1 X103.279 Y101.283 E33.67113
G1 X103.239 Y101.562 E33.68516
G1 X103.123 Y101.819 E33.69919
G1 X102.987 Y101.989 E33.71003
G1 X102.87 Y102.106 E33.71826
G1 X102.644 Y102.275 E33.73231
G1 X102.38 Y102.374 E33.74634
G1 X102.164 Y102.398 E33.75715
G1 X82.706 Y102.398 E34.72549
G1 X82.427 Y102.358 E34.73952
G1 X82.17 Y102.242 E34.75355
G1 X82 Y102.106 E34.76438
G1 X81.883 Y101.989 E34.77262
G1 X81.714 Y101.763 E34.78666
G1 X81.615 Y101.499 E34.80069
G1 X81.591 Y101.283 E34.81151
G1 X81.591 Y83.717 E35.68569
G1 X81.631 Y83.438 E35.69971
G1 X81.747 Y83.181 E35.71375
G1 X81.883 Y83.011 E35.72458
M204 S5000
G0 F2400 X82.282 Y83.176
M204 S200
G1 F1200 X82.462 Y83.053 E35.73543
G1 X82.706 Y83.001 E35.74785
G1 X102.164 Y83.001 E36.71618
G1 X102.378 Y83.041 E36.72702
G1 X102.588 Y83.176 E36.73944
G1 X102.705 Y83.293 E36.74767
G1 X102.828 Y83.473 E36.75852
G1 X102.88 Y83.717 E36.77094
G1 X102.88 Y101.283 E37.64512
G1 X102.84 Y101.497 E37.65595
G1 X102.705 Y101.707 E37.66838
G1 X102.588 Y101.824 E37.67661
G1 X102.408 Y101.947 E37.68746
G1 X102.164 Y101.999 E37.69988
G1 X82.706 Y101.999 E38.66821
G1 X82.492 Y101.959 E38.67905
G1 X82.282 Y101.824 E38.69147
G1 X82.165 Y101.707 E38.69971
G1 X82.042 Y101.527 E38.71056
G1 X81.99 Y101.283 E38.72297
G1 X81.99 Y83.717 E39.59715
G1 X82.03 Y83.503 E39.60799
G1 X82.165 Y83.293 E39.62041
G1 X82.282 Y83.176 E39.62864
M204 S5000
G0 F2400 X82.565 Y83.459
M204 S200
G1 F1200 X82.706 Y83.4 E39.63625
G1 X102.164 Y83.4 E40.60459
G1 X102.305 Y83.459 E40.61219
G1 X102.422 Y83.576 E40.62043
G1 X102.481 Y83.717 E40.62803
G1 X102.481 Y101.283 E41.50222
G1 X102.422 Y101.424 E41.50982
G1 X102.305 Y101.541 E41.51806
G1 X102.164 Y101.6 E41.52566
G1 X82.706 Y101.6 E42.494
G1 X82.565 Y101.541 E42.50161
G1 X82.448 Y101.424 E42.50984
G1 X82.389 Y101.283 E42.51745
G1 X82.389 Y83.717 E43.39163
G1 X82.448 Y83.576 E43.39923
G1 X82.565 Y83.459 E43.40747
M204 S5000
G0 F2400 X82.788 Y83.799
M204 S200
;TYPE:WALL-OUTER
G1 F1200 X102.082 Y83.799 E44.36764
G1 X102.082 Y101.201 E45.23366
G1 X82.788 Y101.201 E46.19384
G1 X82.788 Y83.799 E47.05986
M204 S5000
G0 F2400 X82.988 Y83.799
G0 X83.186 Y84.197
M204 S200
;TYPE:WALL-INNER
G1 F1200 X101.684 Y84.197 E47.98042
G1 X101.684 Y100.803 E48.80682
G1 X83.186 Y100.803 E49.72738
G1 X83.186 Y84.197 E50.55379
M204 S5000
G0 F2400 X83.585 Y84.596
M204 S200
G1 F1200 X101.285 Y84.596 E51.43464
G1 X101.285 Y100.404 E52.22133
G1 X83.585 Y100.404 E53.10218
G1 X83.585 Y84.596 E53.88887
M204 S5000
G0 F2400 X83.764 Y84.893
M204 S200
;TYPE:SKIN
G1 F1200 X99.095 Y100.223 E54.96782
G1 X99.165 Y100.293
M204 S5000
G0 F2400 X99.659 Y100.223
M204 S200
G1 F1200 X84.211 Y84.775 E56.05503
G1 X84.141 Y84.705
M204 S5000
G0 F2400 X84.775 Y84.775
M204 S200
G1 F1200 X100.223 Y100.223 E57.14225
G1 X100.293 Y100.293
M204 S5000
G0 F2400 X100.788 Y100.223
M204 S200
G1 F1200 X85.34 Y84.775 E58.22946
G1 X85.27 Y84.705
M204 S5000
G0 F2400 X85.904 Y84.775
M204 S200
G1 F1200 X101.104 Y99.975 E59.29922
G1 X101.174 Y100.045
M204 S5000
G0 F2400 X101.104 Y99.411
M204 S200
G1 F1200 X86.468 Y84.775 E60.32929
G1 X86.398 Y84.705
M204 S5000
G0 F2400 X87.032 Y84.775
M204 S200
G1 F1200 X101.104 Y98.847 E61.31967
G1 X101.174 Y98.917
M204 S5000
G0 F2400 X101.104 Y98.282
M204 S200
G1 F1200 X87.597 Y84.775 E62.27027
G1 X87.527 Y84.705
M204 S5000
G0 F2400 X88.161 Y84.775
M204 S200
G1 F1200 X101.104 Y97.718 E63.18119
G1 X101.174 Y97.788
M204 S5000
G0 F2400 X101.104 Y97.154
M204 S200
G1 F1200 X88.725 Y84.775 E64.05241
G1 X88.655 Y84.705
M204 S5000
G0 F2400 X89.289 Y84.775
M204 S200
G1 F1200 X101.104 Y96.59 E64.88394
G1 X101.174 Y96.66
M204 S5000
G0 F2400 X101.104 Y96.025
M204 S200
G1 F1200 X89.854 Y84.775 E65.6757
G1 X89.784 Y84.705
M204 S5000
G0 F2400 X90.418 Y84.775
M204 S200
G1 F1200 X101.104 Y95.461 E66.42777
G1 X101.174 Y95.531
M204 S5000
G0 F2400 X101.104 Y94.897
M204 S200
G1 F1200 X90.982 Y84.775 E67.14015
G1 X90.912 Y84.705
M204 S5000
G0 F2400 X91.546 Y84.775
M204 S200
G1 F1200 X101.104 Y94.332 E67.8128
G1 X101.174 Y94.402
M204 S5000
G0 F2400 X101.104 Y93.768
M204 S200
G1 F1200 X92.111 Y84.775 E68.44572
G1 X92.041 Y84.705
M204 S5000
G0 F2400 X92.675 Y84.775
M204 S200
G1 F1200 X101.104 Y93.204 E69.03894
G1 X101.174 Y93.274
M204 S5000
G0 F2400 X101.104 Y92.64
M204 S200
G1 F1200 X93.239 Y84.775 E69.59247
G1 X93.169 Y84.705
M204 S5000
G0 F2400 X93.804 Y84.775
M204 S200
G1 F1200 X101.104 Y92.075 E70.10624
G1 X101.174 Y92.145
M204 S5000
G0 F2400 X101.104 Y91.511
M204 S200
G1 F1200 X94.368 Y84.775 E70.58031
G1 X94.298 Y84.705
M204 S5000
G0 F2400 X94.932 Y84.775
M204 S200
G1 F1200 X101.104 Y90.947 E71.01469
G1 X101.174 Y91.017
M204 S5000
G0 F2400 X101.104 Y90.383
M204 S200
G1 F1200 X95.496 Y84.775 E71.40938
G1 X95.426 Y84.705
M204 S5000
G0 F2400 X96.061 Y84.775
M204 S200
G1 F1200 X101.104 Y89.818 E71.7643
G1 X101.174 Y89.888
M204 S5000
G0 F2400 X101.104 Y89.254
M204 S200
G1 F1200 X96.625 Y84.775 E72.07953
G1 X96.555 Y84.705
M204 S5000
G0 F2400 X97.189 Y84.775
M204 S200
G1 F1200 X101.104 Y88.69 E72.35506
G1 X101.174 Y88.76
M204 S5000
G0 F2400 X101.104 Y88.126
M204 S200
G1 F1200 X97.753 Y84.775 E72.5909
G1 X97.683 Y84.705
M204 S5000
G0 F2400 X98.318 Y84.775
M204 S200
G1 F1200 X101.104 Y87.561 E72.78698
G1 X101.174 Y87.631
M204 S5000
G0 F2400 X101.104 Y86.997
M204 S200
G1 F1200 X98.882 Y84.775 E72.94336
G1 X98.812 Y84.705
M204 S5000
G0 F2400 X99.446 Y84.775
M204 S200
G1 F1200 X101.104 Y86.433 E73.06005
G1 X101.174 Y86.503
M204 S5000
G0 F2400 X101.104 Y85.868
M204 S200
G1 F1200 X100.011 Y84.775 E73.13697
G1 X99.941 Y84.705
M204 S5000
G0 F2400 X100.575 Y84.775
M204 S200
G1 F1200 X101.104 Y85.304 E73.1742
M204 S5000
G0 F2400 X98.531 Y100.223
M204 S200
G1 F1200 X83.764 Y85.457 E74.21345
G1 X83.694 Y85.387
M204 S5000
G0 F2400 X83.764 Y86.021
M204 S200
G1 F1200 X97.966 Y100.223 E75.21297
G1 X98.036 Y100.293
M204 S5000
G0 F2400 X97.402 Y100.223
M204 S200
G1 F1200 X83.764 Y86.585 E76.1728
G1 X83.694 Y86.515
M204 S5000
G0 F2400 X83.764 Y87.15
M204 S200
G1 F1200 X96.838 Y100.223 E77.0929
G1 X96.908 Y100.293
M204 S5000
G0 F2400 X96.274 Y100.223
M204 S200
G1 F1200 X83.764 Y87.714 E77.97331
G1 X83.694 Y87.644
M204 S5000
