;FLAVOR:RepRap
;TIME:4299
;Filament used: 3.08265m
;Layer height: 0.15
;Generated with Cura_SteamEngine 2.6.2
M190 S60
M104 S220
M109 S220
G21 ;metric values
G90 ;absolute positioning
M82 ;set extruder to absolute mode
M107 ;start with the fan off
G92 E0 ;zero the extruded length
G1 F200 E3 ;extrude 3mm of feed stock
G92 E0 ;zero the extruded length again
G1 F9000
M117 Printing...
;LAYER_COUNT:61
;LAYER:0
M107
M204 S5000
G0 F2400 X54.774 Y55.658 Z0.3
M204 S200
;TYPE:SKIRT
G1 F1200 X57.218 Y53.313 E0.16856
G1 X57.412 Y53.139 E0.18153
G1 X60.02 Y50.96 E0.35065
G1 X60.177 Y50.836 E0.36061
G1 X61.528 Y49.823 E0.44464
G1 X61.685 Y49.711 E0.45424
G1 X64.491 Y47.822 E0.62258
G1 X64.716 Y47.682 E0.63577
G1 X67.667 Y45.982 E0.80525
G1 X67.9 Y45.858 E0.81839
G1 X70.962 Y44.368 E0.98785
G1 X71.203 Y44.261 E1.00097
G1 X74.373 Y42.982 E1.17109
G1 X74.622 Y42.892 E1.18426
G1 X77.86 Y41.842 E1.35366
G1 X78.113 Y41.769 E1.36677
G1 X81.427 Y40.944 E1.53672
G1 X81.687 Y40.889 E1.54995
G1 X85.044 Y40.299 E1.71957
G1 X85.304 Y40.263 E1.73264
G1 X88.693 Y39.907 E1.90222
G1 X88.957 Y39.888 E1.91539
G1 X92.366 Y39.769 E2.08514
G1 X92.63 Y39.769 E2.09828
G1 X96.041 Y39.888 E2.26814
G1 X96.306 Y39.907 E2.28136
G1 X99.697 Y40.264 E2.45104
G1 X99.957 Y40.3 E2.46411
G1 X103.312 Y40.89 E2.63363
G1 X103.505 Y40.929 E2.64343
G1 X105.175 Y41.313 E2.72871
G1 X105.368 Y41.363 E2.73863
G1 X108.641 Y42.3 E2.90806
G1 X108.894 Y42.382 E2.92129
G1 X112.106 Y43.55 E3.09138
G1 X112.348 Y43.648 E3.10437
G1 X115.459 Y45.029 E3.27376
G1 X115.699 Y45.146 E3.28705
G1 X118.712 Y46.746 E3.45682
G1 X118.938 Y46.876 E3.4698
G1 X121.815 Y48.668 E3.63847
G1 X122.035 Y48.816 E3.65167
G1 X124.778 Y50.803 E3.82023
G1 X124.985 Y50.964 E3.83328
G1 X127.59 Y53.141 E4.00223
G1 X127.793 Y53.323 E4.0158
G1 X130.433 Y55.873 E4.19846
G1 X130.623 Y56.07 E4.21208
G1 X132.886 Y58.596 E4.38085
G1 X133.054 Y58.798 E4.39393
G1 X135.136 Y61.473 E4.56262
G1 X135.29 Y61.685 E4.57566
G1 X137.18 Y64.495 E4.74419
G1 X137.319 Y64.718 E4.75727
G1 X139.02 Y67.67 E4.92682
G1 X139.143 Y67.903 E4.93993
G1 X140.635 Y70.967 E5.10953
G1 X140.743 Y71.21 E5.12276
G1 X142.016 Y74.369 E5.29226
G1 X142.106 Y74.616 E5.30534
G1 X143.159 Y77.86 E5.47507
G1 X143.232 Y78.115 E5.48827
G1 X144.057 Y81.431 E5.65832
G1 X144.112 Y81.689 E5.67145
G1 X144.701 Y85.037 E5.84063
G1 X144.737 Y85.298 E5.85374
G1 X145.093 Y88.691 E6.02352
G1 X145.112 Y88.955 E6.03669
G1 X145.231 Y92.362 E6.20634
G1 X145.231 Y92.626 E6.21948
G1 X145.112 Y96.04 E6.38949
G1 X145.093 Y96.304 E6.40266
G1 X144.737 Y99.692 E6.57219
G1 X144.701 Y99.953 E6.5853
G1 X144.11 Y103.312 E6.75503
G1 X144.071 Y103.505 E6.76483
G1 X143.687 Y105.175 E6.85011
G1 X143.637 Y105.368 E6.86003
G1 X142.7 Y108.641 E7.02946
G1 X142.618 Y108.893 E7.04264
G1 X141.453 Y112.098 E7.21235
G1 X141.355 Y112.341 E7.22539
G1 X139.971 Y115.459 E7.39516
G1 X139.854 Y115.699 E7.40845
G1 X138.253 Y118.714 E7.57833
G1 X138.122 Y118.942 E7.59142
G1 X136.331 Y121.815 E7.7599
G1 X136.185 Y122.032 E7.77292
G1 X134.198 Y124.777 E7.94156
G1 X134.036 Y124.985 E7.95468
G1 X131.86 Y127.589 E8.12356
G1 X131.678 Y127.792 E8.13712
G1 X129.127 Y130.433 E8.31986
G1 X128.93 Y130.623 E8.33348
G1 X126.404 Y132.886 E8.50225
G1 X126.202 Y133.054 E8.51533
G1 X123.526 Y135.136 E8.68406
G1 X123.315 Y135.289 E8.69703
G1 X120.509 Y137.178 E8.86537
G1 X120.284 Y137.318 E8.87855
G1 X117.335 Y139.017 E9.04793
G1 X117.102 Y139.141 E9.06106
G1 X114.038 Y140.632 E9.23064
G1 X113.797 Y140.739 E9.24376
G1 X110.634 Y142.015 E9.41349
G1 X110.386 Y142.105 E9.42662
G1 X107.142 Y143.158 E9.59636
G1 X106.888 Y143.231 E9.60951
G1 X103.573 Y144.056 E9.77951
G1 X103.313 Y144.111 E9.79274
G1 X99.956 Y144.701 E9.96236
G1 X99.696 Y144.737 E9.97542
G1 X96.307 Y145.093 E10.14501
G1 X96.043 Y145.112 E10.15818
G1 X92.634 Y145.231 E10.32793
G1 X92.37 Y145.231 E10.34107
G1 X88.959 Y145.112 E10.51092
G1 X88.694 Y145.093 E10.52415
G1 X85.303 Y144.736 E10.69383
G1 X85.043 Y144.7 E10.7069
G1 X81.688 Y144.11 E10.87642
G1 X81.495 Y144.071 E10.88622
G1 X79.825 Y143.687 E10.9715
G1 X79.632 Y143.637 E10.98142
G1 X76.359 Y142.7 E11.15084
G1 X76.106 Y142.618 E11.16408
G1 X72.894 Y141.45 E11.33417
G1 X72.652 Y141.352 E11.34716
G1 X69.535 Y139.968 E11.51688
G1 X69.295 Y139.851 E11.53017
G1 X66.288 Y138.254 E11.69961
G1 X66.061 Y138.124 E11.71263
G1 X63.178 Y136.328 E11.88166
G1 X62.959 Y136.18 E11.89482
G1 X60.222 Y134.197 E12.06302
G1 X60.015 Y134.036 E12.07607
G1 X57.41 Y131.859 E12.24502
G1 X57.207 Y131.677 E12.25859
G1 X54.562 Y129.122 E12.4416
G1 X54.372 Y128.924 E12.45526
G1 X52.11 Y126.398 E12.624
G1 X51.942 Y126.197 E12.63704
G1 X49.861 Y123.522 E12.8057
G1 X49.708 Y123.31 E12.81871
G1 X47.817 Y120.499 E12.98731
G1 X47.677 Y120.275 E13.00045
G1 X45.98 Y117.329 E13.16965
G1 X45.857 Y117.097 E13.18271
G1 X44.365 Y114.033 E13.35231
G1 X44.257 Y113.79 E13.36555
G1 X42.981 Y110.623 E13.53546
G1 X42.891 Y110.375 E13.54859
G1 X41.839 Y107.13 E13.71836
G1 X41.766 Y106.875 E13.73156
G1 X40.944 Y103.568 E13.90114
G1 X40.889 Y103.311 E13.91422
G1 X40.298 Y99.95 E14.08405
G1 X40.262 Y99.69 E14.09711
G1 X39.906 Y96.305 E14.26649
G1 X39.887 Y96.039 E14.27977
G1 X39.769 Y92.633 E14.44937
G1 X39.769 Y92.369 E14.46251
G1 X39.889 Y88.955 E14.63251
G1 X39.908 Y88.693 E14.64558
G1 X40.263 Y85.308 E14.81496
G1 X40.299 Y85.046 E14.82812
G1 X40.89 Y81.685 E14.99795
G1 X40.945 Y81.427 E15.01108
G1 X41.768 Y78.119 E15.18072
G1 X41.841 Y77.864 E15.19392
G1 X42.894 Y74.618 E15.36375
G1 X42.985 Y74.369 E15.37694
G1 X44.264 Y71.2 E15.54701
G1 X44.37 Y70.961 E15.56002
G1 X45.859 Y67.9 E15.72942
G1 X45.983 Y67.665 E15.74264
G1 X47.68 Y64.72 E15.91179
G1 X47.819 Y64.497 E15.92487
G1 X49.714 Y61.68 E16.09383
G1 X49.868 Y61.467 E16.10691
G1 X51.944 Y58.8 E16.2751
G1 X52.118 Y58.593 E16.28856
G1 X54.581 Y55.857 E16.47176
G1 X54.774 Y55.658 E16.48556
M204 S5000
G0 F2400 X55.051 Y55.945
M204 S200
G1 F1200 X57.495 Y53.6 E16.65412
G1 X57.668 Y53.445 E16.66568
G1 X60.276 Y51.266 E16.8348
G1 X60.416 Y51.155 E16.84369
G1 X61.767 Y50.142 E16.92773
G1 X61.908 Y50.042 E16.93633
G1 X64.714 Y48.153 E17.10467
G1 X64.915 Y48.028 E17.11645
G1 X67.866 Y46.328 E17.28593
G1 X68.075 Y46.217 E17.29771
G1 X71.137 Y44.727 E17.46717
G1 X71.352 Y44.631 E17.47889
G1 X74.522 Y43.352 E17.649
G1 X74.745 Y43.271 E17.66081
G1 X77.983 Y42.221 E17.83021
G1 X78.21 Y42.156 E17.84196
G1 X81.524 Y41.331 E18.01192
G1 X81.756 Y41.282 E18.02372
G1 X85.113 Y40.692 E18.19334
G1 X85.346 Y40.66 E18.20505
G1 X88.735 Y40.304 E18.37463
G1 X88.971 Y40.287 E18.3864
G1 X92.38 Y40.168 E18.55616
G1 X92.616 Y40.168 E18.5679
G1 X96.027 Y40.287 E18.73776
G1 X96.264 Y40.304 E18.74958
G1 X99.655 Y40.661 E18.91927
G1 X99.887 Y40.693 E18.93092
G1 X103.242 Y41.283 E19.10045
G1 X103.415 Y41.318 E19.10923
G1 X105.085 Y41.702 E19.19451
G1 X105.259 Y41.747 E19.20345
G1 X108.532 Y42.684 E19.37288
G1 X108.757 Y42.757 E19.38465
G1 X111.969 Y43.925 E19.55474
G1 X112.186 Y44.013 E19.56639
G1 X115.297 Y45.394 E19.73578
G1 X115.512 Y45.498 E19.74767
G1 X118.525 Y47.098 E19.91744
G1 X118.727 Y47.215 E19.92906
G1 X121.604 Y49.007 E20.09773
G1 X121.801 Y49.139 E20.10954
G1 X124.544 Y51.126 E20.27809
G1 X124.729 Y51.27 E20.28976
G1 X127.334 Y53.447 E20.45871
G1 X127.516 Y53.61 E20.47087
G1 X130.156 Y56.16 E20.65353
G1 X130.325 Y56.337 E20.66571
G1 X132.588 Y58.863 E20.83449
G1 X132.739 Y59.043 E20.84618
G1 X134.821 Y61.718 E21.01487
G1 X134.959 Y61.908 E21.02656
G1 X136.849 Y64.718 E21.19509
G1 X136.973 Y64.917 E21.20675
G1 X138.674 Y67.869 E21.37631
G1 X138.785 Y68.078 E21.38808
G1 X140.277 Y71.142 E21.55768
G1 X140.373 Y71.359 E21.56949
G1 X141.646 Y74.518 E21.73898
G1 X141.726 Y74.739 E21.75068
G1 X142.779 Y77.983 E21.92041
G1 X142.845 Y78.211 E21.93222
G1 X143.67 Y81.527 E22.10228
G1 X143.719 Y81.758 E22.11403
G1 X144.308 Y85.106 E22.2832
G1 X144.34 Y85.34 E22.29496
G1 X144.696 Y88.733 E22.46474
G1 X144.713 Y88.969 E22.47651
G1 X144.832 Y92.376 E22.64617
G1 X144.832 Y92.612 E22.65791
G1 X144.713 Y96.026 E22.82791
G1 X144.696 Y96.262 E22.83969
G1 X144.34 Y99.65 E23.00922
G1 X144.308 Y99.884 E23.02098
G1 X143.717 Y103.243 E23.19071
G1 X143.682 Y103.415 E23.19944
G1 X143.298 Y105.085 E23.28472
G1 X143.253 Y105.259 E23.29366
G1 X142.316 Y108.532 E23.46309
G1 X142.243 Y108.757 E23.47486
G1 X141.078 Y111.962 E23.64457
G1 X140.99 Y112.179 E23.65622
G1 X139.606 Y115.297 E23.82599
G1 X139.502 Y115.512 E23.83787
G1 X137.901 Y118.527 E24.00776
G1 X137.783 Y118.73 E24.01944
G1 X135.992 Y121.603 E24.18793
G1 X135.862 Y121.798 E24.19959
G1 X133.875 Y124.543 E24.36823
G1 X133.73 Y124.729 E24.37997
G1 X131.554 Y127.333 E24.54885
G1 X131.391 Y127.515 E24.561
G1 X128.84 Y130.156 E24.74374
G1 X128.663 Y130.325 E24.75591
G1 X126.137 Y132.588 E24.92469
G1 X125.957 Y132.739 E24.93638
G1 X123.281 Y134.821 E25.10511
G1 X123.092 Y134.958 E25.11673
G1 X120.286 Y136.847 E25.28507
G1 X120.085 Y136.972 E25.29685
G1 X117.136 Y138.671 E25.46622
G1 X116.927 Y138.782 E25.478
G1 X113.863 Y140.273 E25.64757
G1 X113.648 Y140.369 E25.65929
G1 X110.485 Y141.645 E25.82903
G1 X110.263 Y141.725 E25.84077
G1 X107.019 Y142.778 E26.0105
G1 X106.791 Y142.844 E26.02231
G1 X103.476 Y143.669 E26.19232
G1 X103.244 Y143.718 E26.20412
G1 X99.887 Y144.308 E26.37374
G1 X99.654 Y144.34 E26.38544
G1 X96.265 Y144.696 E26.55503
G1 X96.029 Y144.713 E26.5668
G1 X92.62 Y144.832 E26.73656
G1 X92.384 Y144.832 E26.7483
G1 X88.973 Y144.713 E26.91815
G1 X88.736 Y144.696 E26.92998
G1 X85.345 Y144.339 E27.09967
G1 X85.113 Y144.307 E27.11132
G1 X81.758 Y143.717 E27.28085
G1 X81.585 Y143.682 E27.28963
G1 X79.915 Y143.298 E27.37491
G1 X79.741 Y143.253 E27.38385
G1 X76.468 Y142.316 E27.55328
G1 X76.243 Y142.243 E27.56505
G1 X73.031 Y141.075 E27.73514
G1 X72.813 Y140.987 E27.74684
G1 X69.696 Y139.603 E27.91656
G1 X69.482 Y139.499 E27.9284
G1 X66.475 Y137.902 E28.09784
G1 X66.272 Y137.785 E28.1095
G1 X63.389 Y135.989 E28.27854
G1 X63.193 Y135.857 E28.2903
G1 X60.456 Y133.874 E28.4585
G1 X60.271 Y133.73 E28.47016
G1 X57.666 Y131.553 E28.63911
G1 X57.484 Y131.39 E28.65127
G1 X54.839 Y128.835 E28.83428
G1 X54.669 Y128.658 E28.8465
G1 X52.407 Y126.132 E29.01524
G1 X52.257 Y125.952 E29.0269
G1 X50.176 Y123.277 E29.19556
G1 X50.039 Y123.087 E29.20722
G1 X48.148 Y120.276 E29.37582
G1 X48.023 Y120.076 E29.38755
G1 X46.326 Y117.13 E29.55675
G1 X46.215 Y116.922 E29.56848
G1 X44.723 Y113.858 E29.73808
G1 X44.627 Y113.641 E29.74989
G1 X43.351 Y110.474 E29.91981
G1 X43.27 Y110.252 E29.93157
G1 X42.218 Y107.007 E30.10133
G1 X42.153 Y106.779 E30.11313
G1 X41.331 Y103.472 E30.28271
G1 X41.282 Y103.241 E30.29446
G1 X40.691 Y99.88 E30.46429
G1 X40.659 Y99.648 E30.47595
G1 X40.303 Y96.263 E30.64533
G1 X40.286 Y96.025 E30.65721
G1 X40.168 Y92.619 E30.82681
G1 X40.168 Y92.383 E30.83855
G1 X40.288 Y88.969 E31.00856
G1 X40.305 Y88.734 E31.02028
G1 X40.66 Y85.349 E31.18966
G1 X40.692 Y85.116 E31.20137
G1 X41.283 Y81.755 E31.3712
G1 X41.332 Y81.523 E31.383
G1 X42.155 Y78.215 E31.55264
G1 X42.221 Y77.987 E31.56445
G1 X43.274 Y74.741 E31.73428
G1 X43.355 Y74.518 E31.74608
G1 X44.634 Y71.349 E31.91615
G1 X44.729 Y71.135 E31.9278
G1 X46.218 Y68.074 E32.0972
G1 X46.329 Y67.864 E32.10902
G1 X48.026 Y64.919 E32.27817
G1 X48.151 Y64.72 E32.28987
G1 X50.046 Y61.903 E32.45882
G1 X50.183 Y61.712 E32.47052
G1 X52.259 Y59.045 E32.63872
G1 X52.415 Y58.86 E32.65076
G1 X54.878 Y56.124 E32.83396
G1 X55.051 Y55.945 E32.84635
M204 S5000
G0 F2400 X55.327 Y56.233
M204 S200
G1 F1200 X57.771 Y53.888 E33.01491
G1 X57.924 Y53.751 E33.02513
G1 X60.532 Y51.572 E33.19426
G1 X60.655 Y51.474 E33.20208
G1 X62.006 Y50.461 E33.28612
G1 X62.131 Y50.373 E33.29372
G1 X64.937 Y48.484 E33.46206
G1 X65.114 Y48.374 E33.47243
G1 X68.065 Y46.674 E33.64192
G1 X68.249 Y46.576 E33.65229
G1 X71.311 Y45.086 E33.82176
G1 X71.501 Y45.001 E33.83211
G1 X74.671 Y43.722 E34.00223
G1 X74.868 Y43.651 E34.01265
G1 X78.106 Y42.601 E34.18205
G1 X78.306 Y42.544 E34.1924
G1 X81.62 Y41.719 E34.36236
G1 X81.825 Y41.675 E34.37279
G1 X85.182 Y41.085 E34.54241
G1 X85.387 Y41.056 E34.55272
G1 X88.776 Y40.7 E34.7223
G1 X88.985 Y40.686 E34.73272
G1 X92.394 Y40.567 E34.90248
G1 X92.602 Y40.567 E34.91283
G1 X96.013 Y40.686 E35.08268
G1 X96.222 Y40.7 E35.09311
G1 X99.613 Y41.057 E35.26279
G1 X99.818 Y41.086 E35.2731
G1 X103.173 Y41.676 E35.44262
G1 X103.326 Y41.707 E35.45039
G1 X104.996 Y42.091 E35.53567
G1 X105.149 Y42.131 E35.54354
G1 X108.422 Y43.068 E35.71296
G1 X108.621 Y43.132 E35.72337
G1 X111.833 Y44.3 E35.89345
G1 X112.024 Y44.377 E35.9037
G1 X115.135 Y45.758 E36.07309
G1 X115.325 Y45.851 E36.08362
G1 X118.338 Y47.451 E36.25339
G1 X118.516 Y47.554 E36.26363
G1 X121.393 Y49.346 E36.43231
G1 X121.567 Y49.462 E36.44271
G1 X124.31 Y51.449 E36.61127
G1 X124.473 Y51.576 E36.62155
G1 X127.078 Y53.753 E36.7905
G1 X127.238 Y53.897 E36.80122
G1 X129.878 Y56.447 E36.98388
G1 X130.028 Y56.603 E36.99465
G1 X132.291 Y59.129 E37.16342
G1 X132.424 Y59.288 E37.17374
G1 X134.506 Y61.963 E37.34243
G1 X134.628 Y62.131 E37.35276
G1 X136.518 Y64.941 E37.52129
G1 X136.627 Y65.117 E37.5316
G1 X138.328 Y68.069 E37.70115
G1 X138.426 Y68.253 E37.71152
G1 X139.918 Y71.317 E37.88112
G1 X140.003 Y71.508 E37.89152
G1 X141.276 Y74.667 E38.06102
G1 X141.347 Y74.862 E38.07135
G1 X142.4 Y78.106 E38.24108
G1 X142.457 Y78.307 E38.25147
G1 X143.282 Y81.623 E38.42153
G1 X143.326 Y81.827 E38.43191
G1 X143.915 Y85.175 E38.60109
G1 X143.944 Y85.382 E38.61149
G1 X144.3 Y88.775 E38.78127
G1 X144.314 Y88.983 E38.79164
G1 X144.433 Y92.39 E38.9613
G1 X144.433 Y92.598 E38.97165
G1 X144.314 Y96.012 E39.14165
G1 X144.3 Y96.221 E39.15208
G1 X143.944 Y99.609 E39.32161
G1 X143.915 Y99.815 E39.33196
G1 X143.324 Y103.174 E39.50169
G1 X143.293 Y103.326 E39.50941
G1 X142.909 Y104.996 E39.59469
G1 X142.869 Y105.149 E39.60256
G1 X141.932 Y108.422 E39.77199
G1 X141.868 Y108.62 E39.78234
G1 X140.703 Y111.825 E39.95205
G1 X140.626 Y112.017 E39.96234
G1 X139.242 Y115.135 E40.13211
G1 X139.149 Y115.325 E40.14264
G1 X137.548 Y118.34 E40.31252
G1 X137.445 Y118.519 E40.3228
G1 X135.654 Y121.392 E40.49128
G1 X135.538 Y121.564 E40.50161
G1 X133.551 Y124.309 E40.67025
G1 X133.424 Y124.473 E40.68057
G1 X131.248 Y127.077 E40.84945
G1 X131.104 Y127.237 E40.86016
G1 X128.553 Y129.878 E41.04289
G1 X128.397 Y130.028 E41.05366
G1 X125.871 Y132.291 E41.22244
G1 X125.712 Y132.424 E41.23276
G1 X123.036 Y134.506 E41.40149
G1 X122.869 Y134.627 E41.41175
G1 X120.063 Y136.516 E41.58009
G1 X119.886 Y136.626 E41.59046
G1 X116.937 Y138.325 E41.75983
G1 X116.753 Y138.423 E41.77021
G1 X113.689 Y139.914 E41.93978
G1 X113.499 Y139.999 E41.95014
G1 X110.336 Y141.275 E42.11987
G1 X110.14 Y141.346 E42.13025
G1 X106.896 Y142.399 E42.29998
G1 X106.695 Y142.456 E42.31038
G1 X103.38 Y143.281 E42.48038
G1 X103.175 Y143.325 E42.49082
G1 X99.818 Y143.915 E42.66044
G1 X99.613 Y143.944 E42.67074
G1 X96.224 Y144.3 E42.84033
G1 X96.015 Y144.314 E42.85075
G1 X92.606 Y144.433 E43.0205
G1 X92.398 Y144.433 E43.03086
G1 X88.987 Y144.314 E43.20071
G1 X88.778 Y144.3 E43.21113
G1 X85.387 Y143.943 E43.38082
G1 X85.182 Y143.914 E43.39112
G1 X81.827 Y143.324 E43.56065
G1 X81.674 Y143.293 E43.56842
G1 X80.004 Y142.909 E43.6537
G1 X79.851 Y142.869 E43.66157
G1 X76.578 Y141.932 E43.83099
G1 X76.379 Y141.868 E43.84139
G1 X73.167 Y140.7 E44.01148
G1 X72.975 Y140.622 E44.02179
G1 X69.858 Y139.238 E44.19152
G1 X69.669 Y139.146 E44.20198
G1 X66.662 Y137.549 E44.37142
G1 X66.483 Y137.446 E44.3817
G1 X63.6 Y135.65 E44.55073
G1 X63.427 Y135.534 E44.5611
G1 X60.69 Y133.551 E44.7293
G1 X60.527 Y133.424 E44.73958
G1 X57.922 Y131.247 E44.90853
G1 X57.762 Y131.103 E44.91924
G1 X55.117 Y128.548 E45.10226
G1 X54.966 Y128.392 E45.11306
G1 X52.704 Y125.866 E45.2818
G1 X52.572 Y125.707 E45.29209
G1 X50.491 Y123.032 E45.46075
G1 X50.37 Y122.865 E45.47101
G1 X48.479 Y120.054 E45.63961
G1 X48.369 Y119.877 E45.64998
G1 X46.672 Y116.931 E45.81917
G1 X46.574 Y116.747 E45.82955
G1 X45.082 Y113.683 E45.99915
G1 X44.997 Y113.492 E46.00955
G1 X43.721 Y110.325 E46.17947
G1 X43.65 Y110.129 E46.18984
G1 X42.598 Y106.884 E46.35961
G1 X42.54 Y106.683 E46.37002
G1 X41.718 Y103.376 E46.5396
