;FLAVOR:RepRap
;TIME:199
;Filament used: 0.099812m
;Layer height: 0.15
;Generated with Cura_SteamEngine 2.6.2
M190 S60
M104 S220
M109 S220
G21 ;metric values
G90 ;absolute positioning
M82 ;set extruder to absolute mode
M107 ;start with the fan off
G92 E0 ;zero the extruded length
G1 F200 E3 ;extrude 3mm of feed stock
G92 E0 ;zero the extruded length again
G1 F9000
M117 Printing...
;LAYER_COUNT:16
;LAYER:0
M107
M204 S5000
G0 F2400 X82.292 Y85.941 Z0.3
M204 S200
;TYPE:SKIRT
G1 F1200 X86.036 Y82.259 E0.26133
G1 X86.455 Y81.903 E0.28869
G1 X86.922 Y81.611 E0.3161
G1 X87.426 Y81.389 E0.3435
G1 X87.956 Y81.243 E0.37086
G1 X88.709 Y81.171 E0.40851
G1 X96.393 Y81.201 E0.79091
G1 X96.942 Y81.243 E0.81831
G1 X97.478 Y81.364 E0.84565
G1 X97.992 Y81.562 E0.87307
G1 X98.472 Y81.832 E0.90047
G1 X99.066 Y82.319 E0.9387
G1 X102.769 Y86.042 E1.20002
G1 X103.128 Y86.459 E1.2274
G1 X103.422 Y86.924 E1.25478
G1 X103.646 Y87.426 E1.28214
G1 X103.795 Y87.956 E1.30953
G1 X103.872 Y88.73 E1.34824
G1 X103.841 Y96.371 E1.7285
G1 X103.799 Y96.92 E1.7559
G1 X103.678 Y97.457 E1.7833
G1 X103.48 Y97.971 E1.81071
G1 X103.21 Y98.45 E1.83807
G1 X102.708 Y99.059 E1.87735
G1 X98.964 Y102.741 E2.13868
G1 X98.545 Y103.097 E2.16604
G1 X98.078 Y103.389 E2.19345
G1 X97.574 Y103.611 E2.22086
G1 X97.044 Y103.757 E2.24821
G1 X96.291 Y103.829 E2.28586
G1 X88.607 Y103.799 E2.66826
G1 X88.058 Y103.757 E2.69566
G1 X87.522 Y103.636 E2.72301
G1 X87.008 Y103.438 E2.75042
G1 X86.528 Y103.168 E2.77782
G1 X85.934 Y102.681 E2.81605
G1 X82.231 Y98.958 E3.07737
G1 X81.872 Y98.541 E3.10475
G1 X81.578 Y98.076 E3.13213
G1 X81.354 Y97.574 E3.15949
G1 X81.205 Y97.044 E3.18688
G1 X81.128 Y96.27 E3.22559
G1 X81.159 Y88.629 E3.60585
G1 X81.201 Y88.08 E3.63326
G1 X81.322 Y87.543 E3.66065
G1 X81.52 Y87.029 E3.68806
G1 X81.79 Y86.55 E3.71543
G1 X82.292 Y85.941 E3.7547
M204 S5000
G0 F2400 X82.572 Y86.226
M204 S200
G1 F1200 X86.316 Y82.544 E4.01603
G1 X86.714 Y82.208 E4.04195
G1 X87.158 Y81.938 E4.06781
G1 X87.639 Y81.738 E4.09373
G1 X88.145 Y81.615 E4.11965
G1 X88.707 Y81.57 E4.14771
G1 X96.391 Y81.6 E4.53011
G1 X96.91 Y81.642 E4.55602
G1 X97.416 Y81.763 E4.58191
G1 X97.898 Y81.96 E4.60782
G1 X98.344 Y82.228 E4.63372
G1 X98.783 Y82.6 E4.66235
G1 X102.486 Y86.323 E4.92367
G1 X102.824 Y86.719 E4.94958
G1 X103.097 Y87.162 E4.97548
G1 X103.299 Y87.642 E5.00139
G1 X103.425 Y88.147 E5.0273
G1 X103.473 Y88.729 E5.05636
G1 X103.442 Y96.37 E5.43662
G1 X103.4 Y96.889 E5.46253
G1 X103.279 Y97.395 E5.48842
G1 X103.082 Y97.877 E5.51434
G1 X102.814 Y98.323 E5.54023
G1 X102.428 Y98.774 E5.56977
G1 X98.684 Y102.456 E5.8311
G1 X98.286 Y102.792 E5.85702
G1 X97.842 Y103.062 E5.88288
G1 X97.361 Y103.262 E5.90881
G1 X96.855 Y103.385 E5.93472
G1 X96.293 Y103.43 E5.96278
G1 X88.609 Y103.4 E6.34518
G1 X88.09 Y103.358 E6.37109
G1 X87.584 Y103.237 E6.39698
G1 X87.102 Y103.04 E6.4229
G1 X86.656 Y102.772 E6.44879
G1 X86.217 Y102.4 E6.47743
G1 X82.514 Y98.677 E6.73874
G1 X82.176 Y98.281 E6.76465
G1 X81.903 Y97.838 E6.79055
G1 X81.701 Y97.358 E6.81647
G1 X81.575 Y96.853 E6.84237
G1 X81.527 Y96.271 E6.87143
G1 X81.558 Y88.63 E7.25169
G1 X81.6 Y88.111 E7.2776
G1 X81.721 Y87.605 E7.3035
G1 X81.918 Y87.123 E7.32941
G1 X82.186 Y86.677 E7.3553
G1 X82.572 Y86.226 E7.38485
M204 S5000
G0 F2400 X82.851 Y86.51
M204 S200
G1 F1200 X86.595 Y82.828 E7.64617
G1 X86.971 Y82.515 E7.67052
G1 X87.392 Y82.267 E7.69483
G1 X87.848 Y82.091 E7.71916
G1 X88.327 Y81.992 E7.7435
G1 X88.706 Y81.969 E7.7624
G1 X96.39 Y81.999 E8.1448
G1 X96.877 Y82.041 E8.16912
G1 X97.351 Y82.161 E8.19346
G1 X97.798 Y82.358 E8.21777
G1 X98.208 Y82.624 E8.24209
G1 X98.5 Y82.881 E8.26145
G1 X102.203 Y86.604 E8.52276
G1 X102.518 Y86.978 E8.5471
G1 X102.769 Y87.398 E8.57145
G1 X102.947 Y87.853 E8.59576
G1 X103.049 Y88.331 E8.62009
G1 X103.074 Y88.727 E8.63983
G1 X103.043 Y96.368 E9.02009
G1 X103.001 Y96.855 E9.04442
G1 X102.88 Y97.329 E9.06876
G1 X102.684 Y97.777 E9.0931
G1 X102.418 Y98.187 E9.11742
G1 X102.149 Y98.49 E9.13759
G1 X98.405 Y102.172 E9.39891
G1 X98.029 Y102.485 E9.42326
G1 X97.608 Y102.733 E9.44757
G1 X97.152 Y102.909 E9.4719
G1 X96.673 Y103.008 E9.49624
G1 X96.294 Y103.031 E9.51514
G1 X88.61 Y103.001 E9.89754
G1 X88.123 Y102.959 E9.92186
G1 X87.649 Y102.839 E9.9462
G1 X87.202 Y102.642 E9.97051
G1 X86.792 Y102.376 E9.99483
G1 X86.5 Y102.119 E10.01419
G1 X82.797 Y98.396 E10.2755
G1 X82.482 Y98.022 E10.29984
G1 X82.231 Y97.602 E10.32419
G1 X82.053 Y97.147 E10.3485
G1 X81.951 Y96.669 E10.37283
G1 X81.926 Y96.273 E10.39257
G1 X81.957 Y88.632 E10.77283
G1 X81.999 Y88.145 E10.79716
G1 X82.12 Y87.671 E10.8215
G1 X82.316 Y87.223 E10.84584
G1 X82.582 Y86.813 E10.87016
G1 X82.851 Y86.51 E10.89033
M204 S5000
G0 F2400 X83.131 Y86.795
M204 S200
G1 F1200 X86.875 Y83.113 E11.15165
G1 X87.226 Y82.823 E11.17431
G1 X87.623 Y82.6 E11.19697
G1 X88.052 Y82.449 E11.2196
G1 X88.704 Y82.368 E11.2523
G1 X96.388 Y82.398 E11.6347
G1 X96.841 Y82.44 E11.65734
G1 X97.28 Y82.56 E11.67999
G1 X97.691 Y82.755 E11.70263
G1 X98.217 Y83.163 E11.73576
G1 X101.92 Y86.886 E11.99708
G1 X102.212 Y87.235 E12.01972
G1 X102.437 Y87.63 E12.04234
G1 X102.591 Y88.059 E12.06503
G1 X102.675 Y88.726 E12.09848
G1 X102.644 Y96.367 E12.47874
G1 X102.602 Y96.82 E12.50138
G1 X102.482 Y97.259 E12.52403
G1 X102.287 Y97.67 E12.54667
G1 X101.869 Y98.205 E12.58046
G1 X98.125 Y101.887 E12.84179
G1 X97.774 Y102.177 E12.86444
G1 X97.377 Y102.4 E12.8871
G1 X96.948 Y102.551 E12.90974
G1 X96.296 Y102.632 E12.94243
G1 X88.612 Y102.602 E13.32484
G1 X88.159 Y102.56 E13.34748
G1 X87.72 Y102.44 E13.37012
G1 X87.309 Y102.245 E13.39276
G1 X86.783 Y101.837 E13.42589
G1 X83.08 Y98.114 E13.68721
G1 X82.788 Y97.765 E13.70986
G1 X82.563 Y97.37 E13.73248
G1 X82.409 Y96.941 E13.75516
G1 X82.325 Y96.274 E13.78862
G1 X82.356 Y88.633 E14.16888
G1 X82.398 Y88.18 E14.19152
G1 X82.518 Y87.741 E14.21417
G1 X82.713 Y87.33 E14.23681
G1 X83.131 Y86.795 E14.27059
M204 S5000
G0 F2400 X83.411 Y87.079
M204 S200
G1 F1200 X87.155 Y83.397 E14.53192
G1 X87.48 Y83.133 E14.55276
G1 X87.849 Y82.936 E14.57357
G1 X88.249 Y82.813 E14.5944
G1 X88.703 Y82.767 E14.61711
G1 X96.387 Y82.797 E14.99951
G1 X96.803 Y82.839 E15.02032
G1 X97.204 Y82.958 E15.04113
G1 X97.575 Y83.152 E15.06197
G1 X97.934 Y83.444 E15.085
G1 X101.637 Y87.167 E15.34632
G1 X101.903 Y87.491 E15.36718
G1 X102.102 Y87.859 E15.388
G1 X102.228 Y88.258 E15.40882
G1 X102.276 Y88.724 E15.43213
G1 X102.245 Y96.365 E15.8124
G1 X102.203 Y96.781 E15.8332
G1 X102.083 Y97.182 E15.85403
G1 X101.89 Y97.553 E15.87485
G1 X101.589 Y97.921 E15.89851
G1 X97.845 Y101.603 E16.15983
G1 X97.52 Y101.867 E16.18067
G1 X97.151 Y102.064 E16.20149
G1 X96.751 Y102.187 E16.22231
G1 X96.297 Y102.233 E16.24502
G1 X88.613 Y102.203 E16.62742
G1 X88.197 Y102.161 E16.64823
G1 X87.796 Y102.042 E16.66905
G1 X87.425 Y101.848 E16.68988
G1 X87.066 Y101.556 E16.71291
G1 X83.363 Y97.833 E16.97423
G1 X83.097 Y97.509 E16.99509
G1 X82.898 Y97.141 E17.01591
G1 X82.772 Y96.742 E17.03673
G1 X82.724 Y96.276 E17.06005
G1 X82.755 Y88.635 E17.44031
G1 X82.797 Y88.219 E17.46111
G1 X82.917 Y87.818 E17.48195
G1 X83.11 Y87.447 E17.50276
G1 X83.411 Y87.079 E17.52642
M204 S5000
G0 F2400 X83.691 Y87.363
M204 S200
G1 F1200 X87.435 Y83.681 E17.78774
G1 X87.731 Y83.446 E17.80655
G1 X88.07 Y83.278 E17.82538
G1 X88.437 Y83.184 E17.84423
G1 X88.701 Y83.166 E17.8574
G1 X96.385 Y83.196 E18.2398
G1 X96.761 Y83.237 E18.25863
G1 X97.121 Y83.357 E18.27751
G1 X97.447 Y83.549 E18.29634
G1 X97.651 Y83.725 E18.30975
G1 X101.354 Y87.448 E18.57107
G1 X101.592 Y87.743 E18.58993
G1 X101.762 Y88.082 E18.6088
G1 X101.857 Y88.448 E18.62762
G1 X101.877 Y88.722 E18.64129
G1 X101.846 Y96.363 E19.02155
G1 X101.805 Y96.74 E19.04042
G1 X101.685 Y97.099 E19.05926
G1 X101.493 Y97.425 E19.07809
G1 X101.309 Y97.637 E19.09206
G1 X97.565 Y101.319 E19.35339
G1 X97.269 Y101.554 E19.37219
G1 X96.93 Y101.722 E19.39102
G1 X96.563 Y101.816 E19.40988
G1 X96.299 Y101.834 E19.42305
G1 X88.615 Y101.804 E19.80545
G1 X88.239 Y101.763 E19.82427
G1 X87.879 Y101.643 E19.84315
G1 X87.553 Y101.451 E19.86198
G1 X87.349 Y101.275 E19.87539
G1 X83.646 Y97.552 E20.13671
G1 X83.408 Y97.257 E20.15557
G1 X83.238 Y96.918 E20.17444
G1 X83.143 Y96.552 E20.19326
G1 X83.123 Y96.278 E20.20693
G1 X83.154 Y88.637 E20.58719
G1 X83.195 Y88.26 E20.60607
G1 X83.315 Y87.901 E20.6249
G1 X83.507 Y87.575 E20.64373
G1 X83.691 Y87.363 E20.6577
M204 S5000
G0 F2400 X83.97 Y87.648
M204 S200
G1 F1200 X87.714 Y83.966 E20.91903
G1 X87.979 Y83.762 E20.93567
G1 X88.284 Y83.627 E20.95227
G1 X88.699 Y83.565 E20.97315
G1 X96.383 Y83.595 E21.35555
G1 X96.715 Y83.636 E21.3722
G1 X97.027 Y83.755 E21.38882
G1 X97.368 Y84.007 E21.40992
G1 X101.071 Y87.73 E21.67124
G1 X101.277 Y87.993 E21.68786
G1 X101.414 Y88.297 E21.70446
G1 X101.478 Y88.721 E21.7258
G1 X101.447 Y96.362 E22.10606
G1 X101.406 Y96.693 E22.12266
G1 X101.287 Y97.005 E22.13927
G1 X101.03 Y97.352 E22.16076
G1 X97.286 Y101.034 E22.42209
G1 X97.021 Y101.238 E22.43873
G1 X96.716 Y101.373 E22.45533
G1 X96.301 Y101.435 E22.47621
G1 X88.617 Y101.405 E22.85861
G1 X88.285 Y101.364 E22.87526
G1 X87.973 Y101.245 E22.89188
G1 X87.632 Y100.993 E22.91298
G1 X83.929 Y97.27 E23.1743
G1 X83.723 Y97.007 E23.19092
G1 X83.586 Y96.703 E23.20752
G1 X83.522 Y96.279 E23.22886
G1 X83.553 Y88.638 E23.60912
G1 X83.594 Y88.307 E23.62572
G1 X83.713 Y87.995 E23.64234
G1 X83.97 Y87.648 E23.66382
M204 S5000
G0 F2400 X84.25 Y87.932
M204 S200
G1 F1200 X87.994 Y84.25 E23.92515
G1 X88.221 Y84.083 E23.93918
G1 X88.486 Y83.986 E23.95322
G1 X88.698 Y83.964 E23.96383
G1 X96.382 Y83.994 E24.34623
G1 X96.661 Y84.035 E24.36026
G1 X96.917 Y84.152 E24.37427
G1 X97.086 Y84.288 E24.38506
G1 X100.789 Y88.011 E24.64638
G1 X100.957 Y88.237 E24.6604
G1 X101.056 Y88.501 E24.67443
G1 X101.079 Y88.719 E24.68534
G1 X101.048 Y96.36 E25.0656
G1 X101.007 Y96.639 E25.07963
G1 X100.89 Y96.895 E25.09364
G1 X100.75 Y97.068 E25.10471
G1 X97.006 Y100.75 E25.36604
G1 X96.779 Y100.917 E25.38006
G1 X96.514 Y101.014 E25.39411
G1 X96.302 Y101.036 E25.40472
G1 X88.618 Y101.006 E25.78712
G1 X88.339 Y100.965 E25.80115
G1 X88.083 Y100.848 E25.81516
G1 X87.914 Y100.712 E25.82595
G1 X84.211 Y96.989 E26.08727
G1 X84.043 Y96.763 E26.10128
G1 X83.944 Y96.499 E26.11532
G1 X83.921 Y96.281 E26.12623
G1 X83.952 Y88.64 E26.50649
G1 X83.993 Y88.361 E26.52052
G1 X84.11 Y88.105 E26.53453
G1 X84.25 Y87.932 E26.5456
M204 S5000
G0 F2400 X84.53 Y88.217
M204 S200
G1 F1200 X88.274 Y84.535 E26.80693
G1 X88.455 Y84.413 E26.81779
G1 X88.696 Y84.363 E26.83004
G1 X96.38 Y84.393 E27.21244
G1 X96.595 Y84.434 E27.22333
G1 X96.803 Y84.57 E27.2357
G1 X100.506 Y88.293 E27.49702
G1 X100.629 Y88.473 E27.50787
G1 X100.68 Y88.717 E27.52027
G1 X100.649 Y96.358 E27.90054
G1 X100.608 Y96.573 E27.91143
G1 X100.47 Y96.783 E27.92393
G1 X96.726 Y100.465 E28.18526
G1 X96.545 Y100.587 E28.19612
G1 X96.304 Y100.637 E28.20837
G1 X88.62 Y100.607 E28.59077
G1 X88.405 Y100.566 E28.60166
G1 X88.197 Y100.43 E28.61403
G1 X84.494 Y96.707 E28.87535
G1 X84.371 Y96.527 E28.8862
G1 X84.32 Y96.283 E28.89861
G1 X84.351 Y88.642 E29.27887
G1 X84.392 Y88.427 E29.28976
G1 X84.53 Y88.217 E29.30226
M204 S5000
G0 F2400 X84.81 Y88.501
M204 S200
G1 F1200 X88.554 Y84.819 E29.56359
G1 X88.695 Y84.762 E29.57116
G1 X96.379 Y84.792 E29.95356
G1 X96.52 Y84.851 E29.96117
G1 X100.223 Y88.574 E30.22248
G1 X100.281 Y88.716 E30.23012
G1 X100.25 Y96.357 E30.61038
G1 X100.19 Y96.499 E30.61805
G1 X96.446 Y100.181 E30.87938
G1 X96.305 Y100.238 E30.88695
G1 X88.621 Y100.208 E31.26935
G1 X88.48 Y100.149 E31.27695
G1 X84.777 Y96.426 E31.53827
G1 X84.719 Y96.284 E31.5459
G1 X84.75 Y88.643 E31.92617
G1 X84.81 Y88.501 E31.93384
M204 S5000
G0 F2400 X85.118 Y88.756
M204 S200
;TYPE:WALL-OUTER
G1 F1200 X88.734 Y85.161 E32.18759
G1 X96.266 Y85.161 E32.56242
G1 X99.882 Y88.756 E32.81618
G1 X99.882 Y96.244 E33.18882
G1 X96.266 Y99.839 E33.44257
G1 X88.734 Y99.839 E33.81741
G1 X85.118 Y96.244 E34.07116
G1 X85.118 Y88.756 E34.4438
M204 S5000
G0 F2400 X85.259 Y88.615
G0 X85.848 Y88.857
M204 S200
G1 F1200 X86.094 Y88.981 E34.45751
G1 X87.298 Y89.588 E34.52461
G1 X89.593 Y87.32 E34.68519
G1 X88.984 Y86.112 E34.75251
G1 X88.983 Y86.111 E34.75258
G1 X88.861 Y85.868 E34.76611
G1 X88.667 Y86.06 E34.7742
G1 X86.043 Y88.663 E34.95814
G1 X85.848 Y88.857 E34.96628
M204 S5000
G0 F2400 X86.026 Y88.947
G0 X85.64 Y89.34
M204 S200
G1 F1200 X85.64 Y89.661 E34.98225
G1 X85.64 Y89.663 E34.98235
G1 X85.64 Y95.344 E35.26507
G1 X85.64 Y95.345 E35.26512
G1 X85.64 Y95.668 E35.28119
G1 X85.929 Y95.522 E35.29045
G1 X87.118 Y94.922 E35.35673
G1 X87.119 Y90.081 E35.59764
G1 X85.928 Y89.484 E35.66394
G1 X85.64 Y89.34 E35.67315
M204 S5000
G0 F2400 X85.64 Y89.54
G0 X87.696 Y90.375
M204 S200
G1 F1200 X87.696 Y90.696 E35.68913
G1 X87.696 Y90.698 E35.68923
G1 X87.696 Y94.307 E35.86883
G1 X87.696 Y94.308 E35.86888
G1 X87.696 Y94.63 E35.8849
G1 X87.984 Y94.485 E35.89412
G1 X89.118 Y93.914 E35.95731
G1 X89.119 Y91.088 E36.09794
G1 X87.984 Y90.519 E36.16113
G1 X87.696 Y90.375 E36.17034
M204 S5000
G0 F2400 X87.696 Y90.575
G0 X87.905 Y89.894
M204 S200
G1 F1200 X88.153 Y90.018 E36.18414
G1 X88.154 Y90.019 E36.18421
G1 X89.301 Y90.597 E36.24813
G1 X90.605 Y89.325 E36.33878
G1 X90.029 Y88.183 E36.40243
G1 X90.028 Y88.182 E36.4025
G1 X89.907 Y87.941 E36.41592
G1 X89.713 Y88.13 E36.42396
G1 X88.104 Y89.7 E36.53584
G1 X87.905 Y89.894 E36.54403
M204 S5000
G0 F2400 X88.084 Y89.983
G0 X90.397 Y87.75
M204 S200
G1 F1200 X90.542 Y88.038 E36.56007
G1 X91.107 Y89.161 E36.62263
G1 X93.891 Y89.162 E36.76118
G1 X94.454 Y88.038 E36.82374
G1 X94.598 Y87.75 E36.83977
G1 X94.277 Y87.75 E36.84895
G1 X94.275 Y87.75 E36.84905
G1 X90.72 Y87.75 E37.02596
G1 X90.719 Y87.75 E37.02601
G1 X90.397 Y87.75 E37.03522
M204 S5000
G0 F2400 X90.487 Y87.928
G0 X89.354 Y85.683
M204 S200
G1 F1200 X89.499 Y85.971 E37.05127
G1 X90.098 Y87.161 E37.11757
G1 X94.898 Y87.162 E37.35644
G1 X95.495 Y85.971 E37.42274
G1 X95.639 Y85.683 E37.43877
G1 X95.318 Y85.683 E37.44795
G1 X95.316 Y85.683 E37.44805
G1 X89.677 Y85.683 E37.72867
G1 X89.676 Y85.683 E37.72872
G1 X89.354 Y85.683 E37.73793
M204 S5000
G0 F2400 X89.444 Y85.861
G1 F1500 E35.73793
G0 F2400 X89.444 Y84.297
G0 X96.435 Y84.298
G0 X96.753 Y84.428
G0 X97.672 Y85.341
G0 X95.089 Y87.939
M204 S200
G1 F1500 E37.73793
G1 F1200 X94.968 Y88.181 E37.7514
G1 X94.967 Y88.182 E37.75147
G1 X94.393 Y89.323 E37.81503
G1 X95.696 Y90.596 E37.90568
G1 X96.842 Y90.016 E37.9696
G1 X96.843 Y90.015 E37.96967
G1 X97.091 Y89.891 E37.98347
G1 X96.892 Y89.697 E37.99166
G1 X95.283 Y88.128 E38.1035
G1 X95.089 Y87.939 E38.11153
M204 S5000
G0 F2400 X95 Y88.118
G0 X95.391 Y87.339
M204 S200
G1 F1200 X95.522 Y87.434 E38.11958
G1 X97.698 Y89.584 E38.27181
G1 X98.902 Y88.977 E38.33891
G1 X99.148 Y88.853 E38.35262
G1 X98.953 Y88.659 E38.36076
G1 X96.329 Y86.056 E38.5447
G1 X96.135 Y85.864 E38.55828
G1 X96.013 Y86.107 E38.56632
G1 X96.012 Y86.108 E38.56639
G1 X95.391 Y87.339 E38.63501
M204 S5000
G0 F2400 X95.522 Y87.434
G0 X95.549 Y87.461
G0 X99.36 Y89.332
M204 S200
G1 F1200 X99.071 Y89.478 E38.65112
G1 X97.882 Y90.078 E38.7174
G1 X97.881 Y94.919 E38.95831
G1 X99.072 Y95.516 E39.02461
G1 X99.36 Y95.66 E39.04064
G1 X99.36 Y95.339 E39.04982
G1 X99.36 Y95.337 E39.04992
G1 X99.36 Y89.656 E39.33264
G1 X99.36 Y89.655 E39.33269
G1 X99.36 Y89.332 E39.34192
M204 S5000
G0 F2400 X99.182 Y89.422
G0 X97.304 Y90.37
M204 S200
G1 F1200 X97.016 Y90.515 E39.35796
G1 X95.882 Y91.086 E39.42115
G1 X95.881 Y93.912 E39.56179
G1 X97.016 Y94.481 E39.62497
G1 X97.304 Y94.625 E39.64099
G1 X97.304 Y94.304 E39.65018
G1 X97.304 Y94.302 E39.65028
G1 X97.304 Y90.693 E39.82988
G1 X97.304 Y90.692 E39.82993
G1 X97.304 Y90.37 E39.83914
M204 S5000
G0 F2400 X97.126 Y90.46
G0 X97.095 Y95.106
M204 S200
G1 F1200 X96.847 Y94.982 E39.85293
G1 X96.846 Y94.981 E39.853
G1 X95.699 Y94.403 E39.91692
G1 X94.395 Y95.675 E40.00758
G1 X94.971 Y96.817 E40.07123
G1 X95.093 Y97.059 E40.08472
G1 X95.287 Y96.869 E40.09278
G1 X96.896 Y95.3 E40.20462
G1 X97.095 Y95.106 E40.21281
M204 S5000
G0 F2400 X96.916 Y95.017
G0 X99.152 Y96.143
M204 S200
G1 F1200 X98.906 Y96.019 E40.22652
G1 X97.702 Y95.412 E40.29362
G1 X95.407 Y97.68 E40.4542
