;FLAVOR:RepRap
;TIME:877
;Filament used: 0.384746m
;Layer height: 0.15
;Generated with Cura_SteamEngine 2.6.2
M190 S60
M104 S220
M109 S220
G21 ;metric values
G90 ;absolute positioning
M82 ;set extruder to absolute mode
M107 ;start with the fan off
G92 E0 ;zero the extruded length
G1 F200 E3 ;extrude 3mm of feed stock
G92 E0 ;zero the extruded length again
G1 F9000
M117 Printing...
;LAYER_COUNT:42
;LAYER:0
M107
M204 S5000
G0 F2400 X83.1 Y83.153 Z0.3
G0 X83.217 Y83.036
M204 S200
;TYPE:SKIRT
G1 F1200 X83.634 Y82.676 E0.02742
G1 X84.098 Y82.381 E0.05478
G1 X84.6 Y82.155 E0.08218
G1 X85.129 Y82.005 E0.10954
G1 X85.898 Y81.926 E0.14801
G1 X99.154 Y81.926 E0.8077
G1 X99.703 Y81.966 E0.8351
G1 X100.24 Y82.085 E0.86247
G1 X100.755 Y82.28 E0.88987
G1 X101.235 Y82.548 E0.91723
G1 X101.835 Y83.036 E0.95572
G1 X101.952 Y83.153 E0.96395
G1 X102.312 Y83.57 E0.99137
G1 X102.607 Y84.034 E1.01873
G1 X102.833 Y84.536 E1.04613
G1 X102.983 Y85.065 E1.07349
G1 X103.062 Y85.833 E1.11192
G1 X103.065 Y99.094 E1.77186
G1 X103.025 Y99.643 E1.79925
G1 X102.906 Y100.18 E1.82662
G1 X102.711 Y100.695 E1.85403
G1 X102.443 Y101.176 E1.88143
G1 X101.955 Y101.776 E1.91992
G1 X101.838 Y101.893 E1.92815
G1 X101.421 Y102.253 E1.95557
G1 X100.957 Y102.548 E1.98293
G1 X100.455 Y102.774 E2.01033
G1 X99.926 Y102.924 E2.03769
G1 X99.157 Y103.003 E2.07616
G1 X85.895 Y103.003 E2.73615
G1 X85.346 Y102.963 E2.76355
G1 X84.809 Y102.844 E2.79092
G1 X84.294 Y102.649 E2.81832
G1 X83.814 Y102.381 E2.84568
G1 X83.214 Y101.893 E2.88417
G1 X83.097 Y101.776 E2.8924
G1 X82.737 Y101.359 E2.91982
G1 X82.442 Y100.895 E2.94718
G1 X82.216 Y100.393 E2.97458
G1 X82.066 Y99.864 E3.00194
G1 X81.987 Y99.094 E3.04046
G1 X81.99 Y85.833 E3.7004
G1 X82.03 Y85.284 E3.7278
G1 X82.149 Y84.747 E3.75517
G1 X82.345 Y84.233 E3.78255
G1 X82.613 Y83.752 E3.80995
G1 X83.1 Y83.153 E3.84837
G1 X83.217 Y83.036 E3.8566
M204 S5000
G0 F2400 X83.499 Y83.318
M204 S200
G1 F1200 X83.895 Y82.98 E3.88251
G1 X84.337 Y82.705 E3.90842
G1 X84.816 Y82.502 E3.93431
G1 X85.321 Y82.374 E3.96023
G1 X85.898 Y82.325 E3.98905
G1 X99.154 Y82.325 E4.64874
G1 X99.673 Y82.365 E4.67465
G1 X100.18 Y82.484 E4.70056
G1 X100.662 Y82.679 E4.72644
G1 X101.11 Y82.945 E4.75237
G1 X101.553 Y83.318 E4.78119
G1 X101.67 Y83.435 E4.78942
G1 X102.008 Y83.831 E4.81533
G1 X102.283 Y84.273 E4.84124
G1 X102.486 Y84.752 E4.86713
G1 X102.614 Y85.257 E4.89306
G1 X102.663 Y85.833 E4.92182
G1 X102.666 Y99.094 E5.58176
G1 X102.626 Y99.613 E5.60767
G1 X102.507 Y100.12 E5.63359
G1 X102.312 Y100.603 E5.65951
G1 X102.046 Y101.05 E5.68539
G1 X101.673 Y101.494 E5.71425
G1 X101.556 Y101.611 E5.72249
G1 X101.16 Y101.949 E5.7484
G1 X100.718 Y102.224 E5.7743
G1 X100.239 Y102.427 E5.80019
G1 X99.734 Y102.555 E5.82612
G1 X99.157 Y102.604 E5.85494
G1 X85.895 Y102.604 E6.51493
G1 X85.376 Y102.564 E6.54083
G1 X84.869 Y102.445 E6.56675
G1 X84.387 Y102.25 E6.59262
G1 X83.939 Y101.984 E6.61855
G1 X83.496 Y101.611 E6.64737
G1 X83.379 Y101.494 E6.65561
G1 X83.041 Y101.098 E6.68152
G1 X82.766 Y100.656 E6.70742
G1 X82.563 Y100.177 E6.73331
G1 X82.435 Y99.672 E6.75924
G1 X82.386 Y99.094 E6.78811
G1 X82.389 Y85.833 E7.44805
G1 X82.429 Y85.314 E7.47395
G1 X82.548 Y84.807 E7.49987
G1 X82.743 Y84.325 E7.52574
G1 X83.01 Y83.878 E7.55165
G1 X83.382 Y83.435 E7.58044
G1 X83.499 Y83.318 E7.58868
M204 S5000
G0 F2400 X83.665 Y83.718
M204 S200
G1 F1200 X83.782 Y83.601 E7.59691
G1 X84.154 Y83.284 E7.62123
G1 X84.574 Y83.033 E7.64558
G1 X85.028 Y82.853 E7.66989
G1 X85.506 Y82.75 E7.69422
G1 X85.898 Y82.724 E7.71377
G1 X99.154 Y82.724 E8.37346
G1 X99.641 Y82.764 E8.39778
G1 X100.116 Y82.883 E8.42215
G1 X100.564 Y83.077 E8.44645
G1 X100.975 Y83.342 E8.47078
G1 X101.27 Y83.601 E8.49032
G1 X101.387 Y83.718 E8.49855
G1 X101.704 Y84.09 E8.52288
G1 X101.955 Y84.51 E8.54723
G1 X102.135 Y84.964 E8.57153
G1 X102.238 Y85.442 E8.59586
G1 X102.264 Y85.833 E8.61536
G1 X102.267 Y99.094 E9.2753
G1 X102.227 Y99.582 E9.29967
G1 X102.109 Y100.056 E9.32398
G1 X101.914 Y100.505 E9.34834
G1 X101.65 Y100.916 E9.37265
G1 X101.39 Y101.211 E9.39222
G1 X101.273 Y101.328 E9.40045
G1 X100.901 Y101.645 E9.42478
G1 X100.481 Y101.896 E9.44913
G1 X100.027 Y102.076 E9.47343
G1 X99.549 Y102.179 E9.49777
G1 X99.157 Y102.205 E9.51732
G1 X85.895 Y102.205 E10.17731
G1 X85.408 Y102.165 E10.20162
G1 X84.933 Y102.046 E10.22599
G1 X84.485 Y101.852 E10.25029
G1 X84.074 Y101.587 E10.27462
G1 X83.779 Y101.328 E10.29416
G1 X83.662 Y101.211 E10.3024
G1 X83.345 Y100.839 E10.32672
G1 X83.094 Y100.419 E10.35107
G1 X82.914 Y99.965 E10.37537
G1 X82.811 Y99.487 E10.39971
G1 X82.785 Y99.094 E10.41931
G1 X82.788 Y85.833 E11.07925
G1 X82.828 Y85.346 E11.10356
G1 X82.947 Y84.872 E11.12788
G1 X83.141 Y84.423 E11.15223
G1 X83.406 Y84.012 E11.17656
G1 X83.665 Y83.718 E11.19606
M204 S5000
G0 F2400 X84.064 Y83.883
M204 S200
G1 F1200 X84.413 Y83.59 E11.21874
G1 X84.807 Y83.364 E11.24134
G1 X85.235 Y83.209 E11.264
G1 X85.898 Y83.123 E11.29727
G1 X99.154 Y83.123 E11.95696
G1 X99.607 Y83.163 E11.97959
G1 X100.047 Y83.281 E12.00226
G1 X100.459 Y83.475 E12.02492
G1 X100.988 Y83.883 E12.05817
G1 X101.105 Y84 E12.0664
G1 X101.398 Y84.349 E12.08908
G1 X101.624 Y84.743 E12.11169
G1 X101.779 Y85.171 E12.13434
G1 X101.865 Y85.833 E12.16756
G1 X101.868 Y99.094 E12.8275
G1 X101.828 Y99.548 E12.85018
G1 X101.71 Y99.987 E12.8728
G1 X101.516 Y100.399 E12.89547
G1 X101.108 Y100.929 E12.92875
G1 X100.991 Y101.046 E12.93699
G1 X100.642 Y101.339 E12.95966
G1 X100.248 Y101.565 E12.98227
G1 X99.82 Y101.72 E13.00492
G1 X99.157 Y101.806 E13.03819
G1 X85.895 Y101.806 E13.69818
G1 X85.442 Y101.766 E13.72081
G1 X85.002 Y101.648 E13.74348
G1 X84.59 Y101.454 E13.76615
G1 X84.061 Y101.046 E13.79939
G1 X83.944 Y100.929 E13.80763
G1 X83.651 Y100.58 E13.83031
G1 X83.425 Y100.186 E13.85291
G1 X83.27 Y99.758 E13.87556
G1 X83.184 Y99.094 E13.90888
G1 X83.187 Y85.833 E14.56882
G1 X83.227 Y85.38 E14.59145
G1 X83.346 Y84.941 E14.61409
G1 X83.539 Y84.529 E14.63673
G1 X83.947 Y84 E14.66998
G1 X84.064 Y83.883 E14.67821
M204 S5000
G0 F2400 X84.346 Y84.165
M204 S200
G1 F1200 X84.669 Y83.898 E14.69907
G1 X85.036 Y83.698 E14.71987
G1 X85.435 Y83.571 E14.74071
G1 X85.898 Y83.522 E14.76388
G1 X99.154 Y83.522 E15.42357
G1 X99.571 Y83.562 E15.44441
G1 X99.972 Y83.68 E15.46522
G1 X100.344 Y83.873 E15.48607
G1 X100.706 Y84.165 E15.50922
G1 X100.823 Y84.282 E15.51745
G1 X101.09 Y84.605 E15.53831
G1 X101.29 Y84.972 E15.55911
G1 X101.417 Y85.371 E15.57995
G1 X101.466 Y85.834 E15.60312
G1 X101.469 Y99.095 E16.26306
G1 X101.429 Y99.511 E16.28385
G1 X101.311 Y99.913 E16.3047
G1 X101.119 Y100.285 E16.32554
G1 X100.826 Y100.647 E16.34871
G1 X100.709 Y100.764 E16.35695
G1 X100.386 Y101.031 E16.3778
G1 X100.019 Y101.231 E16.3986
G1 X99.62 Y101.358 E16.41944
G1 X99.157 Y101.407 E16.44261
G1 X85.895 Y101.407 E17.1026
G1 X85.478 Y101.367 E17.12345
G1 X85.077 Y101.249 E17.14425
G1 X84.705 Y101.056 E17.16511
G1 X84.343 Y100.764 E17.18825
G1 X84.226 Y100.647 E17.19649
G1 X83.959 Y100.324 E17.21734
G1 X83.759 Y99.957 E17.23814
G1 X83.632 Y99.558 E17.25898
G1 X83.583 Y99.095 E17.28215
G1 X83.586 Y85.834 E17.94209
G1 X83.626 Y85.417 E17.96294
G1 X83.744 Y85.015 E17.98379
G1 X83.937 Y84.644 E18.0046
G1 X84.229 Y84.282 E18.02774
G1 X84.346 Y84.165 E18.03598
M204 S5000
G0 F2400 X84.511 Y84.564
M204 S200
G1 F1200 X84.628 Y84.447 E18.04421
G1 X84.922 Y84.209 E18.06304
G1 X85.26 Y84.038 E18.08189
G1 X85.626 Y83.942 E18.10072
G1 X85.898 Y83.921 E18.11429
G1 X99.154 Y83.921 E18.77398
G1 X99.53 Y83.961 E18.7928
G1 X99.89 Y84.079 E18.81166
G1 X100.217 Y84.269 E18.83048
G1 X100.424 Y84.447 E18.84406
G1 X100.541 Y84.564 E18.8523
G1 X100.779 Y84.858 E18.87112
G1 X100.95 Y85.196 E18.88997
G1 X101.046 Y85.562 E18.9088
G1 X101.067 Y85.834 E18.92238
G1 X101.07 Y99.095 E19.58232
G1 X101.03 Y99.471 E19.60114
G1 X100.912 Y99.831 E19.61999
G1 X100.722 Y100.158 E19.63881
G1 X100.544 Y100.365 E19.6524
G1 X100.427 Y100.482 E19.66063
G1 X100.133 Y100.72 E19.67946
G1 X99.795 Y100.891 E19.69831
G1 X99.429 Y100.987 E19.71714
G1 X99.157 Y101.008 E19.73071
G1 X85.895 Y101.008 E20.3907
G1 X85.519 Y100.968 E20.40952
G1 X85.159 Y100.85 E20.42837
G1 X84.832 Y100.66 E20.44719
G1 X84.625 Y100.482 E20.46078
G1 X84.508 Y100.365 E20.46902
G1 X84.27 Y100.071 E20.48784
G1 X84.099 Y99.733 E20.50669
G1 X84.003 Y99.367 E20.52552
G1 X83.982 Y99.095 E20.5391
G1 X83.985 Y85.834 E21.19904
G1 X84.025 Y85.457 E21.2179
G1 X84.143 Y85.098 E21.23671
G1 X84.334 Y84.771 E21.25556
G1 X84.511 Y84.564 E21.26911
M204 S5000
G0 F2400 X84.91 Y84.729
M204 S200
G1 F1200 X85.173 Y84.523 E21.28574
G1 X85.476 Y84.385 E21.3023
G1 X85.898 Y84.32 E21.32355
G1 X99.154 Y84.32 E21.98324
G1 X99.485 Y84.36 E21.99984
G1 X99.798 Y84.477 E22.01647
G1 X100.142 Y84.729 E22.03769
G1 X100.259 Y84.846 E22.04592
G1 X100.465 Y85.109 E22.06255
G1 X100.603 Y85.412 E22.07912
G1 X100.668 Y85.834 E22.10036
G1 X100.671 Y99.095 E22.7603
G1 X100.631 Y99.426 E22.7769
G1 X100.514 Y99.738 E22.79348
G1 X100.262 Y100.083 E22.81474
G1 X100.145 Y100.2 E22.82298
G1 X99.882 Y100.406 E22.8396
G1 X99.579 Y100.544 E22.85617
G1 X99.157 Y100.609 E22.87742
G1 X85.895 Y100.609 E23.53741
G1 X85.564 Y100.569 E23.554
G1 X85.251 Y100.452 E23.57063
G1 X84.907 Y100.2 E23.59185
G1 X84.79 Y100.083 E23.60009
G1 X84.584 Y99.82 E23.61671
G1 X84.446 Y99.517 E23.63328
G1 X84.381 Y99.095 E23.65453
G1 X84.384 Y85.834 E24.31447
G1 X84.424 Y85.502 E24.33111
G1 X84.541 Y85.19 E24.34769
G1 X84.793 Y84.846 E24.36891
G1 X84.91 Y84.729 E24.37715
M204 S5000
G0 F2400 X85.075 Y85.128
M204 S200
G1 F1200 X85.192 Y85.011 E24.38538
G1 X85.418 Y84.842 E24.39943
G1 X85.682 Y84.743 E24.41346
G1 X85.898 Y84.719 E24.42427
G1 X99.154 Y84.719 E25.08397
G1 X99.433 Y84.759 E25.09799
G1 X99.69 Y84.875 E25.11202
G1 X99.86 Y85.011 E25.12286
G1 X99.977 Y85.128 E25.13109
G1 X100.146 Y85.354 E25.14514
G1 X100.245 Y85.618 E25.15917
G1 X100.269 Y85.834 E25.16998
G1 X100.272 Y99.095 E25.82992
G1 X100.232 Y99.374 E25.84395
G1 X100.116 Y99.631 E25.85798
G1 X99.98 Y99.801 E25.86882
G1 X99.863 Y99.918 E25.87705
G1 X99.637 Y100.087 E25.89109
G1 X99.373 Y100.186 E25.90513
G1 X99.157 Y100.21 E25.91594
G1 X85.895 Y100.21 E26.57593
G1 X85.616 Y100.17 E26.58996
G1 X85.359 Y100.054 E26.60399
G1 X85.189 Y99.918 E26.61482
G1 X85.072 Y99.801 E26.62306
G1 X84.903 Y99.575 E26.6371
G1 X84.804 Y99.311 E26.65113
G1 X84.78 Y99.095 E26.66195
G1 X84.783 Y85.834 E27.32189
G1 X84.823 Y85.555 E27.33592
G1 X84.939 Y85.298 E27.34995
G1 X85.075 Y85.128 E27.36078
M204 S5000
G0 F2400 X85.474 Y85.293
M204 S200
G1 F1200 X85.654 Y85.17 E27.37163
G1 X85.898 Y85.118 E27.38405
G1 X99.154 Y85.118 E28.04374
G1 X99.368 Y85.158 E28.05457
G1 X99.578 Y85.293 E28.067
G1 X99.695 Y85.41 E28.07523
G1 X99.818 Y85.59 E28.08608
G1 X99.87 Y85.834 E28.0985
G1 X99.873 Y99.095 E28.75844
G1 X99.833 Y99.309 E28.76927
G1 X99.698 Y99.519 E28.78169
G1 X99.581 Y99.636 E28.78993
G1 X99.401 Y99.759 E28.80078
G1 X99.157 Y99.811 E28.81319
G1 X85.895 Y99.811 E29.47318
G1 X85.681 Y99.771 E29.48402
G1 X85.471 Y99.636 E29.49644
G1 X85.354 Y99.519 E29.50468
G1 X85.231 Y99.339 E29.51553
G1 X85.179 Y99.095 E29.52794
G1 X85.182 Y85.834 E30.18788
G1 X85.222 Y85.62 E30.19871
G1 X85.357 Y85.41 E30.21114
G1 X85.474 Y85.293 E30.21937
M204 S5000
G0 F2400 X85.757 Y85.576
M204 S200
G1 F1200 X85.898 Y85.517 E30.22698
G1 X99.154 Y85.517 E30.88667
G1 X99.295 Y85.576 E30.89428
G1 X99.412 Y85.693 E30.90251
G1 X99.471 Y85.834 E30.91012
G1 X99.474 Y99.095 E31.57006
G1 X99.415 Y99.236 E31.57766
G1 X99.298 Y99.353 E31.5859
G1 X99.157 Y99.412 E31.59351
G1 X85.895 Y99.412 E32.2535
G1 X85.754 Y99.353 E32.2611
G1 X85.637 Y99.236 E32.26934
G1 X85.578 Y99.095 E32.27694
G1 X85.581 Y85.834 E32.93688
G1 X85.64 Y85.693 E32.94449
G1 X85.757 Y85.576 E32.95272
M204 S5000
G0 F2400 X85.98 Y85.916
M204 S200
;TYPE:WALL-OUTER
G1 F1200 X99.072 Y85.916 E33.60425
G1 X99.075 Y98.814 E34.24613
G1 X99.075 Y99.013 E34.25603
G1 X98.876 Y99.013 E34.26244
G1 X86.176 Y99.013 E34.89446
G1 X85.977 Y99.013 E34.90436
G1 X85.977 Y98.814 E34.91077
G1 X85.98 Y85.916 E35.55265
M204 S5000
G0 F2400 X86.18 Y85.916
G0 X86.448 Y86.384
G0 X88.004 Y87.708
G0 X88.337 Y88.078
M204 S200
G1 F1200 X88.055 Y88.369 E35.57281
G1 X87.795 Y88.678 E35.59291
G1 X87.555 Y89.003 E35.61302
G1 X87.338 Y89.345 E35.63317
G1 X87.144 Y89.699 E35.65326
G1 X87.036 Y89.927 E35.66582
G1 X87.014 Y90.032 E35.67115
G1 X87.018 Y90.142 E35.67663
G1 X87.049 Y90.247 E35.68208
G1 X87.103 Y90.339 E35.68739
G1 X87.165 Y90.408 E35.69201
G1 X87.303 Y90.492 E35.70005
G1 X88.869 Y90.912 E35.78073
G1 X88.975 Y90.926 E35.78605
G1 X89.092 Y90.91 E35.79193
G1 X89.238 Y90.841 E35.79997
G1 X89.343 Y90.729 E35.80761
G1 X89.487 Y90.486 E35.82166
G1 X89.631 Y90.274 E35.83442
G1 X89.773 Y90.095 E35.84579
G1 X89.945 Y89.905 E35.85854
G1 X90.11 Y89.746 E35.86995
G1 X90.305 Y89.58 E35.88269
G1 X90.489 Y89.445 E35.89405
G1 X90.706 Y89.307 E35.90685
G1 X90.837 Y89.233 E35.91433
G1 X90.908 Y89.177 E35.91883
G1 X90.982 Y89.082 E35.92483
G1 X91.029 Y88.963 E35.93119
G1 X91.039 Y88.806 E35.93902
G1 X90.609 Y87.193 E36.0221
G1 X90.551 Y87.082 E36.02833
G1 X90.487 Y87.013 E36.03301
G1 X90.361 Y86.929 E36.04055
G1 X90.187 Y86.895 E36.04937
G1 X90.075 Y86.912 E36.05501
G1 X90.004 Y86.936 E36.05874
G1 X89.636 Y87.121 E36.07924
G1 X89.288 Y87.327 E36.09936
G1 X88.954 Y87.557 E36.11954
G1 X88.637 Y87.807 E36.13964
G1 X88.337 Y88.078 E36.15975
M204 S5000
G0 F2400 X88.198 Y88.221
G0 X87.842 Y87.874
G0 X89.053 Y86.958
G0 X89.972 Y86.486
G0 X90.196 Y86.452
G0 X90.53 Y86.518
G0 X93.564 Y89.151
G0 X94.023 Y88.96
M204 S200
G1 F1200 X94.085 Y89.108 E36.16774
G1 X94.189 Y89.216 E36.1752
G1 X94.45 Y89.37 E36.19028
G1 X94.661 Y89.515 E36.20302
G1 X94.841 Y89.657 E36.21443
G1 X95.031 Y89.829 E36.22719
G1 X95.196 Y89.998 E36.23894
G1 X95.348 Y90.179 E36.2507
G1 X95.49 Y90.371 E36.26259
G1 X95.716 Y90.739 E36.28408
G1 X95.814 Y90.84 E36.29108
G1 X95.955 Y90.91 E36.29892
G1 X96.129 Y90.924 E36.3076
G1 X97.744 Y90.493 E36.39079
G1 X97.861 Y90.43 E36.3974
G1 X97.97 Y90.316 E36.40525
G1 X98.03 Y90.165 E36.41334
G1 X98.039 Y90.048 E36.41918
G1 X98.019 Y89.935 E36.42489
G1 X97.815 Y89.521 E36.44786
G1 X97.609 Y89.172 E36.46802
G1 X97.38 Y88.839 E36.48814
G1 X97.13 Y88.522 E36.50823
G1 X96.858 Y88.221 E36.52842
G1 X96.567 Y87.939 E36.54858
G1 X96.258 Y87.679 E36.56868
G1 X95.933 Y87.439 E36.58879
G1 X95.591 Y87.221 E36.60897
G1 X95.237 Y87.029 E36.62901
G1 X95.012 Y86.921 E36.64143
G1 X94.903 Y86.898 E36.64698
G1 X94.797 Y86.903 E36.65226
G1 X94.7 Y86.928 E36.65724
G1 X94.579 Y86.998 E36.6642
G1 X94.467 Y87.131 E36.67285
G1 X94.025 Y88.752 E36.75647
G1 X94.012 Y88.847 E36.76124
G1 X94.023 Y88.96 E36.76689
M204 S5000
G0 F2400 X94.085 Y89.108
G0 X94.112 Y89.136
G0 X93.753 Y89.48
G0 X96.235 Y93.415
G0 X96.108 Y93.895
M204 S200
G1 F1200 X95.986 Y93.905 E36.77298
G1 X95.852 Y93.956 E36.78011
G1 X95.78 Y94.011 E36.78462
G1 X95.705 Y94.098 E36.79034
G1 X95.506 Y94.426 E36.80943
G1 X95.366 Y94.618 E36.82126
G1 X95.206 Y94.809 E36.83366
G1 X95.034 Y94.989 E36.84605
G1 X94.857 Y95.151 E36.85799
G1 X94.674 Y95.296 E36.86961
G1 X94.476 Y95.434 E36.88162
G1 X94.192 Y95.604 E36.89809
G1 X94.089 Y95.707 E36.90534
G1 X94.022 Y95.859 E36.91361
G1 X94.013 Y95.991 E36.92019
G1 X94.024 Y96.064 E36.92386
G1 X94.454 Y97.655 E37.00588
G1 X94.532 Y97.779 E37.01317
G1 X94.668 Y97.881 E37.02163
G1 X94.824 Y97.922 E37.02966
G1 X94.937 Y97.918 E37.03529
G1 X95.022 Y97.895 E37.03967
G1 X95.212 Y97.804 E37.05015
G1 X95.566 Y97.614 E37.07015
G1 X95.909 Y97.398 E37.09032
G1 X96.236 Y97.16 E37.11045
G1 X96.546 Y96.899 E37.13061
G1 X96.837 Y96.621 E37.15064
G1 X97.112 Y96.321 E37.17089
G1 X97.363 Y96.005 E37.19098
G1 X97.593 Y95.673 E37.21108
G1 X97.801 Y95.325 E37.23125
G1 X98.015 Y94.899 E37.25498
G1 X98.038 Y94.794 E37.26033
G1 X98.034 Y94.688 E37.26561
G1 X98.014 Y94.605 E37.26985
G1 X97.975 Y94.518 E37.2746
G1 X97.879 Y94.405 E37.28198
G1 X97.76 Y94.334 E37.28887
G1 X96.108 Y93.895 E37.37394
M204 S5000
G0 F2400 X95.986 Y93.905
G0 X95.913 Y93.932
G0 X95.737 Y93.467
G0 X91.536 Y95.948
G0 X91.04 Y95.913
M204 S200
G1 F1200 X90.993 Y95.763 E37.38176
G1 X90.949 Y95.691 E37.38596
