;FLAVOR:RepRap
;TIME:368
;Filament used: 0.237043m
;Layer height: 0.15
;Generated with Cura_SteamEngine 2.6.2
M190 S60
M104 S220
M109 S220
G21 ;metric values
G90 ;absolute positioning
M82 ;set extruder to absolute mode
M107 ;start with the fan off
G92 E0 ;zero the extruded length
G1 F200 E3 ;extrude 3mm of feed stock
G92 E0 ;zero the extruded length again
G1 F9000
M117 Printing...
;LAYER_COUNT:26
;LAYER:0
M107
M204 S5000
G0 F2400 X84.131 Y84.632 Z0.3
M204 S200
;TYPE:SKIRT
G1 F1200 X84.702 Y84.066 E0.04001
G1 X85.046 Y83.764 E0.06279
G1 X85.897 Y83.103 E0.11642
G1 X86.286 Y82.837 E0.13987
G1 X86.973 Y82.429 E0.17963
G1 X87.564 Y82.145 E0.21226
G1 X89.314 Y81.481 E0.30541
G1 X89.879 Y81.315 E0.33472
G1 X90.388 Y81.208 E0.3606
G1 X90.842 Y81.141 E0.38344
G1 X92.208 Y81.023 E0.45167
G1 X92.822 Y81.02 E0.48223
G1 X93.913 Y81.103 E0.53668
G1 X94.562 Y81.21 E0.56941
G1 X96.095 Y81.601 E0.64815
G1 X96.588 Y81.763 E0.67397
G1 X97.079 Y81.963 E0.70036
G1 X97.494 Y82.162 E0.72326
G1 X98.675 Y82.82 E0.79054
G1 X99.18 Y83.157 E0.82075
G1 X100.027 Y83.826 E0.87447
G1 X100.369 Y84.132 E0.8973
G1 X100.934 Y84.702 E0.93725
G1 X101.234 Y85.043 E0.95985
G1 X101.889 Y85.885 E1.01294
G1 X102.155 Y86.275 E1.03643
G1 X102.569 Y86.971 E1.07673
G1 X102.776 Y87.372 E1.09919
G1 X103.208 Y88.346 E1.15221
G1 X103.374 Y88.793 E1.17594
G1 X103.607 Y89.569 E1.21626
G1 X103.711 Y90.01 E1.23881
G1 X103.896 Y91.075 E1.29261
G1 X103.952 Y91.736 E1.32562
G1 X103.947 Y93.338 E1.40534
G1 X103.875 Y94.062 E1.44155
G1 X103.614 Y95.381 E1.50847
G1 X103.406 Y96.075 E1.54452
G1 X102.799 Y97.565 E1.62459
G1 X102.533 Y98.094 E1.65405
G1 X102.117 Y98.783 E1.69411
G1 X101.847 Y99.174 E1.71776
G1 X101.174 Y100.026 E1.77179
G1 X100.87 Y100.366 E1.79448
G1 X100.305 Y100.927 E1.83411
G1 X99.965 Y101.227 E1.85667
G1 X99.117 Y101.888 E1.91018
G1 X98.725 Y102.156 E1.93381
G1 X98.036 Y102.566 E1.97371
G1 X97.631 Y102.775 E1.99639
G1 X96.646 Y103.211 E2.05
G1 X96.077 Y103.41 E2.08
G1 X94.767 Y103.755 E2.14741
G1 X94.245 Y103.854 E2.17385
G1 X93.455 Y103.947 E2.21344
G1 X92.845 Y103.969 E2.24382
G1 X91.352 Y103.903 E2.31819
G1 X91.271 Y103.907 E2.32223
G1 X90.723 Y103.852 E2.34963
G1 X90.438 Y103.79 E2.36415
G1 X88.905 Y103.399 E2.44288
G1 X88.409 Y103.236 E2.46886
G1 X87.919 Y103.036 E2.4952
G1 X87.619 Y102.898 E2.51164
G1 X86.895 Y102.526 E2.55214
G1 X86.498 Y102.29 E2.57513
G1 X85.6 Y101.68 E2.62915
G1 X85.232 Y101.396 E2.65229
G1 X84.635 Y100.873 E2.69178
G1 X84.305 Y100.546 E2.7149
G1 X83.581 Y99.735 E2.76901
G1 X83.184 Y99.203 E2.80204
G1 X82.341 Y97.839 E2.88184
G1 X81.999 Y97.131 E2.92097
G1 X81.457 Y95.626 E3.00057
G1 X81.289 Y94.99 E3.03331
G1 X81.104 Y93.925 E3.0871
G1 X81.048 Y93.264 E3.12012
G1 X81.053 Y91.662 E3.19984
G1 X81.125 Y90.938 E3.23605
G1 X81.386 Y89.619 E3.30296
G1 X81.595 Y88.923 E3.33913
G1 X82.204 Y87.43 E3.41937
G1 X82.468 Y86.903 E3.4487
G1 X82.882 Y86.217 E3.48858
G1 X83.151 Y85.828 E3.51212
G1 X83.823 Y84.976 E3.56612
G1 X84.131 Y84.632 E3.5891
M204 S5000
G0 F2400 X84.412 Y84.915
M204 S200
G1 F1200 X84.983 Y84.349 E3.62911
G1 X85.29 Y84.079 E3.64945
G1 X86.141 Y83.418 E3.70308
G1 X86.49 Y83.181 E3.72407
G1 X87.177 Y82.773 E3.76384
G1 X87.706 Y82.518 E3.79306
G1 X89.456 Y81.854 E3.88621
G1 X89.961 Y81.706 E3.9124
G1 X90.47 Y81.599 E3.93828
G1 X90.876 Y81.539 E3.9587
G1 X92.242 Y81.421 E4.02694
G1 X92.791 Y81.418 E4.05426
G1 X93.882 Y81.501 E4.10871
G1 X94.463 Y81.596 E4.13801
G1 X95.996 Y81.987 E4.21674
G1 X96.438 Y82.133 E4.23991
G1 X96.929 Y82.333 E4.26629
G1 X97.3 Y82.511 E4.28677
G1 X98.481 Y83.169 E4.35405
G1 X98.932 Y83.47 E4.38103
G1 X99.779 Y84.139 E4.43475
G1 X100.086 Y84.413 E4.45522
G1 X100.651 Y84.983 E4.49516
G1 X100.919 Y85.288 E4.51537
G1 X101.574 Y86.13 E4.56846
G1 X101.812 Y86.479 E4.58948
G1 X102.226 Y87.175 E4.62978
G1 X102.412 Y87.534 E4.6499
G1 X102.844 Y88.508 E4.70293
G1 X102.992 Y88.908 E4.72415
G1 X103.225 Y89.684 E4.76447
G1 X103.318 Y90.078 E4.78462
G1 X103.503 Y91.143 E4.83841
G1 X103.553 Y91.735 E4.86798
G1 X103.548 Y93.337 E4.94771
G1 X103.483 Y93.984 E4.98007
G1 X103.222 Y95.303 E5.04698
G1 X103.036 Y95.925 E5.07929
G1 X102.429 Y97.415 E5.15936
G1 X102.192 Y97.888 E5.18568
G1 X101.776 Y98.577 E5.22574
G1 X101.534 Y98.927 E5.24691
G1 X100.861 Y99.779 E5.30095
G1 X100.589 Y100.083 E5.32125
G1 X100.024 Y100.644 E5.36087
G1 X99.719 Y100.912 E5.38108
G1 X98.871 Y101.573 E5.43458
G1 X98.521 Y101.813 E5.4557
G1 X97.832 Y102.223 E5.4956
G1 X97.47 Y102.41 E5.51588
G1 X96.485 Y102.846 E5.56949
G1 X95.976 Y103.024 E5.59632
G1 X94.666 Y103.369 E5.66374
G1 X94.199 Y103.458 E5.68739
G1 X93.409 Y103.551 E5.72698
G1 X92.863 Y103.571 E5.75417
G1 X91.226 Y103.499 E5.83572
G1 X91.226 Y103.496 E5.83587
G1 X90.973 Y103.485 E5.84847
G1 X90.537 Y103.404 E5.87054
G1 X89.004 Y103.013 E5.94927
G1 X88.56 Y102.866 E5.97255
G1 X88.07 Y102.666 E5.99888
G1 X87.802 Y102.543 E6.01356
G1 X87.078 Y102.171 E6.05407
G1 X86.722 Y101.96 E6.07466
G1 X85.824 Y101.35 E6.12869
G1 X85.495 Y101.095 E6.1494
G1 X84.898 Y100.572 E6.1889
G1 X84.603 Y100.28 E6.20956
G1 X83.879 Y99.469 E6.26366
G1 X83.524 Y98.993 E6.29321
G1 X82.681 Y97.629 E6.37301
G1 X82.375 Y96.995 E6.40804
G1 X81.833 Y95.49 E6.48765
G1 X81.682 Y94.922 E6.5169
G1 X81.497 Y93.857 E6.57069
G1 X81.447 Y93.265 E6.60026
G1 X81.452 Y91.663 E6.67998
G1 X81.517 Y91.016 E6.71234
G1 X81.778 Y89.697 E6.77925
G1 X81.964 Y89.074 E6.81161
G1 X82.573 Y87.581 E6.89185
G1 X82.81 Y87.109 E6.91814
G1 X83.224 Y86.423 E6.95801
G1 X83.465 Y86.075 E6.97908
G1 X84.137 Y85.223 E7.03308
G1 X84.412 Y84.915 E7.05363
M204 S5000
G0 F2400 X84.693 Y85.198
M204 S200
G1 F1200 X85.264 Y84.632 E7.09364
G1 X85.535 Y84.394 E7.11159
G1 X86.386 Y83.733 E7.16521
G1 X86.694 Y83.524 E7.18374
G1 X87.381 Y83.116 E7.2235
G1 X87.847 Y82.891 E7.24925
G1 X89.597 Y82.227 E7.3424
G1 X90.043 Y82.096 E7.36553
G1 X90.552 Y81.989 E7.39142
G1 X90.91 Y81.936 E7.40943
G1 X92.276 Y81.818 E7.47766
G1 X92.761 Y81.816 E7.5018
G1 X93.852 Y81.899 E7.55625
G1 X94.365 Y81.983 E7.58212
G1 X95.898 Y82.374 E7.66085
G1 X96.287 Y82.502 E7.68123
G1 X96.778 Y82.702 E7.70761
G1 X97.106 Y82.859 E7.72571
G1 X98.287 Y83.517 E7.79299
G1 X98.685 Y83.783 E7.81681
G1 X99.532 Y84.452 E7.87053
G1 X99.803 Y84.694 E7.88861
G1 X100.368 Y85.264 E7.92855
G1 X100.604 Y85.533 E7.94636
G1 X101.259 Y86.375 E7.99945
G1 X101.469 Y86.683 E8.018
G1 X101.883 Y87.379 E8.0583
G1 X102.047 Y87.696 E8.07606
G1 X102.479 Y88.67 E8.12908
G1 X102.61 Y89.022 E8.14778
G1 X102.843 Y89.798 E8.1881
G1 X102.925 Y90.147 E8.20594
G1 X103.11 Y91.212 E8.25973
G1 X103.154 Y91.733 E8.28575
G1 X103.149 Y93.335 E8.36548
G1 X103.092 Y93.907 E8.39408
G1 X102.831 Y95.226 E8.461
G1 X102.667 Y95.774 E8.48946
G1 X102.06 Y97.264 E8.56953
G1 X101.85 Y97.682 E8.59281
G1 X101.434 Y98.371 E8.63286
G1 X101.221 Y98.679 E8.6515
G1 X100.548 Y99.531 E8.70553
G1 X100.308 Y99.8 E8.72347
G1 X99.743 Y100.361 E8.7631
G1 X99.474 Y100.598 E8.78094
G1 X98.626 Y101.259 E8.83445
G1 X98.317 Y101.47 E8.85307
G1 X97.628 Y101.88 E8.89297
G1 X97.308 Y102.045 E8.91088
G1 X96.323 Y102.481 E8.96449
G1 X95.874 Y102.638 E8.98816
G1 X94.564 Y102.983 E9.05558
G1 X94.152 Y103.061 E9.07645
G1 X93.362 Y103.154 E9.11603
G1 X92.88 Y103.172 E9.14003
G1 X91.289 Y103.102 E9.21929
G1 X91.182 Y103.104 E9.22461
G1 X90.635 Y103.017 E9.25218
G1 X89.102 Y102.626 E9.33091
G1 X88.711 Y102.497 E9.3514
G1 X88.221 Y102.297 E9.37774
G1 X87.984 Y102.188 E9.39072
G1 X87.26 Y101.816 E9.43123
G1 X86.946 Y101.63 E9.44939
G1 X86.048 Y101.02 E9.50342
G1 X85.758 Y100.795 E9.52168
G1 X85.161 Y100.272 E9.56118
G1 X84.9 Y100.014 E9.57944
G1 X84.176 Y99.203 E9.63355
G1 X83.863 Y98.784 E9.65957
G1 X83.02 Y97.42 E9.73937
G1 X82.75 Y96.86 E9.77031
G1 X82.208 Y95.355 E9.84992
G1 X82.075 Y94.853 E9.87576
G1 X81.89 Y93.788 E9.92955
G1 X81.846 Y93.267 E9.95558
G1 X81.851 Y91.665 E10.0353
G1 X81.908 Y91.093 E10.06391
G1 X82.169 Y89.774 E10.13082
G1 X82.334 Y89.225 E10.15935
G1 X82.943 Y87.732 E10.23959
G1 X83.151 Y87.316 E10.26274
G1 X83.565 Y86.63 E10.30261
G1 X83.778 Y86.322 E10.32125
G1 X84.45 Y85.47 E10.37525
G1 X84.693 Y85.198 E10.3934
M204 S5000
G0 F2400 X84.974 Y85.482
M204 S200
G1 F1200 X85.545 Y84.916 E10.43341
G1 X85.78 Y84.709 E10.449
G1 X86.631 Y84.048 E10.50262
G1 X86.897 Y83.867 E10.51863
G1 X87.584 Y83.459 E10.5584
G1 X87.989 Y83.264 E10.58077
G1 X89.739 Y82.6 E10.67391
G1 X90.125 Y82.486 E10.69394
G1 X90.634 Y82.379 E10.71983
G1 X90.945 Y82.334 E10.73547
G1 X92.311 Y82.216 E10.8037
G1 X92.731 Y82.213 E10.8246
G1 X93.822 Y82.296 E10.87905
G1 X94.266 Y82.369 E10.90145
G1 X95.799 Y82.76 E10.98018
G1 X96.137 Y82.872 E10.9979
G1 X96.628 Y83.072 E11.02428
G1 X96.912 Y83.208 E11.03995
G1 X98.093 Y83.866 E11.10723
G1 X98.438 Y84.096 E11.12787
G1 X99.285 Y84.765 E11.18158
G1 X99.519 Y84.975 E11.19723
G1 X100.084 Y85.545 E11.23717
G1 X100.289 Y85.778 E11.25261
G1 X100.944 Y86.62 E11.3057
G1 X101.126 Y86.887 E11.32178
G1 X101.54 Y87.583 E11.36208
G1 X101.682 Y87.857 E11.37744
G1 X102.114 Y88.831 E11.43047
G1 X102.227 Y89.137 E11.4467
G1 X102.46 Y89.913 E11.48702
G1 X102.532 Y90.215 E11.50247
G1 X102.717 Y91.28 E11.55627
G1 X102.755 Y91.732 E11.57884
G1 X102.75 Y93.334 E11.65856
G1 X102.701 Y93.83 E11.68337
G1 X102.44 Y95.149 E11.75028
G1 X102.297 Y95.624 E11.77497
G1 X101.69 Y97.114 E11.85503
G1 X101.509 Y97.476 E11.87518
G1 X101.093 Y98.165 E11.91523
G1 X100.908 Y98.432 E11.93139
G1 X100.235 Y99.284 E11.98543
G1 X100.027 Y99.517 E12.00097
G1 X99.462 Y100.078 E12.04059
G1 X99.229 Y100.283 E12.05604
G1 X98.381 Y100.944 E12.10955
G1 X98.113 Y101.127 E12.1257
G1 X97.424 Y101.537 E12.1656
G1 X97.147 Y101.68 E12.18111
G1 X96.162 Y102.116 E12.23472
G1 X95.773 Y102.252 E12.25522
G1 X94.463 Y102.597 E12.32264
G1 X94.105 Y102.665 E12.34077
G1 X93.315 Y102.758 E12.38036
G1 X92.898 Y102.773 E12.40113
G1 X91.399 Y102.707 E12.4758
G1 X91.348 Y102.711 E12.47834
G1 X91.276 Y102.702 E12.48195
G1 X91.261 Y102.701 E12.4827
G1 X91.261 Y102.7 E12.48275
G1 X90.734 Y102.631 E12.5092
G1 X89.201 Y102.24 E12.58793
G1 X88.862 Y102.128 E12.6057
G1 X88.372 Y101.928 E12.63204
G1 X88.167 Y101.833 E12.64328
G1 X87.443 Y101.461 E12.68379
G1 X87.17 Y101.3 E12.69956
G1 X86.272 Y100.69 E12.75359
G1 X86.021 Y100.495 E12.76941
G1 X85.424 Y99.972 E12.80891
G1 X85.198 Y99.749 E12.82471
G1 X84.474 Y98.938 E12.87881
G1 X84.202 Y98.574 E12.90142
G1 X83.359 Y97.21 E12.98122
G1 X83.125 Y96.725 E13.00802
G1 X82.583 Y95.22 E13.08762
G1 X82.468 Y94.785 E13.11002
G1 X82.283 Y93.72 E13.16381
G1 X82.245 Y93.268 E13.18638
G1 X82.25 Y91.666 E13.26611
G1 X82.299 Y91.17 E13.29091
G1 X82.56 Y89.851 E13.35783
G1 X82.703 Y89.375 E13.38256
G1 X83.312 Y87.882 E13.4628
G1 X83.493 Y87.522 E13.48286
G1 X83.907 Y86.836 E13.52273
G1 X84.091 Y86.57 E13.53883
G1 X84.763 Y85.718 E13.59283
G1 X84.974 Y85.482 E13.60858
M204 S5000
G0 F2400 X85.255 Y85.765
M204 S200
G1 F1200 X85.826 Y85.199 E13.64859
G1 X86.025 Y85.024 E13.66178
G1 X86.876 Y84.363 E13.71541
G1 X87.101 Y84.21 E13.72895
G1 X87.788 Y83.802 E13.76871
G1 X88.13 Y83.637 E13.78761
G1 X89.88 Y82.973 E13.88075
G1 X90.207 Y82.877 E13.89771
G1 X90.716 Y82.77 E13.9236
G1 X90.979 Y82.731 E13.93683
G1 X92.345 Y82.613 E14.00506
G1 X92.701 Y82.611 E14.02278
G1 X93.792 Y82.694 E14.07723
G1 X94.167 Y82.756 E14.09615
G1 X95.7 Y83.147 E14.17488
G1 X95.986 Y83.241 E14.18986
G1 X96.477 Y83.441 E14.21625
G1 X96.717 Y83.557 E14.22951
G1 X97.898 Y84.215 E14.29679
G1 X98.191 Y84.409 E14.31428
G1 X99.038 Y85.078 E14.36799
G1 X99.236 Y85.256 E14.38124
G1 X99.801 Y85.826 E14.42118
G1 X99.975 Y86.023 E14.43426
G1 X100.63 Y86.865 E14.48735
G1 X100.783 Y87.091 E14.50093
G1 X101.197 Y87.787 E14.54123
G1 X101.317 Y88.019 E14.55423
G1 X101.749 Y88.993 E14.60726
G1 X101.845 Y89.252 E14.621
G1 X102.078 Y90.028 E14.66133
G1 X102.139 Y90.283 E14.67437
G1 X102.324 Y91.348 E14.72817
G1 X102.356 Y91.731 E14.74729
G1 X102.351 Y93.333 E14.82702
G1 X102.309 Y93.752 E14.84798
G1 X102.048 Y95.071 E14.91489
G1 X101.928 Y95.473 E14.93577
G1 X101.321 Y96.963 E15.01583
G1 X101.167 Y97.27 E15.03293
G1 X100.751 Y97.959 E15.07298
G1 X100.594 Y98.185 E15.08667
G1 X99.921 Y99.037 E15.14071
G1 X99.746 Y99.234 E15.15382
G1 X99.181 Y99.795 E15.19344
G1 X98.983 Y99.968 E15.20653
G1 X98.135 Y100.629 E15.26004
G1 X97.908 Y100.784 E15.27372
G1 X97.219 Y101.194 E15.31362
G1 X96.985 Y101.315 E15.32673
G1 X96 Y101.751 E15.38033
G1 X95.671 Y101.867 E15.39769
G1 X94.361 Y102.212 E15.46511
G1 X94.059 Y102.269 E15.4804
G1 X93.269 Y102.362 E15.51999
G1 X92.916 Y102.375 E15.53757
G1 X91.279 Y102.303 E15.61911
G1 X91.279 Y102.3 E15.61926
G1 X91.051 Y102.288 E15.63062
G1 X90.833 Y102.244 E15.64169
G1 X89.3 Y101.853 E15.72042
G1 X89.013 Y101.758 E15.73547
G1 X88.523 Y101.558 E15.76181
G1 X88.349 Y101.478 E15.77134
G1 X87.625 Y101.106 E15.81185
G1 X87.395 Y100.97 E15.82514
G1 X86.497 Y100.36 E15.87917
G1 X86.284 Y100.195 E15.89258
G1 X85.687 Y99.672 E15.93208
G1 X85.496 Y99.483 E15.94545
G1 X84.772 Y98.672 E15.99955
G1 X84.542 Y98.364 E16.01868
G1 X83.699 Y97 E16.09848
G1 X83.501 Y96.59 E16.12114
G1 X82.959 Y95.085 E16.20074
G1 X82.861 Y94.717 E16.21969
G1 X82.676 Y93.652 E16.27349
G1 X82.644 Y93.269 E16.29261
G1 X82.649 Y91.667 E16.37234
G1 X82.691 Y91.248 E16.3933
G1 X82.952 Y89.929 E16.46021
G1 X83.073 Y89.526 E16.48115
G1 X83.682 Y88.033 E16.56139
G1 X83.835 Y87.728 E16.57837
G1 X84.249 Y87.042 E16.61825
G1 X84.405 Y86.817 E16.63187
G1 X85.077 Y85.965 E16.68587
G1 X85.255 Y85.765 E16.6992
M204 S5000
G0 F2400 X85.536 Y86.048
M204 S200
G1 F1200 X86.107 Y85.482 E16.73921
G1 X86.269 Y85.34 E16.74993
G1 X87.12 Y84.679 E16.80356
G1 X87.305 Y84.553 E16.81469
G1 X87.992 Y84.145 E16.85446
G1 X88.272 Y84.01 E16.86993
G1 X90.022 Y83.346 E16.96308
G1 X90.29 Y83.267 E16.97698
G1 X90.799 Y83.16 E17.00286
G1 X91.013 Y83.129 E17.01363
G1 X92.379 Y83.011 E17.08186
G1 X92.67 Y83.009 E17.09634
G1 X93.761 Y83.092 E17.15079
G1 X94.069 Y83.143 E17.16633
G1 X95.602 Y83.534 E17.24506
G1 X95.836 Y83.611 E17.25732
G1 X96.327 Y83.811 E17.2837
G1 X96.523 Y83.905 E17.29452
G1 X97.704 Y84.563 E17.3618
G1 X97.943 Y84.723 E17.37611
G1 X98.79 Y85.392 E17.42983
G1 X98.953 Y85.537 E17.44069
G1 X99.518 Y86.107 E17.48063
G1 X99.66 Y86.268 E17.49131
G1 X100.315 Y87.11 E17.5444
G1 X100.441 Y87.295 E17.55554
G1 X100.855 Y87.991 E17.59584
G1 X100.953 Y88.181 E17.60648
G1 X101.385 Y89.155 E17.6595
G1 X101.463 Y89.367 E17.67074
G1 X101.696 Y90.143 E17.71107
G1 X101.746 Y90.352 E17.72176
G1 X101.931 Y91.417 E17.77555
G1 X101.957 Y91.73 E17.79118
G1 X101.952 Y93.332 E17.87091
G1 X101.918 Y93.675 E17.88806
G1 X101.657 Y94.994 E17.95497
G1 X101.558 Y95.323 E17.97207
G1 X100.951 Y96.813 E18.05214
G1 X100.825 Y97.063 E18.06607
G1 X100.409 Y97.752 E18.10613
G1 X100.281 Y97.937 E18.11732
G1 X99.608 Y98.789 E18.17135
G1 X99.464 Y98.95 E18.1821
G1 X98.899 Y99.511 E18.22173
G1 X98.738 Y99.654 E18.23244
G1 X97.89 Y100.315 E18.28595
G1 X97.704 Y100.441 E18.29713
G1 X97.015 Y100.851 E18.33703
G1 X96.824 Y100.95 E18.34774
G1 X95.839 Y101.386 E18.40134
G1 X95.569 Y101.481 E18.41559
G1 X94.259 Y101.826 E18.483
G1 X94.012 Y101.873 E18.49552
G1 X93.222 Y101.966 E18.5351
G1 X92.933 Y101.976 E18.54949
G1 X91.296 Y101.904 E18.63104
G1 X91.296 Y101.902 E18.63114
G1 X91.163 Y101.9 E18.63776
G1 X90.931 Y101.857 E18.6495
G1 X89.398 Y101.466 E18.72823
G1 X89.163 Y101.389 E18.74054
G1 X88.673 Y101.189 E18.76688
G1 X88.531 Y101.123 E18.77467
G1 X87.807 Y100.751 E18.81518
G1 X87.619 Y100.64 E18.82604
G1 X86.721 Y100.03 E18.88007
G1 X86.547 Y99.895 E18.89103
G1 X85.95 Y99.372 E18.93053
G1 X85.793 Y99.217 E18.9415
G1 X85.069 Y98.406 E18.99561
G1 X84.881 Y98.154 E19.01125
G1 X84.038 Y96.79 E19.09105
G1 X83.876 Y96.455 E19.10957
G1 X83.334 Y94.95 E19.18918
G1 X83.254 Y94.648 E19.20472
G1 X83.069 Y93.583 E19.25852
G1 X83.043 Y93.27 E19.27415
G1 X83.048 Y91.668 E19.35387
G1 X83.082 Y91.325 E19.37103
G1 X83.343 Y90.006 E19.43794
G1 X83.442 Y89.677 E19.45504
G1 X84.051 Y88.184 E19.53528
G1 X84.176 Y87.934 E19.54919
G1 X84.59 Y87.248 E19.58906
G1 X84.718 Y87.064 E19.60022
G1 X85.39 Y86.212 E19.65422
G1 X85.536 Y86.048 E19.66515
M204 S5000
G0 F2400 X85.817 Y86.332
M204 S200
G1 F1200 X86.388 Y85.766 E19.70516
