; G-Code generated by Simplify3D(R) Version 3.1.0
; 4 3, 2017 at 4:33:16 ODP.
; Settings Summary
;   processName,thick
;   applyToModels,cessna_152_strut_R
;   profileName,Default (modified)
;   profileVersion,2016-04-14 15:44:02
;   baseProfile,Default
;   printMaterial,
;   printQuality,
;   printExtruders,
;   extruderName,Primary Extruder
;   extruderToolheadNumber,0
;   extruderDiameter,0.4
;   extruderAutoWidth,0
;   extruderWidth,0.42
;   extrusionMultiplier,1.02
;   extruderUseRetract,1
;   extruderRetractionDistance,0.8
;   extruderExtraRestartDistance,0
;   extruderRetractionZLift,0
;   extruderRetractionSpeed,1800
;   extruderUseCoasting,1
;   extruderCoastingDistance,0.2
;   extruderUseWipe,1
;   extruderWipeDistance,2
;   primaryExtruder,0
;   layerHeight,0.2
;   topSolidLayers,4
;   bottomSolidLayers,1
;   perimeterOutlines,1
;   printPerimetersInsideOut,1
;   startPointOption,3
;   startPointOriginX,200
;   startPointOriginY,0
;   startPointOriginZ,-300
;   sequentialIslands,0
;   spiralVaseMode,0
;   firstLayerHeightPercentage,90
;   firstLayerWidthPercentage,110
;   firstLayerUnderspeed,0.5
;   useRaft,0
;   raftExtruder,0
;   raftLayers,3
;   raftOffset,3
;   raftSeparationDistance,0.14
;   raftInfill,85
;   disableRaftBaseLayers,0
;   useSkirt,1
;   skirtExtruder,0
;   skirtLayers,1
;   skirtOutlines,1
;   skirtOffset,1.4
;   usePrimePillar,0
;   primePillarExtruder,999
;   primePillarWidth,12
;   primePillarLocation,7
;   primePillarSpeedMultiplier,1
;   useOozeShield,0
;   oozeShieldExtruder,999
;   oozeShieldOffset,2
;   oozeShieldOutlines,1
;   oozeShieldSidewallShape,1
;   oozeShieldSidewallAngle,30
;   oozeShieldSpeedMultiplier,1
;   infillExtruder,0
;   internalInfillPattern,Rectilinear
;   externalInfillPattern,Rectilinear
;   infillPercentage,6
;   outlineOverlapPercentage,15
;   infillExtrusionWidthPercentage,100
;   minInfillLength,5
;   infillLayerInterval,1
;   infillAngles,45,-45
;   overlapInfillAngles,0
;   generateSupport,0
;   supportExtruder,0
;   supportInfillPercentage,30
;   supportExtraInflation,0
;   denseSupportLayers,0
;   denseSupportInfillPercentage,70
;   supportLayerInterval,1
;   supportHorizontalPartOffset,0.3
;   supportUpperSeparationLayers,1
;   supportLowerSeparationLayers,1
;   supportType,0
;   supportGridSpacing,4
;   maxOverhangAngle,45
;   supportAngles,0
;   temperatureName,Primary Extruder,Heated Bed
;   temperatureNumber,0,1
;   temperatureSetpointCount,1,1
;   temperatureSetpointLayers,1,1
;   temperatureSetpointTemperatures,230,50
;   temperatureStabilizeAtStartup,1,1
;   temperatureHeatedBed,0,1
;   temperatureRelayBetweenLayers,0,0
;   temperatureRelayBetweenLoops,0,0
;   fanLayers,1
;   fanSpeeds,0
;   blipFanToFullPower,1
;   adjustSpeedForCooling,1
;   minSpeedLayerTime,15
;   minCoolingSpeedSlowdown,30
;   increaseFanForCooling,0
;   minFanLayerTime,45
;   maxCoolingFanSpeed,100
;   increaseFanForBridging,0
;   bridgingFanSpeed,100
;   use5D,1
;   relativeEdistances,0
;   allowEaxisZeroing,1
;   independentExtruderAxes,0
;   includeM10123,0
;   stickySupport,1
;   applyToolheadOffsets,0
;   gcodeXoffset,0
;   gcodeYoffset,0
;   gcodeZoffset,0
;   overrideMachineDefinition,1
;   machineTypeOverride,0
;   strokeXoverride,195
;   strokeYoverride,195
;   strokeZoverride,150
;   originOffsetXoverride,0
;   originOffsetYoverride,0
;   originOffsetZoverride,0
;   homeXdirOverride,-1
;   homeYdirOverride,-1
;   homeZdirOverride,-1
;   flipXoverride,1
;   flipYoverride,-1
;   flipZoverride,1
;   toolheadOffsets,0,0|0,0|0,0|0,0|0,0|0,0
;   overrideFirmwareConfiguration,1
;   firmwareTypeOverride,RepRap (Marlin/Repetier/Sprinter)
;   GPXconfigOverride,r2
;   baudRateOverride,115200
;   overridePrinterModels,0
;   printerModelsOverride
;   startingGcode,G28,
;   layerChangeGcode,
;   retractionGcode,
;   toolChangeGcode,
;   endingGcode,M104 S0 ; turn off extruder,M140 S0 ; turn off bed,G28 X0 ; home X axis,M84 ; disable motors,M107 ; turn off fan
;   exportFileFormat,gcode
;   celebration,0
;   celebrationSong,Random Song
;   postProcessing,
;   defaultSpeed,3600
;   outlineUnderspeed,0.7
;   solidInfillUnderspeed,0.8
;   supportUnderspeed,0.8
;   rapidXYspeed,7800
;   rapidZspeed,1002
;   minBridgingArea,5
;   bridgingExtraInflation,0
;   bridgingExtrusionMultiplier,1
;   bridgingSpeedMultiplier,0.3
;   filamentDiameter,1.75
;   filamentPricePerKg,1000
;   filamentDensity,1.25
;   useMinPrintHeight,0
;   minPrintHeight,0
;   useMaxPrintHeight,0
;   maxPrintHeight,1
;   useDiaphragm,0
;   diaphragmLayerInterval,20
;   robustSlicing,1
;   mergeAllIntoSolid,0
;   onlyRetractWhenCrossingOutline,0
;   retractBetweenLayers,0
;   useRetractionMinTravel,0
;   retractionMinTravel,3
;   retractWhileWiping,0
;   onlyWipeOutlines,1
;   avoidCrossingOutline,0
;   maxMovementDetourFactor,3
;   toolChangeRetractionDistance,0
;   toolChangeExtraRestartDistance,0
;   toolChangeRetractionSpeed,360
;   allowThinWallGapFill,1
;   thinWallAllowedOverlapPercentage,10
;   horizontalSizeCompensation,0
G90
M82
M106 S0
M140 S50
M190 S50
M104 S230 T0
M109 S230 T0
G28
G92 E0
G1 E-0.8000 F1800
G1 Z0.180 F1002
; layer 1, Z = 0.18
T0
; tool H0.200 W0.462
; skirt
G1 X2.418 Y6.283 F7800
G1 E0.0000 F540
G92 E0
G1 X2.562 Y6.277 E0.0056 F1800
G1 X5.394 Y8.303 E0.1421
G1 X10.290 Y11.633 E0.3741
G1 X10.339 Y11.722 E0.3781
G1 X10.367 Y12.891 E0.4239
G1 X11.816 Y14.403 E0.5059
G1 X11.824 Y14.410 E0.5063
G1 X15.522 Y18.371 E0.7186
G1 X18.030 Y20.974 E0.8603
G1 X19.242 Y22.160 E0.9267
G1 X20.363 Y23.119 E0.9845
G1 X20.910 Y23.547 E1.0117
G1 X22.134 Y23.223 E1.0613
G1 X22.192 Y23.224 E1.0636
G1 X22.768 Y23.396 E1.0872
G1 X22.897 Y22.899 E1.1073
G1 X22.477 Y22.372 E1.1337
G1 X21.493 Y21.234 E1.1926
G1 X20.321 Y20.045 E1.2580
G1 X17.707 Y17.548 E1.3997
G1 X13.732 Y13.868 E1.6119
G1 X13.724 Y13.861 E1.6123
G1 X12.177 Y12.388 E1.6960
G1 X11.030 Y12.365 E1.7410
G1 X10.941 Y12.317 E1.7449
G1 X8.273 Y8.425 E1.9298
G1 X5.546 Y4.618 E2.1133
G1 X5.551 Y4.475 E2.1189
G1 X7.023 Y2.702 E2.2092
G1 X7.162 Y2.671 E2.2148
G1 X10.571 Y4.262 E2.3622
G1 X16.138 Y6.871 E2.6031
G1 X16.202 Y6.964 E2.6075
G1 X16.338 Y8.703 E2.6758
G1 X16.289 Y8.805 E2.6803
G1 X16.244 Y8.835 E2.6824
G1 X18.400 Y10.704 E2.7942
G1 X18.417 Y10.719 E2.7950
G1 X20.878 Y12.973 E2.9257
G1 X20.885 Y12.980 E2.9261
G1 X24.463 Y16.340 E3.1184
G1 X24.576 Y16.436 E3.1242
G1 X24.785 Y15.632 E3.1568
G1 X24.867 Y15.551 E3.1612
G1 X26.578 Y15.113 E3.2305
G1 X26.688 Y15.145 E3.2350
G1 X30.528 Y19.224 E3.4545
G1 X41.824 Y30.538 E4.0809
G1 X69.265 Y57.621 E5.5917
G1 X104.692 Y92.712 E7.5455
G1 X104.696 Y92.716 E7.5457
G1 X139.909 Y127.999 E9.4989
G1 X167.084 Y155.325 E11.0089
G1 X178.445 Y166.580 E11.6356
G1 X182.575 Y170.436 E11.8569
G1 X182.607 Y170.549 E11.8615
G1 X182.122 Y172.298 E11.9326
G1 X182.036 Y172.378 E11.9372
G1 X181.245 Y172.547 E11.9690
G1 X181.250 Y172.553 E11.9693
G1 X185.741 Y177.301 E12.2254
G1 X185.754 Y177.314 E12.2260
G1 X187.971 Y179.768 E12.3556
G1 X187.981 Y179.780 E12.3561
G1 X188.816 Y180.739 E12.4059
G1 X188.908 Y180.620 E12.4118
G1 X189.010 Y180.577 E12.4161
G1 X190.688 Y180.771 E12.4823
G1 X190.777 Y180.836 E12.4866
G1 X194.798 Y189.626 E12.8654
G1 X194.766 Y189.765 E12.8710
G1 X193.004 Y191.225 E12.9606
G1 X192.861 Y191.230 E12.9662
G1 X189.009 Y188.502 E13.1512
G1 X185.196 Y185.939 E13.3312
G1 X187.198 Y188.902 E13.4713
G1 X189.940 Y192.753 E13.6566
G1 X189.935 Y192.895 E13.6621
G1 X188.486 Y194.661 E13.7516
G1 X188.348 Y194.693 E13.7572
G1 X179.532 Y190.730 E14.1360
G1 X179.466 Y190.641 E14.1403
G1 X179.262 Y188.964 E14.2065
G1 X179.304 Y188.862 E14.2108
G1 X179.426 Y188.767 E14.2169
G1 X178.450 Y187.925 E14.2674
G1 X178.438 Y187.915 E14.2679
G1 X176.004 Y185.734 E14.3959
G1 X175.991 Y185.721 E14.3966
G1 X171.224 Y181.254 E14.6525
G1 X171.209 Y181.241 E14.6533
G1 X171.039 Y182.056 E14.6859
G1 X170.959 Y182.142 E14.6905
G1 X169.211 Y182.634 E14.7617
G1 X169.098 Y182.603 E14.7663
G1 X165.216 Y178.477 E14.9883
G1 X153.908 Y167.158 E15.6152
G1 X126.471 Y140.106 E17.1250
G1 X91.042 Y105.055 E19.0777
G1 X91.039 Y105.052 E19.0779
G1 X55.807 Y69.785 E21.0312
G1 X28.607 Y42.465 E22.5417
G1 X17.238 Y31.215 E23.1684
G1 X13.130 Y27.384 E23.3885
G1 X13.097 Y27.274 E23.3930
G1 X13.527 Y25.560 E23.4623
G1 X13.608 Y25.479 E23.4668
G1 X14.432 Y25.261 E23.5002
G1 X14.326 Y25.138 E23.5065
G1 X10.956 Y21.576 E23.6987
G1 X10.949 Y21.569 E23.6990
G1 X8.686 Y19.118 E23.8297
G1 X8.671 Y19.101 E23.8305
G1 X6.805 Y16.968 E23.9415
G1 X6.773 Y17.015 E23.9438
G1 X6.671 Y17.064 E23.9482
G1 X4.931 Y16.933 E24.0166
G1 X4.838 Y16.868 E24.0210
G1 X0.615 Y7.900 E24.4094
G1 X0.646 Y7.760 E24.4151
G1 X2.287 Y6.392 E24.4987
G1 X2.418 Y6.283 F1800
G92 E0
G1 E-0.8000 F1800
G1 X172.697 Y174.118 F7800
G1 E0.0000 F1800
G92 E0
G1 X172.622 Y174.474 E0.0142 F1800
G1 X173.087 Y175.063 E0.0436
G1 X174.054 Y176.184 E0.1017
G1 X175.224 Y177.370 E0.1669
G1 X179.133 Y181.090 E0.3784
G1 X181.765 Y183.511 E0.5185
G1 X181.775 Y183.520 E0.5190
G1 X183.242 Y184.914 E0.5982
G1 X184.431 Y184.897 E0.6449
G1 X184.526 Y184.946 E0.6490
G1 X184.996 Y185.643 E0.6820
G1 X185.008 Y184.580 E0.7236
G1 X183.595 Y183.108 E0.8036
G1 X183.585 Y183.098 E0.8041
G1 X181.154 Y180.476 E0.9441
G1 X177.417 Y176.584 E1.1556
G1 X176.225 Y175.418 E1.2209
G1 X175.079 Y174.437 E1.2800
G1 X174.505 Y173.985 E1.3086
G1 X173.194 Y174.265 E1.3612
G1 X173.138 Y174.262 E1.3634
G1 X172.883 Y174.179 E1.3739
G1 X172.697 Y174.118 F1800
G92 E0
G1 E-0.8000 F1800
; outer perimeter
G1 X14.201 Y7.994 F7800
G1 E0.0000 F1800
G92 E0
G1 X13.224 Y8.654 E0.0462 F1260
G1 X15.951 Y10.998 E0.1871
G1 X17.184 Y12.086 E0.2516
G1 X18.410 Y13.195 E0.3163
G1 X19.629 Y14.326 E0.3815
G1 X22.062 Y16.626 E0.5127
G1 X23.236 Y17.713 E0.5754
G1 X24.322 Y18.654 E0.6317
G1 X25.621 Y19.735 E0.6979
G1 X26.240 Y17.355 E0.7943
G1 X29.206 Y20.506 E0.9638
G1 X40.525 Y31.843 E1.5916
G1 X67.971 Y58.931 E3.1026
G1 X103.395 Y94.019 E5.0563
G1 X138.605 Y129.299 E7.0094
G1 X165.783 Y156.628 E8.5196
G1 X177.169 Y167.908 E9.1476
G1 X180.331 Y170.860 E9.3171
G1 X177.843 Y171.391 E9.4168
G1 X178.945 Y172.709 E9.4841
G1 X179.880 Y173.784 E9.5400
G1 X180.967 Y174.951 E9.6024
G1 X184.396 Y178.558 E9.7975
G1 X186.599 Y180.996 E9.9262
G1 X188.899 Y183.639 E10.0635
G1 X189.615 Y182.714 E10.1093
G1 X190.540 Y184.700 E10.1951
G1 X192.291 Y188.564 E10.3614
G1 X191.039 Y187.666 E10.4218
G1 X190.053 Y186.986 E10.4687
G1 X187.801 Y185.460 E10.5753
G1 X187.037 Y184.955 E10.6112
G1 X187.583 Y184.605 E10.6366
G1 X184.929 Y181.839 E10.7868
G1 X182.493 Y179.213 E10.9271
G1 X178.725 Y175.289 E11.1403
G1 X177.469 Y174.059 E11.2092
G1 X176.248 Y173.013 E11.2722
G1 X174.965 Y172.004 E11.3361
G1 X173.335 Y172.352 E11.4014
G1 X171.456 Y170.255 E11.5118
G1 X161.264 Y159.790 E12.0842
G1 X134.619 Y132.775 E13.5710
G1 X99.579 Y97.582 E15.5169
G1 X64.255 Y62.650 E17.4636
G1 X37.122 Y36.077 E18.9517
G1 X26.609 Y25.909 E19.5248
G1 X24.504 Y24.035 E19.6352
G1 X24.910 Y22.473 E19.6984
G1 X23.894 Y21.196 E19.7624
G1 X22.846 Y19.984 E19.8252
G1 X21.612 Y18.733 E19.8940
G1 X18.970 Y16.208 E20.0372
G1 X17.643 Y14.960 E20.1086
G1 X14.988 Y12.522 E20.2498
G1 X12.210 Y9.878 E20.4001
G1 X11.841 Y10.374 E20.4243
G1 X9.782 Y7.369 E20.5670
G1 X9.088 Y6.381 E20.6143
G1 X8.235 Y5.203 E20.6713
G1 X9.787 Y5.927 E20.7384
G1 X9.803 Y5.936 E20.7392
G1 X12.167 Y7.025 E20.8412
G1 X14.020 Y7.908 E20.9216
G1 X14.201 Y7.994 F1260
G92 E0
G1 E-0.8000 F1800
G1 X13.224 Y8.654 F3600
G1 X13.846 Y9.189 F3600
; solid layer
G1 X13.104 Y7.907 F7800
G1 E0.0000 F1800
G92 E0
G1 X13.316 Y8.118 E0.0117 F1440
G1 X12.926 Y8.381 E0.0301
G1 X11.861 Y7.317 E0.0891
G1 X10.650 Y6.758 E0.1414
G1 X177.222 Y173.330 E9.3719
G1 X177.734 Y173.769 E9.3983
G1 X179.004 Y175.012 E9.4679
G1 X181.423 Y177.532 E9.6048
G1 X191.172 Y187.281 E10.1450
G1 X191.265 Y187.345 E10.1495
G1 X191.328 Y187.390 E10.1525
G1 X190.826 Y186.281 E10.2002
G1 X16.935 Y12.390 E19.8363
G1 X18.144 Y13.484 E19.9002
G1 X19.360 Y14.611 E19.9651
G1 X21.794 Y16.913 E20.0964
G1 X22.974 Y18.005 E20.1594
G1 X24.067 Y18.954 E20.2161
G1 X24.567 Y19.369 E20.2415
G1 X184.908 Y179.711 E29.1268
G1 X184.108 Y178.825 E29.1735
G1 X180.681 Y175.220 E29.3684
G1 X179.589 Y174.047 E29.4312
G1 X178.646 Y172.964 E29.4875
G1 X177.785 Y171.933 E29.5401
G1 X25.936 Y20.085 E37.9547
G1 X26.071 Y19.566 E37.9757
G1 X177.555 Y171.050 E46.3701
G1 X178.094 Y170.936 E46.3916
G1 X26.206 Y19.048 E54.8084
G1 X26.340 Y18.529 E54.8294
G1 X178.632 Y170.821 E63.2685
G1 X179.171 Y170.706 E63.2901
G1 X66.306 Y57.841 E69.5444
G1 X66.164 Y57.699 F1440
G92 E0
G1 E-0.8000 F1800
G1 X24.993 Y23.715 F7800
G1 E0.0000 F1800
G92 E0
G1 X27.570 Y26.292 E0.1428 F1440
G1 X37.396 Y35.796 E0.6785
G1 X53.411 Y51.480 E1.5568
G1 X25.127 Y23.196 E3.1241
G1 X25.262 Y22.678 E3.1451
G1 X174.324 Y171.740 E11.4052
G1 X174.863 Y171.625 E11.4268
G1 X24.390 Y21.152 E19.7651
G1 X24.249 Y21.011 F1440
G92 E0
G1 E-0.8000 F1800
G1 X10.920 Y8.336 F7800
G1 E0.0000 F1800
G92 E0
G1 X12.038 Y9.453 E0.0619 F1440
G1 X12.160 Y9.289 E0.0700
G1 X15.256 Y12.235 E0.2374
G1 X17.905 Y14.667 E0.3783
G1 X9.588 Y6.351 E0.8392
G1 X9.447 Y6.209 F1440
G92 E0
G1 E-0.8000 F1800
G1 X165.195 Y163.264 F7800
G1 E0.0000 F1800
G92 E0
G1 X173.644 Y171.713 E0.4682 F1440
G1 X173.786 Y171.854 F1440
G92 E0
G1 E-0.8000 F1800
G1 X188.025 Y184.788 F7800
G1 E0.0000 F1800
G92 E0
G1 X188.969 Y185.731 E0.0523 F1440
G1 X189.110 Y185.872 F1440
G92 E0
G1 E-0.8000 F1800
G1 X189.152 Y183.954 F7800
G1 E0.0000 F1800
G92 E0
G1 X190.285 Y185.087 E0.0628 F1440
G1 X190.184 Y184.864 E0.0724
G1 X189.719 Y183.868 E0.1154
G1 X189.578 Y183.727 E0.1232
G1 X189.437 Y183.586 F1440
G92 E0
G1 E-0.8000 F1800
; outer perimeter
G1 X3.151 Y8.962 F7800
G1 E0.0000 F1800
G92 E0
G1 X4.340 Y9.812 E0.0573 F1260
G1 X5.322 Y10.492 E0.1041
G1 X8.350 Y12.541 E0.2473
G1 X7.845 Y12.921 E0.2721
G1 X10.483 Y15.672 E0.4214
G1 X12.933 Y18.317 E0.5627
G1 X14.187 Y19.638 E0.6341
G1 X16.723 Y22.271 E0.7773
G1 X17.998 Y23.519 E0.8472
G1 X19.197 Y24.544 E0.9091
G1 X20.495 Y25.561 E0.9737
G1 X22.059 Y25.147 E1.0371
G1 X23.944 Y27.246 E1.1476
G1 X34.157 Y37.714 E1.7206
G1 X60.845 Y64.719 E3.2084
G1 X95.920 Y99.882 E5.1544
G1 X131.252 Y134.760 E7.0998
G1 X158.371 Y161.285 E8.5862
G1 X168.879 Y171.431 E9.1585
G1 X170.986 Y173.304 E9.2690
G1 X170.645 Y174.939 E9.3345
G1 X171.667 Y176.235 E9.3991
G1 X172.700 Y177.433 E9.4611
G1 X173.934 Y178.683 E9.5300
G1 X177.875 Y182.434 E9.7432
G1 X180.513 Y184.861 E9.8836
G1 X183.293 Y187.502 E10.0339
G1 X183.649 Y186.942 E10.0599
G1 X184.214 Y187.792 E10.0999
G1 X185.685 Y189.951 E10.2022
G1 X186.379 Y190.950 E10.2499
G1 X187.278 Y192.197 E10.3101
G1 X183.175 Y190.368 E10.4861
G1 X181.403 Y189.556 E10.5625
G1 X182.323 Y188.835 E10.6083
G1 X179.659 Y186.537 E10.7461
G1 X177.241 Y184.370 E10.8733
G1 X173.619 Y180.958 E11.0683
G1 X172.448 Y179.878 E11.1307
G1 X171.370 Y178.949 E11.1865
G1 X170.036 Y177.851 E11.2542
G1 X169.513 Y180.357 E11.3545
G1 X166.538 Y177.195 E11.5246
G1 X155.205 Y165.851 E12.1530
G1 X127.764 Y138.796 E13.6629
G1 X92.339 Y103.748 E15.6156
G1 X57.109 Y68.484 E17.5687
G1 X29.907 Y41.161 E19.0795
G1 X18.514 Y29.887 E19.7075
G1 X15.337 Y26.925 E19.8777
G1 X17.731 Y26.292 E19.9747
G1 X16.636 Y24.984 E20.0415
G1 X15.695 Y23.906 E20.0976
G1 X14.606 Y22.737 E20.1602
G1 X12.297 Y20.315 E20.2913
G1 X11.161 Y19.100 E20.3565
G1 X10.047 Y17.878 E20.4213
G1 X8.954 Y16.650 E20.4857
G1 X6.614 Y13.950 E20.6257
G1 X5.957 Y14.929 E20.6719
G1 X5.040 Y13.014 E20.7551
G1 X3.330 Y9.340 E20.9139
G1 X3.237 Y9.143 E20.9224
G1 X3.151 Y8.962 F1260
G92 E0
G1 E-0.8000 F1800
G1 X4.340 Y9.812 F3600
G1 X4.783 Y10.119 F3600
; solid layer
G1 X5.190 Y12.406 F7800
G1 E0.0000 F1800
G92 E0
G1 X6.379 Y13.595 E0.0659 F1440
G1 X6.117 Y13.986 E0.0843
G1 X5.921 Y13.790 E0.0952
G1 X5.779 Y13.649 F1440
G92 E0
G1 E-0.8000 F1800
G1 X6.523 Y11.779 F7800
G1 E0.0000 F1800
G92 E0
G1 X7.462 Y12.718 E0.0520 F1440
G1 X7.255 Y12.874 E0.0622
G1 X10.197 Y15.941 E0.2287
G1 X12.269 Y18.178 E0.3482
G1 X4.473 Y10.382 E0.7802
G1 X4.141 Y10.152 E0.7960
G1 X4.621 Y11.184 E0.8406
G1 X177.615 Y184.178 E10.4269
