; generated by Slic3r Prusa Edition 1.39.1-beta-prusa3d-win64 on 2018-02-14 at 22:05:43

; 

; external perimeters extrusion width = 0.34mm
; perimeters extrusion width = 0.34mm
; infill extrusion width = 0.34mm
; solid infill extrusion width = 0.34mm
; top infill extrusion width = 0.30mm
; support material extrusion width = 0.30mm
; first layer extrusion width = 0.60mm

M107
M190 S60 ; set bed temperature and wait for it to be reached
M104 S215 ; set temperature
;be sure to home all axis before printing!
G28 X0 ; home X axis
G28 Y0 ; home Y axis

; Filament gcode
M109 S215 ; set temperature and wait for it to be reached
G21 ; set units to millimeters
G90 ; use absolute coordinates
M82 ; use absolute distances for extrusion
G92 E0
G1 Z0.300 F2400.000
G1 E-2.00000 F2400.00000
G92 E0
G1 X65.125 Y65.126 F2400.000
G1 E2.00000 F2400.00000
G1 F1800
G1 X130.605 Y-0.354 E8.18633
G1 X131.914 Y-1.405 E8.29846
G1 X133.400 Y-2.185 E8.41060
G1 X135.009 Y-2.664 E8.52274
G1 X136.680 Y-2.824 E8.63487
G1 X137.718 Y-2.760 E8.70436
G1 X138.741 Y-2.573 E8.77384
G1 X157.960 Y2.409 E10.10020
G1 X159.110 Y2.798 E10.18133
G1 X160.195 Y3.344 E10.26245
G1 X161.056 Y3.928 E10.33194
G1 X161.840 Y4.611 E10.40142
G1 X180.429 Y23.204 E12.15783
G1 X181.405 Y24.434 E12.26270
G1 X182.143 Y25.819 E12.36758
G1 X182.618 Y27.308 E12.47197
G1 X182.818 Y28.865 E12.57684
G1 X182.421 Y40.365 E13.34557
G1 X182.268 Y41.306 E13.40923
G1 X182.012 Y42.224 E13.47289
G1 X181.658 Y43.108 E13.53655
G1 X181.208 Y43.948 E13.60021
G1 X180.620 Y44.798 E13.66921
G1 X179.936 Y45.571 E13.73821
G1 X45.175 Y180.307 E26.46885
G1 X44.025 Y181.161 E26.56453
G1 X42.751 Y181.815 E26.66020
G1 X41.394 Y182.248 E26.75539
G1 X39.977 Y182.454 E26.85106
G1 X28.680 Y182.809 E27.60609
G1 X27.633 Y182.683 E27.67654
G1 X26.609 Y182.431 E27.74700
G1 X25.623 Y182.057 E27.81745
G1 X24.683 Y181.563 E27.88839
G1 X23.863 Y180.997 E27.95497
G1 X23.107 Y180.336 E28.02202
G1 X4.642 Y161.871 E29.76654
G1 X3.815 Y160.905 E29.85155
G1 X3.141 Y159.834 E29.93607
G1 X2.733 Y158.949 E30.00119
G1 X2.424 Y158.016 E30.06679
G1 X-2.701 Y138.121 E31.43929
G1 X-2.823 Y136.578 E31.54272
G1 X-2.669 Y135.038 E31.64614
G1 X-2.246 Y133.556 E31.74908
G1 X-1.564 Y132.166 E31.85250
G1 X-0.977 Y131.317 E31.92150
G1 X-0.292 Y130.543 E31.99050
G1 X65.094 Y65.158 E38.16794
G1 X65.472 Y65.536 F2400.000
G1 F1800
G1 X130.977 Y0.032 E44.35659
G1 X132.199 Y-0.952 E44.46145
G1 X133.595 Y-1.686 E44.56678
G1 X135.106 Y-2.137 E44.67211
G1 X136.675 Y-2.288 E44.77744
G1 X137.653 Y-2.229 E44.84286
G1 X138.616 Y-2.052 E44.90828
G1 X157.825 Y2.927 E46.23397
G1 X158.912 Y3.296 E46.31067
G1 X159.931 Y3.810 E46.38690
G1 X160.735 Y4.357 E46.45185
G1 X161.468 Y4.996 E46.51681
G1 X180.022 Y23.552 E48.26983
G1 X180.944 Y24.707 E48.36860
G1 X181.642 Y26.011 E48.46736
G1 X182.093 Y27.418 E48.56612
G1 X182.283 Y28.892 E48.66536
G1 X181.891 Y40.285 E49.42694
G1 X181.507 Y42.045 E49.54725
G1 X180.747 Y43.677 E49.66757
G1 X180.196 Y44.470 E49.73205
G1 X179.556 Y45.193 E49.79654
G1 X44.830 Y179.897 E62.52408
G1 X43.751 Y180.701 E62.61393
G1 X42.555 Y181.316 E62.70378
G1 X41.274 Y181.726 E62.79363
G1 X39.936 Y181.920 E62.88395
G1 X28.743 Y182.276 E63.63207
G1 X27.750 Y182.160 E63.69890
G1 X26.778 Y181.923 E63.76573
G1 X25.842 Y181.569 E63.83257
G1 X24.951 Y181.099 E63.89987
G1 X24.186 Y180.570 E63.96200
G1 X23.481 Y179.953 E64.02460
G1 X5.027 Y161.499 E65.76811
G1 X4.256 Y160.601 E65.84716
G1 X3.627 Y159.607 E65.92574
G1 X3.235 Y158.763 E65.98787
G1 X2.940 Y157.874 E66.05047
G1 X-2.168 Y138.065 E67.41708
G1 X-2.288 Y136.606 E67.51491
G1 X-2.145 Y135.148 E67.61274
G1 X-1.746 Y133.747 E67.71009
G1 X-1.099 Y132.433 E67.80792
G1 X-0.549 Y131.640 E67.87240
G1 X0.091 Y130.917 E67.93689
G1 X65.440 Y65.568 E74.11089
G1 X65.819 Y65.947 F2400.000
G1 F1800
G1 X131.348 Y0.418 E80.30189
G1 X132.493 Y-0.504 E80.40006
G1 X133.800 Y-1.191 E80.49868
G1 X135.208 Y-1.611 E80.59685
G1 X136.677 Y-1.753 E80.69548
G1 X137.595 Y-1.696 E80.75689
G1 X138.499 Y-1.529 E80.81831
G1 X157.690 Y3.446 E82.14274
G1 X158.702 Y3.789 E82.21415
G1 X159.662 Y4.274 E82.28601
G1 X160.411 Y4.784 E82.34652
G1 X161.093 Y5.379 E82.40703
G1 X179.620 Y23.907 E84.15744
G1 X180.492 Y24.996 E84.25063
G1 X181.151 Y26.225 E84.34381
G1 X181.573 Y27.547 E84.43655
G1 X181.748 Y28.931 E84.52973
G1 X181.360 Y40.207 E85.28345
G1 X181.002 Y41.869 E85.39702
G1 X180.283 Y43.409 E85.51058
G1 X179.774 Y44.142 E85.57018
G1 X179.177 Y44.814 E85.63023
G1 X44.483 Y179.488 E98.35480
G1 X43.469 Y180.246 E98.43937
G1 X42.349 Y180.822 E98.52348
G1 X41.143 Y181.206 E98.60805
G1 X39.897 Y181.385 E98.69217
G1 X28.804 Y181.743 E99.43363
G1 X27.863 Y181.636 E99.49686
G1 X26.943 Y181.414 E99.56010
G1 X26.058 Y181.078 E99.62333
G1 X25.221 Y180.636 E99.68656
G1 X23.850 Y179.564 E99.80284
G1 X5.406 Y161.120 E101.54536
G1 X4.696 Y160.295 E101.61813
G1 X4.111 Y159.376 E101.69090
G1 X3.736 Y158.573 E101.75004
G1 X3.459 Y157.740 E101.80873
G1 X-1.635 Y137.999 E103.17073
G1 X-1.752 Y136.629 E103.26255
G1 X-1.621 Y135.261 E103.35438
G1 X-1.246 Y133.939 E103.44621
G1 X-0.635 Y132.700 E103.53848
G1 X-0.126 Y131.968 E103.59808
G1 X0.471 Y131.295 E103.65813
G1 X65.787 Y65.979 E109.82905
G1 X66.166 Y66.357 F2400.000
G1 F1800
G1 X131.720 Y0.803 E116.02242
G1 X132.782 Y-0.053 E116.11356
G1 X133.995 Y-0.692 E116.20515
G1 X135.309 Y-1.085 E116.29673
G1 X136.673 Y-1.217 E116.38831
G1 X137.525 Y-1.165 E116.44533
G1 X138.371 Y-1.009 E116.50279
G1 X157.555 Y3.964 E117.82672
G1 X158.506 Y4.287 E117.89382
G1 X159.395 Y4.738 E117.96047
G1 X160.722 Y5.765 E118.07256
G1 X179.215 Y24.259 E119.81974
G1 X180.035 Y25.275 E119.90695
G1 X180.654 Y26.424 E119.99417
G1 X181.051 Y27.668 E120.08138
G1 X181.213 Y28.963 E120.16859
G1 X180.830 Y40.131 E120.91513
G1 X180.497 Y41.689 E121.02155
G1 X179.820 Y43.138 E121.12841
G1 X178.798 Y44.436 E121.23876
G1 X44.136 Y179.081 E133.96042
G1 X43.196 Y179.785 E134.03889
G1 X42.146 Y180.326 E134.11779
G1 X41.027 Y180.683 E134.19626
G1 X39.858 Y180.851 E134.27517
G1 X28.854 Y181.209 E135.01066
G1 X27.973 Y181.112 E135.06987
G1 X27.112 Y180.905 E135.12908
G1 X26.282 Y180.592 E135.18829
G1 X25.493 Y180.174 E135.24794
G1 X24.223 Y179.180 E135.35567
G1 X5.790 Y160.747 E137.09719
G1 X5.134 Y159.986 E137.16428
G1 X4.593 Y159.141 E137.23138
G1 X3.975 Y157.595 E137.34259
G1 X-1.102 Y137.937 E138.69894
G1 X-1.217 Y136.656 E138.78484
G1 X-1.096 Y135.369 E138.87118
G1 X-0.746 Y134.132 E138.95708
G1 X-0.174 Y132.973 E139.04342
G1 X0.848 Y131.676 E139.15377
G1 X66.134 Y66.389 E145.32184
G1 X66.513 Y66.768 F2400.000
G1 F1800
G1 X132.088 Y1.193 E151.51719
G1 X133.074 Y0.396 E151.60186
G1 X134.195 Y-0.195 E151.68654
G1 X135.415 Y-0.560 E151.77163
G1 X136.677 Y-0.681 E151.85631
G1 X138.247 Y-0.488 E151.96196
G1 X157.419 Y4.482 E153.28514
G1 X158.298 Y4.781 E153.34712
G1 X159.125 Y5.201 E153.40909
G1 X160.350 Y6.151 E153.51264
G1 X178.812 Y24.612 E155.25685
G1 X179.579 Y25.557 E155.33816
G1 X180.158 Y26.627 E155.41948
G1 X180.529 Y27.787 E155.50079
G1 X180.678 Y28.995 E155.58211
G1 X180.299 Y40.058 E156.32161
G1 X179.991 Y41.513 E156.42097
G1 X179.359 Y42.866 E156.52075
G1 X178.418 Y44.059 E156.62221
G1 X43.792 Y178.669 E169.34057
G1 X42.920 Y179.325 E169.41348
G1 X41.945 Y179.829 E169.48681
G1 X40.899 Y180.163 E169.56014
G1 X39.819 Y180.317 E169.63305
G1 X28.909 Y180.675 E170.36229
G1 X28.080 Y180.587 E170.41795
G1 X27.276 Y180.395 E170.47319
G1 X26.502 Y180.104 E170.52843
G1 X25.766 Y179.713 E170.58408
G1 X24.596 Y178.795 E170.68344
G1 X6.169 Y160.369 E172.42434
G1 X5.571 Y159.676 E172.48547
G1 X5.073 Y158.902 E172.54702
G1 X4.492 Y157.457 E172.65099
G1 X-0.571 Y137.865 E174.00284
G1 X-0.681 Y136.672 E174.08290
G1 X-0.572 Y135.479 E174.16295
G1 X-0.247 Y134.326 E174.24301
G1 X0.287 Y133.246 E174.32348
G1 X1.227 Y132.053 E174.42494
G1 X66.481 Y66.800 E180.58991
G1 E178.58991 F2400.00000
G92 E0
G1 X71.956 Y72.341 F2400.000
G1 E2.00000 F2400.00000
G1 F1800
G1 X71.704 Y72.649 E2.01510
G1 F1800
G1 X71.589 Y72.791 E2.02467
G1 F1800
G1 X71.296 Y73.195 E2.05162
G1 X70.882 Y73.959 F2400.000
G1 F1800
G1 X70.933 Y74.278 E2.05632
G1 X70.926 Y75.102 F2400.000
G1 F1800
G1 X70.613 Y74.790 E2.08592
G1 X70.465 Y74.813 E2.09601
G1 X70.441 Y74.665 E2.10604
G1 X70.085 Y75.021 E2.13972
G1 X94.726 Y99.661 E4.47335
G1 X95.106 Y99.282 E4.50930
G1 X91.463 Y95.639 E4.85429
G1 X91.953 Y95.770 E4.88827
G1 X92.376 Y95.792 E4.91661
G1 X95.485 Y98.902 E5.21112
G1 X95.865 Y98.522 E5.24708
G1 X93.081 Y95.738 E5.51074
G1 X93.338 Y95.698 E5.52819
G1 X93.672 Y95.570 E5.55210
G1 X96.245 Y98.143 E5.79578
G1 X96.624 Y97.763 E5.83174
G1 X94.183 Y95.322 E6.06293
G1 X94.575 Y95.068 E6.09418
G1 X94.632 Y95.011 E6.09956
G1 X97.004 Y97.384 E6.32426
G1 X97.384 Y97.004 E6.36021
G1 X95.011 Y94.631 E6.58490
G1 X95.068 Y94.575 E6.59027
G1 X95.322 Y94.183 E6.62154
G1 X97.763 Y96.624 E6.85274
G1 X98.143 Y96.245 E6.88869
G1 X95.570 Y93.671 E7.13238
G1 X95.698 Y93.338 E7.15628
G1 X95.739 Y93.081 E7.17374
G1 X98.523 Y95.865 E7.43742
G1 X98.902 Y95.485 E7.47337
G1 X95.792 Y92.375 E7.76789
G1 X95.770 Y91.953 E7.79622
G1 X95.639 Y91.463 E7.83022
G1 X99.452 Y95.276 E8.19138
G1 E6.19138 F2400.00000
G92 E0
G1 X94.517 Y100.212 F2400.000
G1 E2.00000 F2400.00000
G1 F1800
G1 X69.706 Y75.401 E4.34977
G1 X69.326 Y75.780 E4.38572
G1 X93.967 Y100.421 E6.71935
G1 X93.587 Y100.800 E6.75531
G1 X68.947 Y76.160 E9.08893
G1 X68.567 Y76.540 E9.12489
G1 X93.207 Y101.180 E11.45851
G1 X92.828 Y101.560 E11.49447
G1 X68.187 Y76.919 E13.82810
G1 X67.808 Y77.299 E13.86405
G1 X92.448 Y101.939 E16.19768
G1 X92.068 Y102.319 E16.23363
G1 X67.428 Y77.679 E18.56726
G1 X67.048 Y78.058 E18.60322
G1 X91.689 Y102.699 E20.93684
G1 X91.309 Y103.078 E20.97280
G1 X66.669 Y78.438 E23.30642
G1 X66.289 Y78.818 E23.34238
G1 X90.929 Y103.458 E25.67601
G1 X90.550 Y103.838 E25.71196
G1 X65.909 Y79.197 E28.04559
G1 X65.530 Y79.577 E28.08155
G1 X90.170 Y104.217 E30.41517
G1 X89.790 Y104.597 E30.45113
G1 X65.150 Y79.956 E32.78475
G1 X64.770 Y80.336 E32.82071
G1 X89.411 Y104.977 E35.15434
G1 X89.031 Y105.356 E35.19029
G1 X64.391 Y80.716 E37.52392
G1 X64.011 Y81.095 E37.55987
G1 X88.651 Y105.736 E39.89350
G1 X88.272 Y106.116 E39.92946
G1 X63.631 Y81.475 E42.26308
G1 X63.252 Y81.855 E42.29904
G1 X87.892 Y106.495 E44.63266
G1 X87.512 Y106.875 E44.66862
G1 X62.872 Y82.234 E47.00225
G1 X62.492 Y82.614 E47.03820
G1 X87.133 Y107.255 E49.37183
G1 X86.753 Y107.634 E49.40778
G1 X62.113 Y82.994 E51.74141
G1 X61.733 Y83.373 E51.77737
G1 X86.374 Y108.014 E54.11099
G1 X85.994 Y108.394 E54.14695
G1 X61.353 Y83.753 E56.48058
G1 X60.974 Y84.133 E56.51653
G1 X85.614 Y108.773 E58.85016
G1 X85.235 Y109.153 E58.88611
G1 X60.594 Y84.512 E61.21974
G1 X60.214 Y84.892 E61.25570
G1 X84.855 Y109.533 E63.58932
G1 X84.475 Y109.912 E63.62528
G1 X59.835 Y85.272 E65.95890
G1 X59.455 Y85.651 E65.99486
G1 X84.096 Y110.292 E68.32849
G1 X83.716 Y110.672 E68.36444
G1 X59.075 Y86.031 E70.69807
G1 X58.696 Y86.411 E70.73402
G1 X83.336 Y111.051 E73.06765
G1 X82.957 Y111.431 E73.10361
G1 X58.316 Y86.790 E75.43723
G1 X57.936 Y87.170 E75.47319
G1 X82.577 Y111.811 E77.80681
G1 X82.197 Y112.190 E77.84277
G1 X57.557 Y87.550 E80.17640
G1 X57.177 Y87.929 E80.21235
G1 X81.818 Y112.570 E82.54598
G1 X81.438 Y112.950 E82.58194
G1 X56.797 Y88.309 E84.91556
G1 X56.418 Y88.689 E84.95152
G1 X81.058 Y113.329 E87.28514
G1 X80.679 Y113.709 E87.32110
G1 X56.038 Y89.068 E89.65473
G1 X55.658 Y89.448 E89.69068
G1 X80.299 Y114.089 E92.02431
G1 X79.919 Y114.468 E92.06026
G1 X55.279 Y89.828 E94.39389
G1 X54.899 Y90.207 E94.42985
G1 X79.540 Y114.848 E96.76347
G1 X79.160 Y115.228 E96.79943
G1 X54.519 Y90.587 E99.13305
G1 X54.140 Y90.967 E99.16901
G1 X78.780 Y115.607 E101.50264
G1 X78.401 Y115.987 E101.53859
G1 X53.760 Y91.346 E103.87222
G1 X53.380 Y91.726 E103.90817
G1 X78.021 Y116.367 E106.24180
G1 X77.641 Y116.746 E106.27776
G1 X53.001 Y92.106 E108.61138
G1 X52.621 Y92.485 E108.64734
G1 X77.262 Y117.126 E110.98096
G1 X76.882 Y117.506 E111.01692
G1 X52.241 Y92.865 E113.35055
G1 X51.862 Y93.245 E113.38650
G1 X76.502 Y117.885 E115.72013
G1 X76.123 Y118.265 E115.75609
G1 X51.482 Y93.624 E118.08971
G1 X51.102 Y94.004 E118.12567
G1 X75.743 Y118.644 E120.45929
G1 X75.363 Y119.024 E120.49525
G1 X50.723 Y94.384 E122.82888
G1 X50.343 Y94.763 E122.86483
G1 X74.984 Y119.404 E125.19846
G1 X74.604 Y119.783 E125.23441
G1 X49.963 Y95.143 E127.56804
G1 X49.584 Y95.523 E127.60400
G1 X74.224 Y120.163 E129.93762
G1 X73.845 Y120.543 E129.97358
G1 X49.204 Y95.902 E132.30720
G1 X48.825 Y96.282 E132.34316
G1 X73.465 Y120.922 E134.67679
G1 X73.085 Y121.302 E134.71274
G1 X48.445 Y96.662 E137.04637
G1 X48.065 Y97.041 E137.08232
G1 X72.706 Y121.682 E139.41595
G1 X72.326 Y122.061 E139.45191
G1 X47.686 Y97.421 E141.78553
G1 X47.306 Y97.801 E141.82149
G1 X71.946 Y122.441 E144.15512
G1 X71.567 Y122.821 E144.19107
G1 X46.926 Y98.180 E146.52470
G1 X46.547 Y98.560 E146.56065
G1 X71.187 Y123.200 E148.89428
G1 X70.807 Y123.580 E148.93024
G1 X46.167 Y98.940 E151.26386
G1 X45.787 Y99.319 E151.29982
G1 X70.428 Y123.960 E153.63344
G1 X70.048 Y124.339 E153.66940
G1 X45.408 Y99.699 E156.00303
G1 X45.028 Y100.078 E156.03898
G1 X69.668 Y124.719 E158.37261
G1 X69.289 Y125.099 E158.40856
G1 X44.648 Y100.458 E160.74219
G1 X44.269 Y100.838 E160.77815
G1 X68.909 Y125.478 E163.11177
G1 X68.529 Y125.858 E163.14773
G1 X43.889 Y101.217 E165.48135
G1 X43.509 Y101.597 E165.51731
G1 X68.150 Y126.238 E167.85094
G1 X67.770 Y126.617 E167.88689
G1 X43.130 Y101.977 E170.22052
G1 X42.750 Y102.356 E170.25648
G1 X67.390 Y126.997 E172.59010
G1 X67.011 Y127.377 E172.62606
G1 X42.370 Y102.736 E174.95968
G1 X41.991 Y103.116 E174.99564
G1 X66.631 Y127.756 E177.32927
G1 X66.252 Y128.136 E177.36522
G1 X41.611 Y103.495 E179.69885
G1 X41.231 Y103.875 E179.73480
G1 X65.872 Y128.516 E182.06843
G1 X65.492 Y128.895 E182.10439
G1 X40.852 Y104.255 E184.43801
G1 X40.472 Y104.634 E184.47397
G1 X65.113 Y129.275 E186.80759
G1 X64.733 Y129.655 E186.84355
G1 X40.092 Y105.014 E189.17718
G1 X39.713 Y105.394 E189.21313
G1 X64.353 Y130.034 E191.54676
G1 X63.974 Y130.414 E191.58272
G1 X39.333 Y105.773 E193.91634
G1 X38.953 Y106.153 E193.95230
G1 X63.594 Y130.794 E196.28592
G1 X63.214 Y131.173 E196.32188
G1 X38.574 Y106.533 E198.65551
G1 X38.194 Y106.912 E198.69146
G1 X62.835 Y131.553 E201.02509
G1 X62.455 Y131.933 E201.06104
G1 X37.814 Y107.292 E203.39467
G1 X37.435 Y107.672 E203.43063
G1 X62.075 Y132.312 E205.76425
G1 X61.696 Y132.692 E205.80021
G1 X37.055 Y108.051 E208.13383
G1 X36.675 Y108.431 E208.16979
G1 X61.316 Y133.072 E210.50342
G1 X60.936 Y133.451 E210.53937
G1 X36.296 Y108.811 E212.87300
G1 X35.916 Y109.190 E212.90895
G1 X60.557 Y133.831 E215.24258
G1 X60.177 Y134.211 E215.27854
G1 X35.536 Y109.570 E217.61216
G1 X35.157 Y109.950 E217.64812
G1 X59.901 Y134.694 E219.99154
G1 X59.885 Y135.437 E220.04135
G1 X34.777 Y110.329 E222.41923
G1 X34.397 Y110.709 E222.45519
G1 X59.869 Y136.181 E224.86753
G1 X59.853 Y136.924 E224.91733
G1 X34.018 Y111.089 E227.36413
G1 X33.638 Y111.468 E227.40009
G1 X59.837 Y137.668 E229.88135
G1 X59.822 Y138.411 E229.93115
G1 X33.258 Y111.848 E232.44686
G1 X32.879 Y112.228 E232.48282
G1 X59.806 Y139.155 E235.03300
G1 X59.790 Y139.898 E235.08280
G1 X32.499 Y112.607 E237.66743
G1 X32.119 Y112.987 E237.70339
G1 X42.105 Y122.972 E238.64906
G1 X41.317 Y122.944 E238.70182
G1 X31.740 Y113.367 E239.60888
G1 X31.360 Y113.746 E239.64483
G1 X40.664 Y123.050 E240.52596
G1 X40.113 Y123.258 E240.56541
G1 X30.980 Y114.126 E241.43031
G1 X30.601 Y114.506 E241.46626
G1 X39.631 Y123.536 E242.32151
G1 X39.369 Y123.706 E242.34244
G1 X39.206 Y123.870 E242.35793
G1 X30.221 Y114.885 E243.20882
G1 X29.841 Y115.265 E243.24478
G1 X38.832 Y124.255 E244.09622
G1 X38.533 Y124.716 E244.13298
G1 X29.462 Y115.645 E244.99208
G1 X29.082 Y116.024 E245.02804
G1 X38.300 Y125.242 E245.90101
G1 X38.196 Y125.513 E245.92049
G1 X38.143 Y125.844 E245.94293
G1 X28.702 Y116.404 E246.83702
G1 X28.323 Y116.784 E246.87297
G1 X38.098 Y126.559 E247.79879
G1 X38.120 Y126.962 E247.82578
G1 X38.258 Y127.478 E247.86159
G1 X27.943 Y117.163 E248.83847
G1 X27.564 Y117.543 E248.87443
