;FLAVOR:Marlin
;TIME:4921
;Filament used: 5.61106m
;Layer height: 0.2
;Generated with Cura_SteamEngine 2.7.0
M190 S50
M104 S220
M109 S220
G21 ;metric values
G90 ;absolute positioning
M82 ;set extruder to absolute mode
M107 ;start with the fan off
G92 E0 ;zero the extruded length
G1 F200 E3 ;extrude 3mm of feed stock
G92 E0 ;zero the extruded length again
G1 F9000
M301 P26.92 I2.54 D71.46 ;set PID tuning for E0
M117 Printing...
;LAYER_COUNT:200
;LAYER:0
M107
G0 F2400 X65.998 Y76.866 Z0.3
;TYPE:SKIRT
G1 F1200 X66.47 Y76.465 E0.03082
G1 X66.989 Y76.128 E0.06162
G1 X67.547 Y75.86 E0.09242
G1 X68.135 Y75.667 E0.12322
G1 X68.744 Y75.551 E0.15407
G1 X69.336 Y75.514 E0.18359
G1 X80.66 Y75.514 E0.74714
G1 X81.278 Y75.554 E0.77796
G1 X81.89 Y75.674 E0.80899
G1 X86.04 Y76.775 E1.02266
G1 X88.651 Y77.377 E1.15601
G1 X91.234 Y77.893 E1.28709
G1 X96.583 Y78.732 E1.55654
G1 X102.001 Y79.269 E1.82749
G1 X104.612 Y79.417 E1.95764
G1 X108.719 Y79.503 E2.16207
G1 X117.198 Y79.513 E2.58403
G1 X117.815 Y79.554 E2.61481
G1 X118.423 Y79.674 E2.64565
G1 X119.01 Y79.871 E2.67646
G1 X119.566 Y80.142 E2.70724
G1 X120.083 Y80.482 E2.73804
G1 X120.552 Y80.887 E2.76888
G1 X120.965 Y81.348 E2.79968
G1 X121.315 Y81.859 E2.8305
G1 X121.596 Y82.41 E2.86128
G1 X121.804 Y82.993 E2.89209
G1 X121.935 Y83.599 E2.92294
G1 X121.988 Y84.312 E2.95852
G1 X121.979 Y100.694 E3.77378
G1 X121.939 Y101.311 E3.80455
G1 X121.819 Y101.919 E3.83539
G1 X121.622 Y102.506 E3.8662
G1 X121.352 Y103.063 E3.89701
G1 X121.011 Y103.58 E3.92783
G1 X120.607 Y104.049 E3.95863
G1 X120.146 Y104.462 E3.98944
G1 X119.636 Y104.812 E4.02022
G1 X119.084 Y105.094 E4.05107
G1 X118.501 Y105.302 E4.08187
G1 X117.896 Y105.434 E4.11269
G1 X117.188 Y105.487 E4.14802
G1 X108.711 Y105.496 E4.56988
G1 X103.265 Y105.65 E4.84101
G1 X97.892 Y106.107 E5.10937
G1 X92.557 Y106.867 E5.37755
G1 X87.264 Y107.928 E5.6462
G1 X84.682 Y108.562 E5.77851
G1 X81.945 Y109.313 E5.91975
G1 X81.339 Y109.438 E5.95054
G1 X80.677 Y109.484 E5.98357
G1 X69.337 Y109.486 E6.54791
G1 X68.719 Y109.446 E6.57873
G1 X68.112 Y109.327 E6.60951
G1 X67.524 Y109.131 E6.64036
G1 X66.967 Y108.86 E6.67118
G1 X66.45 Y108.52 E6.70198
G1 X65.969 Y108.105 E6.73359
G1 X64.914 Y107.065 E6.80731
G1 X64.84 Y106.991 E6.81252
G1 X64.369 Y106.506 E6.84617
G1 X63.968 Y106.035 E6.87695
G1 X63.63 Y105.516 E6.90777
G1 X63.362 Y104.958 E6.93858
G1 X63.168 Y104.37 E6.96939
G1 X63.051 Y103.762 E7.00021
G1 X63.014 Y103.165 E7.02997
G1 X63.014 Y81.836 E8.09142
G1 X63.054 Y81.218 E8.12224
G1 X63.173 Y80.611 E8.15302
G1 X63.37 Y80.024 E8.18384
G1 X63.64 Y79.467 E8.21464
G1 X63.98 Y78.949 E8.24548
G1 X64.395 Y78.469 E8.27705
G1 X65.435 Y77.414 E8.35078
G1 X65.512 Y77.337 E8.3562
G1 X65.998 Y76.866 E8.38988
G0 F2400 X65.79 Y77.624
G1 F1200 X66.276 Y77.153 E8.42356
G1 X66.728 Y76.77 E8.45304
G1 X67.228 Y76.451 E8.48256
G1 X67.767 Y76.203 E8.51208
G1 X68.333 Y76.029 E8.54155
G1 X68.918 Y75.933 E8.57105
G1 X69.336 Y75.913 E8.59188
G1 X80.66 Y75.913 E9.15542
G1 X81.251 Y75.953 E9.1849
G1 X81.788 Y76.06 E9.21215
G1 X85.916 Y77.155 E9.42469
G1 X88.581 Y77.77 E9.5608
G1 X91.168 Y78.286 E9.69208
G1 X96.534 Y79.128 E9.96239
G1 X101.963 Y79.666 E10.23389
G1 X104.61 Y79.816 E10.36583
G1 X108.711 Y79.902 E10.56996
G1 X117.197 Y79.912 E10.99227
G1 X117.789 Y79.953 E11.0218
G1 X118.369 Y80.072 E11.05127
G1 X118.928 Y80.269 E11.08076
G1 X119.456 Y80.54 E11.1103
G1 X119.942 Y80.878 E11.13976
G1 X120.379 Y81.279 E11.16928
G1 X120.757 Y81.735 E11.19875
G1 X121.071 Y82.238 E11.22826
G1 X121.314 Y82.779 E11.25778
G1 X121.483 Y83.347 E11.28727
G1 X121.573 Y83.933 E11.31677
G1 X121.589 Y84.311 E11.3356
G1 X121.58 Y100.693 E12.15086
G1 X121.54 Y101.285 E12.18039
G1 X121.42 Y101.865 E12.20986
G1 X121.224 Y102.425 E12.23939
G1 X120.954 Y102.952 E12.26886
G1 X120.615 Y103.439 E12.29838
G1 X120.215 Y103.876 E12.32787
G1 X119.759 Y104.255 E12.35738
G1 X119.256 Y104.569 E12.38688
G1 X118.716 Y104.812 E12.41635
G1 X118.147 Y104.981 E12.44589
G1 X117.562 Y105.072 E12.47536
G1 X117.188 Y105.088 E12.49398
G1 X108.698 Y105.097 E12.91649
G1 X103.238 Y105.251 E13.18832
G1 X97.853 Y105.709 E13.45728
G1 X92.493 Y106.473 E13.72671
G1 X87.164 Y107.541 E13.99719
G1 X84.596 Y108.172 E14.12879
G1 X81.84 Y108.928 E14.27101
G1 X81.259 Y109.046 E14.30051
G1 X80.677 Y109.085 E14.32954
G1 X69.337 Y109.087 E14.89388
G1 X68.745 Y109.047 E14.92341
G1 X68.165 Y108.928 E14.95287
G1 X67.605 Y108.732 E14.9824
G1 X67.077 Y108.463 E15.01189
G1 X66.59 Y108.124 E15.04142
G1 X66.249 Y107.821 E15.06412
G1 X65.194 Y106.781 E15.13785
G1 X65.127 Y106.713 E15.1426
G1 X64.656 Y106.228 E15.17624
G1 X64.272 Y105.776 E15.20576
G1 X63.953 Y105.277 E15.23523
G1 X63.704 Y104.739 E15.26473
G1 X63.53 Y104.172 E15.29425
G1 X63.433 Y103.587 E15.32376
G1 X63.413 Y103.165 E15.34478
G1 X63.413 Y81.836 E16.40623
G1 X63.453 Y81.245 E16.43571
G1 X63.572 Y80.664 E16.46522
G1 X63.768 Y80.105 E16.4947
G1 X64.038 Y79.577 E16.52422
G1 X64.376 Y79.09 E16.55372
G1 X64.679 Y78.749 E16.57642
G1 X65.719 Y77.694 E16.65014
G1 X65.79 Y77.624 E16.6551
G0 F2400 X66.068 Y77.91
G1 F1200 X66.554 Y77.439 E16.68878
G1 X66.986 Y77.075 E16.7169
G1 X67.466 Y76.776 E16.74504
G1 X67.983 Y76.548 E16.77316
G1 X68.527 Y76.395 E16.80128
G1 X69.336 Y76.312 E16.84175
G1 X80.66 Y76.312 E17.4053
G1 X81.224 Y76.352 E17.43344
G1 X81.685 Y76.446 E17.45685
G1 X85.813 Y77.541 E17.66939
G1 X88.478 Y78.156 E17.8055
G1 X91.101 Y78.68 E17.93861
G1 X96.486 Y79.524 E18.20987
G1 X101.924 Y80.063 E18.48182
G1 X104.607 Y80.215 E18.61556
G1 X108.701 Y80.301 E18.81934
G1 X117.197 Y80.311 E19.24215
G1 X117.76 Y80.352 E19.27024
G1 X118.313 Y80.471 E19.29839
G1 X118.843 Y80.668 E19.32653
G1 X119.34 Y80.937 E19.35465
G1 X119.794 Y81.273 E19.38276
G1 X120.196 Y81.671 E19.41091
G1 X120.538 Y82.121 E19.43904
G1 X120.813 Y82.614 E19.46714
G1 X121.016 Y83.142 E19.49529
G1 X121.142 Y83.693 E19.52342
G1 X121.19 Y84.311 E19.55426
G1 X121.181 Y100.693 E20.36952
G1 X121.141 Y101.257 E20.39766
G1 X121.021 Y101.809 E20.42577
G1 X120.825 Y102.339 E20.45389
G1 X120.556 Y102.837 E20.48206
G1 X120.22 Y103.291 E20.51017
G1 X119.823 Y103.693 E20.53829
G1 X119.373 Y104.036 E20.56644
G1 X118.88 Y104.311 E20.59454
G1 X118.353 Y104.514 E20.62264
G1 X117.802 Y104.641 E20.65078
G1 X117.187 Y104.689 E20.68148
G1 X108.687 Y104.698 E21.10449
G1 X103.229 Y104.852 E21.37622
G1 X97.797 Y105.314 E21.64752
G1 X92.43 Y106.079 E21.91731
G1 X87.083 Y107.151 E22.1887
G1 X84.466 Y107.793 E22.3228
G1 X81.734 Y108.543 E22.46379
G1 X81.18 Y108.654 E22.4919
G1 X80.677 Y108.686 E22.51699
G1 X69.337 Y108.688 E23.08133
G1 X68.773 Y108.648 E23.10947
G1 X68.22 Y108.529 E23.13762
G1 X67.69 Y108.334 E23.16572
G1 X67.193 Y108.065 E23.19384
G1 X66.738 Y107.729 E23.22199
G1 X66.529 Y107.537 E23.23612
G1 X65.474 Y106.497 E23.30984
G1 X65.413 Y106.435 E23.31417
G1 X64.942 Y105.95 E23.34781
G1 X64.578 Y105.518 E23.37593
G1 X64.278 Y105.039 E23.40405
G1 X64.049 Y104.522 E23.43219
G1 X63.896 Y103.978 E23.46032
G1 X63.812 Y103.165 E23.50099
G1 X63.812 Y81.836 E24.56244
G1 X63.852 Y81.272 E24.59058
G1 X63.971 Y80.72 E24.61868
G1 X64.167 Y80.19 E24.6468
G1 X64.435 Y79.692 E24.67494
G1 X64.771 Y79.238 E24.70305
G1 X64.963 Y79.029 E24.71718
G1 X66.003 Y77.974 E24.7909
G1 X66.068 Y77.91 E24.79544
G0 F2400 X66.345 Y78.197
G1 F1200 X66.831 Y77.726 E24.82912
G1 X67.243 Y77.382 E24.85583
G1 X67.701 Y77.104 E24.88249
G1 X68.196 Y76.896 E24.90921
G1 X68.716 Y76.765 E24.9359
G1 X69.336 Y76.711 E24.96687
G1 X80.66 Y76.711 E25.53042
G1 X81.195 Y76.751 E25.55711
G1 X81.583 Y76.831 E25.57683
G1 X85.74 Y77.934 E25.79086
G1 X88.415 Y78.551 E25.92748
G1 X91.012 Y79.069 E26.05927
G1 X96.454 Y79.922 E26.3334
G1 X101.886 Y80.461 E26.60505
G1 X104.576 Y80.613 E26.73913
G1 X108.693 Y80.7 E26.94406
G1 X117.196 Y80.71 E27.36722
G1 X117.731 Y80.751 E27.39392
G1 X118.254 Y80.87 E27.42062
G1 X118.753 Y81.066 E27.4473
G1 X119.217 Y81.334 E27.47396
G1 X119.637 Y81.668 E27.50067
G1 X120.002 Y82.06 E27.52732
G1 X120.305 Y82.503 E27.55403
G1 X120.539 Y82.985 E27.5807
G1 X120.698 Y83.497 E27.60738
G1 X120.78 Y84.027 E27.63407
G1 X120.791 Y84.311 E27.64821
G1 X120.782 Y100.693 E28.46347
G1 X120.742 Y101.228 E28.49017
G1 X120.623 Y101.75 E28.51681
G1 X120.427 Y102.25 E28.54354
G1 X120.159 Y102.714 E28.5702
G1 X119.826 Y103.134 E28.59688
G1 X119.433 Y103.5 E28.6236
G1 X118.991 Y103.803 E28.65027
G1 X118.509 Y104.037 E28.67694
G1 X117.997 Y104.197 E28.70363
G1 X117.467 Y104.279 E28.73032
G1 X117.187 Y104.29 E28.74427
G1 X108.712 Y104.299 E29.16603
G1 X103.184 Y104.455 E29.44124
G1 X97.761 Y104.916 E29.71209
G1 X92.367 Y105.685 E29.98324
G1 X86.973 Y106.767 E30.25702
G1 X84.423 Y107.392 E30.38768
G1 X81.629 Y108.159 E30.53187
G1 X81.102 Y108.262 E30.55859
G1 X80.677 Y108.287 E30.57978
G1 X69.337 Y108.289 E31.14412
G1 X68.802 Y108.249 E31.17082
G1 X68.279 Y108.13 E31.19751
G1 X67.78 Y107.935 E31.22417
G1 X67.315 Y107.668 E31.25086
G1 X66.809 Y107.253 E31.28343
G1 X65.754 Y106.213 E31.35715
G1 X65.699 Y106.157 E31.36106
G1 X65.228 Y105.672 E31.3947
G1 X64.884 Y105.261 E31.42137
G1 X64.605 Y104.803 E31.44806
G1 X64.398 Y104.309 E31.47472
G1 X64.265 Y103.789 E31.50143
G1 X64.211 Y103.165 E31.5326
G1 X64.211 Y81.836 E32.59405
G1 X64.251 Y81.301 E32.62075
G1 X64.37 Y80.778 E32.64744
G1 X64.565 Y80.279 E32.6741
G1 X64.833 Y79.814 E32.70081
G1 X65.247 Y79.309 E32.73331
G1 X66.287 Y78.254 E32.80703
G1 X66.345 Y78.197 E32.81108
G0 F2400 X66.571 Y78.535
G1 F1200 X66.623 Y78.483 E32.81474
G1 X67.109 Y78.012 E32.84842
G1 X67.499 Y77.69 E32.87359
G1 X67.934 Y77.433 E32.89873
G1 X68.405 Y77.248 E32.92391
G1 X68.899 Y77.14 E32.94908
G1 X69.336 Y77.11 E32.97088
G1 X80.66 Y77.11 E33.53442
G1 X81.164 Y77.15 E33.55958
G1 X81.481 Y77.217 E33.57571
G1 X85.644 Y78.322 E33.79005
G1 X88.312 Y78.937 E33.92631
G1 X90.965 Y79.467 E34.06095
G1 X96.39 Y80.317 E34.33422
G1 X101.849 Y80.858 E34.60722
G1 X104.573 Y81.012 E34.743
G1 X108.683 Y81.099 E34.94758
G1 X117.196 Y81.109 E35.37123
G1 X117.7 Y81.15 E35.3964
G1 X118.191 Y81.269 E35.42154
G1 X118.657 Y81.464 E35.44668
G1 X119.087 Y81.73 E35.47184
G1 X119.47 Y82.061 E35.49703
G1 X119.795 Y82.448 E35.52218
G1 X120.056 Y82.881 E35.54734
G1 X120.245 Y83.35 E35.57251
G1 X120.358 Y83.843 E35.59768
G1 X120.392 Y84.311 E35.62103
G1 X120.383 Y100.693 E36.43629
G1 X120.343 Y101.197 E36.46145
G1 X120.224 Y101.688 E36.48659
G1 X120.029 Y102.155 E36.51177
G1 X119.763 Y102.584 E36.53689
G1 X119.432 Y102.967 E36.56209
G1 X119.046 Y103.293 E36.58723
G1 X118.613 Y103.554 E36.61239
G1 X118.144 Y103.743 E36.63755
G1 X117.651 Y103.857 E36.66274
G1 X117.186 Y103.891 E36.68594
G1 X108.701 Y103.9 E37.1082
G1 X103.173 Y104.056 E37.38341
G1 X97.707 Y104.521 E37.65641
G1 X92.301 Y105.292 E37.92817
G1 X86.896 Y106.375 E38.2025
G1 X84.293 Y107.014 E38.33588
G1 X81.523 Y107.774 E38.47883
G1 X81.026 Y107.869 E38.50401
G1 X80.677 Y107.888 E38.5214
G1 X69.337 Y107.89 E39.08574
G1 X68.833 Y107.85 E39.1109
G1 X68.341 Y107.731 E39.13609
G1 X67.875 Y107.537 E39.16121
G1 X67.444 Y107.271 E39.18642
G1 X67.09 Y106.969 E39.20958
G1 X66.035 Y105.929 E39.2833
G1 X65.985 Y105.879 E39.28682
G1 X65.514 Y105.394 E39.32046
G1 X65.192 Y105.005 E39.34559
G1 X64.935 Y104.57 E39.37074
G1 X64.749 Y104.099 E39.39594
G1 X64.64 Y103.606 E39.42107
G1 X64.61 Y103.165 E39.44306
G1 X64.61 Y81.836 E40.50451
G1 X64.65 Y81.332 E40.52967
G1 X64.769 Y80.841 E40.55481
G1 X64.963 Y80.374 E40.57998
G1 X65.229 Y79.944 E40.60514
G1 X65.531 Y79.59 E40.6283
G1 X66.571 Y78.535 E40.70202
G1 F1500 E39.70202
G0 F2400 X68.362 Y80.33
G0 X69.268 Y81.235
G0 X69.743 Y81.296
;TYPE:WALL-INNER
G1 F1500 E40.70202
G1 F1200 X80.257 Y81.296 E41.22526
G1 X81.204 Y82.243 E41.29191
G1 X81.205 Y85.295 E41.44379
G1 X116.006 Y85.295 E43.17568
G1 X116.205 Y85.295 E43.18558
G1 X116.205 Y85.494 E43.19199
G1 X116.204 Y99.704 E43.89916
G1 X81.204 Y99.704 E45.64095
G1 X81.204 Y102.757 E45.79288
G1 X80.257 Y103.704 E45.85953
G1 X69.743 Y103.704 E46.38277
G1 X68.796 Y102.757 E46.44941
G1 X68.796 Y82.243 E47.4703
G1 X69.743 Y81.296 E47.53695
G0 F2400 X69.578 Y80.897
G1 F1200 X80.422 Y80.897 E48.07661
G1 X81.603 Y82.078 E48.15973
G1 X81.604 Y84.896 E48.29997
G1 X116.405 Y84.896 E50.03185
G1 X116.604 Y84.896 E50.04176
G1 X116.604 Y85.095 E50.04817
G1 X116.603 Y100.103 E50.79505
G1 X81.603 Y100.103 E52.53684
G1 X81.603 Y102.922 E52.67713
G1 X80.422 Y104.103 E52.76024
G1 X69.578 Y104.103 E53.2999
G1 X68.397 Y102.922 E53.38302
G1 X68.397 Y82.078 E54.42033
G1 X69.578 Y80.897 E54.50345
G0 F2400 X69.414 Y80.499
;TYPE:WALL-OUTER
G1 F1200 X80.586 Y80.499 E55.05943
G1 X82.001 Y81.914 E55.15901
G1 X82.002 Y84.498 E55.28761
G1 X116.803 Y84.498 E57.0195
G1 X117.002 Y84.498 E57.0294
G1 X117.002 Y84.697 E57.03581
G1 X117.001 Y100.501 E57.8223
G1 X82.001 Y100.501 E59.56409
G1 X82.001 Y103.086 E59.69274
G1 X80.586 Y104.501 E59.79232
G1 X69.414 Y104.501 E60.3483
G1 X67.999 Y103.086 E60.44789
G1 X67.999 Y81.914 E61.50152
G1 X69.414 Y80.499 E61.60111
G0 F2400 X69.614 Y80.499
G0 X69.614 Y80.997
G0 X70.231 Y103.523
;TYPE:SKIN
G1 F1200 X68.976 Y102.268 E61.68943
G1 X68.906 Y102.198
G0 F2400 X68.976 Y101.703
G1 F1200 X70.795 Y103.523 E61.81749
G1 X70.864 Y103.593
G0 F2400 X71.359 Y103.523
G1 F1200 X68.976 Y101.139 E61.98524
G1 X68.906 Y101.069
G0 F2400 X68.976 Y100.575
G1 F1200 X71.924 Y103.523 E62.19272
G1 X71.994 Y103.593
G0 F2400 X72.488 Y103.523
G1 F1200 X68.976 Y100.011 E62.43989
G1 X68.906 Y99.941
G0 F2400 X68.976 Y99.446
G1 F1200 X73.052 Y103.523 E62.72679
G1 X73.121 Y103.593
G0 F2400 X73.616 Y103.523
G1 F1200 X68.976 Y98.882 E63.05338
G1 X68.906 Y98.812
G0 F2400 X68.976 Y98.318
G1 F1200 X74.181 Y103.523 E63.4197
G1 X74.251 Y103.593
G0 F2400 X74.745 Y103.523
G1 F1200 X68.976 Y97.753 E63.82575
G1 X68.906 Y97.683
G0 F2400 X68.976 Y97.189
G1 F1200 X75.309 Y103.523 E64.2715
G1 X75.379 Y103.593
G0 F2400 X75.873 Y103.523
G1 F1200 X68.976 Y96.625 E64.75694
G1 X68.906 Y96.555
G0 F2400 X68.976 Y96.061
G1 F1200 X76.438 Y103.523 E65.28211
G1 X76.508 Y103.593
G0 F2400 X77.002 Y103.523
G1 F1200 X68.976 Y95.496 E65.847
G1 X68.906 Y95.426
G0 F2400 X68.976 Y94.932
G1 F1200 X77.566 Y103.523 E66.4516
G1 X77.636 Y103.593
G0 F2400 X78.131 Y103.523
G1 F1200 X68.976 Y94.368 E67.09592
G1 X68.906 Y94.298
G0 F2400 X68.976 Y93.804
G1 F1200 X78.695 Y103.523 E67.77993
G1 X78.765 Y103.593
G0 F2400 X79.259 Y103.523
G1 F1200 X68.976 Y93.239 E68.50367
G1 X68.906 Y93.169
G0 F2400 X68.976 Y92.675
G1 F1200 X79.823 Y103.523 E69.26711
G1 X79.893 Y103.593
G0 F2400 X80.284 Y103.42
G1 F1200 X68.976 Y92.111 E70.06299
G1 X68.906 Y92.041
G0 F2400 X68.976 Y91.546
G1 F1200 X80.567 Y103.137 E70.87875
G1 X80.637 Y103.207
G0 F2400 X80.849 Y102.855
G1 F1200 X68.976 Y90.982 E71.71436
G1 X68.906 Y90.912
G0 F2400 X68.976 Y90.418
G1 F1200 X81.023 Y102.466 E72.56225
G1 X81.093 Y102.536
G0 F2400 X81.023 Y101.901
G1 F1200 X68.976 Y89.854 E73.41011
G1 X68.906 Y89.784
G0 F2400 X68.976 Y89.289
G1 F1200 X81.023 Y101.337 E74.258
G1 X81.093 Y101.407
G0 F2400 X81.023 Y100.773
G1 F1200 X68.976 Y88.725 E75.10589
G1 X68.906 Y88.655
G0 F2400 X68.976 Y88.161
G1 F1200 X81.023 Y100.209 E75.95378
G1 X81.093 Y100.279
G0 F2400 X81.023 Y99.644
G1 F1200 X68.976 Y87.597 E76.80164
G1 X68.906 Y87.527
G0 F2400 X68.976 Y87.032
G1 F1200 X81.466 Y99.523 E77.68071
G1 X81.536 Y99.593
G0 F2400 X82.03 Y99.523
G1 F1200 X68.976 Y86.468 E78.59947
G1 X68.906 Y86.398
G0 F2400 X68.976 Y85.904
G1 F1200 X82.595 Y99.523 E79.55796
G1 X82.665 Y99.593
G0 F2400 X83.159 Y99.523
G1 F1200 X68.976 Y85.34 E80.55615
G1 X68.906 Y85.27
G0 F2400 X68.976 Y84.775
G1 F1200 X83.723 Y99.523 E81.59406
G1 X83.793 Y99.593
G0 F2400 X84.287 Y99.523
G1 F1200 X68.976 Y84.211 E82.67167
G1 X68.906 Y84.141
G0 F2400 X68.976 Y83.647
G1 F1200 X84.852 Y99.523 E83.78901
G1 X84.922 Y99.593
G0 F2400 X85.416 Y99.523
G1 F1200 X68.976 Y83.082 E84.94607
G1 X68.906 Y83.012
G0 F2400 X68.976 Y82.518
G1 F1200 X85.98 Y99.523 E86.14283
G1 X86.05 Y99.593
G0 F2400 X86.544 Y99.523
G1 F1200 X69.157 Y82.136 E87.36651
G1 X69.087 Y82.066
G0 F2400 X69.44 Y81.853
G1 F1200 X87.109 Y99.523 E88.61008
G1 X87.179 Y99.593
G0 F2400 X87.673 Y99.523
G1 F1200 X69.722 Y81.571 E89.87348
G1 X69.652 Y81.501
