;Generated from MakePiZeroCaseLid.stl 042a89380723fc203b839e38420b0d44e5afe27d
;Generated with Cura_SteamEngine 15.04
M140 S55.0
M109 T0 S210.0
T0
M190 S55.0

;Basic settings: Layer height: 0.15 Walls: 1.2 Fill: 50
;Print time: ?print_time?
;Filament used: ?filament_amount?m ?filament_weight?g
;Filament cost: ?filament_cost?
;M190 S55 ;Uncomment to add your own bed temperature line
;M109 S210 ;Uncomment to add your own temperature line
G21        ;metric values
G90        ;absolute positioning
M82        ;set extruder to absolute mode
M107       ;start with the fan off
;G28 X0 Y0  ;move X/Y to min endstops
;G28 Z0     ;move Z to min endstops
;G1 Z5.0 F9000 ;move the platform down 15mm
G92 E0                  ;zero the extruded length
G1 F200 E3              ;extrude 3mm of feed stock
G92 E0                  ;zero the extruded length again
G1 F9000
;Put printing message on LCD screen
M117 Printing...

;Layer count: 13
;LAYER:0
M107
G0 F9000 X64.201 Y76.700 Z0.300
;TYPE:SKIRT
G1 F1200 X135.800 Y76.700 E3.57209
G1 X135.800 Y80.362 E3.75479
G1 X136.193 Y80.668 E3.77964
G1 X136.804 Y81.279 E3.82275
G1 X137.317 Y81.914 E3.86347
G1 X137.759 Y82.594 E3.90393
G1 X138.133 Y83.326 E3.94494
G1 X138.465 Y84.195 E3.99136
G1 X138.685 Y85.198 E4.04258
G1 X138.781 Y85.764 E4.07123
G1 X138.800 Y88.729 E4.21915
G1 X138.800 Y113.621 E5.46102
G1 X138.765 Y114.311 E5.49549
G1 X138.620 Y115.229 E5.54186
G1 X138.236 Y116.441 E5.60529
G1 X137.784 Y117.366 E5.65665
G1 X137.319 Y118.083 E5.69928
G1 X136.804 Y118.721 E5.74019
G1 X136.144 Y119.382 E5.78679
G1 X135.800 Y119.634 E5.80807
G1 X135.800 Y123.299 E5.99091
G1 X64.201 Y123.299 E9.56300
G1 X64.201 Y119.643 E9.74540
G1 X63.780 Y119.303 E9.77240
G1 X63.202 Y118.725 E9.81318
G1 X62.685 Y118.088 E9.85411
G1 X62.237 Y117.396 E9.89524
G1 X61.870 Y116.673 E9.93569
G1 X61.577 Y115.914 E9.97628
G1 X61.365 Y115.120 E10.01728
G1 X61.219 Y114.194 E10.06405
G1 X61.201 Y104.634 E10.54100
G1 X61.201 Y86.266 E11.45738
G1 X61.295 Y85.307 E11.50546
G1 X61.373 Y84.851 E11.52854
G1 X61.576 Y84.087 E11.56798
G1 X61.870 Y83.326 E11.60868
G1 X62.238 Y82.599 E11.64933
G1 X62.688 Y81.909 E11.69043
G1 X63.202 Y81.275 E11.73115
G1 X63.776 Y80.701 E11.77165
G1 X64.201 Y80.356 E11.79896
G1 X64.201 Y76.700 E11.98135
G0 F9000 X64.601 Y77.100
G1 F1200 X135.400 Y77.100 E15.51353
G1 X135.400 Y80.557 E15.68600
G1 X135.927 Y80.968 E15.71934
G1 X136.507 Y81.547 E15.76023
G1 X136.993 Y82.149 E15.79883
G1 X137.412 Y82.794 E15.83720
G1 X137.767 Y83.489 E15.87614
G1 X138.081 Y84.310 E15.91999
G1 X138.292 Y85.275 E15.96927
G1 X138.382 Y85.799 E15.99580
G1 X138.400 Y88.730 E16.14203
G1 X138.400 Y113.611 E17.38335
G1 X138.366 Y114.270 E17.41627
G1 X138.229 Y115.137 E17.46006
G1 X137.863 Y116.292 E17.52051
G1 X137.435 Y117.168 E17.56915
G1 X136.995 Y117.848 E17.60956
G1 X136.507 Y118.453 E17.64834
G1 X135.882 Y119.077 E17.69240
G1 X135.400 Y119.431 E17.72223
G1 X135.400 Y122.899 E17.89525
G1 X64.601 Y122.899 E21.42743
G1 X64.601 Y119.452 E21.59940
G1 X64.048 Y119.006 E21.63485
G1 X63.499 Y118.457 E21.67358
G1 X63.009 Y117.853 E21.71238
G1 X62.584 Y117.196 E21.75142
G1 X62.236 Y116.510 E21.78980
G1 X61.958 Y115.790 E21.82830
G1 X61.757 Y115.037 E21.86719
G1 X61.619 Y114.163 E21.91133
G1 X61.601 Y104.634 E22.38673
G1 X61.601 Y86.286 E23.30212
G1 X61.691 Y85.361 E23.34849
G1 X61.764 Y84.937 E23.36995
G1 X61.957 Y84.211 E23.40743
G1 X62.236 Y83.489 E23.44605
G1 X62.586 Y82.799 E23.48465
G1 X63.011 Y82.144 E23.52360
G1 X63.499 Y81.543 E23.56222
G1 X64.044 Y80.998 E23.60068
G1 X64.601 Y80.546 E23.63646
G1 X64.601 Y77.100 E23.80839
G0 F9000 X65.001 Y77.500
G1 F1200 X135.000 Y77.500 E27.30065
G1 X135.000 Y80.752 E27.46289
G1 X135.662 Y81.268 E27.50477
G1 X136.209 Y81.815 E27.54336
G1 X136.668 Y82.384 E27.57983
G1 X137.065 Y82.995 E27.61619
G1 X137.401 Y83.652 E27.65300
G1 X137.696 Y84.425 E27.69428
G1 X137.899 Y85.351 E27.74158
G1 X137.982 Y85.834 E27.76603
G1 X138.000 Y88.731 E27.91056
G1 X138.000 Y113.601 E29.15133
G1 X137.968 Y114.228 E29.18265
G1 X137.839 Y115.045 E29.22392
G1 X137.491 Y116.143 E29.28138
G1 X137.086 Y116.971 E29.32737
G1 X136.671 Y117.613 E29.36551
G1 X136.209 Y118.185 E29.40219
G1 X135.621 Y118.773 E29.44368
G1 X135.000 Y119.228 E29.48208
G1 X135.000 Y122.499 E29.64527
G1 X65.001 Y122.499 E33.13754
G1 X65.001 Y119.242 E33.30003
G1 X64.885 Y119.167 E33.30692
G1 X64.316 Y118.708 E33.34340
G1 X63.797 Y118.189 E33.38001
G1 X63.333 Y117.617 E33.41676
G1 X62.931 Y116.996 E33.45367
G1 X62.602 Y116.347 E33.48997
G1 X62.339 Y115.666 E33.52639
G1 X62.149 Y114.954 E33.56315
G1 X62.019 Y114.131 E33.60472
G1 X62.001 Y104.634 E34.07853
G1 X62.001 Y86.305 E34.99297
G1 X62.088 Y85.414 E35.03763
G1 X62.155 Y85.022 E35.05747
G1 X62.338 Y84.335 E35.09294
G1 X62.602 Y83.652 E35.12947
G1 X62.933 Y82.999 E35.16600
G1 X63.335 Y82.380 E35.20282
G1 X63.797 Y81.811 E35.23939
G1 X64.312 Y81.296 E35.27572
G1 X64.881 Y80.834 E35.31229
G1 X65.001 Y80.756 E35.31943
G1 X65.001 Y77.500 E35.48187
G0 F9000 X65.401 Y77.900
G1 F1200 X134.600 Y77.900 E38.93423
G1 X134.600 Y80.971 E39.08744
G1 X134.708 Y81.032 E39.09363
G1 X135.397 Y81.568 E39.13718
G1 X135.911 Y82.083 E39.17348
G1 X136.344 Y82.619 E39.20785
G1 X136.719 Y83.195 E39.24215
G1 X137.035 Y83.814 E39.27682
G1 X137.312 Y84.540 E39.31559
G1 X137.506 Y85.428 E39.36093
G1 X137.582 Y85.869 E39.38326
G1 X137.600 Y88.733 E39.52615
G1 X137.600 Y113.591 E40.76632
G1 X137.570 Y114.187 E40.79609
G1 X137.449 Y114.953 E40.83478
G1 X137.118 Y115.994 E40.88928
G1 X136.738 Y116.774 E40.93256
G1 X136.346 Y117.378 E40.96849
G1 X135.911 Y117.917 E41.00304
G1 X135.360 Y118.468 E41.04192
G1 X134.600 Y119.026 E41.08896
G1 X134.600 Y122.099 E41.24227
G1 X65.401 Y122.099 E44.69462
G1 X65.401 Y119.026 E44.84794
G1 X65.120 Y118.843 E44.86467
G1 X64.584 Y118.410 E44.89904
G1 X64.094 Y117.920 E44.93362
G1 X63.657 Y117.382 E44.96819
G1 X63.278 Y116.797 E45.00297
G1 X62.968 Y116.185 E45.03720
G1 X62.720 Y115.542 E45.07158
G1 X62.541 Y114.871 E45.10623
G1 X62.419 Y114.099 E45.14522
G1 X62.401 Y104.633 E45.61748
G1 X62.401 Y86.325 E46.53087
G1 X62.485 Y85.467 E46.57388
G1 X62.546 Y85.108 E46.59205
G1 X62.719 Y84.459 E46.62556
G1 X62.968 Y83.814 E46.66005
G1 X63.280 Y83.200 E46.69441
G1 X63.659 Y82.616 E46.72915
G1 X64.094 Y82.080 E46.76359
G1 X64.581 Y81.593 E46.79795
G1 X65.117 Y81.158 E46.83239
G1 X65.401 Y80.974 E46.84927
G1 X65.401 Y77.900 E47.00263
G0 F9000 X65.801 Y78.300
G1 F1200 X134.200 Y78.300 E50.41507
G1 X134.200 Y81.203 E50.55990
G1 X134.486 Y81.365 E50.57630
G1 X135.131 Y81.869 E50.61714
G1 X135.613 Y82.350 E50.65111
G1 X136.020 Y82.855 E50.68347
G1 X136.372 Y83.396 E50.71567
G1 X136.669 Y83.977 E50.74822
G1 X136.928 Y84.655 E50.78443
G1 X137.114 Y85.504 E50.82780
G1 X137.182 Y85.905 E50.84809
G1 X137.200 Y88.734 E50.98923
G1 X137.200 Y113.580 E52.22880
G1 X137.171 Y114.145 E52.25703
G1 X137.058 Y114.860 E52.29314
G1 X136.746 Y115.845 E52.34469
G1 X136.389 Y116.577 E52.38532
G1 X136.022 Y117.143 E52.41897
G1 X135.613 Y117.650 E52.45147
G1 X135.098 Y118.164 E52.48777
G1 X134.271 Y118.772 E52.53898
G1 X134.200 Y118.810 E52.54300
G1 X134.200 Y121.699 E52.68713
G1 X65.801 Y121.699 E56.09957
G1 X65.801 Y118.808 E56.24381
G1 X65.356 Y118.519 E56.27028
G1 X64.851 Y118.112 E56.30264
G1 X64.392 Y117.652 E56.33506
G1 X63.981 Y117.146 E56.36758
G1 X63.625 Y116.597 E56.40022
G1 X63.334 Y116.022 E56.43238
G1 X63.101 Y115.418 E56.46467
G1 X62.932 Y114.788 E56.49722
G1 X62.818 Y114.067 E56.53363
G1 X62.801 Y104.633 E57.00430
G1 X62.801 Y86.344 E57.91674
G1 X62.881 Y85.521 E57.95799
G1 X62.938 Y85.193 E57.97460
G1 X63.100 Y84.582 E58.00614
G1 X63.334 Y83.977 E58.03850
G1 X63.627 Y83.400 E58.07079
G1 X63.983 Y82.851 E58.10343
G1 X64.392 Y82.348 E58.13578
G1 X64.849 Y81.891 E58.16802
G1 X65.352 Y81.482 E58.20036
G1 X65.801 Y81.191 E58.22706
G1 X65.801 Y78.300 E58.37129
G1 F2400 E53.87129
G0 F9000 X70.001 Y82.500
;TYPE:WALL-INNER
G1 F2400 E58.37129
G1 F1200 X130.000 Y82.500 E61.36465
G1 X130.000 Y84.407 E61.45979
G1 X131.412 Y84.545 E61.53057
G1 X131.615 Y84.599 E61.54105
G1 X131.792 Y84.667 E61.55051
G1 X132.145 Y84.867 E61.57075
G1 X132.348 Y85.025 E61.58359
G1 X132.486 Y85.163 E61.59332
G1 X132.618 Y85.327 E61.60383
G1 X132.727 Y85.495 E61.61382
G1 X132.892 Y85.858 E61.63371
G1 X132.985 Y86.283 E61.65542
G1 X133.000 Y88.744 E61.77820
G1 X133.000 Y113.468 E63.01168
G1 X132.988 Y113.710 E63.02377
G1 X132.958 Y113.896 E63.03317
G1 X132.838 Y114.276 E63.05305
G1 X132.724 Y114.510 E63.06604
G1 X132.616 Y114.676 E63.07592
G1 X132.356 Y114.967 E63.09539
G1 X132.027 Y115.209 E63.11576
G1 X131.801 Y115.330 E63.12855
G1 X131.641 Y115.391 E63.13710
G1 X131.490 Y115.424 E63.14481
G1 X131.490 Y110.124 E63.40923
G1 X126.618 Y110.124 E63.65229
G1 X126.618 Y108.930 E63.71186
G1 X126.579 Y107.850 E63.76578
G1 X126.464 Y106.847 E63.81614
G1 X131.490 Y106.847 E64.06689
G1 X131.490 Y101.182 E64.34952
G1 X125.397 Y101.182 E64.65350
G1 X125.397 Y103.814 E64.78481
G1 X125.308 Y103.658 E64.79377
G1 X124.866 Y103.065 E64.83067
G1 X124.378 Y102.552 E64.86600
G1 X123.848 Y102.118 E64.90017
G1 X123.291 Y101.763 E64.93312
G1 X122.716 Y101.479 E64.96512
G1 X122.129 Y101.260 E64.99638
G1 X121.541 Y101.103 E65.02674
G1 X120.956 Y100.998 E65.05639
G1 X120.381 Y100.940 E65.08522
G1 X119.817 Y100.921 E65.11338
G1 X119.242 Y100.944 E65.14209
G1 X118.644 Y101.016 E65.17214
G1 X118.035 Y101.136 E65.20311
G1 X117.420 Y101.310 E65.23499
G1 X116.807 Y101.539 E65.26764
G1 X116.199 Y101.828 E65.30123
G1 X115.607 Y102.180 E65.33559
G1 X115.406 Y102.329 E65.34807
G1 X114.888 Y101.188 E65.41059
G1 X109.682 Y101.188 E65.67031
G1 X107.224 Y104.133 E65.86169
G1 X107.224 Y96.292 E66.25288
G1 X101.425 Y96.292 E66.54219
G1 X101.425 Y103.640 E66.90879
G1 X101.319 Y103.387 E66.92247
G1 X100.663 Y102.488 E66.97800
G1 X99.795 Y101.784 E67.03375
G1 X98.748 Y101.295 E67.09140
G1 X97.548 Y101.015 E67.15288
G1 X96.946 Y100.976 E67.18298
G1 X96.213 Y100.926 E67.21963
G1 X94.987 Y100.981 E67.28086
G1 X93.879 Y101.135 E67.33667
G1 X92.873 Y101.379 E67.38831
G1 X91.966 Y101.697 E67.43626
G1 X91.152 Y102.076 E67.48106
G1 X90.430 Y102.504 E67.52294
G1 X89.793 Y102.960 E67.56202
G1 X89.371 Y103.316 E67.58956
G1 X89.371 Y96.292 E67.93999
G1 X82.414 Y96.292 E68.28708
G1 X79.472 Y106.681 E68.82577
G1 X76.320 Y96.292 E69.36741
G1 X69.491 Y96.292 E69.70811
G1 X69.491 Y115.523 E70.66755
G1 X68.792 Y115.487 E70.70247
G1 X68.605 Y115.457 E70.71192
G1 X68.224 Y115.337 E70.73185
G1 X67.989 Y115.222 E70.74490
G1 X67.828 Y115.117 E70.75449
G1 X67.664 Y114.985 E70.76499
G1 X67.519 Y114.840 E70.77522
G1 X67.271 Y114.500 E70.79622
G1 X67.176 Y114.312 E70.80673
G1 X67.100 Y114.114 E70.81731
G1 X67.047 Y113.919 E70.82739
G1 X67.018 Y113.732 E70.83683
G1 X67.001 Y104.630 E71.29093
G1 X67.001 Y86.546 E72.19314
G1 X67.047 Y86.082 E72.21641
G1 X67.099 Y85.886 E72.22652
G1 X67.272 Y85.497 E72.24776
G1 X67.380 Y85.331 E72.25764
G1 X67.661 Y85.018 E72.27863
G1 X67.832 Y84.879 E72.28962
G1 X67.998 Y84.771 E72.29950
G1 X68.387 Y84.598 E72.32074
G1 X68.792 Y84.513 E72.34139
G1 X70.001 Y84.447 E72.40180
G1 X70.001 Y82.500 E72.49893
G0 F9000 X69.950 Y115.326
G0 X74.485 Y115.326
G0 X74.944 Y109.802
G1 F1200 X76.883 Y115.791 E72.81300
G1 X81.742 Y115.791 E73.05541
G1 X83.660 Y109.920 E73.36355
G1 X83.660 Y115.791 E73.65646
G1 X89.371 Y115.791 E73.94138
G1 X89.371 Y114.400 E74.01078
G1 X89.764 Y114.831 E74.03988
G1 X90.462 Y115.335 E74.08283
G1 X91.242 Y115.694 E74.12567
G1 X92.080 Y115.910 E74.16884
G1 X92.971 Y115.985 E74.21345
G1 X93.636 Y115.918 E74.24680
G1 X94.491 Y115.829 E74.28968
G1 X95.100 Y115.621 E74.32179
G1 X95.861 Y115.361 E74.36191
G1 X96.635 Y114.877 E74.40745
G1 X96.855 Y115.797 E74.45465
G1 X102.778 Y115.797 E74.75015
G1 X107.230 Y115.791 E74.97226
G1 X107.230 Y111.765 E75.17312
G1 X107.566 Y111.387 E75.19835
G1 X109.959 Y115.791 E75.44841
G1 X116.173 Y115.791 E75.75842
G1 X115.744 Y115.013 E75.80275
G1 X115.963 Y115.145 E75.81550
G1 X116.584 Y115.437 E75.84974
G1 X117.229 Y115.668 E75.88392
G1 X117.887 Y115.841 E75.91786
G1 X118.559 Y115.960 E75.95191
G1 X119.237 Y116.028 E75.98591
G1 X119.940 Y116.052 E76.02100
G1 X121.658 Y115.922 E76.10696
G1 X123.268 Y115.521 E76.18973
G1 X124.738 Y114.852 E76.27031
G1 X125.397 Y114.386 E76.31058
G1 X125.397 Y115.791 E76.38067
G1 X130.000 Y115.791 E76.61032
G1 X130.000 Y117.499 E76.69553
G1 X70.001 Y117.499 E79.68889
G1 X70.001 Y115.785 E79.77440
G1 X74.944 Y115.785 E80.02101
G1 X74.944 Y109.802 E80.31950
G0 F9000 X77.202 Y115.352
G0 X81.424 Y115.352
G0 X88.912 Y115.332
G0 X88.969 Y108.625
G0 X89.371 Y108.592
G1 F1200 X89.371 Y105.130 E80.49222
G1 X90.926 Y107.231 E80.62263
G1 X90.746 Y107.322 E80.63269
G1 X89.715 Y108.139 E80.69832
G1 X89.371 Y108.592 E80.72670
G0 F9000 X94.510 Y105.997
G1 F1200 X94.035 Y106.093 E80.75088
G1 X94.693 Y105.893 E80.78519
G1 X95.641 Y105.798 E80.83272
G1 X95.652 Y105.799 E80.83327
G1 X95.272 Y105.843 E80.85236
G1 X94.510 Y105.997 E80.89114
G1 F2400 E76.39114
G0 F9000 X111.342 Y107.024
G1 F2400 E80.89114
G1 F1200 X113.306 Y104.779 E81.03996
G1 X113.196 Y104.984 E81.05156
G1 X112.891 Y105.760 E81.09316
G1 X112.667 Y106.605 E81.13677
G1 X112.528 Y107.517 E81.18280
G1 X112.480 Y108.494 E81.23160
G1 X112.507 Y109.139 E81.26381
G1 X111.342 Y107.024 E81.38427
G1 F2400 E76.88427
G0 F9000 X118.686 Y110.762
G1 F2400 E81.38427
G1 F1200 X118.547 Y110.514 E81.39846
G1 X122.785 Y110.514 E81.60989
G1 X122.657 Y110.612 E81.61794
G1 X121.912 Y111.015 E81.66019
G1 X121.076 Y111.292 E81.70413
G1 X120.181 Y111.396 E81.74908
G1 X119.771 Y111.368 E81.76959
G1 X119.415 Y111.287 E81.78780
G1 X119.124 Y111.161 E81.80362
G1 X118.883 Y110.987 E81.81845
G1 X118.686 Y110.762 E81.83337
G0 F9000 X124.070 Y110.109
G0 X124.886 Y110.514
G1 F1200 X125.397 Y110.514 E81.85887
G1 X125.397 Y111.304 E81.89828
G1 X124.886 Y110.514 E81.94522
G0 F9000 X124.152 Y110.114
G1 F1200 X126.218 Y110.114 E82.04829
G1 X126.218 Y108.937 E82.10701
G1 X126.180 Y107.880 E82.15978
G1 X126.068 Y106.907 E82.20864
G1 X125.974 Y106.447 E82.23207
G1 X131.090 Y106.447 E82.48731
G1 X131.090 Y101.582 E82.73002
G1 X125.797 Y101.582 E82.99409
G1 X125.797 Y105.728 E83.20094
G1 X125.642 Y105.226 E83.22715
G1 X125.336 Y104.512 E83.26590
G1 X124.973 Y103.877 E83.30239
G1 X124.560 Y103.324 E83.33683
G1 X124.105 Y102.845 E83.36979
G1 X123.613 Y102.442 E83.40152
G1 X123.094 Y102.112 E83.43220
G1 X122.557 Y101.846 E83.46210
G1 X122.008 Y101.642 E83.49132
G1 X121.454 Y101.494 E83.51993
G1 X120.900 Y101.394 E83.54801
G1 X120.354 Y101.339 E83.57539
G1 X119.819 Y101.322 E83.60210
G1 X119.273 Y101.343 E83.62936
G1 X118.706 Y101.411 E83.65785
G1 X118.129 Y101.525 E83.68719
G1 X117.545 Y101.690 E83.71747
G1 X116.963 Y101.908 E83.74847
G1 X116.387 Y102.181 E83.78027
G1 X115.828 Y102.514 E83.81273
G1 X115.294 Y102.909 E83.84587
G1 X114.789 Y103.368 E83.87992
G1 X114.328 Y103.895 E83.91485
G1 X113.915 Y104.489 E83.95094
G1 X113.559 Y105.152 E83.98849
G1 X113.272 Y105.885 E84.02776
G1 X113.059 Y106.686 E84.06911
G1 X112.926 Y107.557 E84.11307
G1 X112.880 Y108.495 E84.15992
G1 X112.920 Y109.426 E84.20641
G1 X113.032 Y110.285 E84.24963
G1 X113.216 Y111.079 E84.29030
G1 X113.380 Y111.551 E84.31522
G1 X110.855 Y106.971 E84.57615
G1 X114.950 Y102.292 E84.88636
G1 X114.631 Y101.588 E84.92492
G1 X109.869 Y101.588 E85.16249
G1 X106.824 Y105.237 E85.39960
G1 X106.824 Y96.692 E85.82591
G1 X101.825 Y96.692 E86.07532
G1 X101.825 Y113.989 E86.93827
G1 X101.748 Y113.513 E86.96232
G1 X101.692 Y112.731 E87.00144
G1 X101.673 Y111.719 E87.05194
G1 X101.673 Y106.851 E87.29480
G1 X101.602 Y105.648 E87.35492
G1 X101.374 Y104.551 E87.41082
G1 X100.968 Y103.585 E87.46310
G1 X100.371 Y102.766 E87.51366
G1 X99.581 Y102.126 E87.56439
G1 X98.616 Y101.675 E87.61753
G1 X97.489 Y101.412 E87.67527
G1 X96.919 Y101.375 E87.70376
G1 X96.208 Y101.327 E87.73932
G1 X95.023 Y101.380 E87.79850
G1 X93.954 Y101.529 E87.85234
G1 X92.987 Y101.763 E87.90198
G1 X92.117 Y102.068 E87.94797
G1 X91.339 Y102.431 E87.99081
G1 X90.649 Y102.839 E88.03080
G1 X90.039 Y103.276 E88.06823
G1 X89.090 Y104.078 E88.13022
G1 X91.379 Y107.172 E88.32223
