;Generated from MakePiZeroCaseBase.stl 500c04c48658b6bd37b4677b1d190eaf5f479e50
;Generated with Cura_SteamEngine 15.04
M140 S55.0
M109 T0 S210.0
T0
M190 S55.0

;Basic settings: Layer height: 0.15 Walls: 1.2 Fill: 50
;Print time: ?print_time?
;Filament used: ?filament_amount?m ?filament_weight?g
;Filament cost: ?filament_cost?
;M190 S55 ;Uncomment to add your own bed temperature line
;M109 S210 ;Uncomment to add your own temperature line
G21        ;metric values
G90        ;absolute positioning
M82        ;set extruder to absolute mode
M107       ;start with the fan off
;G28 X0 Y0  ;move X/Y to min endstops
;G28 Z0     ;move Z to min endstops
;G1 Z5.0 F9000 ;move the platform down 15mm
G92 E0                  ;zero the extruded length
G1 F200 E3              ;extrude 3mm of feed stock
G92 E0                  ;zero the extruded length again
G1 F9000
;Put printing message on LCD screen
M117 Printing...

;Layer count: 76
;LAYER:0
M107
G0 F9000 X64.297 Y80.260 Z0.300
;TYPE:SKIRT
G1 F1200 X65.100 Y79.738 E0.04778
G1 X65.827 Y79.369 E0.08846
G1 X66.586 Y79.076 E0.12905
G1 X67.380 Y78.864 E0.17005
G1 X68.247 Y78.727 E0.21384
G1 X69.262 Y78.700 E0.26450
G1 X130.734 Y78.700 E3.33135
G1 X131.741 Y78.725 E3.38160
G1 X132.619 Y78.864 E3.42595
G1 X133.415 Y79.076 E3.46705
G1 X134.174 Y79.369 E3.50764
G1 X134.901 Y79.737 E3.54829
G1 X135.591 Y80.187 E3.58939
G1 X136.321 Y80.779 E3.63628
G1 X137.237 Y81.794 E3.70449
G1 X137.760 Y82.595 E3.75222
G1 X138.131 Y83.326 E3.79311
G1 X138.425 Y84.087 E3.83381
G1 X138.636 Y84.882 E3.87485
G1 X138.783 Y85.808 E3.92163
G1 X138.800 Y112.969 E5.27670
G1 X138.800 Y113.630 E5.30967
G1 X138.763 Y114.320 E5.34415
G1 X138.636 Y115.121 E5.38461
G1 X138.425 Y115.912 E5.42545
G1 X138.131 Y116.676 E5.46629
G1 X137.763 Y117.400 E5.50681
G1 X137.316 Y118.089 E5.54779
G1 X136.796 Y118.730 E5.58896
G1 X136.217 Y119.307 E5.62975
G1 X135.586 Y119.816 E5.67019
G1 X134.906 Y120.258 E5.71065
G1 X134.180 Y120.629 E5.75133
G1 X133.415 Y120.924 E5.79223
G1 X132.620 Y121.136 E5.83328
G1 X131.712 Y121.279 E5.87914
G1 X129.695 Y121.299 E5.97978
G1 X68.879 Y121.299 E9.01390
G1 X68.189 Y121.264 E9.04837
G1 X67.380 Y121.136 E9.08923
G1 X66.586 Y120.924 E9.13023
G1 X65.821 Y120.629 E9.17114
G1 X65.098 Y120.260 E9.21163
G1 X64.417 Y119.818 E9.25214
G1 X63.783 Y119.307 E9.29276
G1 X63.200 Y118.726 E9.33383
G1 X62.682 Y118.084 E9.37498
G1 X62.242 Y117.406 E9.41531
G1 X61.868 Y116.676 E9.45623
G1 X61.577 Y115.912 E9.49701
G1 X61.365 Y115.129 E9.53748
G1 X61.227 Y114.254 E9.58168
G1 X61.201 Y113.274 E9.63059
G1 X61.201 Y86.377 E10.97248
G1 X61.236 Y85.688 E11.00690
G1 X61.365 Y84.874 E11.04802
G1 X61.577 Y84.087 E11.08868
G1 X61.868 Y83.326 E11.12933
G1 X62.242 Y82.594 E11.17034
G1 X62.684 Y81.914 E11.21080
G1 X63.274 Y81.183 E11.25767
G1 X64.297 Y80.260 E11.32641
G0 F9000 X64.542 Y80.578
G1 F1200 X65.300 Y80.085 E11.37152
G1 X65.990 Y79.735 E11.41012
G1 X66.710 Y79.457 E11.44863
G1 X67.463 Y79.256 E11.48751
G1 X68.283 Y79.126 E11.52893
G1 X69.267 Y79.100 E11.57804
G1 X130.729 Y79.100 E14.64439
G1 X131.705 Y79.125 E14.69310
G1 X132.536 Y79.255 E14.73506
G1 X133.291 Y79.457 E14.77406
G1 X134.011 Y79.735 E14.81256
G1 X134.701 Y80.085 E14.85116
G1 X135.356 Y80.510 E14.89012
G1 X136.045 Y81.070 E14.93441
G1 X136.920 Y82.039 E14.99955
G1 X137.414 Y82.796 E15.04465
G1 X137.765 Y83.489 E15.08340
G1 X138.044 Y84.211 E15.12202
G1 X138.244 Y84.965 E15.16094
G1 X138.383 Y85.840 E15.20514
G1 X138.400 Y112.970 E16.55866
G1 X138.400 Y113.619 E16.59104
G1 X138.364 Y114.278 E16.62396
G1 X138.244 Y115.038 E16.66235
G1 X138.044 Y115.788 E16.70108
G1 X137.765 Y116.513 E16.73983
G1 X137.415 Y117.200 E16.77830
G1 X136.992 Y117.854 E16.81716
G1 X136.499 Y118.462 E16.85621
G1 X135.949 Y119.009 E16.89491
G1 X135.351 Y119.492 E16.93326
G1 X134.706 Y119.911 E16.97163
G1 X134.017 Y120.263 E17.01023
G1 X133.291 Y120.543 E17.04905
G1 X132.537 Y120.744 E17.08798
G1 X131.679 Y120.880 E17.13132
G1 X129.693 Y120.899 E17.23041
G1 X68.889 Y120.899 E20.26393
G1 X68.230 Y120.865 E20.29686
G1 X67.463 Y120.744 E20.33559
G1 X66.710 Y120.543 E20.37448
G1 X65.984 Y120.263 E20.41330
G1 X65.299 Y119.913 E20.45168
G1 X64.652 Y119.494 E20.49013
G1 X64.051 Y119.009 E20.52866
G1 X63.498 Y118.458 E20.56761
G1 X63.006 Y117.849 E20.60667
G1 X62.589 Y117.205 E20.64494
G1 X62.234 Y116.513 E20.68375
G1 X61.958 Y115.788 E20.72245
G1 X61.757 Y115.045 E20.76085
G1 X61.626 Y114.217 E20.80267
G1 X61.601 Y113.268 E20.85003
G1 X61.601 Y86.388 E22.19108
G1 X61.635 Y85.730 E22.22396
G1 X61.757 Y84.958 E22.26295
G1 X61.958 Y84.211 E22.30154
G1 X62.234 Y83.489 E22.34010
G1 X62.589 Y82.794 E22.37904
G1 X63.008 Y82.149 E22.41741
G1 X63.566 Y81.459 E22.46168
G1 X64.542 Y80.578 E22.52728
G0 F9000 X64.786 Y80.896
G1 F1200 X65.500 Y80.432 E22.56976
G1 X66.153 Y80.101 E22.60629
G1 X66.834 Y79.838 E22.64271
G1 X67.546 Y79.648 E22.67947
G1 X68.320 Y79.525 E22.71857
G1 X69.273 Y79.500 E22.76614
G1 X130.724 Y79.500 E25.83194
G1 X131.669 Y79.524 E25.87910
G1 X132.453 Y79.647 E25.91869
G1 X133.167 Y79.838 E25.95557
G1 X133.848 Y80.101 E25.99199
G1 X134.501 Y80.432 E26.02851
G1 X135.120 Y80.834 E26.06533
G1 X135.769 Y81.361 E26.10704
G1 X136.602 Y82.284 E26.16907
G1 X137.067 Y82.996 E26.21150
G1 X137.399 Y83.652 E26.24818
G1 X137.663 Y84.335 E26.28471
G1 X137.853 Y85.048 E26.32153
G1 X137.983 Y85.872 E26.36314
G1 X138.000 Y112.970 E27.71507
G1 X138.000 Y113.608 E27.74690
G1 X137.966 Y114.235 E27.77823
G1 X137.852 Y114.955 E27.81459
G1 X137.663 Y115.665 E27.85125
G1 X137.399 Y116.350 E27.88787
G1 X137.068 Y117.000 E27.92427
G1 X136.668 Y117.618 E27.96099
G1 X136.201 Y118.193 E27.99795
G1 X135.682 Y118.711 E28.03453
G1 X135.116 Y119.167 E28.07079
G1 X134.505 Y119.564 E28.10715
G1 X133.854 Y119.897 E28.14363
G1 X133.167 Y120.162 E28.18036
G1 X132.454 Y120.353 E28.21719
G1 X131.646 Y120.480 E28.25800
G1 X129.691 Y120.499 E28.35554
G1 X68.899 Y120.499 E31.38846
G1 X68.272 Y120.467 E31.41978
G1 X67.546 Y120.352 E31.45645
G1 X66.834 Y120.162 E31.49322
G1 X66.147 Y119.897 E31.52995
G1 X65.499 Y119.566 E31.56626
G1 X64.887 Y119.170 E31.60262
G1 X64.318 Y118.711 E31.63910
G1 X63.795 Y118.190 E31.67593
G1 X63.330 Y117.614 E31.71286
G1 X62.936 Y117.005 E31.74905
G1 X62.600 Y116.350 E31.78577
G1 X62.339 Y115.665 E31.82234
G1 X62.149 Y114.961 E31.85872
G1 X62.025 Y114.181 E31.89813
G1 X62.001 Y113.263 E31.94394
G1 X62.001 Y86.398 E33.28424
G1 X62.033 Y85.771 E33.31556
G1 X62.148 Y85.042 E33.35238
G1 X62.339 Y84.335 E33.38892
G1 X62.600 Y83.652 E33.42540
G1 X62.936 Y82.995 E33.46221
G1 X63.333 Y82.384 E33.49857
G1 X63.857 Y81.735 E33.54018
G1 X64.786 Y80.896 E33.60263
G0 F9000 X65.031 Y81.214
G1 F1200 X65.700 Y80.779 E33.64245
G1 X66.315 Y80.467 E33.67685
G1 X66.958 Y80.219 E33.71123
G1 X67.629 Y80.040 E33.74588
G1 X68.357 Y79.925 E33.78265
G1 X69.278 Y79.900 E33.82862
G1 X130.718 Y79.900 E36.89387
G1 X131.632 Y79.923 E36.93948
G1 X132.371 Y80.039 E36.97681
G1 X133.043 Y80.219 E37.01151
G1 X133.686 Y80.467 E37.04590
G1 X134.300 Y80.779 E37.08026
G1 X134.884 Y81.158 E37.11499
G1 X135.492 Y81.652 E37.15407
G1 X136.284 Y82.529 E37.21303
G1 X136.720 Y83.196 E37.25278
G1 X137.033 Y83.814 E37.28735
G1 X137.282 Y84.459 E37.32184
G1 X137.461 Y85.131 E37.35653
G1 X137.583 Y85.903 E37.39553
G1 X137.600 Y112.970 E38.74591
G1 X137.600 Y113.597 E38.77719
G1 X137.568 Y114.193 E38.80696
G1 X137.460 Y114.872 E38.84127
G1 X137.282 Y115.541 E38.87580
G1 X137.033 Y116.187 E38.91034
G1 X136.721 Y116.800 E38.94466
G1 X136.344 Y117.383 E38.97930
G1 X135.904 Y117.925 E39.01413
G1 X135.414 Y118.412 E39.04859
G1 X134.881 Y118.843 E39.08279
G1 X134.305 Y119.218 E39.11708
G1 X133.690 Y119.531 E39.15151
G1 X133.043 Y119.781 E39.18611
G1 X132.371 Y119.961 E39.22082
G1 X131.612 Y120.080 E39.25915
G1 X129.690 Y120.099 E39.35504
G1 X68.909 Y120.099 E42.38742
G1 X68.313 Y120.069 E42.41719
G1 X67.629 Y119.960 E42.45175
G1 X66.958 Y119.781 E42.48640
G1 X66.311 Y119.531 E42.52100
G1 X65.699 Y119.219 E42.55527
G1 X65.122 Y118.845 E42.58958
G1 X64.586 Y118.412 E42.62395
G1 X64.093 Y117.921 E42.65867
G1 X63.655 Y117.379 E42.69343
G1 X63.282 Y116.804 E42.72763
G1 X62.966 Y116.187 E42.76221
G1 X62.720 Y115.541 E42.79670
G1 X62.540 Y114.877 E42.83102
G1 X62.424 Y114.144 E42.86805
G1 X62.401 Y113.258 E42.91226
G1 X62.401 Y86.408 E44.25182
G1 X62.431 Y85.813 E44.28154
G1 X62.540 Y85.125 E44.31629
G1 X62.720 Y84.459 E44.35071
G1 X62.966 Y83.814 E44.38515
G1 X63.282 Y83.195 E44.41982
G1 X63.657 Y82.619 E44.45411
G1 X64.148 Y82.011 E44.49310
G1 X65.031 Y81.214 E44.55245
G0 F9000 X65.275 Y81.532
G1 F1200 X65.900 Y81.126 E44.58963
G1 X66.478 Y80.833 E44.62196
G1 X67.082 Y80.600 E44.65426
G1 X67.712 Y80.431 E44.68680
G1 X68.393 Y80.324 E44.72119
G1 X69.283 Y80.300 E44.76561
G1 X130.713 Y80.300 E47.83036
G1 X131.596 Y80.322 E47.87443
G1 X132.288 Y80.431 E47.90938
G1 X132.919 Y80.600 E47.94197
G1 X133.523 Y80.833 E47.97427
G1 X134.100 Y81.126 E48.00656
G1 X134.649 Y81.482 E48.03920
G1 X135.216 Y81.943 E48.07566
G1 X135.966 Y82.773 E48.13147
G1 X136.373 Y83.397 E48.16864
G1 X136.667 Y83.977 E48.20108
G1 X136.901 Y84.582 E48.23344
G1 X137.069 Y85.213 E48.26602
G1 X137.183 Y85.935 E48.30248
G1 X137.200 Y112.970 E49.65127
G1 X137.200 Y113.587 E49.68205
G1 X137.169 Y114.151 E49.71023
G1 X137.069 Y114.789 E49.74245
G1 X136.901 Y115.417 E49.77488
G1 X136.667 Y116.024 E49.80734
G1 X136.374 Y116.600 E49.83958
G1 X136.020 Y117.147 E49.87208
G1 X135.607 Y117.656 E49.90478
G1 X135.147 Y118.114 E49.93717
G1 X134.645 Y118.519 E49.96935
G1 X134.104 Y118.871 E50.00155
G1 X133.527 Y119.166 E50.03388
G1 X132.919 Y119.400 E50.06638
G1 X132.288 Y119.569 E50.09897
G1 X131.579 Y119.681 E50.13478
G1 X129.688 Y119.699 E50.22913
G1 X68.920 Y119.699 E53.26086
G1 X68.355 Y119.670 E53.28908
G1 X67.712 Y119.569 E53.32156
G1 X67.082 Y119.400 E53.35410
G1 X66.474 Y119.166 E53.38660
G1 X65.899 Y118.872 E53.41882
G1 X65.357 Y118.521 E53.45104
G1 X64.853 Y118.114 E53.48335
G1 X64.390 Y117.653 E53.51595
G1 X63.979 Y117.144 E53.54859
G1 X63.629 Y116.604 E53.58070
G1 X63.332 Y116.024 E53.61320
G1 X63.101 Y115.417 E53.64561
G1 X62.932 Y114.794 E53.67781
G1 X62.824 Y114.107 E53.71251
G1 X62.801 Y113.252 E53.75518
G1 X62.801 Y86.418 E55.09393
G1 X62.830 Y85.855 E55.12206
G1 X62.932 Y85.209 E55.15469
G1 X63.101 Y84.582 E55.18708
G1 X63.332 Y83.977 E55.21939
G1 X63.629 Y83.396 E55.25195
G1 X63.981 Y82.855 E55.28415
G1 X64.440 Y82.286 E55.32062
G1 X65.275 Y81.532 E55.37675
G1 F2400 E50.87675
G0 F9000 X67.998 Y84.771
;TYPE:WALL-INNER
G1 F2400 E55.37675
G1 F1200 X68.188 Y84.675 E55.38737
G1 X68.386 Y84.599 E55.39795
G1 X68.581 Y84.546 E55.40803
G1 X68.778 Y84.515 E55.41798
G1 X69.353 Y84.500 E55.44668
G1 X130.648 Y84.500 E58.50470
G1 X131.217 Y84.514 E58.53309
G1 X131.419 Y84.546 E58.54330
G1 X131.615 Y84.599 E58.55343
G1 X131.813 Y84.675 E58.56401
G1 X132.003 Y84.771 E58.57463
G1 X132.169 Y84.879 E58.58451
G1 X132.318 Y85.000 E58.59408
G1 X132.628 Y85.343 E58.61715
G1 X132.730 Y85.500 E58.62649
G1 X132.902 Y85.886 E58.64757
G1 X132.953 Y86.078 E58.65749
G1 X132.983 Y86.267 E58.66703
G1 X133.000 Y113.465 E60.02395
G1 X132.987 Y113.711 E60.03624
G1 X132.954 Y113.920 E60.04679
G1 X132.900 Y114.119 E60.05708
G1 X132.827 Y114.311 E60.06733
G1 X132.619 Y114.672 E60.08811
G1 X132.487 Y114.835 E60.09858
G1 X132.333 Y114.988 E60.10941
G1 X132.173 Y115.117 E60.11966
G1 X132.005 Y115.226 E60.12965
G1 X131.808 Y115.327 E60.14070
G1 X131.615 Y115.401 E60.15101
G1 X131.420 Y115.454 E60.16109
G1 X131.229 Y115.484 E60.17074
G1 X129.662 Y115.499 E60.24892
G1 X69.032 Y115.499 E63.27376
G1 X68.790 Y115.487 E63.28585
G1 X68.581 Y115.454 E63.29641
G1 X68.386 Y115.401 E63.30649
G1 X68.193 Y115.327 E63.31680
G1 X67.997 Y115.227 E63.32778
G1 X67.824 Y115.115 E63.33806
G1 X67.511 Y114.832 E63.35911
G1 X67.385 Y114.677 E63.36908
G1 X67.270 Y114.500 E63.37961
G1 X67.173 Y114.310 E63.39025
G1 X67.100 Y114.119 E63.40045
G1 X67.046 Y113.920 E63.41074
G1 X67.015 Y113.723 E63.42069
G1 X67.001 Y113.184 E63.44759
G1 X67.001 Y86.531 E64.77731
G1 X67.013 Y86.290 E64.78935
G1 X67.098 Y85.887 E64.80990
G1 X67.274 Y85.495 E64.83134
G1 X67.383 Y85.327 E64.84133
G1 X67.500 Y85.182 E64.85062
G1 X67.844 Y84.872 E64.87373
G1 X67.998 Y84.771 E64.88291
G0 F9000 X67.803 Y84.421
G1 F1200 X68.021 Y84.311 E64.89510
G1 X68.259 Y84.219 E64.90783
G1 X68.744 Y84.116 E64.93256
G1 X69.342 Y84.100 E64.96241
G1 X130.658 Y84.100 E68.02148
G1 X131.251 Y84.115 E68.05107
G1 X131.499 Y84.154 E68.06360
G1 X131.742 Y84.219 E68.07614
G1 X131.980 Y84.311 E68.08887
G1 X132.198 Y84.421 E68.10106
G1 X132.409 Y84.558 E68.11361
G1 X132.594 Y84.709 E68.12552
G1 X132.947 Y85.099 E68.15177
G1 X133.078 Y85.300 E68.16374
G1 X133.189 Y85.520 E68.17603
G1 X133.282 Y85.760 E68.18887
G1 X133.345 Y85.999 E68.20120
G1 X133.383 Y86.237 E68.21323
G1 X133.400 Y113.487 E69.57273
G1 X133.386 Y113.745 E69.58562
G1 X133.346 Y114.000 E69.59850
G1 X133.280 Y114.246 E69.61121
G1 X133.192 Y114.474 E69.62340
G1 X133.078 Y114.699 E69.63599
G1 X132.940 Y114.912 E69.64865
G1 X132.781 Y115.108 E69.66124
G1 X132.610 Y115.278 E69.67327
G1 X132.198 Y115.578 E69.69870
G1 X131.742 Y115.781 E69.72360
G1 X131.262 Y115.883 E69.74808
G1 X129.666 Y115.899 E69.82771
G1 X69.012 Y115.899 E72.85375
G1 X68.755 Y115.886 E72.86659
G1 X68.501 Y115.846 E72.87942
G1 X68.022 Y115.690 E72.90455
G1 X67.806 Y115.579 E72.91666
G1 X67.589 Y115.439 E72.92955
G1 X67.390 Y115.278 E72.94232
G1 X67.221 Y115.110 E72.95421
G1 X67.061 Y114.912 E72.96691
G1 X66.923 Y114.699 E72.97957
G1 X66.810 Y114.478 E72.99195
G1 X66.655 Y114.003 E73.01688
G1 X66.616 Y113.757 E73.02931
G1 X66.601 Y113.210 E73.05661
G1 X66.601 Y86.511 E74.38863
G1 X66.614 Y86.255 E74.40141
G1 X66.655 Y85.995 E74.41455
G1 X66.719 Y85.757 E74.42684
G1 X66.808 Y85.526 E74.43919
G1 X66.922 Y85.302 E74.45173
G1 X67.059 Y85.092 E74.46424
G1 X67.210 Y84.904 E74.47627
G1 X67.597 Y84.555 E74.50227
G1 X67.803 Y84.421 E74.51453
G0 F9000 X67.607 Y84.072
;TYPE:WALL-OUTER
G1 F1200 X68.140 Y83.836 E74.54361
G1 X68.414 Y83.763 E74.55776
G1 X68.708 Y83.717 E74.57260
G1 X69.331 Y83.700 E74.60370
G1 X130.668 Y83.700 E77.66381
G1 X131.285 Y83.716 E77.69461
G1 X131.587 Y83.763 E77.70985
G1 X131.861 Y83.836 E77.72400
G1 X132.394 Y84.072 E77.75308
G1 X132.649 Y84.238 E77.76826
G1 X132.870 Y84.417 E77.78245
G1 X133.265 Y84.855 E77.81188
G1 X133.425 Y85.100 E77.82648
G1 X133.553 Y85.352 E77.84058
G1 X133.666 Y85.645 E77.85624
G1 X133.736 Y85.908 E77.86982
G1 X133.783 Y86.205 E77.88482
G1 X133.800 Y113.489 E79.24603
G1 X133.784 Y113.792 E79.26117
G1 X133.737 Y114.087 E79.27607
G1 X133.664 Y114.361 E79.29022
G1 X133.555 Y114.644 E79.30535
G1 X133.426 Y114.897 E79.31951
G1 X133.262 Y115.150 E79.33456
G1 X133.083 Y115.371 E79.34874
G1 X132.876 Y115.577 E79.36331
G1 X132.643 Y115.765 E79.37825
G1 X132.397 Y115.925 E79.39289
G1 X132.142 Y116.055 E79.40717
G1 X131.861 Y116.164 E79.42221
G1 X131.587 Y116.237 E79.43636
G1 X131.294 Y116.283 E79.45115
G1 X129.670 Y116.299 E79.53218
G1 X69.011 Y116.299 E82.55847
G1 X68.709 Y116.284 E82.57355
G1 X68.414 Y116.237 E82.58846
G1 X68.140 Y116.164 E82.60260
G1 X67.859 Y116.055 E82.61764
G1 X67.604 Y115.925 E82.63192
G1 X67.357 Y115.765 E82.64660
G1 X67.124 Y115.577 E82.66154
G1 X66.923 Y115.377 E82.67569
G1 X66.735 Y115.144 E82.69062
G1 X66.575 Y114.897 E82.70530
G1 X66.443 Y114.640 E82.71972
G1 X66.338 Y114.364 E82.73445
G1 X66.263 Y114.087 E82.74877
G1 X66.217 Y113.793 E82.76361
G1 X66.201 Y113.210 E82.79271
G1 X66.201 Y86.510 E84.12478
G1 X66.216 Y86.209 E84.13981
G1 X66.338 Y85.636 E84.16904
G1 X66.443 Y85.360 E84.18378
G1 X66.575 Y85.103 E84.19819
G1 X66.735 Y84.857 E84.21283
G1 X66.921 Y84.627 E84.22759
G1 X67.351 Y84.238 E84.25652
G1 X67.607 Y84.072 E84.27174
G0 F9000 X68.158 Y84.846
;TYPE:SKIN
G1 F1200 X98.663 Y115.351 E86.42403
G0 F9000 X98.097 Y115.351
G1 F1200 X67.824 Y85.077 E88.55999
G0 F9000 X67.537 Y85.356
G1 F1200 X97.531 Y115.351 E90.67626
G0 F9000 X96.966 Y115.351
G1 F1200 X67.328 Y85.713 E92.76738
G0 F9000 X67.187 Y86.138
G1 F1200 X96.401 Y115.351 E94.82855
G0 F9000 X95.835 Y115.351
G1 F1200 X67.140 Y86.656 E96.85314
