;FLAVOR:Marlin
;TIME:13445
;Filament used: 12.8723m
;Layer height: 0.2
;Generated with Cura_SteamEngine 2.7.0
M190 S60
M104 S220
M109 S220
G21 ;metric values
G90 ;absolute positioning
M82 ;set extruder to absolute mode
M107 ;start with the fan off
G92 E0 ;zero the extruded length
G1 F200 E3 ;extrude 3mm of feed stock
G92 E0 ;zero the extruded length again
G1 F9000
M117 Printing...
;LAYER_COUNT:69
;LAYER:0
M107
M204 S5000
G0 F2400 X59.423 Y33.784 Z0.3
M204 S200
;TYPE:SKIRT
G1 F1200 X58.362 Y37.792 E0.20633
G1 X56.293 Y54.528 E1.04555
G1 X55.558 Y61.069 E1.37311
G1 X56.379 Y59.018 E1.48305
G1 X58.328 Y53.384 E1.77973
G1 X58.545 Y52.878 E1.80713
G1 X58.834 Y52.409 E1.83455
G1 X59.194 Y51.979 E1.86246
G1 X59.74 Y51.418 E1.90142
G1 X60.183 Y51.029 E1.93076
G1 X63.486 Y48.553 E2.13619
G1 X63.949 Y48.255 E2.16359
G1 X64.451 Y48.028 E2.19101
G1 X64.98 Y47.876 E2.2184
G1 X65.525 Y47.802 E2.24577
G1 X66.252 Y47.827 E2.28197
G1 X73.308 Y48.751 E2.63611
G1 X73.847 Y48.862 E2.6635
G1 X74.365 Y49.05 E2.69092
G1 X74.849 Y49.31 E2.71827
G1 X75.291 Y49.639 E2.74569
G1 X75.681 Y50.027 E2.77306
G1 X76.01 Y50.468 E2.80044
G1 X76.182 Y50.766 E2.81757
G1 X77.007 Y52.358 E2.9068
G1 X77.133 Y52.627 E2.92158
G1 X79.054 Y57.175 E3.16728
G1 X80.004 Y59.118 E3.27491
G1 X80.121 Y59.382 E3.28928
G1 X81.423 Y62.656 E3.46463
G1 X83.015 Y66.249 E3.6602
G1 X83.12 Y66.512 E3.67429
G1 X83.807 Y68.439 E3.7761
G1 X85.886 Y73.665 E4.056
G1 X85.946 Y73.825 E4.0645
G1 X87.584 Y78.547 E4.31323
G1 X87.665 Y78.814 E4.32712
G1 X88.422 Y81.657 E4.47353
G1 X88.45 Y81.769 E4.47928
G1 X90.293 Y89.651 E4.88211
G1 X90.309 Y89.719 E4.88559
G1 X92.062 Y97.889 E5.30142
G1 X92.085 Y98.006 E5.30736
G1 X93.292 Y104.646 E5.64321
G1 X93.665 Y106.35 E5.73002
G1 X93.705 Y106.558 E5.74056
G1 X94.769 Y113.148 E6.07277
G1 X95.633 Y117.461 E6.29167
G1 X96.257 Y117.398 E6.32288
G1 X98.964 Y117.398 E6.4576
G1 X98.844 Y116.85 E6.48551
G1 X98.826 Y116.764 E6.48989
G1 X97.126 Y107.997 E6.93431
G1 X95.289 Y99.625 E7.36085
G1 X93.653 Y92.623 E7.7187
G1 X93.076 Y90.545 E7.82602
G1 X93.063 Y90.496 E7.82855
G1 X91.289 Y83.755 E8.17544
G1 X90.842 Y82.365 E8.2481
G1 X90.796 Y82.211 E8.2561
G1 X89.127 Y76.155 E8.56871
G1 X86.77 Y68.646 E8.96038
G1 X84.553 Y62.086 E9.30498
G1 X82.062 Y55.529 E9.65405
G1 X80.266 Y51.299 E9.88274
G1 X80.191 Y51.109 E9.89291
G1 X79.473 Y49.128 E9.99777
G1 X78.13 Y46.157 E10.16003
G1 X78.047 Y45.961 E10.17062
G1 X76.939 Y43.092 E10.32367
G1 X76.058 Y41.244 E10.42556
G1 X75.992 Y41.096 E10.43362
G1 X73.688 Y35.682 E10.72643
G1 X72.78 Y33.784 E10.83114
G1 X59.423 Y33.784 E11.49586
M204 S5000
G0 F2400 X59.116 Y33.385
M204 S200
G1 F1200 X57.969 Y37.715 E11.71878
G1 X55.902 Y54.442 E12.55753
G1 X54.084 Y70.617 E13.36756
G1 X53.893 Y73.137 E13.49333
G1 X54.373 Y69.032 E13.69901
G1 X54.384 Y68.944 E13.70342
G1 X55.193 Y63.313 E13.98653
G1 X55.307 Y62.805 E14.01244
G1 X55.402 Y62.534 E14.02673
G1 X56.748 Y59.17 E14.20704
G1 X58.705 Y53.514 E14.50489
G1 X58.913 Y53.037 E14.53079
G1 X59.191 Y52.597 E14.55669
G1 X59.48 Y52.257 E14.57889
G1 X60.026 Y51.696 E14.61785
G1 X60.422 Y51.348 E14.64409
G1 X63.725 Y48.872 E14.84952
G1 X64.165 Y48.593 E14.87545
G1 X64.641 Y48.384 E14.90132
G1 X65.145 Y48.25 E14.92727
G1 X65.662 Y48.195 E14.95315
G1 X66.2 Y48.223 E14.97996
G1 X73.256 Y49.147 E15.3341
G1 X73.766 Y49.254 E15.36003
G1 X74.253 Y49.437 E15.38592
G1 X74.706 Y49.693 E15.41182
G1 X75.115 Y50.016 E15.43775
G1 X75.469 Y50.397 E15.46363
G1 X75.828 Y50.949 E15.4964
G1 X76.653 Y52.541 E15.58564
G1 X76.766 Y52.782 E15.59888
G1 X78.699 Y57.357 E15.84605
G1 X79.645 Y59.293 E15.95328
G1 X79.75 Y59.529 E15.96614
G1 X81.053 Y62.805 E16.14159
G1 X82.65 Y66.41 E16.33781
G1 X82.744 Y66.646 E16.35045
G1 X83.427 Y68.563 E16.45173
G1 X85.516 Y73.813 E16.73292
G1 X85.569 Y73.955 E16.74046
G1 X87.207 Y78.677 E16.98919
G1 X87.28 Y78.916 E17.00163
G1 X88.037 Y81.759 E17.14804
G1 X88.062 Y81.86 E17.15322
G1 X89.905 Y89.742 E17.55605
G1 X89.919 Y89.802 E17.55912
G1 X91.672 Y97.972 E17.97495
G1 X91.692 Y98.078 E17.98032
G1 X92.899 Y104.72 E18.31628
G1 X93.275 Y106.436 E18.4037
G1 X93.311 Y106.622 E18.41313
G1 X94.375 Y113.212 E18.74533
G1 X95.32 Y117.933 E18.98494
G1 X95.775 Y117.831 E19.00814
G1 X96.257 Y117.797 E19.03219
G1 X99.459 Y117.797 E19.19154
G1 X99.234 Y116.765 E19.2441
G1 X99.218 Y116.688 E19.24801
G1 X97.518 Y107.922 E19.69239
G1 X95.678 Y99.535 E20.1197
G1 X94.04 Y92.523 E20.47805
G1 X93.461 Y90.439 E20.58569
G1 X93.449 Y90.394 E20.588
G1 X91.673 Y83.646 E20.93526
G1 X91.222 Y82.243 E21.0086
G1 X91.181 Y82.105 E21.01576
G1 X89.511 Y76.047 E21.32849
G1 X87.155 Y68.541 E21.71999
G1 X84.929 Y61.951 E22.06615
G1 X82.432 Y55.379 E22.41602
G1 X80.633 Y51.143 E22.64505
G1 X80.566 Y50.973 E22.65415
G1 X79.843 Y48.979 E22.7597
G1 X78.493 Y45.992 E22.92283
G1 X78.42 Y45.817 E22.93226
G1 X77.311 Y42.945 E23.08547
G1 X76.418 Y41.072 E23.18874
G1 X76.359 Y40.94 E23.19593
G1 X74.054 Y35.523 E23.4889
G1 X73.03 Y33.385 E23.60688
G1 X59.116 Y33.385 E24.29931
M204 S5000
G0 F2400 X58.799 Y32.986
M204 S200
G1 F1200 X58.772 Y33.124 E24.30631
G1 X57.577 Y37.635 E24.53855
G1 X55.501 Y54.43 E25.38072
G1 X53.688 Y70.568 E26.18889
G1 X51.558 Y98.694 E27.5926
G1 X51.404 Y101.235 E27.71928
G1 X51.664 Y98.311 E27.86537
G1 X52.062 Y92.285 E28.16591
G1 X52.075 Y92.135 E28.1734
G1 X54.769 Y69.079 E29.3286
G1 X54.779 Y69 E29.33257
G1 X55.588 Y63.369 E29.61567
G1 X55.772 Y62.683 E29.65102
G1 X57.124 Y59.305 E29.83209
G1 X59.082 Y53.645 E30.13014
G1 X59.279 Y53.197 E30.1545
G1 X59.547 Y52.788 E30.17883
G1 X59.766 Y52.535 E30.19548
G1 X60.312 Y51.974 E30.23444
G1 X60.662 Y51.667 E30.25761
G1 X63.965 Y49.191 E30.46304
G1 X64.379 Y48.931 E30.48737
G1 X64.829 Y48.741 E30.51168
G1 X65.305 Y48.628 E30.53603
G1 X65.793 Y48.593 E30.56038
G1 X66.149 Y48.618 E30.57814
G1 X73.205 Y49.542 E30.93228
G1 X73.683 Y49.645 E30.95661
G1 X74.137 Y49.825 E30.98092
G1 X74.557 Y50.075 E31.00524
G1 X74.93 Y50.391 E31.02957
G1 X75.247 Y50.764 E31.05393
G1 X75.473 Y51.133 E31.07546
G1 X76.298 Y52.725 E31.1647
G1 X76.398 Y52.937 E31.17636
G1 X78.329 Y57.509 E31.42335
G1 X79.287 Y59.468 E31.53188
G1 X79.379 Y59.677 E31.54324
G1 X80.676 Y62.938 E31.71789
G1 X82.286 Y66.572 E31.91569
G1 X82.368 Y66.78 E31.92682
G1 X83.052 Y68.701 E32.0283
G1 X85.145 Y73.96 E32.30998
G1 X85.192 Y74.086 E32.31667
G1 X86.83 Y78.808 E32.5654
G1 X86.894 Y79.019 E32.57637
G1 X87.651 Y81.862 E32.72279
G1 X87.673 Y81.951 E32.72735
G1 X89.516 Y89.833 E33.13018
G1 X89.528 Y89.886 E33.13288
G1 X91.281 Y98.056 E33.54872
G1 X91.3 Y98.149 E33.55345
G1 X92.507 Y104.792 E33.88945
G1 X92.886 Y106.521 E33.97754
G1 X92.917 Y106.685 E33.98584
G1 X93.981 Y113.276 E34.3181
G1 X95.021 Y118.469 E34.58166
G1 X95.091 Y118.432 E34.5856
G1 X95.556 Y118.279 E34.60996
G1 X96.257 Y118.196 E34.64509
G1 X99.955 Y118.196 E34.82912
G1 X99.624 Y116.68 E34.90634
G1 X99.61 Y116.612 E34.9098
G1 X97.908 Y107.839 E35.35453
G1 X96.067 Y99.444 E35.78224
G1 X96.066 Y99.444 E35.78229
G1 X94.425 Y92.422 E36.14116
G1 X93.845 Y90.332 E36.2491
G1 X93.835 Y90.293 E36.2511
G1 X92.054 Y83.527 E36.59929
G1 X91.602 Y82.12 E36.67283
G1 X91.566 Y81.999 E36.67911
G1 X89.9 Y75.957 E36.99102
G1 X87.525 Y68.391 E37.38566
G1 X85.304 Y61.816 E37.73103
G1 X82.806 Y55.239 E38.08115
G1 X81 Y50.987 E38.31105
G1 X80.941 Y50.837 E38.31907
G1 X80.212 Y48.825 E38.42557
G1 X78.857 Y45.828 E38.58925
G1 X78.792 Y45.673 E38.59762
G1 X77.677 Y42.786 E38.75163
G1 X76.778 Y40.9 E38.85561
G1 X76.726 Y40.784 E38.86193
G1 X74.416 Y35.355 E39.15555
G1 X73.331 Y33.089 E39.28058
G1 X73.218 Y32.986 E39.28819
G1 X58.799 Y32.986 E40.00576
M204 S5000
G0 F2400 X58.465 Y32.587
M204 S200
G1 F1200 X58.455 Y32.667 E40.00977
G1 X58.386 Y33.022 E40.02777
G1 X57.184 Y37.558 E40.26129
G1 X55.108 Y54.353 E41.10347
G1 X55.109 Y54.353 E41.10352
G1 X53.292 Y70.523 E41.91329
G1 X51.161 Y98.664 E43.31775
G1 X50.65 Y107.067 E43.7367
G1 X50.649 Y107.091 E43.7379
G1 X49.373 Y125.325 E44.64754
G1 X48.961 Y132.64 E45.01215
G1 X48.959 Y132.667 E45.0135
G1 X47.693 Y151.622 E45.9589
G1 X47.77 Y151.789 E45.96805
G1 X47.882 Y152.223 E45.99036
G1 X48.138 Y149.631 E46.11998
G1 X48.58 Y143.232 E46.43919
G1 X48.592 Y143.103 E46.44564
G1 X49.303 Y137.157 E46.74365
G1 X49.731 Y129.551 E47.12276
G1 X49.737 Y129.465 E47.12705
G1 X50.986 Y115.531 E47.82327
G1 X51.758 Y101.77 E48.50917
G1 X51.764 Y101.685 E48.51341
G1 X52.063 Y98.324 E48.68133
G1 X52.46 Y92.311 E48.98122
G1 X52.472 Y92.181 E48.98772
G1 X55.166 Y69.125 E50.14292
G1 X55.174 Y69.057 E50.14632
G1 X55.983 Y63.426 E50.42943
G1 X56.143 Y62.831 E50.46009
G1 X57.501 Y59.439 E50.64192
G1 X59.46 Y53.775 E50.94018
G1 X59.645 Y53.36 E50.96279
G1 X60.052 Y52.814 E50.99668
G1 X60.598 Y52.253 E51.03564
G1 X60.901 Y51.986 E51.05574
G1 X64.204 Y49.51 E51.26117
G1 X64.591 Y49.27 E51.28383
G1 X65.013 Y49.102 E51.30644
G1 X65.459 Y49.01 E51.3291
G1 X66.097 Y49.014 E51.36085
G1 X73.153 Y49.938 E51.71499
G1 X73.597 Y50.036 E51.73762
G1 X74.017 Y50.211 E51.76026
G1 X74.401 Y50.456 E51.78293
G1 X74.735 Y50.765 E51.80558
G1 X75.119 Y51.316 E51.839
G1 X75.944 Y52.908 E51.92823
G1 X76.031 Y53.093 E51.9384
G1 X77.973 Y57.691 E52.1868
G1 X78.928 Y59.644 E52.29499
G1 X79.008 Y59.824 E52.30479
G1 X80.307 Y63.089 E52.47966
G1 X81.921 Y66.733 E52.678
G1 X81.993 Y66.913 E52.68765
G1 X82.694 Y68.882 E52.79166
G1 X84.774 Y74.108 E53.07158
G1 X84.815 Y74.217 E53.07737
G1 X86.453 Y78.939 E53.3261
G1 X86.509 Y79.122 E53.33563
G1 X87.266 Y81.965 E53.48204
G1 X87.285 Y82.041 E53.48594
G1 X89.128 Y89.923 E53.88877
G1 X89.138 Y89.97 E53.89116
G1 X90.891 Y98.14 E54.307
G1 X90.907 Y98.22 E54.31106
G1 X92.116 Y104.871 E54.64747
G1 X92.496 Y106.607 E54.73591
G1 X92.523 Y106.749 E54.74311
G1 X93.59 Y113.36 E55.07636
G1 X94.739 Y119.097 E55.36754
G1 X94.979 Y118.932 E55.38203
G1 X95.393 Y118.743 E55.40468
G1 X95.834 Y118.63 E55.42733
G1 X96.257 Y118.595 E55.44846
G1 X100.45 Y118.595 E55.65712
G1 X100.014 Y116.595 E55.75899
G1 X100.001 Y116.536 E55.762
G1 X98.3 Y107.764 E56.20667
G1 X96.447 Y99.319 E56.63694
G1 X94.812 Y92.321 E56.99458
G1 X94.23 Y90.225 E57.10283
G1 X94.22 Y90.191 E57.1046
G1 X92.433 Y83.4 E57.45406
G1 X91.982 Y81.998 E57.52735
G1 X91.95 Y81.893 E57.53281
G1 X90.277 Y75.822 E57.8462
G1 X87.911 Y68.285 E58.23933
G1 X85.68 Y61.68 E58.58628
G1 X83.179 Y55.098 E58.93668
G1 X81.367 Y50.831 E59.16739
G1 X81.316 Y50.701 E59.17434
G1 X80.582 Y48.676 E59.28153
G1 X79.22 Y45.663 E59.44608
G1 X79.164 Y45.529 E59.45331
G1 X78.039 Y42.616 E59.60871
G1 X77.139 Y40.728 E59.71279
G1 X77.093 Y40.628 E59.71827
G1 X74.777 Y35.186 E60.0126
G1 X73.646 Y32.824 E60.14293
G1 X73.542 Y32.751 E60.14925
G1 X73.376 Y32.587 E60.16086
G1 X58.465 Y32.587 E60.90292
M204 S5000
G0 F2400 X58.11 Y32.188
M204 S200
G1 F1200 X58.058 Y32.62 E60.92457
G1 X58.001 Y32.92 E60.93977
G1 X56.791 Y37.487 E61.17489
G1 X54.709 Y54.332 E62.01957
G1 X52.895 Y70.474 E62.82794
G1 X50.763 Y98.634 E64.23334
G1 X50.252 Y107.043 E64.65259
G1 X50.251 Y107.063 E64.65359
G1 X48.975 Y125.297 E65.56323
G1 X48.563 Y132.617 E65.92809
G1 X48.561 Y132.64 E65.92924
G1 X47.289 Y151.689 E66.87934
G1 X47.325 Y151.752 E66.88295
G1 X47.46 Y152.148 E66.90377
G1 X47.518 Y152.563 E66.92462
G1 X47.516 Y152.791 E66.93597
G1 X47.505 Y152.971 E66.94494
G1 X47.44 Y153.384 E66.96575
G1 X47.297 Y153.778 E66.98661
G1 X47.082 Y154.137 E67.00743
G1 X46.803 Y154.449 E67.02826
G1 X46.47 Y154.703 E67.0491
G1 X46.095 Y154.888 E67.06991
G1 X45.692 Y154.999 E67.09072
G1 X45.27 Y155.032 E67.11178
G1 X35.237 Y154.832 E67.61118
G1 X34.821 Y154.783 E67.63202
G1 X34.422 Y154.657 E67.65285
G1 X34.055 Y154.457 E67.67365
G1 X33.703 Y154.163 E67.69647
G1 X33.469 Y153.921 E67.71322
G1 X33.208 Y153.594 E67.73404
G1 X33.014 Y153.223 E67.75488
G1 X32.894 Y152.822 E67.77571
G1 X32.853 Y152.326 E67.80048
G1 X33.438 Y133.716 E68.72707
G1 X33.439 Y133.696 E68.72807
G1 X34.613 Y104.878 E70.1634
G1 X34.614 Y104.854 E70.16459
G1 X35.316 Y91.198 E70.84509
G1 X35.317 Y91.176 E70.84618
G1 X36.34 Y74.583 E71.67351
G1 X36.342 Y74.554 E71.67496
G1 X37.404 Y60.38 E72.38231
G1 X37.407 Y60.349 E72.38386
G1 X38.478 Y48.371 E72.98233
G1 X38.555 Y47.959 E73.00319
G1 X38.708 Y47.57 E73.02399
G1 X38.927 Y47.227 E73.04424
G1 X40.2 Y35.404 E73.63602
G1 X40.203 Y35.371 E73.63767
G1 X40.828 Y30.292 E73.89233
G1 X40.919 Y29.883 E73.91319
G1 X41.085 Y29.499 E73.934
G1 X41.322 Y29.154 E73.95483
G1 X41.553 Y28.916 E73.97134
G1 X41.778 Y28.717 E73.98629
G1 X42.116 Y28.471 E74.00709
G1 X42.495 Y28.293 E74.02793
G1 X42.901 Y28.191 E74.04876
G1 X43.232 Y28.166 E74.06528
G1 X46.77 Y28.166 E74.24135
G1 X47.098 Y27.96 E74.26063
G1 X47.488 Y27.81 E74.28142
G1 X48.039 Y27.728 E74.30915
G1 X52.643 Y27.64 E74.53831
G1 X52.679 Y27.64 E74.5401
G1 X76.071 Y27.574 E75.70422
G1 X76.103 Y27.574 E75.70581
G1 X89.243 Y27.728 E76.35977
G1 X89.659 Y27.773 E76.3806
G1 X90.059 Y27.896 E76.40142
G1 X90.428 Y28.093 E76.42224
G1 X90.678 Y28.295 E76.43823
G1 X103.843 Y28.253 E77.0934
G1 X104.26 Y28.292 E77.11424
G1 X104.662 Y28.409 E77.13508
G1 X105.034 Y28.6 E77.15589
G1 X105.264 Y28.769 E77.17009
G1 X105.486 Y28.956 E77.18454
G1 X105.779 Y29.255 E77.20537
G1 X106.01 Y29.604 E77.2262
G1 X106.17 Y29.991 E77.24704
G1 X106.236 Y30.266 E77.26111
G1 X117.06 Y93.657 E80.46146
G1 X117.09 Y94.074 E80.48226
G1 X117.048 Y94.434 E80.5003
G1 X117.367 Y95.555 E80.5583
G1 X117.42 Y95.787 E80.57014
G1 X122.352 Y124.641 E82.0269
G1 X147.621 Y124.601 E83.28443
G1 X148.038 Y124.64 E83.30527
G1 X148.44 Y124.758 E83.32612
G1 X148.812 Y124.95 E83.34695
G1 X149.009 Y125.092 E83.35904
G1 X149.227 Y125.269 E83.37301
G1 X149.525 Y125.563 E83.39385
G1 X149.762 Y125.907 E83.41463
G1 X149.929 Y126.291 E83.43547
G1 X149.986 Y126.497 E83.44611
G1 X150.673 Y129.592 E83.60388
G1 X150.697 Y129.717 E83.61022
G1 X153.026 Y144.108 E84.33571
G1 X153.032 Y144.146 E84.33763
G1 X154.186 Y152.158 E84.74046
G1 X154.205 Y152.576 E84.76128
G1 X154.146 Y152.99 E84.7821
G1 X154.008 Y153.386 E84.80296
G1 X153.678 Y153.901 E84.8334
G1 X153.44 Y154.178 E84.85158
G1 X153.138 Y154.468 E84.87242
G1 X152.787 Y154.696 E84.89324
G1 X152.399 Y154.853 E84.91407
G1 X151.779 Y154.943 E84.94525
G1 X107.395 Y155.032 E87.15405
G1 X106.979 Y154.993 E87.17484
G1 X106.577 Y154.875 E87.19569
G1 X106.205 Y154.684 E87.2165
G1 X105.876 Y154.425 E87.23734
G1 X105.602 Y154.109 E87.25815
G1 X105.393 Y153.746 E87.279
G1 X105.257 Y153.35 E87.29984
G1 X105.202 Y152.997 E87.31761
G1 X105.189 Y152.819 E87.3265
G1 X105.198 Y152.4 E87.34735
G1 X105.287 Y151.991 E87.36818
G1 X105.306 Y151.947 E87.37057
G1 X105.061 Y150.763 E87.43074
G1 X105.026 Y150.533 E87.44232
G1 X104.589 Y146.081 E87.66494
G1 X104.586 Y146.046 E87.66669
G1 X104.568 Y145.821 E87.67792
G1 X104.567 Y150.01 E87.88639
G1 X104.527 Y150.427 E87.90723
G1 X104.409 Y150.828 E87.92804
G1 X104.216 Y151.2 E87.94889
G1 X103.957 Y151.529 E87.96973
G1 X103.64 Y151.802 E87.99055
G1 X103.277 Y152.01 E88.01137
G1 X102.88 Y152.145 E88.03224
G1 X102.372 Y152.205 E88.05769
G1 X98.77 Y152.205 E88.23695
G1 X98.353 Y152.165 E88.2578
G1 X97.952 Y152.047 E88.2786
G1 X97.58 Y151.854 E88.29945
G1 X97.434 Y151.739 E88.3087
G1 X97.508 Y152.107 E88.32738
G1 X97.551 Y152.524 E88.34825
G1 X97.514 Y152.941 E88.36908
G1 X97.399 Y153.343 E88.38989
G1 X97.209 Y153.716 E88.41072
G1 X97.028 Y153.963 E88.42596
G1 X96.908 Y154.104 E88.43517
G1 X96.607 Y154.395 E88.45601
G1 X96.257 Y154.624 E88.47682
G1 X95.869 Y154.783 E88.49769
G1 X95.459 Y154.865 E88.5185
G1 X95.236 Y154.876 E88.52961
G1 X50.575 Y154.876 E90.75219
G1 X50.158 Y154.836 E90.77303
G1 X49.757 Y154.718 E90.79384
G1 X49.385 Y154.525 E90.81469
G1 X48.95 Y154.157 E90.84305
G1 X48.831 Y154.026 E90.85185
G1 X48.581 Y153.691 E90.87266
G1 X48.398 Y153.314 E90.89351
G1 X48.291 Y152.909 E90.91436
G1 X48.272 Y152.334 E90.94299
G1 X48.536 Y149.662 E91.07661
G1 X48.978 Y143.26 E91.39597
G1 X48.989 Y143.15 E91.40147
G1 X49.699 Y137.21 E91.69918
G1 X50.129 Y129.574 E92.07979
G1 X50.135 Y129.501 E92.08344
G1 X51.382 Y115.591 E92.77845
G1 X52.156 Y101.792 E93.46624
G1 X52.162 Y101.72 E93.46984
G1 X52.458 Y98.389 E93.63626
G1 X52.858 Y92.337 E93.9381
G1 X52.868 Y92.227 E93.94359
