;FLAVOR:Marlin
;TIME:1840
;Filament used: 1.10548m
;Layer height: 0.2
;Generated with Cura_SteamEngine 2.7.0
M190 S60
M104 S220
M109 S220
G21 ;metric values
G90 ;absolute positioning
M82 ;set extruder to absolute mode
M107 ;start with the fan off
G92 E0 ;zero the extruded length
G1 F200 E3 ;extrude 3mm of feed stock
G92 E0 ;zero the extruded length again
G1 F9000
M117 Printing...
;LAYER_COUNT:125
;LAYER:0
M107
M204 S5000
G0 F2400 X9.059 Y89.44 Z0.3
M204 S200
;TYPE:SKIRT
G1 F1200 X9.587 Y89.386 E0.02641
G1 X22.753 Y88.957 E0.68197
G1 X22.804 Y88.956 E0.68451
G1 X37.319 Y88.679 E1.40699
G1 X37.349 Y88.678 E1.40848
G1 X83.495 Y88.162 E3.7051
G1 X83.55 Y88.162 E3.70784
G1 X100.828 Y88.223 E4.56769
G1 X100.856 Y88.223 E4.56909
G1 X129.113 Y88.525 E5.97539
G1 X129.135 Y88.526 E5.97649
G1 X151.319 Y88.892 E7.08064
G1 X151.385 Y88.893 E7.08392
G1 X167.846 Y89.455 E7.90359
G1 X168.394 Y89.514 E7.93102
G1 X168.927 Y89.651 E7.9584
G1 X169.434 Y89.864 E7.98577
G1 X169.905 Y90.148 E8.01314
G1 X170.33 Y90.498 E8.04054
G1 X170.701 Y90.905 E8.06795
G1 X170.888 Y91.166 E8.08393
G1 X170.983 Y91.311 E8.09255
G1 X171.25 Y91.792 E8.11993
G1 X171.445 Y92.307 E8.14734
G1 X171.564 Y92.845 E8.17476
G1 X171.603 Y93.394 E8.20215
G1 X171.562 Y93.942 E8.22949
G1 X171.443 Y94.48 E8.25691
G1 X171.285 Y94.908 E8.27962
G1 X171.142 Y95.235 E8.29738
G1 X170.886 Y95.722 E8.32476
G1 X170.562 Y96.166 E8.35211
G1 X170.176 Y96.559 E8.37953
G1 X169.738 Y96.893 E8.40694
G1 X169.256 Y97.159 E8.43434
G1 X168.741 Y97.352 E8.46171
G1 X168.203 Y97.469 E8.48911
G1 X167.92 Y97.499 E8.50327
G1 X165.75 Y97.643 E8.6115
G1 X165.613 Y97.649 E8.61832
G1 X153.886 Y98.003 E9.20219
G1 X153.836 Y98.004 E9.20468
G1 X128.797 Y98.429 E10.45093
G1 X128.771 Y98.43 E10.45223
G1 X93.478 Y98.788 E12.20869
G1 X93.425 Y98.788 E12.21133
G1 X74.315 Y98.712 E13.16236
G1 X74.288 Y98.712 E13.1637
G1 X44.39 Y98.377 E14.65168
G1 X44.365 Y98.376 E14.65293
G1 X22.83 Y97.994 E15.72479
G1 X22.773 Y97.993 E15.72763
G1 X9.575 Y97.562 E16.38479
G1 X9.028 Y97.504 E16.41216
G1 X8.566 Y97.391 E16.43583
G1 X8.167 Y97.266 E16.45664
G1 X7.655 Y97.063 E16.48405
G1 X7.178 Y96.789 E16.51142
G1 X6.745 Y96.449 E16.53882
G1 X6.367 Y96.049 E16.56621
G1 X6.05 Y95.599 E16.5936
G1 X5.802 Y95.108 E16.62098
G1 X5.653 Y94.684 E16.64334
G1 X5.58 Y94.427 E16.65664
G1 X5.469 Y93.888 E16.68402
G1 X5.436 Y93.339 E16.7114
G1 X5.484 Y92.79 E16.73882
G1 X5.61 Y92.255 E16.76617
G1 X5.813 Y91.743 E16.79358
G1 X5.965 Y91.46 E16.80957
G1 X6.052 Y91.313 E16.81807
G1 X6.365 Y90.861 E16.84543
G1 X6.742 Y90.459 E16.87286
G1 X7.172 Y90.116 E16.90023
G1 X7.647 Y89.839 E16.9276
G1 X8.158 Y89.634 E16.955
G1 X8.663 Y89.509 E16.98089
G1 X9.059 Y89.44 E17.00089
M204 S5000
G0 F2400 X8.732 Y89.902
M204 S200
G1 F1200 X9.128 Y89.833 E17.02089
G1 X9.6 Y89.785 E17.0445
G1 X22.766 Y89.356 E17.70006
G1 X22.811 Y89.355 E17.7023
G1 X37.326 Y89.078 E18.42478
G1 X37.353 Y89.077 E18.42613
G1 X83.499 Y88.561 E20.72275
G1 X83.549 Y88.561 E20.72524
G1 X100.827 Y88.622 E21.58509
G1 X100.851 Y88.622 E21.58628
G1 X129.108 Y88.924 E22.99259
G1 X129.128 Y88.924 E22.99358
G1 X151.312 Y89.29 E24.09773
G1 X151.372 Y89.292 E24.10072
G1 X167.833 Y89.854 E24.92038
G1 X168.35 Y89.912 E24.94627
G1 X168.853 Y90.048 E24.97221
G1 X169.328 Y90.259 E24.99807
G1 X169.766 Y90.541 E25.024
G1 X170.155 Y90.886 E25.04987
G1 X170.554 Y91.385 E25.08167
G1 X170.649 Y91.53 E25.09029
G1 X170.9 Y91.986 E25.1162
G1 X171.079 Y92.475 E25.14211
G1 X171.18 Y92.986 E25.16803
G1 X171.202 Y93.506 E25.19393
G1 X171.144 Y94.023 E25.21983
G1 X170.92 Y94.748 E25.25759
G1 X170.777 Y95.075 E25.27535
G1 X170.532 Y95.535 E25.30129
G1 X170.22 Y95.951 E25.32716
G1 X169.848 Y96.315 E25.35306
G1 X169.425 Y96.618 E25.37896
G1 X168.96 Y96.853 E25.40489
G1 X168.465 Y97.013 E25.43078
G1 X167.894 Y97.101 E25.45953
G1 X165.724 Y97.245 E25.56776
G1 X165.601 Y97.25 E25.57388
G1 X153.874 Y97.604 E26.15775
G1 X153.83 Y97.606 E26.15994
G1 X128.791 Y98.031 E27.4062
G1 X128.767 Y98.031 E27.40739
G1 X93.474 Y98.389 E29.16386
G1 X93.427 Y98.389 E29.16619
G1 X74.317 Y98.313 E30.11722
G1 X74.292 Y98.313 E30.11846
G1 X44.394 Y97.978 E31.60645
G1 X44.372 Y97.977 E31.60754
G1 X22.837 Y97.595 E32.67941
G1 X22.786 Y97.594 E32.68195
G1 X9.588 Y97.163 E33.3391
G1 X9.071 Y97.106 E33.36499
G1 X8.685 Y97.01 E33.38478
G1 X8.286 Y96.885 E33.40559
G1 X7.803 Y96.692 E33.43148
G1 X7.355 Y96.427 E33.45738
G1 X6.952 Y96.096 E33.48333
G1 X6.605 Y95.708 E33.50924
G1 X6.322 Y95.272 E33.5351
G1 X6.037 Y94.575 E33.57258
G1 X5.964 Y94.318 E33.58587
G1 X5.861 Y93.808 E33.61177
G1 X5.837 Y93.288 E33.63767
G1 X5.892 Y92.77 E33.6636
G1 X6.027 Y92.267 E33.68951
G1 X6.308 Y91.663 E33.72267
G1 X6.395 Y91.516 E33.73117
G1 X6.694 Y91.09 E33.75707
G1 X7.054 Y90.715 E33.78294
G1 X7.468 Y90.399 E33.80886
G1 X7.925 Y90.15 E33.83476
G1 X8.415 Y89.973 E33.86068
G1 X8.732 Y89.902 E33.87685
M204 S5000
G0 F2400 X9.196 Y90.226
M204 S200
G1 F1200 X9.613 Y90.184 E33.89771
G1 X22.779 Y89.755 E34.55327
G1 X22.819 Y89.754 E34.55526
G1 X37.334 Y89.477 E35.27773
G1 X37.358 Y89.476 E35.27893
G1 X83.504 Y88.96 E37.57555
G1 X83.548 Y88.96 E37.57774
G1 X100.826 Y89.021 E38.43759
G1 X100.847 Y89.021 E38.43864
G1 X129.104 Y89.323 E39.84494
G1 X129.121 Y89.323 E39.84579
G1 X151.305 Y89.689 E40.94994
G1 X151.358 Y89.691 E40.95258
G1 X167.819 Y90.253 E41.77224
G1 X168.305 Y90.309 E41.79659
G1 X168.775 Y90.444 E41.82092
G1 X169.216 Y90.654 E41.84523
G1 X169.618 Y90.932 E41.86956
G1 X169.969 Y91.273 E41.89391
G1 X170.221 Y91.604 E41.91461
G1 X170.316 Y91.749 E41.92324
G1 X170.549 Y92.178 E41.94753
G1 X170.71 Y92.64 E41.97188
G1 X170.793 Y93.122 E41.99622
G1 X170.797 Y93.611 E42.02056
G1 X170.721 Y94.094 E42.04489
G1 X170.554 Y94.588 E42.07084
G1 X170.411 Y94.915 E42.0886
G1 X170.179 Y95.346 E42.11296
G1 X169.881 Y95.733 E42.13727
G1 X169.523 Y96.066 E42.1616
G1 X169.115 Y96.336 E42.18595
G1 X168.67 Y96.537 E42.21025
G1 X168.197 Y96.662 E42.2346
G1 X167.867 Y96.702 E42.25114
G1 X165.697 Y96.846 E42.35937
G1 X165.589 Y96.852 E42.36475
G1 X153.862 Y97.206 E42.94862
G1 X153.823 Y97.207 E42.95056
G1 X128.784 Y97.632 E44.19681
G1 X128.763 Y97.632 E44.19786
G1 X93.47 Y97.99 E45.95432
G1 X93.428 Y97.99 E45.95641
G1 X74.318 Y97.914 E46.90744
G1 X74.296 Y97.914 E46.90853
G1 X44.398 Y97.579 E48.39652
G1 X44.379 Y97.579 E48.39746
G1 X22.844 Y97.197 E49.46933
G1 X22.799 Y97.195 E49.47157
G1 X9.601 Y96.764 E50.12873
G1 X9.116 Y96.709 E50.15302
G1 X8.804 Y96.629 E50.16905
G1 X8.405 Y96.504 E50.18985
G1 X7.952 Y96.32 E50.21419
G1 X7.535 Y96.065 E50.23851
G1 X7.165 Y95.746 E50.26282
G1 X6.852 Y95.37 E50.28717
G1 X6.604 Y94.949 E50.31149
G1 X6.421 Y94.466 E50.33719
G1 X6.348 Y94.209 E50.35049
G1 X6.253 Y93.729 E50.37484
G1 X6.238 Y93.24 E50.39918
G1 X6.302 Y92.756 E50.42348
G1 X6.445 Y92.288 E50.44783
G1 X6.651 Y91.867 E50.47116
G1 X6.738 Y91.72 E50.47966
G1 X7.021 Y91.321 E50.504
G1 X7.365 Y90.973 E50.52835
G1 X7.76 Y90.686 E50.55265
G1 X8.198 Y90.467 E50.57702
G1 X8.8 Y90.295 E50.60818
G1 X9.196 Y90.226 E50.62818
M204 S5000
G0 F2400 X9.265 Y90.62
M204 S200
G1 F1200 X9.626 Y90.582 E50.64625
G1 X22.792 Y90.153 E51.30181
G1 X22.827 Y90.152 E51.30355
G1 X37.342 Y89.875 E52.02603
G1 X37.362 Y89.875 E52.02702
G1 X83.508 Y89.359 E54.32364
G1 X83.546 Y89.359 E54.32554
G1 X100.824 Y89.42 E55.18539
G1 X100.843 Y89.42 E55.18633
G1 X129.1 Y89.722 E56.59264
G1 X129.115 Y89.722 E56.59338
G1 X151.299 Y90.088 E57.69753
G1 X151.345 Y90.09 E57.69982
G1 X167.806 Y90.652 E58.51949
G1 X168.257 Y90.707 E58.5421
G1 X168.692 Y90.84 E58.56474
G1 X169.097 Y91.048 E58.5874
G1 X169.46 Y91.323 E58.61006
G1 X169.887 Y91.822 E58.64274
G1 X169.982 Y91.967 E58.65137
G1 X170.197 Y92.369 E58.67406
G1 X170.338 Y92.801 E58.69667
G1 X170.402 Y93.252 E58.71934
G1 X170.387 Y93.706 E58.74195
G1 X170.291 Y94.151 E58.7646
G1 X170.189 Y94.428 E58.77929
G1 X170.046 Y94.755 E58.79705
G1 X169.827 Y95.155 E58.81975
G1 X169.543 Y95.51 E58.84237
G1 X169.2 Y95.81 E58.86505
G1 X168.811 Y96.045 E58.88767
G1 X168.386 Y96.209 E58.91034
G1 X167.841 Y96.304 E58.93787
G1 X165.671 Y96.448 E59.0461
G1 X165.577 Y96.453 E59.05078
G1 X153.85 Y96.807 E59.63465
G1 X153.816 Y96.808 E59.63634
G1 X128.777 Y97.233 E60.8826
G1 X128.759 Y97.233 E60.88349
G1 X93.466 Y97.591 E62.63996
G1 X93.43 Y97.591 E62.64175
G1 X74.32 Y97.515 E63.59277
G1 X74.301 Y97.515 E63.59372
G1 X44.403 Y97.18 E65.0817
G1 X44.386 Y97.18 E65.08255
G1 X22.851 Y96.798 E66.15441
G1 X22.812 Y96.797 E66.15636
G1 X9.614 Y96.366 E66.81351
G1 X9.163 Y96.311 E66.83612
G1 X8.924 Y96.248 E66.84842
G1 X8.525 Y96.123 E66.86923
G1 X8.104 Y95.95 E66.89188
G1 X7.72 Y95.705 E66.91455
G1 X7.385 Y95.397 E66.9372
G1 X7.108 Y95.036 E66.95984
G1 X6.9 Y94.631 E66.9825
G1 X6.805 Y94.357 E66.99693
G1 X6.732 Y94.1 E67.01023
G1 X6.646 Y93.653 E67.03288
G1 X6.64 Y93.198 E67.05552
G1 X6.714 Y92.749 E67.07817
G1 X6.865 Y92.319 E67.10085
G1 X6.995 Y92.07 E67.11483
G1 X7.082 Y91.923 E67.12333
G1 X7.347 Y91.553 E67.14598
G1 X7.673 Y91.235 E67.16864
G1 X8.049 Y90.979 E67.19128
G1 X8.464 Y90.793 E67.21391
G1 X8.869 Y90.689 E67.23472
G1 X9.265 Y90.62 E67.25473
M204 S5000
G0 F2400 X9.333 Y91.013
M204 S200
G1 F1200 X9.639 Y90.981 E67.27004
G1 X22.805 Y90.552 E67.9256
G1 X22.834 Y90.551 E67.92704
G1 X37.349 Y90.274 E68.64952
G1 X37.366 Y90.274 E68.65036
G1 X83.512 Y89.758 E70.94699
G1 X83.545 Y89.758 E70.94863
G1 X100.823 Y89.819 E71.80848
G1 X100.838 Y89.819 E71.80923
G1 X129.095 Y90.121 E73.21553
G1 X129.108 Y90.121 E73.21618
G1 X151.292 Y90.487 E74.32033
G1 X151.331 Y90.488 E74.32227
G1 X167.792 Y91.05 E75.14193
G1 X168.207 Y91.104 E75.16276
G1 X168.604 Y91.236 E75.18358
G1 X168.969 Y91.441 E75.20441
G1 X169.289 Y91.712 E75.22528
G1 X169.553 Y92.041 E75.24627
G1 X169.648 Y92.186 E75.2549
G1 X169.843 Y92.556 E75.27572
G1 X169.964 Y92.957 E75.29656
G1 X170.007 Y93.374 E75.31742
G1 X169.97 Y93.79 E75.33821
G1 X169.823 Y94.268 E75.36309
G1 X169.68 Y94.595 E75.38086
G1 X169.477 Y94.961 E75.40168
G1 X169.207 Y95.282 E75.42256
G1 X168.882 Y95.545 E75.44336
G1 X168.513 Y95.742 E75.46418
G1 X168.113 Y95.866 E75.48502
G1 X167.814 Y95.906 E75.50003
G1 X165.644 Y96.05 E75.60826
G1 X165.565 Y96.054 E75.6122
G1 X153.838 Y96.408 E76.19606
G1 X153.809 Y96.409 E76.19751
G1 X128.77 Y96.834 E77.44377
G1 X128.755 Y96.834 E77.44451
G1 X93.462 Y97.192 E79.20098
G1 X93.431 Y97.192 E79.20252
G1 X74.321 Y97.116 E80.15354
G1 X74.305 Y97.116 E80.15434
G1 X44.407 Y96.781 E81.64232
G1 X44.393 Y96.781 E81.64302
G1 X22.858 Y96.399 E82.71489
G1 X22.825 Y96.398 E82.71653
G1 X9.627 Y95.967 E83.37368
G1 X9.043 Y95.868 E83.40316
G1 X8.644 Y95.743 E83.42397
G1 X8.258 Y95.58 E83.44482
G1 X7.91 Y95.347 E83.46566
G1 X7.613 Y95.052 E83.4865
G1 X7.377 Y94.707 E83.5073
G1 X7.189 Y94.248 E83.53198
G1 X7.116 Y93.991 E83.54528
G1 X7.04 Y93.579 E83.56613
G1 X7.044 Y93.16 E83.58698
G1 X7.128 Y92.75 E83.60781
G1 X7.338 Y92.273 E83.63374
G1 X7.425 Y92.126 E83.64225
G1 X7.672 Y91.788 E83.66308
G1 X7.978 Y91.503 E83.68389
G1 X8.333 Y91.281 E83.70473
G1 X8.723 Y91.13 E83.72554
G1 X8.937 Y91.082 E83.73645
G1 X9.333 Y91.013 E83.75646
M204 S5000
G0 F2400 X9.402 Y91.406
M204 S200
G1 F1200 X9.652 Y91.38 E83.76896
G1 X22.818 Y90.951 E84.42452
G1 X22.842 Y90.95 E84.42572
G1 X37.357 Y90.673 E85.1482
G1 X37.371 Y90.673 E85.14889
G1 X83.517 Y90.157 E87.44552
G1 X83.543 Y90.157 E87.44681
G1 X100.821 Y90.218 E88.30666
G1 X100.834 Y90.218 E88.30731
G1 X129.091 Y90.52 E89.71361
G1 X129.102 Y90.52 E89.71416
G1 X151.286 Y90.886 E90.81831
G1 X151.317 Y90.887 E90.81985
G1 X167.778 Y91.449 E91.63952
G1 X168.153 Y91.502 E91.65837
G1 X168.509 Y91.632 E91.67723
G1 X168.829 Y91.834 E91.69606
G1 X169.1 Y92.098 E91.71489
G1 X169.219 Y92.26 E91.72489
G1 X169.314 Y92.405 E91.73352
G1 X169.487 Y92.741 E91.75232
G1 X169.586 Y93.107 E91.77119
G1 X169.605 Y93.485 E91.79003
G1 X169.545 Y93.859 E91.80888
G1 X169.458 Y94.109 E91.82205
G1 X169.315 Y94.436 E91.83981
G1 X169.127 Y94.765 E91.85867
G1 X168.875 Y95.047 E91.87749
G1 X168.569 Y95.27 E91.89633
G1 X168.224 Y95.424 E91.91514
G1 X167.788 Y95.508 E91.93723
G1 X165.618 Y95.652 E92.04546
G1 X165.553 Y95.655 E92.0487
G1 X153.826 Y96.009 E92.63257
G1 X153.802 Y96.01 E92.63376
G1 X128.763 Y96.435 E93.88002
G1 X128.751 Y96.435 E93.88062
G1 X93.458 Y96.793 E95.63708
G1 X93.433 Y96.793 E95.63832
G1 X74.323 Y96.717 E96.58935
G1 X74.31 Y96.717 E96.59
G1 X44.412 Y96.382 E98.07798
G1 X44.4 Y96.382 E98.07857
G1 X22.865 Y96 E99.15044
G1 X22.838 Y95.999 E99.15179
G1 X9.64 Y95.568 E99.80894
G1 X9.162 Y95.487 E99.83307
G1 X8.763 Y95.362 E99.85388
G1 X8.416 Y95.211 E99.87271
G1 X8.108 Y94.991 E99.89155
G1 X7.853 Y94.712 E99.91036
G1 X7.662 Y94.385 E99.9292
G1 X7.572 Y94.139 E99.94224
G1 X7.499 Y93.882 E99.95553
G1 X7.435 Y93.509 E99.97437
G1 X7.45 Y93.131 E99.99319
G1 X7.544 Y92.764 E100.01205
G1 X7.681 Y92.476 E100.02792
G1 X7.768 Y92.329 E100.03642
G1 X7.994 Y92.026 E100.05523
G1 X8.279 Y91.776 E100.0741
G1 X8.61 Y91.592 E100.09294
G1 X9.006 Y91.475 E100.11349
G1 X9.402 Y91.406 E100.1335
M204 S5000
G0 F2400 X9.47 Y91.799
M204 S200
G1 F1200 X9.665 Y91.779 E100.14325
G1 X22.831 Y91.35 E100.79881
G1 X22.849 Y91.349 E100.79971
G1 X37.364 Y91.072 E101.52219
G1 X37.375 Y91.072 E101.52273
G1 X83.521 Y90.556 E103.81936
G1 X83.542 Y90.556 E103.8204
G1 X100.82 Y90.617 E104.68025
G1 X100.83 Y90.617 E104.68075
G1 X129.087 Y90.919 E106.08706
G1 X129.095 Y90.919 E106.08745
G1 X151.279 Y91.285 E107.1916
G1 X151.304 Y91.286 E107.19285
G1 X167.765 Y91.848 E108.01251
G1 X168.094 Y91.899 E108.02908
G1 X168.403 Y92.027 E108.04573
G1 X168.672 Y92.224 E108.06232
G1 X168.886 Y92.478 E108.07885
G1 X168.981 Y92.623 E108.08747
G1 X169.129 Y92.922 E108.10408
G1 X169.202 Y93.248 E108.1207
G1 X169.196 Y93.582 E108.13733
G1 X169.092 Y93.949 E108.15631
G1 X168.949 Y94.276 E108.17407
G1 X168.78 Y94.563 E108.19065
G1 X168.547 Y94.803 E108.20729
G1 X168.264 Y94.98 E108.2239
G1 X167.948 Y95.085 E108.24048
G1 X167.762 Y95.11 E108.24982
G1 X165.592 Y95.254 E108.35804
G1 X165.541 Y95.256 E108.36058
G1 X153.814 Y95.61 E108.94445
G1 X153.796 Y95.611 E108.94535
G1 X128.757 Y96.036 E110.1916
G1 X128.747 Y96.036 E110.1921
G1 X93.454 Y96.394 E111.94856
G1 X93.434 Y96.394 E111.94956
G1 X74.324 Y96.318 E112.90059
G1 X74.314 Y96.318 E112.90108
G1 X44.416 Y95.983 E114.38907
G1 X44.407 Y95.983 E114.38951
G1 X22.872 Y95.601 E115.46138
G1 X22.851 Y95.6 E115.46243
G1 X9.653 Y95.169 E116.11958
G1 X9.281 Y95.106 E116.13836
G1 X8.882 Y94.981 E116.15917
G1 X8.578 Y94.844 E116.17576
G1 X8.315 Y94.639 E116.19236
G1 X8.108 Y94.377 E116.20897
G1 X7.956 Y94.03 E116.22783
G1 X7.883 Y93.773 E116.24112
G1 X7.831 Y93.443 E116.25775
G1 X7.858 Y93.111 E116.27432
G1 X8.025 Y92.679 E116.29737
G1 X8.112 Y92.532 E116.30587
G1 X8.315 Y92.268 E116.32245
G1 X8.575 Y92.059 E116.33905
G1 X8.877 Y91.917 E116.35565
G1 X9.074 Y91.868 E116.36576
G1 X9.47 Y91.799 E116.38576
M204 S5000
G0 F2400 X9.539 Y92.192
M204 S200
G1 F1200 X9.677 Y92.178 E116.39266
G1 X22.843 Y91.749 E117.04822
G1 X22.857 Y91.748 E117.04892
G1 X37.372 Y91.471 E117.7714
G1 X37.38 Y91.471 E117.7718
G1 X83.526 Y90.955 E120.06842
G1 X83.541 Y90.955 E120.06917
G1 X100.819 Y91.016 E120.92902
G1 X100.826 Y91.016 E120.92937
G1 X129.083 Y91.318 E122.33567
G1 X129.088 Y91.318 E122.33592
G1 X151.272 Y91.684 E123.44007
G1 X151.29 Y91.685 E123.44096
G1 X167.751 Y92.247 E124.26063
G1 X168.029 Y92.296 E124.27468
G1 X168.281 Y92.421 E124.28868
G1 X168.552 Y92.697 E124.30793
G1 X168.647 Y92.842 E124.31655
G1 X168.766 Y93.097 E124.33056
G1 X168.81 Y93.376 E124.34461
G1 X168.774 Y93.655 E124.35861
G1 X168.726 Y93.789 E124.3657
G1 X168.583 Y94.116 E124.38346
G1 X168.435 Y94.356 E124.39749
G1 X168.226 Y94.544 E124.41148
G1 X167.972 Y94.667 E124.42553
G1 X167.735 Y94.712 E124.43753
G1 X165.565 Y94.856 E124.54576
G1 X165.529 Y94.858 E124.54755
G1 X153.802 Y95.212 E125.13142
G1 X153.789 Y95.212 E125.13207
G1 X128.75 Y95.637 E126.37832
G1 X128.743 Y95.637 E126.37867
G1 X93.45 Y95.995 E128.13514
G1 X93.436 Y95.995 E128.13583
G1 X74.326 Y95.919 E129.08686
G1 X74.319 Y95.919 E129.08721
G1 X44.421 Y95.584 E130.57519
G1 X44.414 Y95.584 E130.57554
G1 X22.879 Y95.202 E131.6474
