;FLAVOR:Marlin
;TIME:2084
;Filament used: 1.61297m
;Layer height: 0.2
;Generated with Cura_SteamEngine 2.7.0
M190 S60
M104 S220
M109 S220
G21 ;metric values
G90 ;absolute positioning
M82 ;set extruder to absolute mode
M107 ;start with the fan off
G92 E0 ;zero the extruded length
G1 F200 E3 ;extrude 3mm of feed stock
G92 E0 ;zero the extruded length again
G1 F9000
M117 Printing...
;LAYER_COUNT:64
;LAYER:0
M107
M204 S5000
G0 F2400 X24.819 Y76.069 Z0.3
M204 S200
;TYPE:SKIRT
G1 F1200 X25.345 Y75.909 E0.02736
G1 X26.098 Y75.817 E0.06511
G1 X39.914 Y75.52 E0.75283
G1 X39.944 Y75.519 E0.75433
G1 X83.283 Y74.934 E2.91131
G1 X83.163 Y72.834 E3.01599
G1 X83.157 Y72.577 E3.02878
G1 X83.222 Y66.356 E3.33839
G1 X83.227 Y66.202 E3.34605
G1 X83.391 Y63.008 E3.50522
G1 X83.459 Y62.461 E3.53265
G1 X83.542 Y62.161 E3.54814
G1 X83.524 Y61.907 E3.56081
G1 X83.578 Y61.282 E3.59203
G1 X83.953 Y59.092 E3.7026
G1 X84.052 Y58.665 E3.72441
G1 X84.597 Y56.806 E3.82082
G1 X84.736 Y56.413 E3.84157
G1 X85.018 Y55.737 E3.87802
G1 X85.223 Y55.32 E3.90114
G1 X85.954 Y54.037 E3.97463
G1 X86.334 Y53.489 E4.00782
G1 X86.8 Y52.929 E4.04407
G1 X87.203 Y52.513 E4.07289
G1 X87.711 Y52.064 E4.10663
G1 X88.248 Y51.669 E4.13981
G1 X88.802 Y51.331 E4.17211
G1 X89.291 Y51.079 E4.19948
G1 X89.59 Y50.966 E4.21539
G1 X90.461 Y50.679 E4.26103
G1 X90.994 Y50.546 E4.28837
G1 X91.391 Y50.498 E4.30827
G1 X92.529 Y50.421 E4.36503
G1 X93.079 Y50.423 E4.3924
G1 X93.553 Y50.491 E4.41623
G1 X94.694 Y50.727 E4.47422
G1 X95.223 Y50.877 E4.50158
G1 X95.747 Y51.114 E4.5302
G1 X96.594 Y51.578 E4.57826
G1 X97.267 Y52.048 E4.61911
G1 X97.774 Y52.491 E4.65262
G1 X98.189 Y52.915 E4.68214
G1 X98.656 Y53.474 E4.71839
G1 X99.022 Y53.995 E4.75008
G1 X99.688 Y55.137 E4.81587
G1 X99.903 Y55.566 E4.83975
G1 X100.259 Y56.405 E4.88511
G1 X100.406 Y56.818 E4.90692
G1 X100.947 Y58.66 E5.00246
G1 X101.047 Y59.088 E5.02434
G1 X101.423 Y61.282 E5.13511
G1 X101.476 Y61.829 E5.16246
G1 X101.459 Y62.168 E5.17935
G1 X101.502 Y62.3 E5.18626
G1 X101.606 Y63.003 E5.22163
G1 X101.773 Y66.196 E5.38075
G1 X101.777 Y66.33 E5.38742
G1 X101.848 Y70.523 E5.59612
G1 X101.848 Y70.681 E5.60398
G1 X101.742 Y74.931 E5.81555
G1 X132.506 Y75.315 E7.34665
G1 X132.531 Y75.316 E7.3479
G1 X158.894 Y75.817 E8.6601
G1 X159.442 Y75.867 E8.68749
G1 X159.977 Y75.996 E8.71487
G1 X160.488 Y76.202 E8.74229
G1 X160.963 Y76.479 E8.76966
G1 X161.549 Y76.974 E8.80783
G1 X161.661 Y77.09 E8.81586
G1 X162.014 Y77.512 E8.84324
G1 X162.301 Y77.982 E8.87064
G1 X162.518 Y78.488 E8.89804
G1 X162.659 Y79.019 E8.92538
G1 X162.725 Y79.725 E8.96067
G1 X162.724 Y81.344 E9.04124
G1 X162.684 Y81.893 E9.06863
G1 X162.564 Y82.43 E9.09602
G1 X162.369 Y82.945 E9.12342
G1 X162.1 Y83.425 E9.1508
G1 X161.66 Y83.975 E9.18586
G1 X161.548 Y84.091 E9.19388
G1 X161.138 Y84.458 E9.22127
G1 X160.679 Y84.762 E9.24866
G1 X160.181 Y84.996 E9.27605
G1 X159.655 Y85.156 E9.30341
G1 X158.891 Y85.248 E9.3417
G1 X128.487 Y85.811 E10.85503
G1 X128.463 Y85.812 E10.85623
G1 X101.1 Y86.141 E12.21806
G1 X100.059 Y106.402 E13.22769
G1 X100.056 Y106.46 E13.23058
G1 X99.645 Y112.602 E13.53692
G1 X99.638 Y112.682 E13.54092
G1 X98.984 Y120.088 E13.91091
G1 X98.967 Y120.243 E13.91867
G1 X97.94 Y128.159 E14.31592
G1 X97.83 Y128.698 E14.34329
G1 X97.643 Y129.215 E14.37065
G1 X97.591 Y129.312 E14.37613
G1 X97.599 Y129.354 E14.37826
G1 X97.623 Y129.904 E14.40566
G1 X97.562 Y130.482 E14.43458
G1 X97.387 Y131.43 E14.48256
G1 X97.248 Y131.963 E14.50997
G1 X97.034 Y132.47 E14.53735
G1 X96.748 Y132.94 E14.56473
G1 X96.397 Y133.364 E14.59213
G1 X96.075 Y133.663 E14.61399
G1 X95.965 Y133.754 E14.6211
G1 X95.517 Y134.073 E14.64847
G1 X95.027 Y134.324 E14.67587
G1 X94.506 Y134.501 E14.70325
G1 X93.965 Y134.601 E14.73063
G1 X93.549 Y134.624 E14.75136
G1 X91.452 Y134.624 E14.85572
G1 X90.903 Y134.584 E14.88312
G1 X90.366 Y134.465 E14.91049
G1 X89.851 Y134.27 E14.93789
G1 X89.371 Y134.002 E14.96525
G1 X89.022 Y133.743 E14.98688
G1 X88.913 Y133.652 E14.99395
G1 X88.518 Y133.27 E15.02129
G1 X88.181 Y132.834 E15.04872
G1 X87.912 Y132.354 E15.0761
G1 X87.715 Y131.84 E15.10349
G1 X87.617 Y131.439 E15.12404
G1 X87.44 Y130.493 E15.17193
G1 X87.378 Y129.946 E15.19933
G1 X87.396 Y129.396 E15.22671
G1 X87.412 Y129.308 E15.23116
G1 X87.277 Y129.02 E15.24699
G1 X87.119 Y128.493 E15.27437
G1 X87.062 Y128.174 E15.2905
G1 X86.205 Y121.808 E15.61016
G1 X86.186 Y121.635 E15.61882
G1 X85.204 Y110.506 E16.17482
G1 X85.194 Y110.374 E16.1814
G1 X83.905 Y86.138 E17.38923
G1 X42.236 Y85.586 E19.46308
G1 X42.206 Y85.585 E19.46458
G1 X26.098 Y85.247 E20.26638
G1 X25.551 Y85.196 E20.29372
G1 X25.016 Y85.065 E20.32113
G1 X24.506 Y84.859 E20.3485
G1 X24.031 Y84.581 E20.37589
G1 X23.451 Y84.09 E20.41371
G1 X23.339 Y83.974 E20.42173
G1 X22.986 Y83.552 E20.44911
G1 X22.699 Y83.082 E20.47652
G1 X22.482 Y82.576 E20.50392
G1 X22.341 Y82.045 E20.53126
G1 X22.275 Y81.339 E20.56655
G1 X22.276 Y79.721 E20.64707
G1 X22.316 Y79.172 E20.67446
G1 X22.436 Y78.635 E20.70184
G1 X22.631 Y78.12 E20.72925
G1 X22.9 Y77.64 E20.75663
G1 X23.34 Y77.09 E20.79168
G1 X23.452 Y76.974 E20.79971
G1 X23.862 Y76.607 E20.82709
G1 X24.321 Y76.303 E20.85449
G1 X24.819 Y76.069 E20.88187
M204 S5000
G0 F2400 X25.041 Y76.412
M204 S200
G1 F1200 X25.543 Y76.275 E20.90777
G1 X26.106 Y76.216 E20.93594
G1 X39.922 Y75.919 E21.62366
G1 X39.949 Y75.918 E21.625
G1 X83.706 Y75.328 E23.80279
G1 X83.562 Y72.811 E23.92825
G1 X83.556 Y72.582 E23.93965
G1 X83.621 Y66.361 E24.24926
G1 X83.625 Y66.222 E24.25618
G1 X83.789 Y63.028 E24.41534
G1 X83.856 Y62.512 E24.44124
G1 X83.941 Y62.219 E24.45642
G1 X83.927 Y61.767 E24.47892
G1 X83.972 Y61.35 E24.4998
G1 X84.347 Y59.16 E24.61037
G1 X84.435 Y58.778 E24.62988
G1 X84.98 Y56.919 E24.72629
G1 X85.104 Y56.567 E24.74486
G1 X85.386 Y55.891 E24.78131
G1 X85.57 Y55.518 E24.80201
G1 X86.301 Y54.235 E24.87549
G1 X86.641 Y53.744 E24.90521
G1 X87.107 Y53.184 E24.94147
G1 X87.468 Y52.812 E24.96727
G1 X87.976 Y52.363 E25.00101
G1 X88.455 Y52.009 E25.03065
G1 X89.009 Y51.671 E25.06294
G1 X89.714 Y51.345 E25.1016
G1 X90.585 Y51.058 E25.14724
G1 X91.091 Y50.934 E25.17316
G1 X91.418 Y50.896 E25.18955
G1 X92.556 Y50.819 E25.24631
G1 X93.077 Y50.824 E25.27224
G1 X93.472 Y50.881 E25.2921
G1 X94.613 Y51.117 E25.35008
G1 X95.113 Y51.262 E25.37599
G1 X95.556 Y51.464 E25.40022
G1 X96.403 Y51.928 E25.44828
G1 X97.005 Y52.349 E25.48484
G1 X97.512 Y52.792 E25.51835
G1 X97.883 Y53.171 E25.54474
G1 X98.35 Y53.73 E25.58099
G1 X98.677 Y54.196 E25.60932
G1 X99.343 Y55.338 E25.67511
G1 X99.536 Y55.722 E25.6965
G1 X99.892 Y56.561 E25.74186
G1 X100.024 Y56.93 E25.76136
G1 X100.565 Y58.772 E25.8569
G1 X100.653 Y59.155 E25.87645
G1 X101.029 Y61.349 E25.98723
G1 X101.078 Y61.867 E26.01313
G1 X101.056 Y62.219 E26.03068
G1 X101.14 Y62.505 E26.04551
G1 X101.207 Y63.024 E26.07155
G1 X101.374 Y66.217 E26.23067
G1 X101.379 Y66.337 E26.23665
G1 X101.45 Y70.53 E26.44535
G1 X101.449 Y70.671 E26.45236
G1 X101.336 Y75.221 E26.67887
G1 X101.331 Y75.325 E26.68405
G1 X132.501 Y75.714 E28.23536
G1 X132.523 Y75.715 E28.23645
G1 X158.886 Y76.216 E29.54866
G1 X159.405 Y76.265 E29.5746
G1 X159.909 Y76.394 E29.60049
G1 X160.388 Y76.598 E29.6264
G1 X160.83 Y76.873 E29.65231
G1 X161.262 Y77.251 E29.68087
G1 X161.374 Y77.367 E29.6889
G1 X161.706 Y77.768 E29.71481
G1 X161.972 Y78.215 E29.74069
G1 X162.167 Y78.698 E29.76661
G1 X162.286 Y79.205 E29.79253
G1 X162.326 Y79.725 E29.81849
G1 X162.325 Y81.344 E29.89906
G1 X162.285 Y81.863 E29.92496
G1 X162.166 Y82.37 E29.95088
G1 X161.97 Y82.852 E29.97677
G1 X161.703 Y83.299 E30.00268
G1 X161.373 Y83.698 E30.02845
G1 X161.261 Y83.814 E30.03648
G1 X160.872 Y84.16 E30.06238
G1 X160.434 Y84.442 E30.08831
G1 X159.959 Y84.653 E30.11417
G1 X159.457 Y84.79 E30.14007
G1 X158.884 Y84.849 E30.16874
G1 X128.48 Y85.412 E31.68207
G1 X128.458 Y85.413 E31.68316
G1 X100.722 Y85.747 E33.06356
G1 X99.661 Y106.381 E34.09177
G1 X99.657 Y106.433 E34.09437
G1 X99.246 Y112.575 E34.40071
G1 X99.241 Y112.647 E34.4043
G1 X98.587 Y120.053 E34.7743
G1 X98.572 Y120.191 E34.78121
G1 X97.545 Y128.107 E35.17846
G1 X97.438 Y128.617 E35.20439
G1 X97.255 Y129.104 E35.23028
G1 X97.172 Y129.252 E35.23872
G1 X97.214 Y129.513 E35.25188
G1 X97.218 Y130.033 E35.27776
G1 X97.17 Y130.41 E35.29667
G1 X96.995 Y131.358 E35.34465
G1 X96.861 Y131.861 E35.37055
G1 X96.652 Y132.338 E35.39647
G1 X96.373 Y132.777 E35.42235
G1 X96.03 Y133.168 E35.44824
G1 X95.821 Y133.356 E35.46223
G1 X95.711 Y133.447 E35.46933
G1 X95.286 Y133.747 E35.49522
G1 X94.82 Y133.978 E35.5211
G1 X94.323 Y134.135 E35.54704
G1 X93.549 Y134.225 E35.58582
G1 X91.452 Y134.225 E35.69018
G1 X90.933 Y134.185 E35.71608
G1 X90.426 Y134.066 E35.742
G1 X89.944 Y133.871 E35.76788
G1 X89.496 Y133.605 E35.7938
G1 X89.278 Y133.437 E35.8075
G1 X89.169 Y133.346 E35.81457
G1 X88.796 Y132.983 E35.84047
G1 X88.483 Y132.567 E35.86638
G1 X88.238 Y132.108 E35.89227
G1 X88.009 Y131.366 E35.93091
G1 X87.832 Y130.42 E35.97881
G1 X87.776 Y129.902 E36.00474
G1 X87.799 Y129.382 E36.03064
G1 X87.826 Y129.247 E36.03749
G1 X87.755 Y129.123 E36.0446
G1 X87.568 Y128.637 E36.07052
G1 X87.457 Y128.121 E36.09679
G1 X86.6 Y121.755 E36.41645
G1 X86.583 Y121.6 E36.42421
G1 X85.601 Y110.471 E36.9802
G1 X85.593 Y110.353 E36.98609
G1 X84.285 Y85.744 E38.21249
G1 X42.241 Y85.187 E40.30502
G1 X42.215 Y85.186 E40.30631
G1 X26.107 Y84.848 E41.10811
G1 X25.589 Y84.797 E41.13402
G1 X25.085 Y84.668 E41.15991
G1 X24.606 Y84.463 E41.18583
G1 X24.165 Y84.187 E41.21172
G1 X23.738 Y83.813 E41.23997
G1 X23.626 Y83.697 E41.248
G1 X23.294 Y83.296 E41.27391
G1 X23.028 Y82.849 E41.29979
G1 X22.833 Y82.366 E41.32571
G1 X22.714 Y81.859 E41.35163
G1 X22.674 Y81.339 E41.37758
G1 X22.675 Y79.721 E41.45811
G1 X22.715 Y79.202 E41.48401
G1 X22.834 Y78.695 E41.50993
G1 X23.03 Y78.213 E41.53582
G1 X23.297 Y77.766 E41.56173
G1 X23.627 Y77.367 E41.5875
G1 X23.739 Y77.251 E41.59552
G1 X24.128 Y76.905 E41.62143
G1 X24.566 Y76.623 E41.64736
G1 X25.041 Y76.412 E41.67322
M204 S5000
G0 F2400 X25.259 Y76.759
M204 S200
G1 F1200 X25.735 Y76.647 E41.69756
G1 X26.115 Y76.615 E41.71654
G1 X39.931 Y76.318 E42.40426
G1 X39.955 Y76.317 E42.40545
G1 X84.128 Y75.721 E44.60394
G1 X83.96 Y72.788 E44.75014
G1 X83.955 Y72.586 E44.7602
G1 X84.02 Y66.365 E45.06981
G1 X84.024 Y66.243 E45.07588
G1 X84.188 Y63.049 E45.23504
G1 X84.253 Y62.564 E45.25939
G1 X84.348 Y62.253 E45.27558
G1 X84.329 Y62.126 E45.28197
G1 X84.365 Y61.417 E45.3173
G1 X84.74 Y59.227 E45.42787
G1 X84.818 Y58.89 E45.44508
G1 X85.363 Y57.031 E45.54149
G1 X85.473 Y56.721 E45.55786
G1 X85.755 Y56.045 E45.59431
G1 X85.916 Y55.715 E45.61258
G1 X86.647 Y54.432 E45.68607
G1 X86.947 Y54 E45.71224
G1 X87.413 Y53.44 E45.7485
G1 X87.732 Y53.111 E45.77131
G1 X88.24 Y52.662 E45.80505
G1 X88.663 Y52.35 E45.8312
G1 X89.217 Y52.012 E45.8635
G1 X89.839 Y51.724 E45.89761
G1 X90.71 Y51.437 E45.94325
G1 X91.186 Y51.323 E45.96761
G1 X91.445 Y51.294 E45.98058
G1 X92.583 Y51.217 E46.03734
G1 X93.072 Y51.224 E46.06168
G1 X93.391 Y51.272 E46.07773
G1 X94.532 Y51.508 E46.13572
G1 X95.001 Y51.646 E46.16005
G1 X95.364 Y51.814 E46.17995
G1 X96.211 Y52.278 E46.22801
G1 X96.742 Y52.649 E46.26025
G1 X97.249 Y53.092 E46.29375
G1 X97.577 Y53.427 E46.31709
G1 X98.044 Y53.986 E46.35334
G1 X98.332 Y54.397 E46.37831
G1 X98.998 Y55.539 E46.4441
G1 X99.168 Y55.878 E46.46298
G1 X99.524 Y56.717 E46.50833
G1 X99.641 Y57.043 E46.52557
G1 X100.182 Y58.885 E46.62111
G1 X100.26 Y59.222 E46.63832
G1 X100.636 Y61.416 E46.7491
G1 X100.679 Y61.903 E46.77343
G1 X100.653 Y62.24 E46.79025
G1 X100.771 Y62.704 E46.81408
G1 X100.809 Y63.045 E46.83115
G1 X100.976 Y66.238 E46.99027
G1 X100.98 Y66.343 E46.9955
G1 X101.051 Y70.536 E47.2042
G1 X101.05 Y70.661 E47.21042
G1 X100.937 Y75.211 E47.43692
G1 X100.931 Y75.34 E47.44335
G1 X100.905 Y75.719 E47.46225
G1 X132.496 Y76.113 E49.03452
G1 X132.516 Y76.114 E49.03551
G1 X158.879 Y76.615 E50.34772
G1 X159.365 Y76.664 E50.37202
G1 X159.837 Y76.791 E50.39635
G1 X160.282 Y76.994 E50.42069
G1 X160.688 Y77.267 E50.44504
G1 X160.975 Y77.528 E50.46434
G1 X161.087 Y77.644 E50.47237
G1 X161.397 Y78.022 E50.4967
G1 X161.641 Y78.446 E50.52104
G1 X161.813 Y78.904 E50.54539
G1 X161.908 Y79.383 E50.56969
G1 X161.927 Y79.725 E50.58674
G1 X161.926 Y81.344 E50.66731
G1 X161.886 Y81.831 E50.69162
G1 X161.767 Y82.305 E50.71594
G1 X161.572 Y82.754 E50.74031
G1 X161.307 Y83.165 E50.76464
G1 X161.086 Y83.421 E50.78147
G1 X160.974 Y83.537 E50.7895
G1 X160.607 Y83.86 E50.81383
G1 X160.192 Y84.118 E50.83815
G1 X159.741 Y84.306 E50.86246
G1 X159.265 Y84.418 E50.8868
G1 X158.876 Y84.45 E50.90622
G1 X128.472 Y85.013 E52.41955
G1 X128.453 Y85.014 E52.4205
G1 X100.342 Y85.352 E53.81956
G1 X99.262 Y106.361 E54.86646
G1 X99.259 Y106.407 E54.86875
G1 X98.848 Y112.549 E55.1751
G1 X98.843 Y112.612 E55.17824
G1 X98.189 Y120.018 E55.54824
G1 X98.176 Y120.14 E55.55434
G1 X97.149 Y128.056 E55.95159
G1 X97.047 Y128.534 E55.97591
G1 X96.868 Y128.989 E56.00025
G1 X96.76 Y129.17 E56.01073
G1 X96.763 Y129.179 E56.01121
G1 X96.824 Y129.664 E56.03553
G1 X96.777 Y130.337 E56.06911
G1 X96.602 Y131.285 E56.11708
G1 X96.475 Y131.757 E56.14141
G1 X96.272 Y132.202 E56.16575
G1 X95.999 Y132.608 E56.1901
G1 X95.567 Y133.048 E56.22078
G1 X95.457 Y133.139 E56.22789
G1 X95.056 Y133.419 E56.25223
G1 X94.615 Y133.63 E56.27656
G1 X94.145 Y133.766 E56.3009
G1 X93.549 Y133.826 E56.33071
G1 X91.452 Y133.826 E56.43507
G1 X90.965 Y133.786 E56.45939
G1 X90.49 Y133.667 E56.48376
G1 X90.042 Y133.473 E56.50805
G1 X89.534 Y133.131 E56.53853
G1 X89.425 Y133.04 E56.5456
G1 X89.076 Y132.697 E56.56995
G1 X88.788 Y132.302 E56.59428
G1 X88.569 Y131.865 E56.6186
G1 X88.401 Y131.292 E56.64832
G1 X88.224 Y130.346 E56.69621
G1 X88.174 Y129.86 E56.72053
G1 X88.203 Y129.372 E56.74486
G1 X88.244 Y129.191 E56.75409
G1 X88.233 Y129.175 E56.75506
G1 X88.022 Y128.734 E56.77939
G1 X87.853 Y128.067 E56.81363
G1 X86.996 Y121.701 E57.13329
G1 X86.981 Y121.565 E57.1401
G1 X85.999 Y110.436 E57.6961
G1 X85.991 Y110.332 E57.70129
G1 X84.663 Y85.35 E58.94628
G1 X42.246 Y84.788 E61.05737
G1 X42.223 Y84.787 E61.05852
G1 X26.115 Y84.449 E61.86031
G1 X25.629 Y84.399 E61.88463
G1 X25.157 Y84.271 E61.90897
G1 X24.713 Y84.067 E61.93328
G1 X24.307 Y83.793 E61.95766
G1 X24.025 Y83.536 E61.97665
G1 X23.913 Y83.42 E61.98467
G1 X23.603 Y83.042 E62.009
G1 X23.359 Y82.618 E62.03334
G1 X23.187 Y82.16 E62.05769
G1 X23.092 Y81.681 E62.08199
G1 X23.073 Y81.339 E62.09904
G1 X23.074 Y79.721 E62.17956
G1 X23.114 Y79.234 E62.20388
G1 X23.233 Y78.76 E62.2282
G1 X23.428 Y78.311 E62.25256
G1 X23.693 Y77.9 E62.2769
G1 X23.914 Y77.644 E62.29373
G1 X24.026 Y77.528 E62.30175
G1 X24.393 Y77.205 E62.32608
G1 X24.808 Y76.947 E62.3504
G1 X25.259 Y76.759 E62.37471
M204 S5000
G0 F2400 X25.047 Y77.273
M204 S200
G1 F1200 X25.472 Y77.111 E62.39735
G1 X26.123 Y77.014 E62.4301
G1 X39.939 Y76.717 E63.11782
G1 X39.96 Y76.716 E63.11887
G1 X84.55 Y76.115 E65.33811
G1 X84.358 Y72.765 E65.5051
G1 X84.354 Y72.59 E65.51381
G1 X84.419 Y66.369 E65.82342
G1 X84.422 Y66.263 E65.8287
G1 X84.586 Y63.069 E65.98786
G1 X84.65 Y62.618 E66.01053
G1 X84.756 Y62.292 E66.02759
G1 X84.722 Y61.973 E66.04355
G1 X84.758 Y61.484 E66.06795
G1 X85.133 Y59.294 E66.17853
G1 X85.201 Y59.002 E66.19345
G1 X85.746 Y57.143 E66.28985
G1 X85.841 Y56.874 E66.30405
G1 X86.123 Y56.198 E66.3405
G1 X86.263 Y55.913 E66.3563
G1 X86.994 Y54.63 E66.42979
G1 X87.254 Y54.255 E66.4525
G1 X87.72 Y53.695 E66.48875
G1 X87.996 Y53.41 E66.5085
G1 X88.504 Y52.961 E66.54224
G1 X88.871 Y52.691 E66.56491
G1 X89.425 Y52.353 E66.59721
G1 X89.964 Y52.103 E66.62678
G1 X90.835 Y51.816 E66.67242
G1 X91.472 Y51.692 E66.70471
G1 X92.61 Y51.615 E66.76147
G1 X93.065 Y51.624 E66.78412
G1 X93.31 Y51.663 E66.79647
G1 X94.451 Y51.899 E66.85445
G1 X94.887 Y52.03 E66.87711
G1 X95.172 Y52.164 E66.89278
G1 X96.019 Y52.628 E66.94084
G1 X96.48 Y52.95 E66.96883
G1 X96.987 Y53.393 E67.00233
G1 X97.271 Y53.683 E67.02253
G1 X97.738 Y54.242 E67.05878
G1 X97.988 Y54.598 E67.08043
G1 X98.654 Y55.74 E67.14622
G1 X98.801 Y56.034 E67.16258
G1 X99.157 Y56.873 E67.20794
G1 X99.258 Y57.155 E67.22284
G1 X99.799 Y58.997 E67.31838
G1 X99.867 Y59.29 E67.33335
