;FLAVOR:Marlin
;TIME:13369
;Filament used: 12.7947m
;Layer height: 0.2
;Generated with Cura_SteamEngine 2.7.0
M190 S60
M104 S220
M109 S220
G21 ;metric values
G90 ;absolute positioning
M82 ;set extruder to absolute mode
M107 ;start with the fan off
G92 E0 ;zero the extruded length
G1 F200 E3 ;extrude 3mm of feed stock
G92 E0 ;zero the extruded length again
G1 F9000
M117 Printing...
;LAYER_COUNT:70
;LAYER:0
M107
M204 S5000
G0 F2400 X128.345 Y31.694 Z0.3
G0 X128.389 Y33.174
M204 S200
;TYPE:SKIRT
G1 F1200 X128.315 Y32.792 E0.01936
G1 X128.29 Y32.242 E0.04676
G1 X128.345 Y31.694 E0.07417
G1 X128.479 Y31.16 E0.10157
G1 X128.652 Y30.728 E0.12473
G1 X128.736 Y30.55 E0.13452
G1 X129.006 Y30.071 E0.16189
G1 X129.343 Y29.636 E0.18927
G1 X129.739 Y29.254 E0.21665
G1 X130.187 Y28.933 E0.24408
G1 X130.676 Y28.681 E0.27146
G1 X131.196 Y28.503 E0.29881
G1 X131.737 Y28.401 E0.32621
G1 X132.168 Y28.377 E0.34769
G1 X151.126 Y28.399 E1.29114
G1 X151.675 Y28.44 E1.31854
G1 X152.212 Y28.559 E1.34591
G1 X152.727 Y28.755 E1.37334
G1 X153.207 Y29.024 E1.40072
G1 X153.643 Y29.359 E1.42808
G1 X153.983 Y29.703 E1.45215
G1 X154.222 Y29.978 E1.47028
G1 X154.552 Y30.419 E1.49769
G1 X154.815 Y30.902 E1.52506
G1 X155.005 Y31.419 E1.55248
G1 X155.118 Y31.957 E1.57983
G1 X155.152 Y32.507 E1.60726
G1 X155.115 Y32.993 E1.63151
G1 X154.083 Y40.333 E2.00038
G1 X154.073 Y40.4 E2.00375
G1 X151.189 Y58.55 E2.91833
G1 X151.063 Y59.086 E2.94573
G1 X150.862 Y59.598 E2.9731
G1 X150.588 Y60.075 E3.00048
G1 X150.248 Y60.508 E3.02788
G1 X149.896 Y60.847 E3.0522
G1 X149.673 Y61.036 E3.06675
G1 X149.229 Y61.36 E3.0941
G1 X148.742 Y61.617 E3.1215
G1 X148.223 Y61.801 E3.14891
G1 X147.683 Y61.907 E3.17629
G1 X147.218 Y61.935 E3.19948
G1 X125.565 Y61.915 E4.27705
G1 X125.017 Y61.875 E4.30439
G1 X124.479 Y61.755 E4.33182
G1 X123.965 Y61.559 E4.3592
G1 X123.485 Y61.291 E4.38656
G1 X123.048 Y60.955 E4.41399
G1 X122.665 Y60.561 E4.44134
G1 X122.343 Y60.114 E4.46875
G1 X122.088 Y59.626 E4.49615
G1 X121.908 Y59.107 E4.52349
G1 X121.804 Y58.566 E4.55091
G1 X121.78 Y58.016 E4.5783
G1 X121.835 Y57.469 E4.60566
G1 X121.931 Y57.057 E4.62671
G1 X121.997 Y56.832 E4.63838
G1 X122.19 Y56.316 E4.6658
G1 X122.456 Y55.834 E4.6932
G1 X122.697 Y55.515 E4.71309
G1 X124.045 Y50.956 E4.94968
G1 X125.247 Y46.396 E5.18437
G1 X125.279 Y46.281 E5.19031
G1 X125.833 Y44.418 E5.28703
G1 X126.966 Y39.692 E5.52889
G1 X127.492 Y37.094 E5.6608
G1 X127.513 Y37 E5.6656
G1 X128.389 Y33.174 E5.86093
M204 S5000
G0 F2400 X128.798 Y33.167
M204 S200
G1 F1200 X128.748 Y32.981 E5.87051
G1 X128.69 Y32.464 E5.8964
G1 X128.712 Y31.944 E5.9223
G1 X128.813 Y31.433 E5.94822
G1 X129.012 Y30.898 E5.97663
G1 X129.096 Y30.72 E5.98643
G1 X129.354 Y30.268 E6.01233
G1 X129.678 Y29.86 E6.03825
G1 X130.06 Y29.507 E6.06414
G1 X130.492 Y29.217 E6.09003
G1 X130.963 Y28.996 E6.11592
G1 X131.463 Y28.849 E6.14186
G1 X132.168 Y28.776 E6.17713
G1 X151.126 Y28.798 E7.12059
G1 X151.645 Y28.839 E7.14649
G1 X152.152 Y28.958 E7.17241
G1 X152.634 Y29.154 E7.19831
G1 X153.081 Y29.421 E7.22422
G1 X153.481 Y29.753 E7.25009
G1 X153.682 Y29.965 E7.26463
G1 X153.921 Y30.24 E7.28276
G1 X154.232 Y30.658 E7.30869
G1 X154.474 Y31.118 E7.33455
G1 X154.644 Y31.611 E7.3605
G1 X154.736 Y32.123 E7.38639
G1 X154.748 Y32.643 E7.41228
G1 X154.72 Y32.937 E7.42697
G1 X153.688 Y40.277 E7.79585
G1 X153.679 Y40.337 E7.79886
G1 X150.795 Y58.487 E8.71344
G1 X150.674 Y58.994 E8.73938
G1 X150.477 Y59.475 E8.76525
G1 X150.209 Y59.921 E8.79114
G1 X149.875 Y60.321 E8.81707
G1 X149.638 Y60.543 E8.83324
G1 X149.415 Y60.732 E8.84778
G1 X148.993 Y61.037 E8.87369
G1 X148.53 Y61.274 E8.89958
G1 X148.036 Y61.437 E8.92547
G1 X147.522 Y61.523 E8.9514
G1 X147.219 Y61.536 E8.96649
G1 X125.566 Y61.516 E10.04407
G1 X125.047 Y61.476 E10.06997
G1 X124.54 Y61.356 E10.0959
G1 X124.058 Y61.161 E10.12178
G1 X123.611 Y60.894 E10.14769
G1 X123.21 Y60.562 E10.1736
G1 X122.865 Y60.172 E10.19951
G1 X122.583 Y59.734 E10.22543
G1 X122.372 Y59.258 E10.25134
G1 X122.236 Y58.756 E10.27723
G1 X122.179 Y58.238 E10.30316
G1 X122.201 Y57.718 E10.32906
G1 X122.314 Y57.169 E10.35696
G1 X122.38 Y56.944 E10.36862
G1 X122.565 Y56.457 E10.39455
G1 X122.821 Y56.005 E10.4204
G1 X123.058 Y55.705 E10.43943
G1 X124.429 Y51.066 E10.68016
G1 X125.633 Y46.498 E10.91525
G1 X125.662 Y46.394 E10.92063
G1 X126.218 Y44.527 E11.01757
G1 X127.355 Y39.78 E11.26049
G1 X127.883 Y37.173 E11.39286
G1 X127.901 Y37.089 E11.39714
G1 X128.798 Y33.167 E11.59736
M204 S5000
G0 F2400 X129.207 Y33.17
M204 S200
G1 F1200 X129.19 Y33.123 E11.59984
G1 X129.102 Y32.642 E11.62418
G1 X129.093 Y32.153 E11.64852
G1 X129.165 Y31.669 E11.67287
G1 X129.373 Y31.069 E11.70447
G1 X129.457 Y30.891 E11.71427
G1 X129.701 Y30.467 E11.73861
G1 X130.011 Y30.089 E11.76294
G1 X130.378 Y29.766 E11.78727
G1 X130.793 Y29.507 E11.81162
G1 X131.245 Y29.32 E11.83596
G1 X131.721 Y29.208 E11.86029
G1 X132.167 Y29.175 E11.88255
G1 X151.125 Y29.197 E12.82601
G1 X151.613 Y29.238 E12.85038
G1 X152.087 Y29.357 E12.8747
G1 X152.535 Y29.552 E12.89901
G1 X152.946 Y29.817 E12.92335
G1 X153.381 Y30.227 E12.9531
G1 X153.62 Y30.502 E12.97123
G1 X153.91 Y30.896 E12.99558
G1 X154.131 Y31.332 E13.0199
G1 X154.279 Y31.798 E13.04423
G1 X154.348 Y32.282 E13.06856
G1 X154.325 Y32.882 E13.09844
G1 X153.293 Y40.222 E13.46732
G1 X153.285 Y40.275 E13.46998
G1 X150.401 Y58.425 E14.38456
G1 X150.285 Y58.9 E14.40889
G1 X150.093 Y59.349 E14.43319
G1 X149.831 Y59.762 E14.45753
G1 X149.38 Y60.238 E14.49017
G1 X149.157 Y60.427 E14.50471
G1 X148.76 Y60.712 E14.52903
G1 X148.321 Y60.928 E14.55338
G1 X147.853 Y61.07 E14.57772
G1 X147.219 Y61.137 E14.60945
G1 X125.566 Y61.117 E15.68702
G1 X125.079 Y61.077 E15.71134
G1 X124.605 Y60.957 E15.73567
G1 X124.156 Y60.763 E15.76001
G1 X123.746 Y60.497 E15.78433
G1 X123.384 Y60.169 E15.80864
G1 X123.08 Y59.786 E15.83298
G1 X122.842 Y59.358 E15.85735
G1 X122.678 Y58.898 E15.88165
G1 X122.59 Y58.417 E15.90599
G1 X122.582 Y57.928 E15.93033
G1 X122.697 Y57.282 E15.96298
G1 X122.763 Y57.057 E15.97465
G1 X122.938 Y56.6 E15.999
G1 X123.186 Y56.179 E16.02332
G1 X123.416 Y55.903 E16.0412
G1 X124.808 Y51.193 E16.28562
G1 X126.019 Y46.599 E16.52205
G1 X126.044 Y46.508 E16.52675
G1 X126.605 Y44.625 E16.62452
G1 X127.751 Y39.842 E16.86929
G1 X128.275 Y37.252 E17.00079
G1 X128.29 Y37.178 E17.00455
G1 X129.207 Y33.17 E17.20916
M204 S5000
G0 F2400 X129.62 Y33.155
M204 S200
G1 F1200 X129.521 Y32.773 E17.2288
G1 X129.486 Y32.319 E17.25146
G1 X129.531 Y31.867 E17.27407
G1 X129.734 Y31.239 E17.30691
G1 X129.818 Y31.061 E17.31671
G1 X130.048 Y30.668 E17.33937
G1 X130.342 Y30.321 E17.362
G1 X130.693 Y30.031 E17.38466
G1 X131.089 Y29.807 E17.4073
G1 X131.518 Y29.656 E17.42994
G1 X132.167 Y29.574 E17.46249
G1 X151.125 Y29.596 E18.40595
G1 X151.578 Y29.636 E18.42858
G1 X152.018 Y29.756 E18.45127
G1 X152.429 Y29.949 E18.47387
G1 X152.801 Y30.212 E18.49654
G1 X153.08 Y30.488 E18.51607
G1 X153.319 Y30.763 E18.5342
G1 X153.586 Y31.132 E18.55687
G1 X153.785 Y31.541 E18.57951
G1 X153.909 Y31.979 E18.60216
G1 X153.955 Y32.432 E18.62482
G1 X153.93 Y32.826 E18.64447
G1 X152.898 Y40.166 E19.01334
G1 X152.891 Y40.212 E19.01565
G1 X150.007 Y58.362 E19.93023
G1 X149.896 Y58.804 E19.95291
G1 X149.71 Y59.219 E19.97554
G1 X149.455 Y59.595 E19.99815
G1 X149.122 Y59.934 E20.0218
G1 X148.899 Y60.123 E20.03635
G1 X148.528 Y60.386 E20.05898
G1 X148.116 Y60.579 E20.08162
G1 X147.676 Y60.698 E20.1043
G1 X147.22 Y60.738 E20.12708
G1 X125.567 Y60.718 E21.20465
G1 X125.113 Y60.678 E21.22734
G1 X124.674 Y60.559 E21.24997
G1 X124.262 Y60.365 E21.27263
G1 X123.891 Y60.102 E21.29527
G1 X123.571 Y59.778 E21.31793
G1 X123.313 Y59.404 E21.34054
G1 X123.124 Y58.989 E21.36323
G1 X123.01 Y58.549 E21.38585
G1 X122.975 Y58.095 E21.40851
G1 X123.02 Y57.642 E21.43117
G1 X123.08 Y57.394 E21.44387
G1 X123.146 Y57.169 E21.45553
G1 X123.312 Y56.745 E21.47819
G1 X123.549 Y56.357 E21.50082
G1 X123.771 Y56.106 E21.5175
G1 X125.205 Y51.256 E21.76919
G1 X126.405 Y46.701 E22.0036
G1 X126.427 Y46.622 E22.00769
G1 X126.987 Y44.739 E22.10545
G1 X128.14 Y39.93 E22.35156
G1 X128.666 Y37.331 E22.48352
G1 X128.679 Y37.267 E22.48677
G1 X129.62 Y33.155 E22.69669
M204 S5000
G0 F2400 X130.036 Y33.123
M204 S200
G1 F1200 X129.945 Y32.855 E22.71078
G1 X129.887 Y32.44 E22.73163
G1 X129.909 Y32.022 E22.75246
G1 X130.01 Y31.616 E22.77328
G1 X130.095 Y31.409 E22.78442
G1 X130.179 Y31.231 E22.79421
G1 X130.393 Y30.871 E22.81506
G1 X130.671 Y30.559 E22.83585
G1 X131.004 Y30.305 E22.8567
G1 X131.379 Y30.118 E22.87755
G1 X131.782 Y30.007 E22.89835
G1 X132.167 Y29.973 E22.91759
G1 X151.125 Y29.995 E23.86104
G1 X151.541 Y30.035 E23.88184
G1 X151.943 Y30.154 E23.9027
G1 X152.314 Y30.347 E23.92351
G1 X152.779 Y30.75 E23.95414
G1 X153.018 Y31.025 E23.97227
G1 X153.261 Y31.366 E23.99311
G1 X153.435 Y31.746 E24.0139
G1 X153.534 Y32.153 E24.03475
G1 X153.535 Y32.771 E24.06551
G1 X152.503 Y40.111 E24.43438
G1 X152.497 Y40.149 E24.43629
G1 X149.613 Y58.299 E25.35087
G1 X149.508 Y58.705 E25.37174
G1 X149.328 Y59.083 E25.39257
G1 X149.08 Y59.42 E25.41339
G1 X148.864 Y59.629 E25.42835
G1 X148.641 Y59.818 E25.4429
G1 X148.298 Y60.057 E25.4637
G1 X147.915 Y60.227 E25.48456
G1 X147.507 Y60.32 E25.50538
G1 X147.22 Y60.339 E25.5197
G1 X125.567 Y60.319 E26.59727
G1 X125.15 Y60.279 E26.61812
G1 X124.749 Y60.16 E26.63893
G1 X124.377 Y59.967 E26.65979
G1 X124.049 Y59.708 E26.68059
G1 X123.776 Y59.39 E26.70144
G1 X123.568 Y59.027 E26.72226
G1 X123.433 Y58.631 E26.74308
G1 X123.376 Y58.216 E26.76393
G1 X123.398 Y57.798 E26.78476
G1 X123.463 Y57.506 E26.79965
G1 X123.529 Y57.281 E26.81132
G1 X123.684 Y56.893 E26.83211
G1 X123.911 Y56.541 E26.85295
G1 X124.126 Y56.316 E26.86844
G1 X125.575 Y51.413 E27.12287
G1 X126.79 Y46.803 E27.36013
G1 X126.809 Y46.736 E27.36359
G1 X127.373 Y44.841 E27.46199
G1 X128.53 Y40.012 E27.70911
G1 X129.057 Y37.41 E27.84123
G1 X129.068 Y37.356 E27.84397
G1 X130.036 Y33.123 E28.06006
M204 S5000
G0 F2400 X130.454 Y33.086
M204 S200
G1 F1200 X130.366 Y32.883 E28.07107
G1 X130.292 Y32.512 E28.0899
G1 X130.297 Y32.134 E28.10871
G1 X130.381 Y31.765 E28.12755
G1 X130.456 Y31.58 E28.13748
G1 X130.54 Y31.402 E28.14728
G1 X130.736 Y31.078 E28.16612
G1 X130.997 Y30.803 E28.18499
G1 X131.309 Y30.589 E28.20382
G1 X131.659 Y30.445 E28.22265
G1 X132.166 Y30.372 E28.24814
G1 X151.124 Y30.394 E29.1916
G1 X151.5 Y30.434 E29.21042
G1 X151.86 Y30.553 E29.22928
G1 X152.187 Y30.744 E29.24813
G1 X152.478 Y31.012 E29.26782
G1 X152.717 Y31.287 E29.28595
G1 X152.933 Y31.597 E29.30475
G1 X153.08 Y31.946 E29.3236
G1 X153.151 Y32.318 E29.34245
G1 X153.14 Y32.715 E29.36221
G1 X152.108 Y40.055 E29.73108
G1 X152.103 Y40.087 E29.73269
G1 X149.219 Y58.237 E30.64727
G1 X149.12 Y58.602 E30.66609
G1 X148.947 Y58.939 E30.68494
G1 X148.606 Y59.325 E30.71057
G1 X148.383 Y59.514 E30.72512
G1 X148.07 Y59.727 E30.74396
G1 X147.72 Y59.87 E30.76278
G1 X147.22 Y59.94 E30.7879
G1 X125.567 Y59.92 E31.86547
G1 X125.191 Y59.88 E31.88429
G1 X124.831 Y59.762 E31.90314
G1 X124.505 Y59.571 E31.92195
G1 X124.225 Y59.315 E31.94083
G1 X124.005 Y59.007 E31.95966
G1 X123.855 Y58.66 E31.97848
G1 X123.781 Y58.289 E31.9973
G1 X123.786 Y57.91 E32.01617
G1 X123.846 Y57.618 E32.031
G1 X123.912 Y57.393 E32.04267
G1 X124.056 Y57.044 E32.06146
G1 X124.27 Y56.732 E32.08029
G1 X124.477 Y56.535 E32.09451
G1 X125.957 Y51.531 E32.3542
G1 X127.176 Y46.904 E32.59232
G1 X127.192 Y46.85 E32.59512
G1 X127.756 Y44.955 E32.69352
G1 X128.922 Y40.089 E32.94253
G1 X129.448 Y37.49 E33.07449
G1 X129.457 Y37.445 E33.07678
G1 X130.454 Y33.086 E33.29931
M204 S5000
G0 F2400 X130.875 Y33.035
M204 S200
G1 F1200 X130.779 Y32.856 E33.30942
G1 X130.696 Y32.533 E33.32601
G1 X130.691 Y32.199 E33.34264
G1 X130.817 Y31.75 E33.36584
G1 X130.901 Y31.572 E33.37564
G1 X131.078 Y31.289 E33.39225
G1 X131.317 Y31.057 E33.40883
G1 X131.605 Y30.888 E33.42544
G1 X131.925 Y30.792 E33.44207
G1 X132.166 Y30.771 E33.45411
G1 X151.124 Y30.793 E34.39756
G1 X151.455 Y30.833 E34.41416
G1 X151.767 Y30.951 E34.43076
G1 X152.043 Y31.139 E34.44738
G1 X152.176 Y31.274 E34.45681
G1 X152.415 Y31.549 E34.47494
G1 X152.603 Y31.825 E34.49156
G1 X152.719 Y32.138 E34.50817
G1 X152.758 Y32.469 E34.52476
G1 X152.744 Y32.66 E34.53429
G1 X151.712 Y40 E34.90316
G1 X151.709 Y40.024 E34.90436
G1 X148.825 Y58.174 E35.81894
G1 X148.733 Y58.495 E35.83555
G1 X148.568 Y58.785 E35.85216
G1 X148.348 Y59.021 E35.86821
G1 X148.125 Y59.21 E35.88276
G1 X147.847 Y59.394 E35.89935
G1 X147.533 Y59.506 E35.91594
G1 X147.221 Y59.541 E35.93157
G1 X125.568 Y59.521 E37.00914
G1 X125.236 Y59.481 E37.02578
G1 X124.924 Y59.363 E37.04238
G1 X124.649 Y59.175 E37.05896
G1 X124.426 Y58.927 E37.07556
G1 X124.268 Y58.633 E37.09217
G1 X124.184 Y58.31 E37.10878
G1 X124.18 Y57.976 E37.1254
G1 X124.228 Y57.731 E37.13782
G1 X124.294 Y57.506 E37.14949
G1 X124.426 Y57.199 E37.16612
G1 X124.626 Y56.932 E37.18272
G1 X124.823 Y56.772 E37.19535
G1 X126.353 Y51.595 E37.46401
G1 X127.562 Y47.006 E37.70017
G1 X127.574 Y46.964 E37.70235
G1 X128.143 Y45.052 E37.80162
G1 X129.31 Y40.182 E38.05084
G1 X129.839 Y37.569 E38.18352
G1 X129.846 Y37.534 E38.18529
G1 X130.875 Y33.035 E38.41497
M204 S5000
G0 F2400 X131.302 Y32.962
M204 S200
G1 F1200 X131.176 Y32.769 E38.42644
G1 X131.094 Y32.499 E38.44048
G1 X131.09 Y32.217 E38.45452
G1 X131.177 Y31.92 E38.46992
G1 X131.261 Y31.742 E38.47971
G1 X131.417 Y31.507 E38.49375
G1 X131.631 Y31.324 E38.50776
G1 X131.888 Y31.209 E38.52178
G1 X132.165 Y31.17 E38.5357
G1 X151.123 Y31.192 E39.47915
G1 X151.402 Y31.232 E39.49318
G1 X151.659 Y31.349 E39.50723
G1 X151.875 Y31.535 E39.52142
G1 X152.114 Y31.81 E39.53955
G1 X152.267 Y32.047 E39.55359
G1 X152.348 Y32.317 E39.56761
G1 X152.349 Y32.604 E39.5819
G1 X151.317 Y39.944 E39.95077
G1 X151.315 Y39.962 E39.95167
G1 X148.431 Y58.112 E40.86625
G1 X148.348 Y58.381 E40.88025
G1 X148.192 Y58.616 E40.89429
G1 X148.09 Y58.716 E40.9014
G1 X147.867 Y58.905 E40.91595
G1 X147.629 Y59.055 E40.92995
G1 X147.221 Y59.142 E40.95071
G1 X125.568 Y59.122 E42.02828
G1 X125.289 Y59.082 E42.04231
G1 X125.032 Y58.965 E42.05636
G1 X124.819 Y58.782 E42.07034
G1 X124.665 Y58.546 E42.08436
G1 X124.583 Y58.276 E42.0984
G1 X124.579 Y57.994 E42.11244
G1 X124.611 Y57.843 E42.12012
G1 X124.677 Y57.618 E42.13179
G1 X124.794 Y57.362 E42.1458
G1 X124.978 Y57.148 E42.15984
G1 X125.164 Y57.027 E42.17088
G1 X126.736 Y51.708 E42.4469
G1 X127.948 Y47.108 E42.68364
G1 X127.956 Y47.077 E42.68523
G1 X128.531 Y45.145 E42.78555
G1 X129.698 Y40.275 E43.03477
G1 X130.23 Y37.648 E43.16815
G1 X130.235 Y37.623 E43.16942
G1 X131.302 Y32.962 E43.40738
M204 S5000
G0 F2400 X131.741 Y32.829
M204 S200
G1 F1200 X131.68 Y32.792 E43.41093
G1 X131.547 Y32.619 E43.42179
G1 X131.484 Y32.41 E43.43265
G1 X131.538 Y32.09 E43.4488
G1 X131.622 Y31.912 E43.4586
G1 X131.75 Y31.735 E43.46947
G1 X131.932 Y31.616 E43.48029
G1 X132.165 Y31.569 E43.49212
G1 X151.123 Y31.591 E44.43557
G1 X151.337 Y31.631 E44.44641
G1 X151.574 Y31.797 E44.46081
G1 X151.813 Y32.072 E44.47894
G1 X151.924 Y32.26 E44.4898
G1 X151.954 Y32.548 E44.50421
G1 X150.922 Y39.888 E44.87309
G1 X150.921 Y39.899 E44.87363
G1 X148.037 Y58.049 E45.78821
G1 X147.964 Y58.254 E45.79904
G1 X147.832 Y58.412 E45.80929
G1 X147.609 Y58.601 E45.82383
G1 X147.42 Y58.709 E45.83467
G1 X147.221 Y58.743 E45.84471
G1 X125.568 Y58.723 E46.92228
G1 X125.354 Y58.683 E46.93312
G1 X125.168 Y58.569 E46.94398
G1 X125.035 Y58.396 E46.95484
G1 X124.973 Y58.187 E46.96568
G1 X124.994 Y57.955 E46.97728
G1 X125.06 Y57.73 E46.98895
G1 X125.159 Y57.536 E46.99979
G1 X125.32 Y57.389 E47.01063
G1 X125.493 Y57.323 E47.01985
G1 X127.114 Y51.837 E47.30453
G1 X128.334 Y47.209 E47.54271
G1 X128.339 Y47.191 E47.54364
G1 X128.914 Y45.259 E47.64396
G1 X130.086 Y40.368 E47.89425
G1 X130.621 Y37.727 E48.02835
G1 X130.624 Y37.712 E48.02911
G1 X131.741 Y32.829 E48.2784
M204 S5000
G0 F2400 X132.215 Y32.546
M204 S200
G1 F1200 X132.08 Y32.546 E48.28511
G1 X131.961 Y32.507 E48.29135
G1 X131.889 Y32.405 E48.29756
G1 X131.899 Y32.261 E48.30474
G1 X131.983 Y32.083 E48.31454
G1 X132.069 Y31.992 E48.32077
G1 X132.164 Y31.968 E48.32564
G1 X151.122 Y31.99 E49.2691
