; G-Code generated by Simplify3D(R) Version 3.1.0
; 3 7, 2017 at 8:07:27 ODP.
; Settings Summary
;   processName,aileron
;   applyToModels,cessna_152_rudder
;   profileName,Default (modified)
;   profileVersion,2016-04-14 15:44:02
;   baseProfile,Default
;   printMaterial,
;   printQuality,
;   printExtruders,
;   extruderName,Primary Extruder
;   extruderToolheadNumber,0
;   extruderDiameter,0.4
;   extruderAutoWidth,0
;   extruderWidth,0.42
;   extrusionMultiplier,1.02
;   extruderUseRetract,1
;   extruderRetractionDistance,0.8
;   extruderExtraRestartDistance,0.08
;   extruderRetractionZLift,0
;   extruderRetractionSpeed,1800
;   extruderUseCoasting,1
;   extruderCoastingDistance,0.2
;   extruderUseWipe,1
;   extruderWipeDistance,2
;   primaryExtruder,0
;   layerHeight,0.25
;   topSolidLayers,2
;   bottomSolidLayers,4
;   perimeterOutlines,1
;   printPerimetersInsideOut,1
;   startPointOption,3
;   startPointOriginX,200
;   startPointOriginY,0
;   startPointOriginZ,-300
;   sequentialIslands,0
;   spiralVaseMode,0
;   firstLayerHeightPercentage,90
;   firstLayerWidthPercentage,103
;   firstLayerUnderspeed,0.5
;   useRaft,0
;   raftExtruder,0
;   raftLayers,3
;   raftOffset,3
;   raftSeparationDistance,0.14
;   raftInfill,85
;   disableRaftBaseLayers,0
;   useSkirt,1
;   skirtExtruder,0
;   skirtLayers,1
;   skirtOutlines,1
;   skirtOffset,1.4
;   usePrimePillar,0
;   primePillarExtruder,999
;   primePillarWidth,12
;   primePillarLocation,7
;   primePillarSpeedMultiplier,1
;   useOozeShield,0
;   oozeShieldExtruder,999
;   oozeShieldOffset,2
;   oozeShieldOutlines,1
;   oozeShieldSidewallShape,1
;   oozeShieldSidewallAngle,30
;   oozeShieldSpeedMultiplier,1
;   infillExtruder,0
;   internalInfillPattern,Rectilinear
;   externalInfillPattern,Rectilinear
;   infillPercentage,0
;   outlineOverlapPercentage,15
;   infillExtrusionWidthPercentage,100
;   minInfillLength,5
;   infillLayerInterval,1
;   infillAngles,45,-45
;   overlapInfillAngles,0
;   generateSupport,0
;   supportExtruder,0
;   supportInfillPercentage,30
;   supportExtraInflation,0
;   denseSupportLayers,0
;   denseSupportInfillPercentage,70
;   supportLayerInterval,1
;   supportHorizontalPartOffset,0.3
;   supportUpperSeparationLayers,1
;   supportLowerSeparationLayers,1
;   supportType,0
;   supportGridSpacing,4
;   maxOverhangAngle,45
;   supportAngles,0
;   temperatureName,Primary Extruder,Heated Bed
;   temperatureNumber,0,1
;   temperatureSetpointCount,1,1
;   temperatureSetpointLayers,1,1
;   temperatureSetpointTemperatures,230,50
;   temperatureStabilizeAtStartup,1,1
;   temperatureHeatedBed,0,1
;   temperatureRelayBetweenLayers,0,0
;   temperatureRelayBetweenLoops,0,0
;   fanLayers,1,500,518
;   fanSpeeds,0,60,90
;   blipFanToFullPower,1
;   adjustSpeedForCooling,1
;   minSpeedLayerTime,15
;   minCoolingSpeedSlowdown,30
;   increaseFanForCooling,0
;   minFanLayerTime,45
;   maxCoolingFanSpeed,100
;   increaseFanForBridging,0
;   bridgingFanSpeed,100
;   use5D,1
;   relativeEdistances,0
;   allowEaxisZeroing,1
;   independentExtruderAxes,0
;   includeM10123,0
;   stickySupport,1
;   applyToolheadOffsets,0
;   gcodeXoffset,0
;   gcodeYoffset,0
;   gcodeZoffset,0
;   overrideMachineDefinition,1
;   machineTypeOverride,0
;   strokeXoverride,195
;   strokeYoverride,195
;   strokeZoverride,150
;   originOffsetXoverride,0
;   originOffsetYoverride,0
;   originOffsetZoverride,0
;   homeXdirOverride,-1
;   homeYdirOverride,-1
;   homeZdirOverride,-1
;   flipXoverride,1
;   flipYoverride,-1
;   flipZoverride,1
;   toolheadOffsets,0,0|0,0|0,0|0,0|0,0|0,0
;   overrideFirmwareConfiguration,1
;   firmwareTypeOverride,RepRap (Marlin/Repetier/Sprinter)
;   GPXconfigOverride,r2
;   baudRateOverride,115200
;   overridePrinterModels,0
;   printerModelsOverride
;   startingGcode,G28,
;   layerChangeGcode,
;   retractionGcode,
;   toolChangeGcode,
;   endingGcode,M104 S0 ; turn off extruder,M140 S0 ; turn off bed,G28 X0 ; home X axis,M84 ; disable motors,M107 ; turn off fan
;   exportFileFormat,gcode
;   celebration,0
;   celebrationSong,Random Song
;   postProcessing,
;   defaultSpeed,3600
;   outlineUnderspeed,0.7
;   solidInfillUnderspeed,0.8
;   supportUnderspeed,0.8
;   rapidXYspeed,7800
;   rapidZspeed,1002
;   minBridgingArea,5
;   bridgingExtraInflation,0
;   bridgingExtrusionMultiplier,1
;   bridgingSpeedMultiplier,0.3
;   filamentDiameter,1.75
;   filamentPricePerKg,1000
;   filamentDensity,1.25
;   useMinPrintHeight,0
;   minPrintHeight,0
;   useMaxPrintHeight,0
;   maxPrintHeight,1
;   useDiaphragm,0
;   diaphragmLayerInterval,20
;   robustSlicing,1
;   mergeAllIntoSolid,0
;   onlyRetractWhenCrossingOutline,0
;   retractBetweenLayers,0
;   useRetractionMinTravel,0
;   retractionMinTravel,3
;   retractWhileWiping,0
;   onlyWipeOutlines,1
;   avoidCrossingOutline,0
;   maxMovementDetourFactor,3
;   toolChangeRetractionDistance,0
;   toolChangeExtraRestartDistance,0
;   toolChangeRetractionSpeed,360
;   allowThinWallGapFill,1
;   thinWallAllowedOverlapPercentage,10
;   horizontalSizeCompensation,0
G90
M82
M106 S0
M140 S50
M190 S50
M104 S230 T0
M109 S230 T0
G28
G92 E0
G1 E-0.8000 F1800
G1 Z0.225 F1002
; layer 1, Z = 0.225
T0
; tool H0.250 W0.433
; skirt
G1 X76.876 Y50.394 F7800
G1 E0.0800 F540
G92 E0
G1 X76.911 Y50.325 E0.0035 F1800
G1 X77.764 Y49.568 E0.0558
G1 X77.836 Y49.541 E0.0594
G1 X80.751 Y49.541 E0.1931
G1 X80.823 Y49.568 E0.1966
G1 X81.676 Y50.326 E0.2489
G1 X81.712 Y50.395 E0.2525
G1 X83.156 Y62.562 E0.8144
G1 X83.157 Y62.571 E0.8148
G1 X83.944 Y69.992 E1.1570
G1 X83.945 Y69.999 E1.1573
G1 X85.267 Y83.641 E1.7859
G1 X85.267 Y83.644 E1.7860
G1 X86.012 Y91.672 E2.1558
G1 X86.013 Y91.678 E2.1560
G1 X86.598 Y98.569 E2.4732
G1 X86.598 Y98.576 E2.4735
G1 X86.967 Y103.424 E2.6965
G1 X86.967 Y103.433 E2.6969
G1 X87.586 Y113.019 E3.1374
G1 X87.586 Y113.022 E3.1375
G1 X87.588 Y113.069 E3.1397
G1 X87.588 Y113.072 E3.1398
G1 X87.611 Y122.569 E3.5754
G1 X87.610 Y122.574 E3.5756
G1 X87.607 Y122.646 E3.5789
G1 X87.607 Y122.651 E3.5791
G1 X87.523 Y123.549 E3.6205
G1 X87.522 Y123.552 E3.6207
G1 X87.517 Y123.595 E3.6226
G1 X87.517 Y123.598 E3.6228
G1 X87.372 Y124.546 E3.6668
G1 X87.372 Y124.550 E3.6669
G1 X87.361 Y124.606 E3.6695
G1 X87.360 Y124.610 E3.6697
G1 X87.196 Y125.322 E3.7032
G1 X87.196 Y125.325 E3.7034
G1 X87.183 Y125.373 E3.7057
G1 X87.182 Y125.377 E3.7058
G1 X86.950 Y126.146 E3.7427
G1 X86.949 Y126.150 E3.7429
G1 X86.934 Y126.195 E3.7451
G1 X86.932 Y126.198 E3.7452
G1 X86.633 Y127.002 E3.7845
G1 X86.632 Y127.005 E3.7847
G1 X86.613 Y127.052 E3.7870
G1 X86.611 Y127.055 E3.7872
G1 X86.247 Y127.863 E3.8278
G1 X86.245 Y127.867 E3.8280
G1 X86.219 Y127.919 E3.8307
G1 X86.217 Y127.923 E3.8309
G1 X85.788 Y128.705 E3.8718
G1 X85.786 Y128.709 E3.8720
G1 X85.748 Y128.771 E3.8753
G1 X85.745 Y128.775 E3.8756
G1 X85.251 Y129.500 E3.9158
G1 X85.248 Y129.504 E3.9161
G1 X85.197 Y129.571 E3.9199
G1 X85.193 Y129.576 E3.9202
G1 X84.631 Y130.230 E3.9598
G1 X84.626 Y130.235 E3.9601
G1 X84.560 Y130.303 E3.9644
G1 X84.555 Y130.308 E3.9647
G1 X83.919 Y130.881 E4.0040
G1 X83.914 Y130.886 E4.0043
G1 X83.832 Y130.951 E4.0091
G1 X83.826 Y130.955 E4.0095
G1 X83.126 Y131.429 E4.0482
G1 X83.121 Y131.432 E4.0485
G1 X83.051 Y131.475 E4.0523
G1 X83.046 Y131.478 E4.0525
G1 X82.651 Y131.686 E4.0730
G1 X82.648 Y131.688 E4.0732
G1 X82.601 Y131.711 E4.0755
G1 X82.598 Y131.712 E4.0757
G1 X82.192 Y131.892 E4.0961
G1 X82.187 Y131.894 E4.0963
G1 X82.118 Y131.921 E4.0997
G1 X82.113 Y131.923 E4.1000
G1 X81.307 Y132.189 E4.1389
G1 X81.301 Y132.191 E4.1392
G1 X81.209 Y132.215 E4.1436
G1 X81.202 Y132.217 E4.1439
G1 X80.364 Y132.381 E4.1831
G1 X80.357 Y132.382 E4.1834
G1 X80.263 Y132.394 E4.1877
G1 X80.256 Y132.395 E4.1880
G1 X79.429 Y132.450 E4.2260
G1 X79.424 Y132.450 E4.2263
G1 X79.349 Y132.451 E4.2297
G1 X79.344 Y132.451 E4.2299
G1 X78.905 Y132.437 E4.2501
G1 X78.899 Y132.437 E4.2504
G1 X78.822 Y132.430 E4.2539
G1 X78.817 Y132.429 E4.2542
G1 X78.019 Y132.321 E4.2911
G1 X78.011 Y132.319 E4.2914
G1 X77.909 Y132.298 E4.2962
G1 X77.902 Y132.296 E4.2965
G1 X77.119 Y132.076 E4.3338
G1 X77.112 Y132.074 E4.3342
G1 X77.017 Y132.040 E4.3388
G1 X77.010 Y132.038 E4.3392
G1 X76.259 Y131.712 E4.3767
G1 X76.253 Y131.709 E4.3770
G1 X76.168 Y131.665 E4.3814
G1 X76.162 Y131.662 E4.3817
G1 X75.446 Y131.236 E4.4199
G1 X75.440 Y131.233 E4.4202
G1 X75.367 Y131.183 E4.4243
G1 X75.362 Y131.180 E4.4246
G1 X74.684 Y130.660 E4.4637
G1 X74.680 Y130.656 E4.4640
G1 X74.617 Y130.602 E4.4678
G1 X74.612 Y130.598 E4.4681
G1 X73.981 Y129.992 E4.5082
G1 X73.977 Y129.988 E4.5085
G1 X73.922 Y129.930 E4.5122
G1 X73.918 Y129.926 E4.5124
G1 X73.341 Y129.240 E4.5535
G1 X73.337 Y129.235 E4.5538
G1 X73.290 Y129.173 E4.5574
G1 X73.287 Y129.169 E4.5576
G1 X72.770 Y128.406 E4.5999
G1 X72.767 Y128.401 E4.6001
G1 X72.723 Y128.328 E4.6040
G1 X72.720 Y128.323 E4.6043
G1 X72.094 Y127.130 E4.6661
G1 X72.092 Y127.126 E4.6663
G1 X72.062 Y127.062 E4.6696
G1 X72.060 Y127.057 E4.6698
G1 X71.726 Y126.245 E4.7100
G1 X71.725 Y126.242 E4.7102
G1 X71.707 Y126.194 E4.7126
G1 X71.706 Y126.190 E4.7127
G1 X71.449 Y125.420 E4.7500
G1 X71.448 Y125.416 E4.7502
G1 X71.433 Y125.365 E4.7526
G1 X71.432 Y125.362 E4.7528
G1 X71.250 Y124.653 E4.7864
G1 X71.249 Y124.649 E4.7865
G1 X71.238 Y124.600 E4.7888
G1 X71.238 Y124.597 E4.7890
G1 X71.115 Y123.943 E4.8195
G1 X71.115 Y123.940 E4.8196
G1 X71.108 Y123.899 E4.8215
G1 X71.108 Y123.896 E4.8217
G1 X70.895 Y122.255 E4.8975
G1 X70.819 Y121.877 E4.9152
G1 X70.739 Y121.633 E4.9270
G1 X70.714 Y121.589 E4.9293
G1 X70.571 Y121.569 E4.9360
G1 X70.108 Y121.612 E4.9573
G1 X69.325 Y121.813 E4.9944
G1 X68.305 Y122.168 E5.0439
G1 X67.141 Y122.641 E5.1015
G1 X65.902 Y123.191 E5.1637
G1 X60.320 Y125.850 E5.4473
G1 X60.317 Y125.852 E5.4474
G1 X60.271 Y125.872 E5.4497
G1 X60.267 Y125.873 E5.4499
G1 X58.963 Y126.390 E5.5143
G1 X58.956 Y126.392 E5.5146
G1 X58.865 Y126.422 E5.5190
G1 X58.858 Y126.423 E5.5193
G1 X57.975 Y126.648 E5.5611
G1 X57.966 Y126.650 E5.5615
G1 X57.831 Y126.671 E5.5678
G1 X57.821 Y126.672 E5.5682
G1 X57.403 Y126.700 E5.5875
G1 X57.391 Y126.701 E5.5880
G1 X57.220 Y126.693 E5.5959
G1 X57.208 Y126.691 E5.5964
G1 X56.636 Y126.599 E5.6230
G1 X56.623 Y126.596 E5.6236
G1 X56.445 Y126.544 E5.6321
G1 X56.433 Y126.539 E5.6327
G1 X55.765 Y126.251 E5.6661
G1 X55.754 Y126.246 E5.6666
G1 X55.599 Y126.156 E5.6748
G1 X55.589 Y126.149 E5.6754
G1 X55.167 Y125.832 E5.6996
G1 X55.159 Y125.826 E5.7001
G1 X55.052 Y125.728 E5.7067
G1 X55.045 Y125.721 E5.7072
G1 X54.693 Y125.330 E5.7313
G1 X54.687 Y125.323 E5.7317
G1 X54.607 Y125.217 E5.7378
G1 X54.602 Y125.210 E5.7382
G1 X54.314 Y124.748 E5.7632
G1 X54.310 Y124.742 E5.7635
G1 X54.262 Y124.653 E5.7681
G1 X54.259 Y124.646 E5.7685
G1 X54.117 Y124.331 E5.7843
G1 X54.114 Y124.323 E5.7847
G1 X54.072 Y124.204 E5.7905
G1 X54.069 Y124.196 E5.7909
G1 X53.907 Y123.579 E5.8202
G1 X53.905 Y123.570 E5.8206
G1 X53.883 Y123.440 E5.8266
G1 X53.882 Y123.431 E5.8270
G1 X53.848 Y123.015 E5.8462
G1 X53.848 Y123.006 E5.8466
G1 X53.848 Y122.873 E5.8527
G1 X53.849 Y122.863 E5.8532
G1 X53.925 Y122.067 E5.8898
G1 X53.927 Y122.056 E5.8903
G1 X53.958 Y121.903 E5.8975
G1 X53.960 Y121.892 E5.8980
G1 X54.242 Y120.994 E5.9412
G1 X54.244 Y120.987 E5.9415
G1 X54.282 Y120.889 E5.9464
G1 X54.285 Y120.882 E5.9467
G1 X54.536 Y120.354 E5.9735
G1 X54.538 Y120.350 E5.9737
G1 X54.567 Y120.295 E5.9765
G1 X54.569 Y120.291 E5.9767
G1 X54.899 Y119.724 E6.0068
G1 X54.900 Y119.721 E6.0070
G1 X54.927 Y119.678 E6.0093
G1 X54.929 Y119.676 E6.0095
G1 X55.360 Y119.036 E6.0448
G1 X55.361 Y119.034 E6.0450
G1 X55.384 Y119.002 E6.0467
G1 X55.386 Y119.000 E6.0469
G1 X55.939 Y118.264 E6.0891
G1 X55.940 Y118.261 E6.0892
G1 X55.966 Y118.229 E6.0911
G1 X55.968 Y118.227 E6.0913
G1 X57.472 Y116.441 E6.1983
G1 X57.473 Y116.440 E6.1984
G1 X57.491 Y116.419 E6.1997
G1 X57.492 Y116.418 E6.1997
G1 X58.532 Y115.269 E6.2708
G1 X58.544 Y115.256 E6.2716
G1 X62.531 Y111.035 E6.5378
G1 X65.456 Y107.837 E6.7366
G1 X66.829 Y106.239 E6.8332
G1 X68.082 Y104.679 E6.9249
G1 X69.153 Y103.207 E7.0085
G1 X70.000 Y101.852 E7.0818
G1 X70.662 Y100.589 E7.1471
G1 X71.169 Y99.402 E7.2063
G1 X71.550 Y98.272 E7.2610
G1 X71.836 Y97.177 E7.3130
G1 X72.048 Y96.104 E7.3631
G1 X72.360 Y93.921 E7.4642
G1 X73.102 Y85.936 E7.8320
G1 X73.103 Y85.933 E7.8322
G1 X74.934 Y67.145 E8.6979
G1 X74.935 Y67.135 E8.6983
G1 X75.613 Y60.974 E8.9825
G1 X75.613 Y60.967 E8.9829
G1 X76.853 Y50.582 E9.4625
G1 X76.876 Y50.394 F1800
G92 E0
G1 E-0.8000 F1800
G1 X95.305 Y62.194 F7800
G1 E0.0800 F1800
G92 E0
G1 X96.147 Y61.473 E0.0508 F1800
G1 X96.218 Y61.447 E0.0543
G1 X98.405 Y61.447 E0.1546
G1 X98.475 Y61.473 E0.1580
G1 X99.317 Y62.191 E0.2088
G1 X99.354 Y62.256 E0.2122
G1 X100.392 Y68.736 E0.5132
G1 X100.394 Y68.746 E0.5136
G1 X100.662 Y70.551 E0.5973
G1 X100.664 Y70.565 E0.5979
G1 X101.077 Y73.732 E0.7443
G1 X101.079 Y73.752 E0.7452
G1 X101.660 Y79.266 E0.9994
G1 X101.661 Y79.277 E0.9999
G1 X102.501 Y88.433 E1.4215
G1 X102.503 Y88.451 E1.4223
G1 X102.855 Y93.587 E1.6583
G1 X102.856 Y93.604 E1.6591
G1 X103.089 Y98.553 E1.8863
G1 X103.089 Y98.566 E1.8868
G1 X103.314 Y105.908 E2.2236
G1 X103.314 Y105.916 E2.2240
G1 X103.438 Y111.933 E2.5000
G1 X103.438 Y111.942 E2.5004
G1 X103.511 Y120.017 E2.8707
G1 X103.512 Y120.029 E2.8712
G1 X103.472 Y126.777 E3.1806
G1 X103.471 Y126.792 E3.1813
G1 X103.281 Y134.192 E3.5208
G1 X103.281 Y134.207 E3.5214
G1 X103.115 Y137.982 E3.6946
G1 X103.115 Y137.997 E3.6953
G1 X102.955 Y140.539 E3.8121
G1 X102.936 Y140.593 E3.8147
G1 X102.466 Y141.277 E3.8527
G1 X102.423 Y141.314 E3.8554
G1 X101.028 Y141.954 E3.9257
G1 X101.026 Y141.955 E3.9258
G1 X100.993 Y141.969 E3.9275
G1 X100.990 Y141.970 E3.9276
G1 X99.907 Y142.405 E3.9812
G1 X99.902 Y142.407 E3.9814
G1 X99.829 Y142.432 E3.9850
G1 X99.824 Y142.434 E3.9852
G1 X98.711 Y142.753 E4.0383
G1 X98.703 Y142.755 E4.0387
G1 X98.581 Y142.779 E4.0444
G1 X98.572 Y142.780 E4.0448
G1 X97.410 Y142.914 E4.0984
G1 X97.398 Y142.914 E4.0990
G1 X97.226 Y142.914 E4.1069
G1 X97.214 Y142.914 E4.1074
G1 X96.051 Y142.780 E4.1611
G1 X96.043 Y142.779 E4.1615
G1 X95.921 Y142.755 E4.1672
G1 X95.912 Y142.753 E4.1676
G1 X94.800 Y142.434 E4.2207
G1 X94.795 Y142.432 E4.2209
G1 X94.722 Y142.407 E4.2244
G1 X94.717 Y142.405 E4.2247
G1 X93.649 Y141.977 E4.2775
G1 X93.646 Y141.976 E4.2776
G1 X93.613 Y141.961 E4.2793
G1 X93.611 Y141.960 E4.2794
G1 X92.201 Y141.314 E4.3505
G1 X92.158 Y141.277 E4.3531
G1 X91.687 Y140.593 E4.3912
G1 X91.669 Y140.539 E4.3938
G1 X91.510 Y138.009 E4.5101
G1 X91.509 Y137.995 E4.5107
G1 X91.383 Y135.256 E4.6364
G1 X91.382 Y135.241 E4.6370
G1 X91.174 Y127.907 E4.9735
G1 X91.174 Y127.897 E4.9739
G1 X91.123 Y124.578 E5.1261
G1 X91.123 Y124.564 E5.1267
G1 X91.139 Y115.413 E5.5464
G1 X91.139 Y115.400 E5.5469
G1 X91.309 Y105.931 E5.9812
G1 X91.309 Y105.922 E5.9816
G1 X91.454 Y100.912 E6.2114
G1 X91.454 Y100.903 E6.2119
G1 X91.697 Y94.900 E6.4873
G1 X91.698 Y94.887 E6.4879
G1 X91.844 Y92.320 E6.6058
G1 X91.845 Y92.308 E6.6063
G1 X92.120 Y88.458 E6.7833
G1 X92.121 Y88.442 E6.7840
G1 X92.961 Y79.286 E7.2056
G1 X92.962 Y79.275 E7.2061
G1 X93.543 Y73.762 E7.4603
G1 X93.545 Y73.742 E7.4612
G1 X93.959 Y70.571 E7.6077
G1 X93.962 Y70.550 E7.6087
G1 X95.256 Y62.337 E7.9899
G1 X95.268 Y62.259 F1800
G1 X95.305 Y62.194 F1800
G92 E0
G1 E-0.8000 F1800
G1 X114.178 Y82.633 F7800
G1 E0.0800 F1800
G92 E0
G1 X114.250 Y82.605 E0.0035 F1800
G1 X117.163 Y82.605 E0.1371
G1 X117.235 Y82.633 E0.1407
G1 X118.088 Y83.390 E0.1930
G1 X118.124 Y83.458 E0.1965
G1 X119.386 Y94.026 E0.6846
G1 X119.387 Y94.034 E0.6850
G1 X120.064 Y100.190 E0.9690
G1 X120.065 Y100.200 E0.9694
G1 X121.678 Y116.688 E1.7292
G1 X121.678 Y116.692 E1.7293
G1 X122.638 Y126.965 E2.2025
G1 X122.950 Y129.149 E2.3037
G1 X123.163 Y130.223 E2.3539
G1 X123.448 Y131.319 E2.4059
G1 X123.830 Y132.452 E2.4607
G1 X124.337 Y133.642 E2.5201
G1 X124.999 Y134.909 E2.5856
G1 X125.847 Y136.270 E2.6592
G1 X126.920 Y137.751 E2.7430
G1 X128.173 Y139.319 E2.8351
G1 X129.547 Y140.927 E2.9321
G1 X132.518 Y144.194 E3.1346
G1 X136.458 Y148.384 E3.3984
G1 X136.469 Y148.396 E3.3991
G1 X137.491 Y149.528 E3.4690
