;FLAVOR:Marlin
;TIME:4777
;Filament used: 1.91356m
;Layer height: 0.1
;Generated with Cura_SteamEngine 2.7.0
M190 S60
M104 S220
M109 S220
G21 ;metric values
G90 ;absolute positioning
M82 ;set extruder to absolute mode
M107 ;start with the fan off
G92 E0 ;zero the extruded length
G1 F200 E3 ;extrude 3mm of feed stock
G92 E0 ;zero the extruded length again
G1 F9000
M301 P31.36 I3.30 D74.51 ;set PID tuning for E0
M304 P72.25 I2.72 D479.41 ; set PID tuning for heated bed
M117 Printing...
;LAYER_COUNT:168
;LAYER:0
M107
M205 X20 Y20
G0 F2400 X67.492 Y69.582 Z0.3
G0 X67.8 Y69.334
;TYPE:SKIRT
G1 F1050 X68.806 Y68.59 E0.06227
G1 X69.327 Y68.255 E0.09309
G1 X69.663 Y68.085 E0.11183
G1 X70.802 Y67.564 E0.17416
G1 X71.38 Y67.343 E0.20496
G1 X71.763 Y67.242 E0.22467
G1 X73.036 Y66.961 E0.28955
G1 X73.699 Y66.862 E0.32291
G1 X76.705 Y66.629 E0.47295
G1 X77.324 Y66.621 E0.50376
G1 X77.754 Y66.663 E0.52526
G1 X80.374 Y67.037 E0.65697
G1 X85.743 Y67.572 E0.92548
G1 X91.133 Y67.802 E1.19396
G1 X96.53 Y67.729 E1.46257
G1 X101.889 Y67.351 E1.72993
G1 X107.313 Y66.663 E2.00202
G1 X108.21 Y66.634 E2.04668
G1 X110.261 Y66.76 E2.14894
G1 X110.666 Y66.802 E2.1692
G1 X112.423 Y67.061 E2.25759
G1 X113.029 Y67.191 E2.28843
G1 X113.347 Y67.293 E2.30505
G1 X114.504 Y67.709 E2.36624
G1 X115.072 Y67.955 E2.39704
G1 X115.483 Y68.193 E2.42068
G1 X116.858 Y69.081 E2.50213
G1 X117.355 Y69.45 E2.53294
G1 X117.785 Y69.862 E2.56258
G1 X118.639 Y70.79 E2.62534
G1 X119.028 Y71.272 E2.65616
G1 X119.241 Y71.602 E2.67571
G1 X119.875 Y72.677 E2.73782
G1 X120.154 Y73.229 E2.7686
G1 X120.29 Y73.585 E2.78756
G1 X120.688 Y74.769 E2.84973
G1 X120.847 Y75.367 E2.88052
G1 X120.914 Y75.817 E2.90316
G1 X121.049 Y77.159 E2.97028
G1 X121.071 Y77.778 E3.00111
G1 X121.047 Y78.14 E3.01916
G1 X120.743 Y81.033 E3.16393
G1 X120.563 Y81.921 E3.20902
G1 X118.017 Y90.336 E3.64654
G1 X116.799 Y95.549 E3.91295
G1 X115.722 Y101.875 E4.2323
G1 X115.579 Y102.478 E4.26314
G1 X115.359 Y103.056 E4.29392
G1 X114.946 Y103.787 E4.3357
G1 X112.203 Y107.777 E4.57666
G1 X109.311 Y112.472 E4.85108
G1 X107.843 Y114.998 E4.99648
G1 X107.498 Y115.512 E5.02728
G1 X106.952 Y116.109 E5.06754
G1 X104.48 Y118.394 E5.23507
G1 X104 Y118.784 E5.26585
G1 X103.473 Y119.109 E5.29666
G1 X102.908 Y119.363 E5.32749
G1 X102.316 Y119.542 E5.35827
G1 X101.705 Y119.644 E5.38909
G1 X101.236 Y119.668 E5.41247
G1 X98.71 Y119.674 E5.53817
G1 X98.424 Y119.666 E5.55241
G1 X95.8 Y119.515 E5.68321
G1 X90.363 Y119.435 E5.95382
G1 X84.226 Y119.573 E6.2593
G1 X83.608 Y119.547 E6.29009
G1 X82.998 Y119.441 E6.3209
G1 X82.406 Y119.258 E6.35174
G1 X81.843 Y119 E6.38256
G1 X81.513 Y118.805 E6.40163
G1 X79.684 Y117.622 E6.51003
G1 X79.187 Y117.253 E6.54084
G1 X78.757 Y116.839 E6.57054
G1 X77.834 Y115.834 E6.63845
G1 X77.445 Y115.352 E6.66927
G1 X77.212 Y114.988 E6.69078
G1 X70.356 Y103.112 E7.37321
G1 X70.082 Y102.557 E7.40401
G1 X69.882 Y101.971 E7.43483
G1 X69.808 Y101.659 E7.45079
G1 X68.731 Y96.3 E7.72281
G1 X68.106 Y93.749 E7.85352
G1 X66.574 Y88.476 E8.12678
G1 X64.494 Y82.14 E8.45865
G1 X64.34 Y81.541 E8.48943
G1 X64.283 Y81.163 E8.50845
G1 X63.953 Y78.134 E8.66009
G1 X63.926 Y77.516 E8.69087
G1 X63.959 Y77.044 E8.71442
G1 X64.132 Y75.6 E8.78679
G1 X64.245 Y74.992 E8.81757
G1 X64.342 Y74.66 E8.83478
G1 X64.66 Y73.702 E8.88501
G1 X65.036 Y72.855 E8.93113
G1 X65.647 Y71.773 E8.99297
G1 X65.985 Y71.254 E9.02379
G1 X66.224 Y70.961 E9.04261
G1 X67.053 Y70.02 E9.10502
G1 X67.492 Y69.582 E9.13588
G1 X67.8 Y69.334 E9.15556
G0 F2400 X68.037 Y69.655
G1 F1050 X69.043 Y68.911 E9.21783
G1 X69.543 Y68.591 E9.24737
G1 X69.829 Y68.447 E9.26331
G1 X70.968 Y67.926 E9.32564
G1 X71.522 Y67.717 E9.3551
G1 X71.849 Y67.631 E9.37193
G1 X73.122 Y67.35 E9.43681
G1 X73.73 Y67.26 E9.46739
G1 X76.736 Y67.027 E9.61744
G1 X77.329 Y67.021 E9.64695
G1 X77.698 Y67.058 E9.66541
G1 X80.328 Y67.434 E9.79762
G1 X85.721 Y67.971 E10.06733
G1 X91.121 Y68.201 E10.33631
G1 X96.546 Y68.128 E10.60631
G1 X101.931 Y67.748 E10.87497
G1 X107.363 Y67.059 E11.14746
G1 X108.186 Y67.032 E11.18844
G1 X110.237 Y67.158 E11.2907
G1 X110.608 Y67.197 E11.30926
G1 X112.365 Y67.456 E11.39765
G1 X113.212 Y67.668 E11.4411
G1 X114.369 Y68.084 E11.50228
G1 X114.912 Y68.322 E11.53179
G1 X115.266 Y68.528 E11.55217
G1 X116.641 Y69.416 E11.63363
G1 X117.117 Y69.771 E11.66318
G1 X117.491 Y70.133 E11.68908
G1 X118.345 Y71.061 E11.75184
G1 X118.717 Y71.523 E11.78136
G1 X118.897 Y71.804 E11.79797
G1 X119.531 Y72.879 E11.86008
G1 X119.797 Y73.409 E11.88959
G1 X119.912 Y73.712 E11.90572
G1 X120.31 Y74.896 E11.96788
G1 X120.46 Y75.469 E11.99736
G1 X120.517 Y75.857 E12.01687
G1 X120.652 Y77.199 E12.084
G1 X120.671 Y77.791 E12.11347
G1 X120.65 Y78.099 E12.12884
G1 X120.346 Y80.992 E12.2736
G1 X120.182 Y81.805 E12.31487
G1 X117.631 Y90.237 E12.75328
G1 X116.408 Y95.472 E13.02082
G1 X115.329 Y101.808 E13.34067
G1 X115.19 Y102.384 E13.37016
G1 X114.975 Y102.937 E13.39969
G1 X114.617 Y103.561 E13.43549
G1 X111.869 Y107.558 E13.67688
G1 X108.965 Y112.274 E13.9525
G1 X107.498 Y114.797 E14.09774
G1 X107.166 Y115.288 E14.12723
G1 X106.682 Y115.816 E14.16288
G1 X104.21 Y118.101 E14.3304
G1 X103.748 Y118.473 E14.35992
G1 X103.241 Y118.78 E14.38942
G1 X102.697 Y119.015 E14.41891
G1 X102.126 Y119.176 E14.44843
G1 X101.539 Y119.258 E14.47793
G1 X101.235 Y119.269 E14.49307
G1 X98.709 Y119.275 E14.61878
G1 X98.447 Y119.268 E14.63182
G1 X95.829 Y119.118 E14.76232
G1 X90.333 Y119.036 E15.03586
G1 X84.217 Y119.174 E15.3403
G1 X83.625 Y119.147 E15.3698
G1 X83.042 Y119.041 E15.39928
G1 X82.478 Y118.858 E15.42879
G1 X81.73 Y118.47 E15.47073
G1 X79.901 Y117.287 E15.57913
G1 X79.426 Y116.932 E15.60864
G1 X79.051 Y116.569 E15.63461
G1 X78.128 Y115.564 E15.70252
G1 X77.757 Y115.102 E15.73201
G1 X77.558 Y114.788 E15.75051
G1 X70.702 Y102.912 E16.43294
G1 X70.441 Y102.38 E16.46243
G1 X70.199 Y101.58 E16.50402
G1 X69.123 Y96.223 E16.77594
G1 X68.484 Y93.618 E16.90942
G1 X66.961 Y88.376 E17.18108
G1 X64.873 Y82.015 E17.51426
G1 X64.727 Y81.441 E17.54373
G1 X64.68 Y81.12 E17.55988
G1 X64.35 Y78.091 E17.71151
G1 X64.326 Y77.499 E17.74099
G1 X64.355 Y77.092 E17.7613
G1 X64.528 Y75.648 E17.83367
G1 X64.721 Y74.786 E17.87763
G1 X65.039 Y73.828 E17.92787
G1 X65.383 Y73.051 E17.97015
G1 X65.994 Y71.969 E18.03199
G1 X66.32 Y71.474 E18.06149
G1 X66.524 Y71.224 E18.07755
G1 X67.353 Y70.283 E18.13996
G1 X67.774 Y69.866 E18.16945
G1 X68.037 Y69.655 E18.18623
G0 F2400 X68.275 Y69.976
G1 F1050 X69.281 Y69.232 E18.24849
G1 X69.995 Y68.81 E18.28977
G1 X71.134 Y68.289 E18.3521
G1 X71.935 Y68.021 E18.39413
G1 X73.208 Y67.74 E18.45901
G1 X73.761 Y67.658 E18.48683
G1 X76.767 Y67.425 E18.63688
G1 X77.332 Y67.421 E18.66499
G1 X77.641 Y67.453 E18.68045
G1 X80.276 Y67.829 E18.81291
G1 X85.7 Y68.37 E19.08418
G1 X91.11 Y68.601 E19.35366
G1 X96.561 Y68.526 E19.62496
G1 X101.973 Y68.145 E19.89495
G1 X107.413 Y67.455 E20.16785
G1 X108.161 Y67.431 E20.20509
G1 X110.212 Y67.557 E20.30735
G1 X110.55 Y67.592 E20.32426
G1 X112.307 Y67.851 E20.41264
G1 X113.077 Y68.044 E20.45215
G1 X114.234 Y68.46 E20.51334
G1 X114.751 Y68.688 E20.54146
G1 X115.05 Y68.863 E20.5587
G1 X116.425 Y69.751 E20.64015
G1 X116.877 Y70.091 E20.6683
G1 X117.198 Y70.403 E20.69058
G1 X118.052 Y71.331 E20.75334
G1 X118.554 Y72.007 E20.79524
G1 X119.188 Y73.082 E20.85735
G1 X119.534 Y73.839 E20.89877
G1 X119.932 Y75.023 E20.96094
G1 X120.073 Y75.57 E20.98905
G1 X120.12 Y75.897 E21.00549
G1 X120.255 Y77.239 E21.07261
G1 X120.253 Y78.057 E21.11332
G1 X119.949 Y80.95 E21.25808
G1 X119.8 Y81.69 E21.29565
G1 X117.242 Y90.142 E21.73511
G1 X116.016 Y95.396 E22.0036
G1 X114.935 Y101.741 E22.32391
G1 X114.801 Y102.29 E22.35204
G1 X114.591 Y102.815 E22.38017
G1 X114.289 Y103.335 E22.4101
G1 X111.52 Y107.362 E22.65331
G1 X108.64 Y112.04 E22.9267
G1 X107.153 Y114.597 E23.0739
G1 X106.835 Y115.064 E23.10202
G1 X106.411 Y115.523 E23.13311
G1 X103.939 Y117.808 E23.30064
G1 X103.498 Y118.161 E23.32875
G1 X103.011 Y118.449 E23.35691
G1 X102.489 Y118.665 E23.38502
G1 X101.941 Y118.805 E23.41317
G1 X101.234 Y118.87 E23.4485
G1 X98.708 Y118.876 E23.57421
G1 X98.47 Y118.869 E23.58606
G1 X95.858 Y118.719 E23.71626
G1 X90.33 Y118.637 E23.99139
G1 X84.208 Y118.775 E24.29613
G1 X83.644 Y118.748 E24.32423
G1 X83.089 Y118.641 E24.35236
G1 X82.554 Y118.457 E24.38052
G1 X81.947 Y118.135 E24.41471
G1 X80.118 Y116.952 E24.52311
G1 X79.666 Y116.612 E24.55126
G1 X79.344 Y116.299 E24.57361
G1 X78.421 Y115.294 E24.64152
G1 X78.069 Y114.852 E24.66963
G1 X77.904 Y114.589 E24.68509
G1 X71.048 Y102.713 E25.36752
G1 X70.8 Y102.205 E25.39565
G1 X70.59 Y101.502 E25.43216
G1 X69.51 Y96.124 E25.70514
G1 X68.873 Y93.525 E25.83831
G1 X67.342 Y88.258 E26.11128
G1 X65.252 Y81.891 E26.44477
G1 X65.077 Y81.077 E26.4862
G1 X64.747 Y78.048 E26.63783
G1 X64.725 Y77.483 E26.66597
G1 X64.751 Y77.139 E26.68314
G1 X64.924 Y75.695 E26.75552
G1 X65.1 Y74.911 E26.7955
G1 X65.418 Y73.953 E26.84574
G1 X65.731 Y73.247 E26.88417
G1 X66.342 Y72.165 E26.94601
G1 X66.823 Y71.488 E26.98734
G1 X67.652 Y70.547 E27.04975
G1 X68.275 Y69.976 E27.0918
G0 F2400 X68.512 Y70.296
G1 F1050 X69.518 Y69.552 E27.15407
G1 X70.161 Y69.173 E27.19121
G1 X71.3 Y68.652 E27.25354
G1 X72.021 Y68.411 E27.29138
G1 X73.294 Y68.13 E27.35625
G1 X73.792 Y68.056 E27.38131
G1 X76.798 Y67.823 E27.53135
G1 X77.585 Y67.848 E27.57054
G1 X80.229 Y68.226 E27.70346
G1 X85.661 Y68.767 E27.97512
G1 X91.116 Y69 E28.24684
G1 X96.577 Y68.925 E28.51863
G1 X102.015 Y68.542 E28.78993
G1 X107.463 Y67.851 E29.06322
G1 X108.137 Y67.829 E29.09678
G1 X110.188 Y67.955 E29.19904
G1 X110.492 Y67.986 E29.21425
G1 X112.249 Y68.245 E29.30263
G1 X112.942 Y68.419 E29.33819
G1 X114.099 Y68.835 E29.39938
G1 X114.588 Y69.054 E29.42604
G1 X114.834 Y69.199 E29.44025
G1 X116.209 Y70.087 E29.52171
G1 X116.636 Y70.41 E29.54836
G1 X116.904 Y70.673 E29.56704
G1 X117.758 Y71.601 E29.6298
G1 X118.21 Y72.21 E29.66755
G1 X118.844 Y73.285 E29.72965
G1 X119.155 Y73.966 E29.76691
G1 X119.553 Y75.15 E29.82907
G1 X119.686 Y75.67 E29.85579
G1 X119.723 Y75.937 E29.8692
G1 X119.858 Y77.279 E29.93632
G1 X119.856 Y78.015 E29.97295
G1 X119.552 Y80.908 E30.11771
G1 X119.418 Y81.574 E30.15152
G1 X116.86 Y90.029 E30.59112
G1 X115.624 Y95.319 E30.86147
G1 X114.542 Y101.674 E31.18228
G1 X114.413 Y102.195 E31.209
G1 X114.208 Y102.69 E31.23566
G1 X113.96 Y103.109 E31.25989
G1 X111.196 Y107.13 E31.50271
G1 X108.277 Y111.87 E31.77974
G1 X106.808 Y114.396 E31.92516
G1 X106.505 Y114.838 E31.95183
G1 X106.14 Y115.23 E31.97849
G1 X103.668 Y117.515 E32.14601
G1 X103.248 Y117.849 E32.17272
G1 X102.783 Y118.116 E32.1994
G1 X102.284 Y118.312 E32.22608
G1 X101.761 Y118.431 E32.25277
G1 X101.234 Y118.471 E32.27907
G1 X98.708 Y118.477 E32.40478
G1 X98.493 Y118.471 E32.41549
G1 X95.864 Y118.32 E32.54654
G1 X90.327 Y118.238 E32.82212
G1 X84.199 Y118.376 E33.12716
G1 X83.664 Y118.348 E33.15382
G1 X83.138 Y118.241 E33.18053
G1 X82.635 Y118.057 E33.20719
G1 X82.163 Y117.8 E33.23393
G1 X80.334 Y116.617 E33.34233
G1 X79.907 Y116.293 E33.36901
G1 X79.638 Y116.029 E33.38776
G1 X78.715 Y115.024 E33.45567
G1 X78.249 Y114.389 E33.49487
G1 X71.393 Y102.513 E34.1773
G1 X71.16 Y102.03 E34.20398
G1 X70.982 Y101.423 E34.23546
G1 X69.906 Y96.07 E34.50719
G1 X69.255 Y93.41 E34.64347
G1 X67.718 Y88.121 E34.91757
G1 X65.632 Y81.767 E35.25038
G1 X65.473 Y81.034 E35.28771
G1 X65.143 Y78.005 E35.43934
G1 X65.125 Y77.469 E35.46603
G1 X65.148 Y77.187 E35.48011
G1 X65.321 Y75.743 E35.55249
G1 X65.478 Y75.037 E35.58848
G1 X65.796 Y74.079 E35.63871
G1 X66.078 Y73.443 E35.67333
G1 X66.689 Y72.361 E35.73517
G1 X67.122 Y71.752 E35.77236
G1 X67.951 Y70.811 E35.83477
G1 X68.512 Y70.296 E35.87267
G0 F2400 X68.749 Y70.617
G1 F1050 X69.755 Y69.873 E35.93494
G1 X70.327 Y69.536 E35.96798
G1 X71.466 Y69.015 E36.03031
G1 X72.107 Y68.8 E36.06395
G1 X73.38 Y68.519 E36.12883
G1 X73.823 Y68.454 E36.15111
G1 X76.829 Y68.221 E36.30116
G1 X77.528 Y68.243 E36.33596
G1 X80.179 Y68.622 E36.46923
G1 X85.638 Y69.166 E36.74224
G1 X91.104 Y69.399 E37.01451
G1 X96.593 Y69.324 E37.2877
G1 X102.041 Y68.94 E37.55949
G1 X107.514 Y68.246 E37.83404
G1 X108.112 Y68.227 E37.86381
G1 X110.163 Y68.353 E37.96608
G1 X110.434 Y68.381 E37.97963
G1 X112.191 Y68.64 E38.06802
G1 X112.807 Y68.795 E38.09963
G1 X113.964 Y69.211 E38.16082
G1 X114.617 Y69.534 E38.19707
G1 X115.992 Y70.422 E38.27853
G1 X116.394 Y70.729 E38.3037
G1 X116.611 Y70.943 E38.31887
G1 X117.465 Y71.871 E38.38163
G1 X117.866 Y72.412 E38.41514
G1 X118.5 Y73.487 E38.47725
G1 X118.777 Y74.093 E38.51041
G1 X119.175 Y75.277 E38.57257
G1 X119.326 Y75.977 E38.60821
G1 X119.461 Y77.319 E38.67533
G1 X119.459 Y77.973 E38.70788
G1 X119.155 Y80.866 E38.85264
G1 X119.036 Y81.459 E38.88274
G1 X116.473 Y89.93 E39.32318
G1 X115.235 Y95.231 E39.59408
G1 X114.149 Y101.607 E39.91596
G1 X114.025 Y102.097 E39.94111
G1 X113.825 Y102.562 E39.9663
G1 X113.631 Y102.883 E39.98497
G1 X110.862 Y106.911 E40.22822
G1 X107.925 Y111.68 E40.50695
G1 X106.463 Y114.195 E40.65172
G1 X106.176 Y114.611 E40.67687
G1 X105.869 Y114.937 E40.69915
G1 X103.397 Y117.222 E40.86668
G1 X103 Y117.535 E40.89184
G1 X102.558 Y117.781 E40.91701
G1 X102.084 Y117.955 E40.94214
G1 X101.587 Y118.051 E40.96733
G1 X101.233 Y118.072 E40.98498
G1 X98.707 Y118.078 E41.11069
G1 X98.516 Y118.073 E41.1202
G1 X95.869 Y117.921 E41.25214
G1 X90.324 Y117.839 E41.52812
G1 X84.19 Y117.977 E41.83346
G1 X83.685 Y117.949 E41.85863
G1 X83.191 Y117.841 E41.8838
G1 X82.721 Y117.657 E41.90891
G1 X82.38 Y117.465 E41.92839
G1 X80.551 Y116.282 E42.03679
G1 X80.15 Y115.975 E42.06192
G1 X79.932 Y115.76 E42.07716
G1 X79.009 Y114.755 E42.14507
G1 X78.595 Y114.19 E42.17992
G1 X71.739 Y102.314 E42.86235
G1 X71.521 Y101.857 E42.88755
G1 X71.373 Y101.344 E42.91412
G1 X70.293 Y95.97 E43.18691
G1 X69.644 Y93.322 E43.32259
G1 X68.096 Y87.994 E43.5987
G1 X66.011 Y81.642 E43.93141
G1 X65.87 Y80.991 E43.96456
G1 X65.54 Y77.962 E44.11619
G1 X65.544 Y77.234 E44.15242
G1 X65.717 Y75.79 E44.22479
G1 X65.857 Y75.163 E44.25677
G1 X66.175 Y74.205 E44.307
G1 X66.426 Y73.64 E44.33777
G1 X67.037 Y72.558 E44.3996
G1 X67.422 Y72.016 E44.43269
G1 X68.251 Y71.075 E44.4951
G1 X68.749 Y70.617 E44.52877
G1 F1500 E43.52877
G0 F2400 X76.185 Y70.94
G0 X76.968 Y71.606
;TYPE:SUPPORT
G1 F1500 E44.52877
G1 F1050 X76.963 Y71.599 E44.5292
G1 X77.002 Y71.599 E44.53114
G1 X77.109 Y71.674 E44.53764
G1 X78.188 Y74.64 E44.69471
G1 X76.474 Y74.942 E44.78132
G1 X76.756 Y72.25 E44.91602
G1 X76.968 Y71.606 E44.94976
G0 F2400 X77.314 Y72.819
G1 F1050 X77.314 Y74.592 E45.038
G0 F2400 X76.995 Y74.648
G1 F1050 X76.706 Y74.648 E45.05238
G0 F2400 X76.845 Y73.315
G1 F1050 X77.495 Y73.315 E45.08473
G1 F1500 E44.08473
G0 F2400 X79.067 Y75.237
G0 X79.294 Y76.532
G0 X78.711 Y77.64
G1 F1500 E45.08473
G1 F1050 X78.811 Y78.508 E45.12821
G1 X79.723 Y81.31 E45.27485
G1 X80.544 Y82.735 E45.3567
G1 X78.829 Y83.937 E45.46092
G1 X77.799 Y82.15 E45.56357
G1 X76.756 Y78.941 E45.73149
G1 X76.63 Y77.754 E45.79089
G1 X78.709 Y77.389 E45.89594
G1 X78.711 Y77.64 E45.90843
G0 F2400 X78.648 Y78.647
G1 F1050 X76.925 Y78.647 E45.99417
G0 F2400 X77.314 Y77.836
G1 F1050 X77.314 Y80.014 E46.10256
G0 F2400 X77.302 Y79.98
G1 F1050 X79.081 Y79.98 E46.19109
G0 F2400 X79.515 Y81.313
G1 F1050 X77.735 Y81.313 E46.27968
G0 F2400 X78.313 Y82.646
G1 F1050 X80.264 Y82.646 E46.37677
G0 F2400 X79.98 Y82.888
G1 F1050 X79.98 Y82.155 E46.41325
G0 F2400 X78.647 Y83.224
G1 F1050 X78.647 Y78.647 E46.64102
G1 F1500 E45.64102
G0 F2400 X82.123 Y84.139
G0 X82.214 Y84.983
G1 F1500 E46.64102
G1 F1050 X83.129 Y86.003 E46.70922
G1 X85.504 Y87.725 E46.85521
G1 X86.105 Y87.992 E46.88793
G1 X86.022 Y88.04 E46.89271
G1 X85.495 Y90.003 E46.99386
G1 X84.449 Y89.537 E47.05084
G1 X81.738 Y87.565 E47.21767
G1 X80.494 Y86.187 E47.31006
G1 X82.214 Y84.983 E47.41455
G0 F2400 X82.243 Y85.312
G1 F1050 X82.092 Y85.312 E47.42206
G0 F2400 X82.646 Y85.763
G1 F1050 X82.646 Y87.979 E47.53234
G0 F2400 X82.644 Y87.978
G1 F1050 X85.584 Y87.978 E47.67865
G0 F2400 X85.312 Y87.832
G1 F1050 X85.312 Y89.703 E47.77176
G0 F2400 X85.474 Y89.311
G1 F1050 X84.476 Y89.311 E47.82143
G0 F2400 X83.979 Y88.949
G1 F1050 X83.979 Y86.866 E47.92509
