;FLAVOR:Marlin
;TIME:6718
;Filament used: 3.21551m
;Layer height: 0.1
;Generated with Cura_SteamEngine 2.7.0
M190 S60
M104 S220
M109 S220
G21 ;metric values
G90 ;absolute positioning
M82 ;set extruder to absolute mode
M107 ;start with the fan off
G92 E0 ;zero the extruded length
G1 F200 E3 ;extrude 3mm of feed stock
G92 E0 ;zero the extruded length again
G1 F9000
M301 P31.36 I3.30 D74.51 ;set PID tuning for E0
M304 P72.25 I2.72 D479.41 ; set PID tuning for heated bed
M117 Printing...
;LAYER_COUNT:168
;LAYER:0
M107
M205 X20 Y20
G0 F2400 X60.553 Y86.042 Z0.3
;TYPE:SKIRT
G1 F1050 X62.102 Y85.011 E0.0926
G1 X66.514 Y81.839 E0.36302
G1 X70.693 Y78.461 E0.63044
G1 X75.301 Y74.252 E0.94102
G1 X75.785 Y73.865 E0.97186
G1 X76.313 Y73.543 E1.00264
G1 X76.879 Y73.292 E1.03345
G1 X77.473 Y73.116 E1.06428
G1 X78.084 Y73.018 E1.09508
G1 X78.536 Y72.997 E1.1176
G1 X103.461 Y72.995 E2.358
G1 X104.078 Y73.035 E2.38877
G1 X104.686 Y73.154 E2.4196
G1 X105.273 Y73.35 E2.4504
G1 X105.83 Y73.621 E2.48123
G1 X106.347 Y73.961 E2.51202
G1 X106.845 Y74.392 E2.5448
G1 X107.076 Y74.622 E2.56102
G1 X107.486 Y75.087 E2.59187
G1 X107.832 Y75.6 E2.62266
G1 X108.109 Y76.153 E2.65344
G1 X108.283 Y76.635 E2.67894
G1 X109.719 Y81.391 E2.92618
G1 X111.21 Y85.603 E3.14854
G1 X111.379 Y86.199 E3.17937
G1 X111.469 Y86.811 E3.21015
G1 X111.485 Y87.168 E3.22794
G1 X111.501 Y89.337 E3.33588
G1 X111.849 Y96.293 E3.68248
G1 X111.855 Y96.534 E3.69448
G1 X111.854 Y99.161 E3.82521
G1 X111.814 Y99.779 E3.85603
G1 X111.709 Y100.328 E3.88385
G1 X109.952 Y107.318 E4.24253
G1 X109.763 Y107.908 E4.27336
G1 X109.499 Y108.468 E4.30417
G1 X109.166 Y108.989 E4.33495
G1 X108.821 Y109.406 E4.36188
G1 X107.138 Y111.225 E4.48521
G1 X106.965 Y111.403 E4.49756
G1 X106.809 Y111.555 E4.5084
G1 X106.339 Y111.958 E4.53921
G1 X105.82 Y112.296 E4.57003
G1 X105.263 Y112.565 E4.60081
G1 X104.675 Y112.76 E4.63164
G1 X104.067 Y112.878 E4.66247
G1 X103.462 Y112.916 E4.69263
G1 X78.543 Y112.916 E5.93274
G1 X77.925 Y112.876 E5.96356
G1 X77.318 Y112.757 E5.99434
G1 X76.731 Y112.56 E6.02515
G1 X76.174 Y112.29 E6.05596
G1 X75.656 Y111.95 E6.08679
G1 X75.286 Y111.64 E6.11082
G1 X70.878 Y107.561 E6.40969
G1 X68.863 Y105.851 E6.54121
G1 X64.582 Y102.523 E6.81106
G1 X60.467 Y99.655 E7.06068
G1 X59.983 Y99.269 E7.09149
G1 X59.553 Y98.824 E7.12228
G1 X59.184 Y98.327 E7.15309
G1 X58.882 Y97.787 E7.18388
G1 X58.652 Y97.212 E7.2147
G1 X58.498 Y96.612 E7.24552
G1 X58.414 Y95.721 E7.29006
G1 X58.414 Y90.035 E7.57303
G1 X58.454 Y89.417 E7.60385
G1 X58.573 Y88.81 E7.63463
G1 X58.77 Y88.223 E7.66544
G1 X59.04 Y87.666 E7.69625
G1 X59.38 Y87.148 E7.72708
G1 X59.784 Y86.679 E7.75789
G1 X60.245 Y86.266 E7.78869
G1 X60.553 Y86.042 E7.80764
G0 F2400 X60.774 Y86.374
G1 F1050 X62.334 Y85.336 E7.90089
G1 X66.754 Y82.158 E8.17181
G1 X70.967 Y78.753 E8.44139
G1 X75.571 Y74.547 E8.75172
G1 X76.034 Y74.177 E8.78122
G1 X76.543 Y73.874 E8.8107
G1 X77.088 Y73.641 E8.8402
G1 X77.66 Y73.484 E8.86971
G1 X78.536 Y73.396 E8.91353
G1 X103.461 Y73.394 E10.15393
G1 X104.052 Y73.434 E10.18341
G1 X104.633 Y73.553 E10.21293
G1 X105.192 Y73.749 E10.2424
G1 X105.72 Y74.019 E10.27192
G1 X106.207 Y74.357 E10.30142
G1 X106.563 Y74.675 E10.32517
G1 X106.794 Y74.905 E10.3414
G1 X107.185 Y75.351 E10.37091
G1 X107.513 Y75.845 E10.40042
G1 X107.771 Y76.379 E10.42994
G1 X107.901 Y76.75 E10.4495
G1 X109.339 Y81.513 E10.6971
G1 X110.834 Y85.736 E10.92004
G1 X110.994 Y86.307 E10.94955
G1 X111.086 Y87.171 E10.99279
G1 X111.102 Y89.336 E11.10054
G1 X111.451 Y96.312 E11.44814
G1 X111.456 Y96.534 E11.45919
G1 X111.455 Y99.161 E11.58992
G1 X111.415 Y99.752 E11.6194
G1 X111.322 Y100.231 E11.64368
G1 X109.565 Y107.221 E12.00236
G1 X109.382 Y107.785 E12.03187
G1 X109.125 Y108.319 E12.06136
G1 X108.799 Y108.813 E12.09082
G1 X108.528 Y109.135 E12.11176
G1 X106.845 Y110.954 E12.23509
G1 X106.687 Y111.117 E12.24639
G1 X106.531 Y111.269 E12.25723
G1 X106.079 Y111.653 E12.28674
G1 X105.58 Y111.973 E12.31624
G1 X105.042 Y112.223 E12.34576
G1 X104.476 Y112.398 E12.37525
G1 X103.892 Y112.496 E12.40472
G1 X103.462 Y112.517 E12.42614
G1 X78.543 Y112.517 E13.66625
G1 X77.952 Y112.477 E13.69573
G1 X77.371 Y112.358 E13.72524
G1 X76.812 Y112.162 E13.75472
G1 X76.284 Y111.892 E13.78423
G1 X75.797 Y111.554 E13.81373
G1 X75.557 Y111.347 E13.82951
G1 X71.15 Y107.269 E14.12831
G1 X69.109 Y105.536 E14.26156
G1 X64.825 Y102.207 E14.53156
G1 X60.695 Y99.328 E14.7821
G1 X60.233 Y98.957 E14.81159
G1 X59.825 Y98.527 E14.84108
G1 X59.478 Y98.046 E14.8706
G1 X59.199 Y97.523 E14.9001
G1 X58.993 Y96.967 E14.92961
G1 X58.864 Y96.389 E14.95908
G1 X58.813 Y95.721 E14.99242
G1 X58.813 Y90.035 E15.27539
G1 X58.853 Y89.444 E15.30486
G1 X58.972 Y88.863 E15.33438
G1 X59.168 Y88.304 E15.36386
G1 X59.438 Y87.776 E15.39337
G1 X59.776 Y87.289 E15.42287
G1 X60.177 Y86.852 E15.45239
G1 X60.774 Y86.374 E15.49045
G0 F2400 X60.995 Y86.707
G1 F1050 X62.549 Y85.673 E15.58334
G1 X67.004 Y82.47 E15.8564
G1 X71.212 Y79.068 E16.12569
G1 X75.84 Y74.841 E16.43761
G1 X76.283 Y74.49 E16.46574
G1 X76.771 Y74.206 E16.49384
G1 X77.295 Y73.993 E16.52198
G1 X77.843 Y73.856 E16.5501
G1 X78.536 Y73.795 E16.58472
G1 X103.461 Y73.793 E17.82512
G1 X104.024 Y73.833 E17.85321
G1 X104.577 Y73.952 E17.88136
G1 X105.107 Y74.148 E17.90948
G1 X105.605 Y74.416 E17.93763
G1 X106.059 Y74.752 E17.96573
G1 X106.282 Y74.958 E17.98084
G1 X106.513 Y75.188 E17.99706
G1 X106.884 Y75.614 E18.02518
G1 X107.192 Y76.088 E18.05331
G1 X107.519 Y76.866 E18.09531
G1 X108.959 Y81.636 E18.34327
G1 X110.458 Y85.87 E18.56679
G1 X110.608 Y86.414 E18.59487
G1 X110.687 Y87.174 E18.6329
G1 X110.703 Y89.359 E18.74164
G1 X111.052 Y96.332 E19.08909
G1 X111.057 Y96.534 E19.09914
G1 X111.056 Y99.161 E19.22988
G1 X111.016 Y99.724 E19.25797
G1 X110.935 Y100.134 E19.27877
G1 X109.178 Y107.124 E19.63745
G1 X109.002 Y107.661 E19.66557
G1 X108.752 Y108.167 E19.69366
G1 X108.433 Y108.634 E19.7218
G1 X108.236 Y108.864 E19.73687
G1 X106.553 Y110.683 E19.8602
G1 X106.408 Y110.831 E19.87051
G1 X106.252 Y110.983 E19.88135
G1 X105.82 Y111.348 E19.90949
G1 X105.342 Y111.649 E19.93761
G1 X104.825 Y111.878 E19.96575
G1 X104.282 Y112.033 E19.99385
G1 X103.462 Y112.118 E20.03487
G1 X78.543 Y112.118 E21.27498
G1 X77.979 Y112.078 E21.30312
G1 X77.427 Y111.959 E21.33122
G1 X76.897 Y111.763 E21.35934
G1 X76.399 Y111.495 E21.38749
G1 X75.828 Y111.054 E21.42339
G1 X71.408 Y106.964 E21.72308
G1 X69.368 Y105.233 E21.85622
G1 X65.059 Y101.884 E22.12781
G1 X60.924 Y99.001 E22.37867
G1 X60.484 Y98.645 E22.40684
G1 X60.099 Y98.232 E22.43494
G1 X59.776 Y97.768 E22.46307
G1 X59.521 Y97.263 E22.49123
G1 X59.341 Y96.728 E22.51932
G1 X59.238 Y96.172 E22.54746
G1 X59.212 Y95.721 E22.56994
G1 X59.212 Y90.035 E22.8529
G1 X59.252 Y89.471 E22.88104
G1 X59.371 Y88.919 E22.90914
G1 X59.567 Y88.389 E22.93727
G1 X59.835 Y87.891 E22.96541
G1 X60.171 Y87.437 E22.99352
G1 X60.568 Y87.034 E23.02167
G1 X60.995 Y86.707 E23.04844
G0 F2400 X61.216 Y87.039
G1 F1050 X62.781 Y85.997 E23.142
G1 X67.243 Y82.789 E23.41549
G1 X71.477 Y79.367 E23.68641
G1 X76.109 Y75.136 E23.99862
G1 X76.53 Y74.805 E24.02527
G1 X76.997 Y74.54 E24.05199
G1 X77.497 Y74.347 E24.07866
G1 X78.021 Y74.231 E24.10537
G1 X78.536 Y74.194 E24.13106
G1 X103.461 Y74.192 E25.37147
G1 X103.995 Y74.232 E25.39812
G1 X104.518 Y74.351 E25.42481
G1 X105.018 Y74.546 E25.45152
G1 X105.483 Y74.813 E25.4782
G1 X106 Y75.241 E25.5116
G1 X106.231 Y75.471 E25.52783
G1 X106.582 Y75.876 E25.5545
G1 X106.869 Y76.329 E25.58118
G1 X107.137 Y76.981 E25.61627
G1 X108.579 Y81.758 E25.86459
G1 X110.082 Y86.003 E26.0887
G1 X110.222 Y86.52 E26.11535
G1 X110.288 Y87.177 E26.14821
G1 X110.304 Y89.358 E26.25675
G1 X110.654 Y96.352 E26.60525
G1 X110.658 Y96.533 E26.61426
G1 X110.657 Y99.16 E26.74499
G1 X110.617 Y99.695 E26.77169
G1 X110.548 Y100.036 E26.78901
G1 X108.791 Y107.026 E27.14769
G1 X108.622 Y107.535 E27.17438
G1 X108.38 Y108.013 E27.20104
G1 X107.943 Y108.593 E27.23718
G1 X106.26 Y110.412 E27.36051
G1 X106.13 Y110.546 E27.3698
G1 X105.974 Y110.698 E27.38064
G1 X105.563 Y111.042 E27.40731
G1 X105.105 Y111.322 E27.43402
G1 X104.611 Y111.531 E27.46072
G1 X104.092 Y111.663 E27.48737
G1 X103.462 Y111.719 E27.51884
G1 X78.543 Y111.719 E28.75895
G1 X78.008 Y111.679 E28.78565
G1 X77.485 Y111.56 E28.81234
G1 X76.986 Y111.365 E28.839
G1 X76.521 Y111.097 E28.86571
G1 X76.099 Y110.762 E28.89253
G1 X71.666 Y106.66 E29.19309
G1 X69.624 Y104.927 E29.32638
G1 X65.28 Y101.551 E29.60017
G1 X61.152 Y98.673 E29.8506
G1 X60.736 Y98.335 E29.87727
G1 X60.375 Y97.938 E29.90398
G1 X60.077 Y97.492 E29.93067
G1 X59.849 Y97.007 E29.95734
G1 X59.695 Y96.494 E29.984
G1 X59.611 Y95.721 E30.02269
G1 X59.611 Y90.035 E30.30566
G1 X59.651 Y89.5 E30.33236
G1 X59.77 Y88.977 E30.35905
G1 X59.965 Y88.478 E30.38571
G1 X60.233 Y88.013 E30.41242
G1 X60.566 Y87.593 E30.4391
G1 X60.958 Y87.228 E30.46575
G1 X61.216 Y87.039 E30.48167
G0 F2400 X61.437 Y87.371
G1 F1050 X63.014 Y86.322 E30.57592
G1 X67.473 Y83.116 E30.84923
G1 X71.74 Y79.667 E31.12228
G1 X76.378 Y75.43 E31.4349
G1 X76.777 Y75.12 E31.46005
G1 X77.22 Y74.876 E31.48522
G1 X77.696 Y74.705 E31.51039
G1 X78.192 Y74.611 E31.53551
G1 X78.536 Y74.593 E31.55265
G1 X103.461 Y74.591 E32.79306
G1 X103.965 Y74.631 E32.81822
G1 X104.456 Y74.75 E32.84336
G1 X104.923 Y74.944 E32.86853
G1 X105.353 Y75.21 E32.89369
G1 X105.719 Y75.523 E32.91765
G1 X105.95 Y75.753 E32.93388
G1 X106.279 Y76.137 E32.95904
G1 X106.543 Y76.568 E32.98419
G1 X106.755 Y77.096 E33.01251
G1 X108.199 Y81.88 E33.2612
G1 X109.706 Y86.136 E33.48588
G1 X109.836 Y86.624 E33.51102
G1 X109.889 Y87.18 E33.53881
G1 X109.906 Y89.381 E33.64835
G1 X110.255 Y96.372 E33.99669
G1 X110.259 Y96.533 E34.00471
G1 X110.258 Y99.16 E34.13544
G1 X110.218 Y99.664 E34.1606
G1 X110.161 Y99.939 E34.17458
G1 X108.404 Y106.929 E34.53326
G1 X108.243 Y107.408 E34.55841
G1 X108.008 Y107.856 E34.58358
G1 X107.65 Y108.322 E34.61283
G1 X105.967 Y110.141 E34.73615
G1 X105.851 Y110.26 E34.74442
G1 X105.695 Y110.412 E34.75526
G1 X105.306 Y110.735 E34.78043
G1 X104.871 Y110.993 E34.8056
G1 X104.401 Y111.179 E34.83075
G1 X103.908 Y111.289 E34.85589
G1 X103.462 Y111.32 E34.87814
G1 X78.543 Y111.32 E36.11824
G1 X78.039 Y111.28 E36.1434
G1 X77.548 Y111.161 E36.16855
G1 X77.081 Y110.967 E36.19371
G1 X76.651 Y110.701 E36.21887
G1 X76.37 Y110.469 E36.23701
G1 X71.927 Y106.357 E36.53828
G1 X69.882 Y104.622 E36.67174
G1 X65.523 Y101.234 E36.94649
G1 X61.38 Y98.346 E37.19782
G1 X60.989 Y98.025 E37.22299
G1 X60.654 Y97.647 E37.24813
G1 X60.383 Y97.22 E37.2733
G1 X60.182 Y96.756 E37.29846
G1 X60.057 Y96.266 E37.32363
G1 X60.01 Y95.721 E37.35085
G1 X60.01 Y90.035 E37.63382
G1 X60.05 Y89.531 E37.65898
G1 X60.169 Y89.04 E37.68412
G1 X60.363 Y88.573 E37.70929
G1 X60.629 Y88.143 E37.73445
G1 X60.959 Y87.76 E37.75961
G1 X61.437 Y87.371 E37.79028
G0 F2400 X78.499 Y78.099
;TYPE:SUPPORT
G1 F1050 X78.617 Y77.981 E37.79858
G1 X103.383 Y77.98 E39.03107
G1 X103.501 Y78.098 E39.03938
G1 X103.501 Y86.774 E39.47114
G1 X103.899 Y87.172 E39.49915
G1 X106.383 Y87.172 E39.62277
G1 X106.48 Y87.269 E39.6296
G1 X103.277 Y87.269 E39.789
G1 X102.676 Y87.743 E39.82709
G1 X102.48 Y88.593 E39.8705
G1 X102.413 Y89.456 E39.91358
G1 X102.413 Y89.543 E39.91791
G1 X102.491 Y90.463 E39.96385
G1 X102.676 Y91.257 E40.00443
G1 X103.277 Y91.731 E40.04252
G1 X106.48 Y91.731 E40.20192
G1 X106.383 Y91.828 E40.20874
G1 X104.67 Y91.828 E40.29399
G1 X104.254 Y92.174 E40.32092
G1 X103.722 Y95.091 E40.46848
G1 X103.99 Y95.562 E40.49545
G1 X106.562 Y96.531 E40.63223
G1 X106.869 Y96.656 E40.64872
G1 X106.869 Y99.085 E40.7696
G1 X106.535 Y99.419 E40.79311
G1 X103.899 Y99.419 E40.92429
G1 X103.501 Y99.817 E40.9523
G1 X103.501 Y103.018 E41.1116
G1 X103.791 Y103.448 E41.13741
G1 X105.111 Y103.981 E41.20826
G1 X105.111 Y106.019 E41.30968
G1 X103.791 Y106.552 E41.38052
G1 X103.501 Y106.982 E41.40633
G1 X103.501 Y107.813 E41.44769
G1 X103.383 Y107.931 E41.45599
G1 X94.617 Y107.931 E41.89224
G1 X94.499 Y107.814 E41.90051
G1 X94.499 Y106.958 E41.94311
G1 X94.185 Y106.534 E41.96936
G1 X91.5 Y105.705 E42.10921
G1 X88.815 Y106.534 E42.24905
G1 X88.501 Y106.958 E42.27531
G1 X88.501 Y107.814 E42.31791
G1 X88.383 Y107.931 E42.32618
G1 X78.617 Y107.931 E42.81219
G1 X78.499 Y107.813 E42.82049
G1 X78.499 Y106.983 E42.8618
G1 X78.209 Y106.553 E42.88761
G1 X76.889 Y106.02 E42.95845
G1 X76.891 Y103.981 E43.05992
G1 X78.209 Y103.448 E43.13068
G1 X78.499 Y103.018 E43.15649
G1 X78.499 Y102.187 E43.19784
G1 X79.031 Y101.655 E43.23528
G1 X79.105 Y101.131 E43.26162
G1 X78.499 Y100.03 E43.32416
G1 X78.499 Y78.099 E44.41557
G0 F2400 X82.995 Y87.269
G1 F1050 X82.351 Y87.913 E44.46089
G1 X82.351 Y91.087 E44.61885
G1 X82.995 Y91.731 E44.66417
G1 X87.299 Y91.731 E44.87836
G1 X86.244 Y93.819 E44.99478
G1 X86.402 Y94.35 E45.02235
G1 X92.155 Y97.673 E45.35298
G1 X92.658 Y97.672 E45.37802
G1 X97.618 Y94.791 E45.66347
G1 X97.869 Y94.355 E45.68851
G1 X97.868 Y88.643 E45.97277
G1 X97.617 Y88.207 E45.9978
G1 X92.648 Y85.319 E46.28382
G1 X92.144 Y85.319 E46.3089
G1 X88.044 Y87.693 E46.54468
G1 X87.46 Y87.269 E46.58059
G1 X82.995 Y87.269 E46.8028
G0 F2400 X82.646 Y87.337
G1 F1050 X82.646 Y78.181 E47.25845
G0 F2400 X83.979 Y78.181
G1 F1050 X83.979 Y87.07 E47.70081
G0 F2400 X85.312 Y87.07
G1 F1050 X85.312 Y78.181 E48.14318
G0 F2400 X86.645 Y78.181
G1 F1050 X86.645 Y87.07 E48.58554
G0 F2400 X87.978 Y87.399
G1 F1050 X87.978 Y78.181 E49.04428
G0 F2400 X89.311 Y78.181
G1 F1050 X89.311 Y86.73 E49.46973
G0 F2400 X89.456 Y86.645
G1 F1050 X78.7 Y86.645 E50.005
G0 F2400 X78.7 Y85.312
G1 F1050 X91.759 Y85.312 E50.65489
G0 F2400 X91.977 Y85.186
G1 F1050 X91.977 Y78.181 E51.0035
G0 F2400 X93.31 Y78.181
G1 F1050 X93.31 Y85.473 E51.36639
G0 F2400 X93.032 Y85.312
G1 F1050 X103.302 Y85.312 E51.87748
G0 F2400 X103.302 Y83.979
G1 F1050 X78.7 Y83.979 E53.10181
G0 F2400 X78.7 Y82.646
G1 F1050 X103.302 Y82.646 E54.32614
G0 F2400 X103.302 Y81.313
G1 F1050 X78.7 Y81.313 E55.55047
G0 F2400 X78.7 Y79.98
G1 F1050 X103.302 Y79.98 E56.7748
G0 F2400 X103.302 Y78.647
G1 F1050 X78.7 Y78.647 E57.99913
G0 F2400 X79.98 Y78.181
G1 F1050 X79.98 Y107.73 E59.46965
G0 F2400 X81.313 Y107.73
G1 F1050 X81.313 Y78.181 E60.94017
G0 F2400 X90.644 Y78.181
G1 F1050 X90.644 Y85.958 E61.3272
G0 F2400 X94.643 Y86.248
G1 F1050 X94.643 Y78.181 E61.72866
G0 F2400 X95.976 Y78.181
G1 F1050 X95.976 Y87.023 E62.16868
G0 F2400 X95.325 Y86.645
G1 F1050 X103.302 Y86.645 E62.56566
G0 F2400 X102.641 Y87.518
G1 F1050 X102.641 Y78.181 E63.03032
G0 F2400 X101.308 Y78.181
G1 F1050 X101.308 Y107.732 E64.50094
G0 F2400 X99.975 Y107.732
G1 F1050 X99.975 Y78.181 E65.97156
G0 F2400 X98.642 Y78.181
G1 F1050 X98.642 Y107.732 E67.44218
G0 F2400 X97.309 Y107.732
G1 F1050 X97.309 Y95.2 E68.06584
G0 F2400 X97.933 Y94.643
G1 F1050 X103.601 Y94.643 E68.34791
G0 F2400 X103.974 Y95.769
G1 F1050 X103.974 Y99.22 E68.51965
G0 F2400 X103.302 Y99.975
G1 F1050 X78.699 Y99.975 E69.74403
G0 F2400 X78.699 Y98.642
G1 F1050 X106.67 Y98.642 E71.13602
G0 F2400 X106.64 Y99.032
G1 F1050 X106.64 Y96.778 E71.24819
G0 F2400 X106.67 Y97.309
G1 F1050 X93.68 Y97.309 E71.89465
G0 F2400 X93.31 Y97.523
G1 F1050 X93.31 Y106.055 E72.31925
G0 F2400 X94.511 Y106.64
G1 F1050 X103.491 Y106.64 E72.76614
G0 F2400 X103.974 Y106.264
G1 F1050 X103.974 Y103.737 E72.8919
G0 F2400 X104.561 Y103.974
G1 F1050 X77.44 Y103.974 E74.24159
G0 F2400 X77.314 Y104.024
G1 F1050 X77.314 Y105.976 E74.33873
G0 F2400 X77.089 Y105.307
G1 F1050 X104.912 Y105.307 E75.72336
G0 F2400 X103.302 Y102.641
G1 F1050 X78.698 Y102.641 E76.94779
G0 F2400 X78.647 Y103.154
G1 F1050 X78.647 Y106.846 E77.13152
G0 F2400 X78.507 Y106.64
G1 F1050 X88.488 Y106.64 E77.62823
G0 F2400 X89.311 Y106.173
G1 F1050 X89.311 Y96.261 E78.1215
G0 F2400 X88.82 Y95.976
G1 F1050 X78.699 Y95.976 E78.62518
G0 F2400 X78.699 Y94.643
G1 F1050 X86.512 Y94.643 E79.014
G0 F2400 X86.645 Y94.721
G1 F1050 X86.645 Y107.731 E79.66145
G0 F2400 X87.978 Y107.731
G1 F1050 X87.978 Y95.491 E80.27058
G0 F2400 X86.278 Y93.31
G1 F1050 X78.699 Y93.31 E80.64775
G0 F2400 X78.699 Y91.977
G1 F1050 X86.951 Y91.977 E81.05841
G0 F2400 X86.645 Y91.93
G1 F1050 X86.645 Y92.584 E81.09096
