;FLAVOR:Marlin
;TIME:5869
;Filament used: 3.62706m
;Layer height: 0.15
;Generated with Cura_SteamEngine 2.7.0
M190 S60
M104 S220
M109 S220
G21 ;metric values
G90 ;absolute positioning
M82 ;set extruder to absolute mode
M107 ;start with the fan off
G92 E0 ;zero the extruded length
G1 F200 E3 ;extrude 3mm of feed stock
G92 E0 ;zero the extruded length again
G1 F9000
M301 P31.36 I3.30 D74.51 ;set PID tuning for E0
M304 P72.25 I2.72 D479.41 ; set PID tuning for heated bed
M117 Printing...
;LAYER_COUNT:66
;LAYER:0
M107
M205 X20 Y20
G0 F2400 X35.819 Y80.076 Z0.3
G0 X36.139 Y79.935
;TYPE:SKIRT
G1 F1050 X42.379 Y77.463 E0.33402
G1 X47.254 Y75.21 E0.60128
G1 X52.026 Y72.67 E0.87031
G1 X56.622 Y69.879 E1.1379
G1 X61.059 Y66.829 E1.40584
G1 X65.317 Y63.531 E1.67387
G1 X69.403 Y59.979 E1.94331
G1 X72.758 Y56.816 E2.17277
G1 X73.235 Y56.422 E2.20356
G1 X73.759 Y56.092 E2.23438
G1 X74.321 Y55.832 E2.26519
G1 X74.632 Y55.724 E2.28158
G1 X74.962 Y55.622 E2.29877
G1 X75.564 Y55.478 E2.32957
G1 X76.179 Y55.412 E2.36035
G1 X76.995 Y55.448 E2.401
G1 X81.22 Y55.996 E2.61302
G1 X86.653 Y56.486 E2.88449
G1 X92.01 Y56.665 E3.15124
G1 X97.405 Y56.539 E3.4198
G1 X102.787 Y56.11 E3.68848
G1 X107.709 Y55.454 E3.93559
G1 X108.326 Y55.412 E3.96637
G1 X108.921 Y55.447 E3.99603
G1 X109.464 Y55.513 E4.02325
G1 X110.072 Y55.627 E4.05404
G1 X110.661 Y55.819 E4.08487
G1 X111.264 Y56.11 E4.11819
G1 X111.467 Y56.226 E4.12982
G1 X111.984 Y56.567 E4.16065
G1 X112.417 Y56.937 E4.18899
G1 X114.974 Y59.402 E4.36574
G1 X119.023 Y62.984 E4.63477
G1 X123.258 Y66.325 E4.90322
G1 X127.659 Y69.41 E5.17069
G1 X132.247 Y72.253 E5.43929
G1 X136.961 Y74.817 E5.70634
G1 X141.868 Y77.137 E5.97646
G1 X144.339 Y78.178 E6.1099
G1 X148.836 Y79.927 E6.35002
G1 X149.397 Y80.188 E6.38082
G1 X149.92 Y80.52 E6.41165
G1 X150.396 Y80.916 E6.44246
G1 X150.927 Y81.511 E6.48215
G1 X151.254 Y81.945 E6.50919
G1 X151.594 Y82.462 E6.53998
G1 X151.865 Y83.019 E6.57081
G1 X152.061 Y83.606 E6.60161
G1 X152.18 Y84.214 E6.63244
G1 X152.22 Y84.804 E6.66187
G1 X152.296 Y98.079 E7.32252
G1 X152.286 Y98.409 E7.33895
G1 X152.209 Y99.627 E7.39968
G1 X152.131 Y100.241 E7.43048
G1 X151.973 Y100.839 E7.46126
G1 X151.681 Y101.531 E7.49864
G1 X151.285 Y102.295 E7.54147
G1 X150.965 Y102.825 E7.57228
G1 X150.58 Y103.31 E7.60309
G1 X150.063 Y103.801 E7.63858
G1 X149.482 Y104.276 E7.67592
G1 X148.978 Y104.636 E7.70675
G1 X148.184 Y105.033 E7.75092
G1 X143.148 Y106.991 E8.01982
G1 X138.224 Y109.199 E8.28837
G1 X133.454 Y111.67 E8.55571
G1 X128.813 Y114.42 E8.82418
G1 X124.35 Y117.416 E9.09168
G1 X120.038 Y120.678 E9.36076
G1 X115.943 Y124.158 E9.6282
G1 X112.156 Y127.749 E9.88792
G1 X111.703 Y128.128 E9.91731
G1 X111.333 Y128.401 E9.94019
G1 X110.813 Y128.736 E9.97098
G1 X110.043 Y129.078 E10.0129
G1 X109.338 Y129.32 E10.05
G1 X108.741 Y129.483 E10.0808
G1 X108.127 Y129.567 E10.11164
G1 X107.784 Y129.58 E10.12872
G1 X77.309 Y129.596 E11.64532
G1 X77.28 Y129.596 E11.64677
G1 X71.305 Y129.564 E11.94412
G1 X39.721 Y129.602 E13.51591
G1 X39.251 Y129.579 E13.53933
G1 X38.521 Y129.508 E13.57583
G1 X37.91 Y129.409 E13.60663
G1 X37.317 Y129.231 E13.63745
G1 X36.87 Y129.039 E13.66166
G1 X36.176 Y128.698 E13.70014
G1 X35.639 Y128.39 E13.73094
G1 X35.146 Y128.015 E13.76177
G1 X34.886 Y127.772 E13.77948
G1 X34.507 Y127.39 E13.80626
G1 X34.101 Y126.923 E13.83706
G1 X33.704 Y126.313 E13.87328
G1 X33.424 Y125.801 E13.90232
G1 X33.163 Y125.24 E13.93311
G1 X32.954 Y124.555 E13.96875
G1 X32.843 Y124.063 E13.99385
G1 X32.746 Y123.452 E14.02464
G1 X32.725 Y123.004 E14.04696
G1 X32.737 Y108.9 E14.74885
G1 X32.738 Y108.809 E14.75338
G1 X32.848 Y103.274 E15.02888
G1 X32.728 Y99.196 E15.23192
G1 X32.726 Y99.046 E15.23938
G1 X32.752 Y84.904 E15.94317
G1 X32.793 Y84.286 E15.97399
G1 X32.913 Y83.679 E16.00478
G1 X33.111 Y83.092 E16.03561
G1 X33.382 Y82.536 E16.06639
G1 X33.6 Y82.19 E16.08674
G1 X33.958 Y81.671 E16.11812
G1 X34.342 Y81.185 E16.14894
G1 X34.785 Y80.753 E16.17974
G1 X35.28 Y80.381 E16.21055
G1 X35.819 Y80.076 E16.24137
G1 X36.139 Y79.935 E16.25877
G0 F2400 X36.286 Y80.306
G1 F1050 X42.529 Y77.832 E16.59297
G1 X47.452 Y75.558 E16.86284
G1 X52.208 Y73.026 E17.13097
G1 X56.842 Y70.212 E17.40078
G1 X61.284 Y67.158 E17.66904
G1 X65.574 Y63.837 E17.93903
G1 X69.681 Y60.266 E18.20987
G1 X73.032 Y57.107 E18.43906
G1 X73.49 Y56.73 E18.46858
G1 X73.994 Y56.418 E18.49808
G1 X74.75 Y56.105 E18.53879
G1 X75.08 Y56.003 E18.55598
G1 X75.656 Y55.867 E18.58544
G1 X76.246 Y55.809 E18.61494
G1 X76.944 Y55.844 E18.64972
G1 X81.185 Y56.394 E18.86254
G1 X86.603 Y56.883 E19.13327
G1 X92.024 Y57.064 E19.4032
G1 X97.429 Y56.938 E19.67225
G1 X102.812 Y56.508 E19.94099
G1 X107.761 Y55.849 E20.18946
G1 X108.353 Y55.811 E20.21898
G1 X108.873 Y55.843 E20.24491
G1 X109.416 Y55.909 E20.27213
G1 X109.998 Y56.02 E20.30161
G1 X110.56 Y56.208 E20.3311
G1 X111.067 Y56.456 E20.35919
G1 X111.27 Y56.572 E20.37083
G1 X111.763 Y56.9 E20.4003
G1 X112.14 Y57.225 E20.42507
G1 X114.691 Y59.684 E20.6014
G1 X118.775 Y63.298 E20.87279
G1 X123.015 Y66.643 E21.14155
G1 X127.433 Y69.739 E21.41003
G1 X132.038 Y72.593 E21.67964
G1 X136.799 Y75.182 E21.94934
G1 X141.702 Y77.5 E22.21924
G1 X144.187 Y78.547 E22.35343
G1 X148.691 Y80.299 E22.59394
G1 X149.228 Y80.551 E22.62346
G1 X149.726 Y80.872 E22.65294
G1 X150.176 Y81.258 E22.68245
G1 X150.609 Y81.751 E22.7151
G1 X150.936 Y82.185 E22.74214
G1 X151.26 Y82.681 E22.77163
G1 X151.514 Y83.217 E22.80114
G1 X151.694 Y83.782 E22.83065
G1 X151.796 Y84.366 E22.86016
G1 X151.821 Y84.806 E22.88209
G1 X151.897 Y98.081 E23.54274
G1 X151.888 Y98.383 E23.55777
G1 X151.811 Y99.601 E23.61851
G1 X151.734 Y100.189 E23.64802
G1 X151.579 Y100.761 E23.67751
G1 X151.327 Y101.347 E23.70926
G1 X150.931 Y102.111 E23.75208
G1 X150.623 Y102.618 E23.7816
G1 X150.25 Y103.079 E23.81112
G1 X149.81 Y103.492 E23.84115
G1 X149.229 Y103.967 E23.87849
G1 X148.746 Y104.311 E23.908
G1 X148.039 Y104.661 E23.94726
G1 X143.002 Y106.619 E24.2162
G1 X138.056 Y108.837 E24.48596
G1 X133.252 Y111.326 E24.75522
G1 X128.599 Y114.083 E25.02437
G1 X124.108 Y117.097 E25.29354
G1 X119.794 Y120.361 E25.56275
G1 X115.682 Y123.855 E25.83128
G1 X111.881 Y127.46 E26.09199
G1 X111.467 Y127.807 E26.11887
G1 X111.097 Y128.08 E26.14175
G1 X110.597 Y128.399 E26.17127
G1 X109.914 Y128.701 E26.20843
G1 X109.209 Y128.943 E26.24553
G1 X108.636 Y129.097 E26.27505
G1 X107.783 Y129.181 E26.31771
G1 X77.308 Y129.197 E27.83431
G1 X77.282 Y129.197 E27.83561
G1 X71.306 Y129.165 E28.13301
G1 X39.72 Y129.203 E29.7049
G1 X39.289 Y129.182 E29.72638
G1 X38.559 Y129.111 E29.76288
G1 X37.975 Y129.014 E29.79234
G1 X37.408 Y128.84 E29.82185
G1 X37.046 Y128.681 E29.84153
G1 X36.352 Y128.34 E29.88001
G1 X35.839 Y128.044 E29.90949
G1 X35.17 Y127.491 E29.95268
G1 X34.791 Y127.109 E29.97946
G1 X34.402 Y126.661 E30.00899
G1 X34.054 Y126.122 E30.04092
G1 X33.774 Y125.61 E30.06996
G1 X33.525 Y125.072 E30.09946
G1 X33.343 Y124.468 E30.13085
G1 X33.232 Y123.976 E30.15595
G1 X33.141 Y123.39 E30.18546
G1 X33.124 Y123.004 E30.20469
G1 X33.136 Y108.9 E30.90659
G1 X33.137 Y108.817 E30.91072
G1 X33.247 Y103.27 E31.18682
G1 X33.127 Y99.184 E31.39025
G1 X33.125 Y99.047 E31.39707
G1 X33.151 Y84.905 E32.10085
G1 X33.192 Y84.314 E32.13033
G1 X33.312 Y83.733 E32.15986
G1 X33.509 Y83.174 E32.18935
G1 X33.929 Y82.416 E32.23248
G1 X34.287 Y81.897 E32.26386
G1 X34.655 Y81.433 E32.29333
G1 X35.083 Y81.023 E32.32282
G1 X35.562 Y80.674 E32.35232
G1 X36.286 Y80.306 E32.39274
G0 F2400 X36.433 Y80.677
G1 F1050 X42.695 Y78.196 E32.72794
G1 X47.614 Y75.923 E32.9976
G1 X52.418 Y73.366 E33.26843
G1 X57.042 Y70.557 E33.53768
G1 X61.532 Y67.471 E33.80882
G1 X65.824 Y64.147 E34.07898
G1 X69.947 Y60.564 E34.35081
G1 X73.306 Y57.397 E34.58056
G1 X73.743 Y57.039 E34.60867
G1 X74.227 Y56.747 E34.6368
G1 X74.867 Y56.486 E34.6712
G1 X75.197 Y56.384 E34.68839
G1 X75.748 Y56.256 E34.71654
G1 X76.311 Y56.207 E34.74466
G1 X76.892 Y56.239 E34.77362
G1 X81.148 Y56.791 E34.98719
G1 X86.589 Y57.282 E35.25907
G1 X92.02 Y57.463 E35.5295
G1 X97.452 Y57.336 E35.7999
G1 X102.859 Y56.905 E36.06983
G1 X107.814 Y56.245 E36.3186
G1 X108.378 Y56.21 E36.34672
G1 X108.824 Y56.239 E36.36896
G1 X109.367 Y56.305 E36.39618
G1 X109.922 Y56.413 E36.42432
G1 X110.456 Y56.598 E36.45244
G1 X110.869 Y56.803 E36.47539
G1 X111.072 Y56.919 E36.48703
G1 X111.541 Y57.233 E36.51511
G1 X111.863 Y57.512 E36.53632
G1 X114.431 Y59.988 E36.71384
G1 X118.508 Y63.595 E36.98474
G1 X122.773 Y66.959 E37.25507
G1 X127.219 Y70.076 E37.52529
G1 X131.85 Y72.946 E37.79642
G1 X136.609 Y75.534 E38.06601
G1 X141.526 Y77.858 E38.33666
G1 X144.067 Y78.929 E38.47389
G1 X148.546 Y80.671 E38.71305
G1 X149.057 Y80.913 E38.74119
G1 X149.529 Y81.224 E38.76932
G1 X149.952 Y81.598 E38.79742
G1 X150.29 Y81.991 E38.82321
G1 X150.617 Y82.425 E38.85026
G1 X150.924 Y82.899 E38.87836
G1 X151.162 Y83.412 E38.90651
G1 X151.325 Y83.954 E38.93467
G1 X151.409 Y84.512 E38.96275
G1 X151.422 Y84.808 E38.9775
G1 X151.498 Y98.083 E39.63815
G1 X151.49 Y98.358 E39.65184
G1 X151.413 Y99.576 E39.71257
G1 X151.338 Y100.136 E39.74069
G1 X151.184 Y100.68 E39.76883
G1 X150.973 Y101.164 E39.7951
G1 X150.577 Y101.928 E39.83793
G1 X150.282 Y102.41 E39.86605
G1 X149.922 Y102.846 E39.89419
G1 X149.558 Y103.183 E39.91887
G1 X148.977 Y103.658 E39.95622
G1 X148.515 Y103.984 E39.98436
G1 X147.895 Y104.289 E40.01875
G1 X142.849 Y106.251 E40.28818
G1 X137.88 Y108.479 E40.55918
G1 X133.064 Y110.974 E40.82911
G1 X128.387 Y113.745 E41.09964
G1 X123.869 Y116.777 E41.37042
G1 X119.548 Y120.047 E41.64009
G1 X115.413 Y123.562 E41.91017
G1 X111.607 Y127.17 E42.17116
G1 X111.23 Y127.486 E42.19564
G1 X110.86 Y127.759 E42.21853
G1 X110.382 Y128.062 E42.24669
G1 X109.784 Y128.323 E42.27916
G1 X109.079 Y128.565 E42.31626
G1 X108.533 Y128.711 E42.34438
G1 X107.783 Y128.782 E42.38187
G1 X77.308 Y128.798 E43.89848
G1 X77.285 Y128.798 E43.89962
G1 X71.309 Y128.766 E44.19702
G1 X39.72 Y128.804 E45.76907
G1 X39.328 Y128.785 E45.7886
G1 X38.598 Y128.714 E45.8251
G1 X38.041 Y128.62 E45.85321
G1 X37.502 Y128.448 E45.88137
G1 X37.222 Y128.323 E45.89663
G1 X36.528 Y127.982 E45.93511
G1 X36.04 Y127.698 E45.96321
G1 X35.453 Y127.21 E46.00119
G1 X35.074 Y126.828 E46.02797
G1 X34.705 Y126.399 E46.05613
G1 X34.404 Y125.93 E46.08387
G1 X34.124 Y125.418 E46.11291
G1 X33.889 Y124.904 E46.14103
G1 X33.732 Y124.38 E46.16826
G1 X33.621 Y123.888 E46.19336
G1 X33.536 Y123.329 E46.2215
G1 X33.523 Y123.005 E46.23763
G1 X33.535 Y108.901 E46.93953
G1 X33.536 Y108.825 E46.94331
G1 X33.646 Y103.248 E47.2209
G1 X33.526 Y99.172 E47.42384
G1 X33.524 Y99.048 E47.43001
G1 X33.55 Y84.906 E48.13379
G1 X33.591 Y84.342 E48.16193
G1 X33.711 Y83.79 E48.19005
G1 X33.908 Y83.26 E48.21818
G1 X34.257 Y82.643 E48.25346
G1 X34.615 Y82.124 E48.28484
G1 X34.968 Y81.683 E48.31295
G1 X35.38 Y81.295 E48.34111
G1 X35.842 Y80.97 E48.36923
G1 X36.433 Y80.677 E48.40205
G0 F2400 X36.58 Y81.048
G1 F1050 X42.853 Y78.562 E48.73785
G1 X47.791 Y76.281 E49.00855
G1 X52.613 Y73.714 E49.2804
G1 X57.263 Y70.89 E49.55114
G1 X61.758 Y67.8 E49.82259
G1 X66.086 Y64.449 E50.09499
G1 X70.2 Y60.872 E50.36629
G1 X73.579 Y57.687 E50.59738
G1 X73.996 Y57.349 E50.62409
G1 X74.458 Y57.077 E50.65077
G1 X74.985 Y56.868 E50.67899
G1 X75.315 Y56.766 E50.69618
G1 X75.838 Y56.646 E50.72288
G1 X76.373 Y56.605 E50.74958
G1 X76.841 Y56.635 E50.77292
G1 X81.113 Y57.189 E50.9873
G1 X86.557 Y57.68 E51.25932
G1 X92.016 Y57.863 E51.53114
G1 X97.459 Y57.736 E51.80209
G1 X102.925 Y57.299 E52.07498
G1 X107.867 Y56.641 E52.32309
G1 X108.402 Y56.61 E52.34976
G1 X108.776 Y56.635 E52.36841
G1 X109.319 Y56.701 E52.39563
G1 X109.845 Y56.805 E52.42232
G1 X110.35 Y56.987 E52.44903
G1 X110.671 Y57.149 E52.46692
G1 X110.874 Y57.265 E52.47856
G1 X111.318 Y57.565 E52.50523
G1 X111.586 Y57.799 E52.52293
G1 X114.16 Y60.281 E52.70088
G1 X118.25 Y63.9 E52.97266
G1 X122.541 Y67.284 E53.24462
G1 X127.005 Y70.414 E53.51594
G1 X131.629 Y73.278 E53.78662
G1 X136.433 Y75.891 E54.05877
G1 X141.379 Y78.23 E54.33105
G1 X143.903 Y79.293 E54.46734
G1 X148.402 Y81.043 E54.70758
G1 X148.886 Y81.274 E54.73427
G1 X149.33 Y81.574 E54.76093
G1 X149.724 Y81.937 E54.78759
G1 X149.971 Y82.231 E54.8067
G1 X150.298 Y82.665 E54.83375
G1 X150.588 Y83.116 E54.86043
G1 X150.808 Y83.606 E54.88716
G1 X150.952 Y84.122 E54.91382
G1 X151.023 Y84.81 E54.94824
G1 X151.099 Y98.085 E55.60889
G1 X151.092 Y98.333 E55.62123
G1 X151.015 Y99.551 E55.68197
G1 X150.941 Y100.082 E55.70865
G1 X150.79 Y100.597 E55.73536
G1 X150.618 Y100.98 E55.75625
G1 X150.222 Y101.744 E55.79908
G1 X149.941 Y102.201 E55.82578
G1 X149.595 Y102.61 E55.85244
G1 X149.305 Y102.874 E55.87195
G1 X148.724 Y103.349 E55.9093
G1 X148.285 Y103.657 E55.93599
G1 X147.75 Y103.917 E55.96559
G1 X142.695 Y105.882 E56.23549
G1 X137.718 Y108.114 E56.50694
G1 X132.856 Y110.633 E56.77945
G1 X128.174 Y113.407 E57.05027
G1 X123.643 Y116.448 E57.32184
G1 X119.303 Y119.732 E57.59268
G1 X115.143 Y123.267 E57.86436
G1 X111.332 Y126.881 E58.12573
G1 X110.993 Y127.165 E58.14774
G1 X110.623 Y127.438 E58.17063
G1 X110.169 Y127.723 E58.1973
G1 X109.654 Y127.946 E58.22523
G1 X108.949 Y128.188 E58.26232
G1 X108.431 Y128.324 E58.28898
G1 X107.783 Y128.383 E58.32136
G1 X77.308 Y128.399 E59.83796
G1 X77.287 Y128.399 E59.83901
G1 X71.31 Y128.367 E60.13646
G1 X39.719 Y128.405 E61.7086
G1 X39.367 Y128.388 E61.72614
G1 X38.637 Y128.317 E61.76264
G1 X38.108 Y128.226 E61.78935
G1 X37.398 Y127.965 E61.827
G1 X36.704 Y127.624 E61.86548
G1 X36.242 Y127.352 E61.89216
G1 X35.736 Y126.929 E61.92498
G1 X35.357 Y126.547 E61.95176
G1 X35.009 Y126.139 E61.97845
G1 X34.754 Y125.739 E62.00205
G1 X34.474 Y125.227 E62.03109
G1 X34.253 Y124.739 E62.05775
G1 X34.121 Y124.292 E62.08095
G1 X34.01 Y123.8 E62.10605
G1 X33.922 Y123.005 E62.14585
G1 X33.934 Y108.901 E62.84775
G1 X33.935 Y108.833 E62.85113
G1 X34.045 Y103.262 E63.12843
G1 X33.925 Y99.161 E63.3326
G1 X33.923 Y99.048 E63.33823
G1 X33.949 Y84.906 E64.04201
G1 X33.99 Y84.372 E64.06867
G1 X34.11 Y83.849 E64.09537
G1 X34.306 Y83.35 E64.12205
G1 X34.585 Y82.869 E64.14972
G1 X34.943 Y82.35 E64.1811
G1 X35.28 Y81.933 E64.20778
G1 X35.675 Y81.57 E64.23448
G1 X36.119 Y81.27 E64.26115
G1 X36.58 Y81.048 E64.28661
G0 F2400 X36.727 Y81.419
G1 F1050 X43.003 Y78.932 E64.62257
G1 X47.967 Y76.639 E64.89468
G1 X52.816 Y74.058 E65.16805
G1 X57.483 Y71.223 E65.4398
G1 X62.003 Y68.116 E65.71276
G1 X66.328 Y64.767 E65.98498
G1 X70.48 Y61.157 E66.25878
G1 X73.853 Y57.978 E66.48945
G1 X74.247 Y57.661 E66.51461
G1 X74.686 Y57.41 E66.53978
G1 X75.103 Y57.249 E66.56202
G1 X75.433 Y57.147 E66.57921
G1 X75.926 Y57.036 E66.60436
G1 X76.431 Y57.004 E66.62954
G1 X76.79 Y57.031 E66.64746
G1 X81.053 Y57.584 E66.86139
G1 X86.543 Y58.079 E67.13571
G1 X92.012 Y58.262 E67.40803
G1 X97.481 Y58.134 E67.68027
G1 X102.955 Y57.697 E67.95355
G1 X107.92 Y57.036 E68.20282
G1 X108.424 Y57.009 E68.22794
G1 X108.728 Y57.031 E68.2431
G1 X109.271 Y57.097 E68.27033
G1 X109.767 Y57.198 E68.29552
G1 X110.24 Y57.375 E68.32065
G1 X110.473 Y57.496 E68.33372
G1 X110.676 Y57.612 E68.34535
G1 X111.093 Y57.896 E68.37046
G1 X111.309 Y58.086 E68.38477
G1 X113.888 Y60.573 E68.56307
G1 X118.004 Y64.214 E68.83655
G1 X122.299 Y67.602 E69.10879
G1 X126.786 Y70.748 E69.3815
G1 X131.433 Y73.627 E69.65355
G1 X136.243 Y76.243 E69.92603
G1 X141.222 Y78.597 E70.20011
G1 X143.752 Y79.663 E70.33674
G1 X148.257 Y81.415 E70.57729
G1 X148.712 Y81.635 E70.60244
G1 X149.127 Y81.923 E70.62758
G1 X149.491 Y82.274 E70.65275
G1 X149.653 Y82.471 E70.66544
G1 X149.98 Y82.905 E70.69248
G1 X150.251 Y83.332 E70.71765
G1 X150.452 Y83.796 E70.74281
G1 X150.577 Y84.286 E70.76798
G1 X150.624 Y84.813 E70.79431
G1 X150.7 Y98.088 E71.45496
G1 X150.694 Y98.308 E71.46591
G1 X150.617 Y99.526 E71.52665
G1 X150.545 Y100.026 E71.55179
G1 X150.395 Y100.509 E71.57695
G1 X150.264 Y100.797 E71.5927
G1 X149.868 Y101.561 E71.63552
G1 X149.601 Y101.99 E71.66067
G1 X149.269 Y102.371 E71.68582
G1 X149.052 Y102.565 E71.70031
G1 X148.471 Y103.04 E71.73765
G1 X148.056 Y103.329 E71.76282
G1 X147.606 Y103.546 E71.78768
G1 X142.526 Y105.521 E72.05892
G1 X137.528 Y107.762 E72.33151
G1 X132.674 Y110.277 E72.60357
