;FLAVOR:Marlin
;TIME:172
;Filament used: 0.0785128m
;Layer height: 0.1
;Generated with Cura_SteamEngine 2.7.0
M190 S50
M104 S210
M109 S210
G21 ;metric values
G90 ;absolute positioning
M82 ;set extruder to absolute mode
M107 ;start with the fan off
G92 E0 ;zero the extruded length
G1 F200 E3 ;extrude 3mm of feed stock
G92 E0 ;zero the extruded length again
G1 F9000
M301 P31.36 I3.30 D74.51 ;set PID tuning for E0
M304 P72.25 I2.72 D479.41 ; set PID tuning for heated bed
M117 Printing...
;LAYER_COUNT:29
;LAYER:0
M107
M205 X20 Y20
G0 F2400 X79.917 Y88.3 Z0.3
;TYPE:SKIRT
G1 F1050 X80.382 Y87.892 E0.03079
G1 X80.896 Y87.547 E0.06159
G1 X81.296 Y87.339 E0.08403
G1 X81.528 Y87.232 E0.09674
G1 X82.106 Y87.009 E0.12758
G1 X82.708 Y86.863 E0.1584
G1 X83.538 Y86.791 E0.19986
G1 X101.469 Y86.794 E1.09221
G1 X102.087 Y86.834 E1.12303
G1 X102.694 Y86.953 E1.15381
G1 X103.407 Y87.203 E1.19141
G1 X103.631 Y87.302 E1.2036
G1 X104.18 Y87.589 E1.23443
G1 X104.687 Y87.943 E1.2652
G1 X105.145 Y88.36 E1.29602
G1 X105.545 Y88.833 E1.32685
G1 X105.881 Y89.353 E1.35766
G1 X106.147 Y89.912 E1.38847
G1 X106.268 Y90.253 E1.40648
G1 X106.456 Y90.852 E1.43772
G1 X106.603 Y91.453 E1.46851
G1 X106.671 Y92.069 E1.49935
G1 X106.675 Y92.378 E1.51473
G1 X106.663 Y93.014 E1.54639
G1 X106.612 Y93.631 E1.5772
G1 X106.481 Y94.237 E1.60805
G1 X106.294 Y94.772 E1.63626
G1 X106.119 Y95.191 E1.65885
G1 X105.844 Y95.746 E1.68968
G1 X105.499 Y96.261 E1.72053
G1 X105.092 Y96.727 E1.75132
G1 X104.628 Y97.136 E1.7821
G1 X104.115 Y97.483 E1.81292
G1 X103.457 Y97.803 E1.84933
G1 X103.184 Y97.911 E1.86394
G1 X102.595 Y98.101 E1.89474
G1 X101.986 Y98.213 E1.92556
G1 X101.419 Y98.247 E1.95383
G1 X83.537 Y98.244 E2.84373
G1 X82.919 Y98.204 E2.87455
G1 X82.312 Y98.085 E2.90533
G1 X81.725 Y97.888 E2.93615
G1 X81.372 Y97.727 E2.95546
G1 X81.133 Y97.606 E2.96879
G1 X80.6 Y97.291 E2.9996
G1 X80.111 Y96.91 E3.03045
G1 X79.676 Y96.47 E3.06124
G1 X79.302 Y95.977 E3.09204
G1 X78.994 Y95.44 E3.12284
G1 X78.804 Y95.001 E3.14665
G1 X78.629 Y94.531 E3.17161
G1 X78.451 Y93.938 E3.20242
G1 X78.351 Y93.327 E3.23323
G1 X78.328 Y92.812 E3.25888
G1 X78.335 Y92.062 E3.29621
G1 X78.381 Y91.445 E3.327
G1 X78.506 Y90.838 E3.35784
G1 X78.711 Y90.245 E3.38907
G1 X78.885 Y89.832 E3.41137
G1 X79.162 Y89.278 E3.44219
G1 X79.508 Y88.765 E3.47299
G1 X79.917 Y88.3 E3.50381
G0 F2400 X80.253 Y88.529
G1 F1050 X80.706 Y88.147 E3.5333
G1 X81.463 Y87.701 E3.57702
G1 X81.695 Y87.594 E3.58973
G1 X82.249 Y87.383 E3.61924
G1 X82.826 Y87.248 E3.64873
G1 X83.538 Y87.19 E3.68428
G1 X101.469 Y87.193 E4.57662
G1 X102.06 Y87.233 E4.6061
G1 X102.641 Y87.352 E4.63561
G1 X103.245 Y87.568 E4.66754
G1 X103.469 Y87.667 E4.67973
G1 X103.994 Y87.943 E4.70924
G1 X104.477 Y88.287 E4.73875
G1 X104.91 Y88.692 E4.76826
G1 X105.283 Y89.152 E4.79773
G1 X105.592 Y89.658 E4.82724
G1 X105.887 Y90.372 E4.86568
G1 X106.075 Y90.971 E4.89692
G1 X106.214 Y91.548 E4.92646
G1 X106.276 Y92.371 E4.96753
G1 X106.264 Y93.007 E4.99919
G1 X106.213 Y93.597 E5.02866
G1 X106.083 Y94.176 E5.05819
G1 X105.925 Y94.619 E5.0816
G1 X105.75 Y95.038 E5.1042
G1 X105.486 Y95.568 E5.13366
G1 X105.152 Y96.058 E5.16317
G1 X104.755 Y96.498 E5.19267
G1 X104.303 Y96.882 E5.22218
G1 X103.803 Y97.2 E5.25167
G1 X103.31 Y97.432 E5.27879
G1 X103.037 Y97.54 E5.2934
G1 X102.473 Y97.72 E5.32286
G1 X101.889 Y97.823 E5.35237
G1 X101.419 Y97.848 E5.37579
G1 X83.537 Y97.845 E6.2657
G1 X82.946 Y97.805 E6.29518
G1 X82.365 Y97.686 E6.32469
G1 X81.552 Y97.371 E6.36808
G1 X81.313 Y97.25 E6.38141
G1 X80.803 Y96.947 E6.41094
G1 X80.339 Y96.579 E6.44041
G1 X79.929 Y96.151 E6.4699
G1 X79.579 Y95.672 E6.49943
G1 X79.298 Y95.15 E6.52893
G1 X79.178 Y94.861 E6.5445
G1 X79.003 Y94.391 E6.56946
G1 X78.834 Y93.823 E6.59895
G1 X78.743 Y93.237 E6.62846
G1 X78.727 Y92.816 E6.64943
G1 X78.734 Y92.066 E6.68676
G1 X78.78 Y91.475 E6.71626
G1 X78.904 Y90.895 E6.74577
G1 X79.079 Y90.4 E6.7719
G1 X79.253 Y89.987 E6.7942
G1 X79.519 Y89.457 E6.82372
G1 X79.855 Y88.968 E6.85324
G1 X80.253 Y88.529 E6.88273
G0 F2400 X80.587 Y88.762
G1 F1050 X81.027 Y88.408 E6.91083
G1 X81.631 Y88.064 E6.94543
G1 X81.863 Y87.957 E6.95814
G1 X82.391 Y87.757 E6.98624
G1 X82.943 Y87.633 E7.01439
G1 X83.538 Y87.589 E7.04408
G1 X101.469 Y87.592 E7.93643
G1 X102.032 Y87.632 E7.96452
G1 X102.585 Y87.751 E7.99267
G1 X103.084 Y87.933 E8.0191
G1 X103.308 Y88.032 E8.03129
G1 X103.808 Y88.297 E8.05945
G1 X104.265 Y88.629 E8.08756
G1 X104.671 Y89.022 E8.11568
G1 X105.017 Y89.469 E8.14381
G1 X105.297 Y89.96 E8.17194
G1 X105.507 Y90.492 E8.2004
G1 X105.695 Y91.091 E8.23165
G1 X105.825 Y91.641 E8.25977
G1 X105.877 Y92.363 E8.2958
G1 X105.865 Y92.999 E8.32745
G1 X105.815 Y93.562 E8.35558
G1 X105.685 Y94.113 E8.38375
G1 X105.557 Y94.465 E8.40239
G1 X105.382 Y94.884 E8.42499
G1 X105.128 Y95.389 E8.45312
G1 X104.805 Y95.853 E8.48126
G1 X104.42 Y96.266 E8.50936
G1 X103.981 Y96.622 E8.53748
G1 X103.496 Y96.912 E8.56561
G1 X103.164 Y97.061 E8.58372
G1 X102.891 Y97.169 E8.59833
G1 X102.352 Y97.339 E8.62645
G1 X101.794 Y97.431 E8.6546
G1 X101.419 Y97.449 E8.67328
G1 X83.537 Y97.446 E9.56319
G1 X82.974 Y97.406 E9.59128
G1 X82.421 Y97.287 E9.61943
G1 X81.732 Y97.015 E9.65629
G1 X81.493 Y96.894 E9.66962
G1 X81.008 Y96.604 E9.69774
G1 X80.569 Y96.248 E9.72587
G1 X80.184 Y95.834 E9.75401
G1 X79.862 Y95.369 E9.78215
G1 X79.552 Y94.722 E9.81786
G1 X79.377 Y94.252 E9.84281
G1 X79.218 Y93.71 E9.87092
G1 X79.137 Y93.15 E9.89908
G1 X79.126 Y92.82 E9.91551
G1 X79.133 Y92.07 E9.95284
G1 X79.178 Y91.506 E9.981
G1 X79.303 Y90.955 E10.00911
G1 X79.447 Y90.555 E10.03027
G1 X79.621 Y90.142 E10.05257
G1 X79.876 Y89.638 E10.08068
G1 X80.201 Y89.175 E10.10884
G1 X80.587 Y88.762 E10.13697
G0 F2400 X80.919 Y88.999
G1 F1050 X81.346 Y88.675 E10.16364
G1 X81.798 Y88.426 E10.18932
G1 X82.03 Y88.319 E10.20204
G1 X82.532 Y88.131 E10.22871
G1 X83.057 Y88.02 E10.25542
G1 X83.538 Y87.988 E10.27941
G1 X101.469 Y87.991 E11.17175
G1 X102.003 Y88.031 E11.1984
G1 X102.526 Y88.15 E11.2251
G1 X102.923 Y88.298 E11.24618
G1 X103.147 Y88.397 E11.25837
G1 X103.62 Y88.65 E11.28506
G1 X104.05 Y88.97 E11.31174
G1 X104.428 Y89.351 E11.33845
G1 X104.745 Y89.783 E11.36511
G1 X104.994 Y90.258 E11.3918
G1 X105.126 Y90.611 E11.41056
G1 X105.314 Y91.21 E11.4418
G1 X105.436 Y91.732 E11.46848
G1 X105.478 Y92.356 E11.4996
G1 X105.466 Y92.992 E11.53126
G1 X105.416 Y93.526 E11.55795
G1 X105.288 Y94.046 E11.5846
G1 X105.189 Y94.311 E11.59868
G1 X105.014 Y94.73 E11.62128
G1 X104.771 Y95.208 E11.64796
G1 X104.46 Y95.645 E11.67465
G1 X104.087 Y96.03 E11.70133
G1 X103.661 Y96.356 E11.72803
G1 X103.017 Y96.69 E11.76413
G1 X102.744 Y96.798 E11.77874
G1 X102.232 Y96.957 E11.80542
G1 X101.702 Y97.039 E11.83211
G1 X101.419 Y97.05 E11.8462
G1 X83.537 Y97.047 E12.73611
G1 X83.003 Y97.007 E12.76276
G1 X82.48 Y96.888 E12.78945
G1 X81.912 Y96.659 E12.81993
G1 X81.673 Y96.538 E12.83326
G1 X81.214 Y96.261 E12.85994
G1 X80.802 Y95.918 E12.88662
G1 X80.444 Y95.519 E12.9133
G1 X80.15 Y95.07 E12.94001
G1 X79.926 Y94.583 E12.96668
G1 X79.751 Y94.113 E12.99164
G1 X79.602 Y93.598 E13.01832
G1 X79.525 Y92.823 E13.05708
G1 X79.532 Y92.073 E13.0944
G1 X79.577 Y91.539 E13.12107
G1 X79.701 Y91.017 E13.14777
G1 X79.814 Y90.71 E13.16405
G1 X79.988 Y90.297 E13.18636
G1 X80.233 Y89.819 E13.21309
G1 X80.545 Y89.384 E13.23973
G1 X80.919 Y88.999 E13.26644
G0 F2400 X81.249 Y89.242
G1 F1050 X81.661 Y88.948 E13.29163
G1 X81.965 Y88.788 E13.30872
G1 X82.197 Y88.681 E13.32144
G1 X82.671 Y88.506 E13.34658
G1 X83.167 Y88.408 E13.37174
G1 X83.538 Y88.387 E13.39024
G1 X101.469 Y88.39 E14.28258
G1 X101.973 Y88.43 E14.30774
G1 X102.464 Y88.549 E14.33288
G1 X102.762 Y88.663 E14.34876
G1 X102.986 Y88.762 E14.36095
G1 X103.43 Y89.002 E14.38607
G1 X103.832 Y89.31 E14.41127
G1 X104.18 Y89.676 E14.4364
G1 X104.466 Y90.093 E14.46157
G1 X104.745 Y90.731 E14.49622
G1 X104.933 Y91.33 E14.52746
G1 X105.046 Y91.823 E14.55264
G1 X105.079 Y92.348 E14.57881
G1 X105.067 Y92.984 E14.61047
G1 X105.018 Y93.488 E14.63567
G1 X104.821 Y94.157 E14.67038
G1 X104.646 Y94.576 E14.69297
G1 X104.415 Y95.026 E14.71815
G1 X104.116 Y95.434 E14.74332
G1 X103.756 Y95.789 E14.76848
G1 X103.345 Y96.083 E14.79363
G1 X102.87 Y96.319 E14.82002
G1 X102.597 Y96.427 E14.83463
G1 X102.114 Y96.575 E14.85977
G1 X101.419 Y96.651 E14.89457
G1 X83.537 Y96.648 E15.78447
G1 X83.033 Y96.608 E15.80963
G1 X82.542 Y96.489 E15.83478
G1 X82.093 Y96.303 E15.85896
G1 X81.854 Y96.182 E15.87229
G1 X81.422 Y95.919 E15.89746
G1 X81.037 Y95.591 E15.92263
G1 X80.709 Y95.206 E15.9478
G1 X80.445 Y94.775 E15.97296
G1 X80.3 Y94.444 E15.99094
G1 X80.125 Y93.974 E16.0159
G1 X79.987 Y93.487 E16.04109
G1 X79.924 Y92.827 E16.07408
G1 X79.931 Y92.077 E16.11141
G1 X79.976 Y91.574 E16.13654
G1 X80.182 Y90.865 E16.17328
G1 X80.356 Y90.452 E16.19559
G1 X80.589 Y90.003 E16.22076
G1 X80.889 Y89.596 E16.24592
G1 X81.249 Y89.242 E16.27105
G1 F1500 E15.27105
G0 F2400 X82.599 Y91.589
G0 X83.732 Y92.188
G0 X83.772 Y92.274
G0 X83.772 Y92.174
;TYPE:WALL-INNER
G1 F1500 E16.27105
G1 F1050 X101.257 Y92.174 E17.1412
G1 X101.28 Y92.174 E17.14234
G1 X101.285 Y92.185 E17.14295
G1 X101.298 Y92.493 E17.15829
G1 X101.299 Y92.528 E17.16003
G1 X101.298 Y92.551 E17.16117
G1 X101.281 Y92.859 E17.17653
G1 X101.246 Y92.859 E17.17827
G1 X83.722 Y92.862 E18.05036
G1 X83.714 Y92.84 E18.05152
G1 X83.703 Y92.681 E18.05945
G1 X83.699 Y92.52 E18.06747
G1 X83.699 Y92.467 E18.07011
G1 X83.719 Y92.174 E18.08472
G1 X83.772 Y92.174 E18.08736
G0 F2400 X83.305 Y92.693
;TYPE:WALL-OUTER
G1 F1050 X83.301 Y92.467 E18.09861
G1 X83.321 Y92.104 E18.1167
G1 X83.359 Y92 E18.12221
G1 X83.445 Y91.837 E18.13138
G1 X83.582 Y91.776 E18.13885
G1 X101.42 Y91.776 E19.02656
G1 X101.555 Y91.836 E19.03391
G1 X101.627 Y91.971 E19.04153
G1 X101.677 Y92.092 E19.04804
G1 X101.691 Y92.287 E19.05777
G1 X101.697 Y92.528 E19.06977
G1 X101.676 Y92.933 E19.08995
G1 X101.646 Y93.02 E19.09453
G1 X101.554 Y93.198 E19.1045
G1 X101.417 Y93.26 E19.11199
G1 X83.582 Y93.26 E19.99955
G1 X83.444 Y93.199 E20.00706
G1 X83.39 Y93.1 E20.01267
G1 X83.321 Y92.933 E20.02167
G1 X83.305 Y92.693 E20.03364
G0 F2400 X83.302 Y92.493
G0 X83.918 Y92.642
G1 F1050 X84.073 Y92.516 E20.03964
G1 X84.355 Y92.516 E20.05009
G1 X84.636 Y92.516 E20.0605
G1 X84.918 Y92.516 E20.07094
G1 X85.199 Y92.516 E20.08135
G1 X85.48 Y92.516 E20.09176
G1 X85.762 Y92.516 E20.10221
G1 X86.043 Y92.516 E20.11262
G1 X86.325 Y92.516 E20.12306
G1 X86.606 Y92.516 E20.13347
G1 X86.888 Y92.516 E20.14392
G1 X87.169 Y92.516 E20.15433
G1 X87.45 Y92.516 E20.16474
G1 X87.732 Y92.516 E20.17518
G1 X88.013 Y92.516 E20.18559
G1 X88.295 Y92.516 E20.19604
G1 X88.576 Y92.516 E20.20645
G1 X88.858 Y92.516 E20.21689
G1 X89.139 Y92.516 E20.2273
G1 X89.42 Y92.516 E20.23771
G1 X89.702 Y92.516 E20.24812
G1 X89.983 Y92.516 E20.2585
G1 X90.265 Y92.516 E20.26891
G1 X90.546 Y92.516 E20.27928
G1 X90.828 Y92.516 E20.28969
G1 X91.109 Y92.516 E20.30007
G1 X91.39 Y92.516 E20.31044
G1 X91.672 Y92.516 E20.32085
G1 X91.953 Y92.516 E20.33123
G1 X92.235 Y92.516 E20.34164
G1 X92.516 Y92.516 E20.35201
G1 X92.798 Y92.516 E20.36239
G1 X93.079 Y92.516 E20.37273
G1 X93.361 Y92.516 E20.3831
G1 X93.642 Y92.516 E20.39344
G1 X93.924 Y92.516 E20.40382
G1 X94.205 Y92.516 E20.41416
G1 X94.486 Y92.516 E20.4245
G1 X94.768 Y92.516 E20.43487
G1 X95.049 Y92.516 E20.44521
G1 X95.33 Y92.516 E20.45555
G1 X95.612 Y92.516 E20.46593
G1 X95.893 Y92.516 E20.47627
G1 X96.174 Y92.516 E20.48661
G1 X96.456 Y92.516 E20.49698
G1 X96.737 Y92.516 E20.50732
G1 X97.019 Y92.516 E20.5177
G1 X97.3 Y92.516 E20.52804
G1 X97.582 Y92.516 E20.53841
G1 X97.863 Y92.516 E20.54875
G1 X98.144 Y92.516 E20.55909
G1 X98.426 Y92.516 E20.56947
G1 X98.707 Y92.516 E20.57981
G1 X98.989 Y92.516 E20.59018
G1 X99.27 Y92.516 E20.60052
G1 X99.552 Y92.516 E20.6109
G1 X99.833 Y92.516 E20.62124
G1 X100.114 Y92.516 E20.63157
G1 X100.396 Y92.516 E20.64195
G1 X100.677 Y92.516 E20.65229
G1 X100.954 Y92.511 E20.66245
G0 F2400 X100.813 Y92.46
G0 X84.072 Y92.449
;TIME_ELAPSED:27.701994
;LAYER:1
M140 S50
M106 S255
G0 F3600 X84.072 Y92.449 Z0.4
;TYPE:WALL-INNER
G1 F1416.3 X100.926 Y92.449 E20.94203
G1 X100.927 Y92.583 E20.94425
G1 X84.072 Y92.583 E21.03816
G1 X84.072 Y92.449 E21.04038
G0 F3600 X83.674 Y92.663
G1 F1416.3 X83.671 Y92.486 E21.04332
G1 X83.679 Y92.276 E21.04681
G1 X83.704 Y92.05 E21.05058
G1 X101.296 Y92.05 E21.3424
G1 X101.312 Y92.182 E21.34461
G1 X101.325 Y92.403 E21.34828
G1 X101.326 Y92.596 E21.35148
G1 X101.326 Y92.605 E21.35163
G1 X101.298 Y92.984 E21.35794
G1 X101.289 Y92.984 E21.35808
G1 X83.701 Y92.982 E21.64984
G1 X83.688 Y92.876 E21.65161
G1 X83.674 Y92.663 E21.65516
G0 F3600 X83.276 Y92.677
;TYPE:WALL-OUTER
G1 F1416.3 X83.273 Y92.47 E21.65859
G1 X83.282 Y92.246 E21.66231
G1 X83.32 Y91.897 E21.66813
G1 X83.433 Y91.707 E21.6718
G1 X83.575 Y91.652 E21.67433
G1 X101.423 Y91.652 E21.9704
G1 X101.564 Y91.706 E21.9729
G1 X101.679 Y91.899 E21.97663
G1 X101.708 Y92.145 E21.98074
G1 X101.723 Y92.401 E21.98499
G1 X101.724 Y92.621 E21.98864
G1 X101.692 Y93.05 E21.99578
G1 X101.675 Y93.144 E21.99736
G1 X101.564 Y93.328 E22.00093
G1 X101.425 Y93.382 E22.0034
G1 X83.572 Y93.38 E22.29955
G1 X83.436 Y93.327 E22.30198
G1 X83.319 Y93.136 E22.30569
G1 X83.292 Y92.911 E22.30945
G1 X83.276 Y92.677 E22.31334
G0 F3600 X83.274 Y92.477
G0 X84.071 Y92.491
G0 X84.059 Y92.348
;TIME_ELAPSED:32.522543
;LAYER:2
G0 F4800 X84.059 Y92.348 Z0.5
;TYPE:WALL-INNER
G1 F1352.2 X100.938 Y92.348 E22.59334
G1 X100.939 Y92.687 E22.59896
G1 X84.058 Y92.688 E22.83724
G1 X84.059 Y92.348 E22.84288
G0 F4800 X83.659 Y92.767
G1 F1352.2 X83.66 Y92.176 E22.85268
G1 X83.692 Y91.949 E22.85648
G1 X101.306 Y91.949 E23.14867
G1 X101.336 Y92.17 E23.15237
G1 X101.338 Y92.765 E23.16224
G1 X101.338 Y92.84 E23.16349
G1 X101.305 Y93.086 E23.1676
G1 X101.23 Y93.086 E23.16885
G1 X83.769 Y93.087 E23.4585
G1 X83.692 Y93.087 E23.45978
G1 X83.659 Y92.844 E23.46384
G1 X83.659 Y92.767 E23.46512
G0 F4800 X83.261 Y92.867
;TYPE:WALL-OUTER
G1 F1352.2 X83.262 Y92.149 E23.47703
G1 X83.316 Y91.762 E23.48351
G1 X83.428 Y91.604 E23.48673
G1 X83.574 Y91.551 E23.4893
G1 X101.426 Y91.551 E23.78544
G1 X101.572 Y91.604 E23.78802
G1 X101.682 Y91.761 E23.7912
G1 X101.734 Y92.146 E23.79764
G1 X101.736 Y92.869 E23.80964
G1 X101.682 Y93.275 E23.81643
G1 X101.573 Y93.432 E23.8196
G1 X101.426 Y93.484 E23.82219
G1 X83.574 Y93.485 E24.11833
G1 X83.427 Y93.433 E24.12091
G1 X83.316 Y93.275 E24.12412
G1 X83.261 Y92.867 E24.13094
G0 F4800 X83.261 Y92.667
G0 X84.058 Y92.668
G0 X84.058 Y92.267
;TIME_ELAPSED:37.637052
;LAYER:3
G0 X84.058 Y92.267 Z0.6
;TYPE:WALL-INNER
G1 F1486.9 X100.74 Y92.266 E24.40767
G1 X100.939 Y92.266 E24.41097
G1 X100.939 Y92.465 E24.41311
G1 X100.939 Y92.77 E24.41817
G1 X84.257 Y92.771 E24.6949
G1 X84.058 Y92.771 E24.6982
G1 X84.058 Y92.572 E24.70034
G1 X84.058 Y92.267 E24.7054
G0 F4800 X83.659 Y92.91
G1 F1486.9 X83.659 Y91.988 E24.72069
G1 X83.68 Y91.868 E24.72271
G1 X101.178 Y91.867 E25.01298
G1 X101.317 Y91.867 E25.01528
G1 X101.338 Y91.987 E25.0173
G1 X101.338 Y92.126 E25.01961
G1 X101.338 Y93.049 E25.03492
G1 X101.317 Y93.169 E25.03694
G1 X83.818 Y93.17 E25.32722
G1 X83.681 Y93.17 E25.3295
G1 X83.659 Y93.047 E25.33157
G1 X83.659 Y92.91 E25.33384
G0 F4800 X83.261 Y93.083
;TYPE:WALL-OUTER
G1 F1486.9 X83.261 Y91.953 E25.35259
G1 X83.313 Y91.658 E25.35756
G1 X83.421 Y91.518 E25.36049
G1 X83.572 Y91.47 E25.36312
G1 X101.428 Y91.469 E25.65932
G1 X101.579 Y91.517 E25.66195
G1 X101.684 Y91.655 E25.66483
G1 X101.736 Y91.952 E25.66983
G1 X101.736 Y93.084 E25.68861
G1 X101.684 Y93.38 E25.69359
G1 X101.579 Y93.519 E25.69648
G1 X101.428 Y93.567 E25.69911
G1 X83.572 Y93.568 E25.99531
G1 X83.42 Y93.52 E25.99796
G1 X83.314 Y93.381 E26.00086
G1 X83.261 Y93.083 E26.00588
G0 F4800 X83.261 Y92.883
G0 X83.759 Y92.883
G0 X84.591 Y92.589
G0 X84.663 Y92.517
G1 F1486.9 X85.227 Y92.517 E26.00925
G1 X85.791 Y92.517 E26.01263
G1 X86.355 Y92.517 E26.01601
G1 X86.92 Y92.517 E26.01939
G1 X87.484 Y92.517 E26.02277
G1 X88.048 Y92.517 E26.02614
G1 X88.613 Y92.517 E26.02953
G1 X89.177 Y92.517 E26.0329
G1 X89.741 Y92.517 E26.03628
G1 X90.305 Y92.517 E26.03966
G1 X90.87 Y92.517 E26.04304
G1 X91.434 Y92.517 E26.04641
