;FLAVOR:Marlin
;TIME:2954
;Filament used: 1.86854m
;Layer height: 0.15
;Generated with Cura_SteamEngine 2.7.0
M190 S50
M104 S210
M109 S210
G21 ;metric values
G90 ;absolute positioning
M82 ;set extruder to absolute mode
M107 ;start with the fan off
G92 E0 ;zero the extruded length
G1 F200 E3 ;extrude 3mm of feed stock
G92 E0 ;zero the extruded length again
G1 F9000
M301 P31.36 I3.30 D74.51 ;set PID tuning for E0
M304 P72.25 I2.72 D479.41 ; set PID tuning for heated bed
M117 Printing...
;LAYER_COUNT:213
;LAYER:0
M107
G0 F2400 X63.952 Y87.084 Z0.3
;TYPE:SKIRT
G1 F1050 X65.071 Y86.338 E0.06693
G1 X65.691 Y85.988 E0.10236
G1 X66.523 Y85.597 E0.14811
G1 X66.986 Y85.409 E0.17298
G1 X72.554 Y83.47 E0.46639
G1 X77.561 Y81.411 E0.73581
G1 X82.399 Y79.094 E1.00277
G1 X87.131 Y76.488 E1.27161
G1 X90.826 Y74.18 E1.48841
G1 X90.94 Y74.119 E1.49485
G1 X91.957 Y73.463 E1.55508
G1 X92.498 Y73.162 E1.58589
G1 X93.073 Y72.933 E1.61669
G1 X93.673 Y72.78 E1.6475
G1 X94.556 Y72.698 E1.69163
G1 X98.1 Y72.698 E1.868
G1 X98.244 Y72.7 E1.87517
G1 X101.348 Y72.793 E2.02971
G1 X107.655 Y72.691 E2.34362
G1 X107.767 Y72.69 E2.3492
G1 X112.61 Y72.724 E2.59022
G1 X113.227 Y72.768 E2.621
G1 X113.662 Y72.849 E2.64302
G1 X113.933 Y72.912 E2.65687
G1 X114.526 Y73.09 E2.68768
G1 X115.09 Y73.344 E2.71846
G1 X115.618 Y73.668 E2.74929
G1 X116.099 Y74.058 E2.78011
G1 X116.521 Y74.501 E2.81055
G1 X116.969 Y75.035 E2.84524
G1 X117.336 Y75.533 E2.87603
G1 X117.635 Y76.076 E2.90688
G1 X117.862 Y76.652 E2.93769
G1 X118.028 Y77.34 E2.97291
G1 X118.657 Y81.175 E3.16631
G1 X119.747 Y86.491 E3.43637
G1 X120.381 Y89.033 E3.56675
G1 X121.931 Y94.281 E3.83907
G1 X123.166 Y97.85 E4.02701
G1 X123.331 Y98.447 E4.05784
G1 X123.417 Y99.06 E4.08864
G1 X123.43 Y99.41 E4.10607
G1 X123.444 Y106.699 E4.46881
G1 X123.405 Y107.317 E4.49963
G1 X123.287 Y107.924 E4.5304
G1 X123.092 Y108.512 E4.56123
G1 X122.726 Y109.232 E4.60143
G1 X122.609 Y109.421 E4.61249
G1 X122.25 Y109.926 E4.64332
G1 X121.829 Y110.379 E4.6741
G1 X121.353 Y110.775 E4.70491
G1 X120.829 Y111.106 E4.73576
G1 X120.092 Y111.432 E4.77586
G1 X118.23 Y112.073 E4.87386
G1 X117.633 Y112.236 E4.90466
G1 X117.298 Y112.293 E4.92157
G1 X112.616 Y112.912 E5.1566
G1 X106.662 Y114.016 E5.45796
G1 X105.788 Y114.096 E5.50163
G1 X101.359 Y114.096 E5.72204
G1 X100.741 Y114.056 E5.75286
G1 X100.065 Y113.918 E5.7872
G1 X93.657 Y112.122 E6.11838
G1 X91.052 Y111.522 E6.25142
G1 X88.484 Y111.007 E6.38176
G1 X83.112 Y110.164 E6.65237
G1 X77.783 Y109.633 E6.91889
G1 X70.936 Y109.386 E7.25985
G1 X70.251 Y109.312 E7.29414
G1 X68.734 Y109.036 E7.37087
G1 X68.119 Y108.881 E7.40244
G1 X66.954 Y108.505 E7.46336
G1 X66.127 Y108.15 E7.50815
G1 X64.769 Y107.408 E7.58516
G1 X64.019 Y106.9 E7.63024
G1 X63.001 Y106.061 E7.69589
G1 X62.454 Y105.532 E7.73376
G1 X61.724 Y104.704 E7.78869
G1 X61.335 Y104.198 E7.82045
G1 X60.824 Y103.434 E7.86619
G1 X60.429 Y102.72 E7.9068
G1 X59.752 Y101.201 E7.98956
G1 X59.537 Y100.621 E8.02035
G1 X59.445 Y100.263 E8.03874
G1 X59.151 Y98.904 E8.10794
G1 X59.046 Y98.068 E8.14987
G1 X58.999 Y96.804 E8.21281
G1 X59.018 Y96.169 E8.24443
G1 X59.086 Y95.458 E8.27997
G1 X59.188 Y94.833 E8.31149
G1 X59.497 Y93.499 E8.37963
G1 X59.723 Y92.782 E8.41705
G1 X60.054 Y91.964 E8.46096
G1 X60.319 Y91.414 E8.49134
G1 X60.878 Y90.419 E8.54814
G1 X61.285 Y89.808 E8.58467
G1 X61.991 Y88.908 E8.6416
G1 X62.487 Y88.367 E8.67813
G1 X63.334 Y87.574 E8.73587
G1 X63.952 Y87.084 E8.77512
G0 F2400 X64.173 Y87.416
G1 F1050 X65.292 Y86.67 E8.84205
G1 X65.861 Y86.35 E8.87453
G1 X66.693 Y85.959 E8.92028
G1 X67.117 Y85.785 E8.94309
G1 X72.711 Y83.837 E9.23787
G1 X77.707 Y81.783 E9.5067
G1 X82.606 Y79.436 E9.77703
G1 X87.327 Y76.836 E10.04525
G1 X91.037 Y74.519 E10.26293
G1 X91.141 Y74.463 E10.2688
G1 X92.173 Y73.798 E10.3299
G1 X92.692 Y73.512 E10.35939
G1 X93.245 Y73.297 E10.38892
G1 X93.821 Y73.159 E10.41839
G1 X94.556 Y73.097 E10.4551
G1 X98.1 Y73.097 E10.63147
G1 X98.232 Y73.099 E10.63804
G1 X101.343 Y73.192 E10.79293
G1 X107.662 Y73.09 E11.10744
G1 X107.764 Y73.089 E11.11252
G1 X112.607 Y73.123 E11.35354
G1 X113.198 Y73.167 E11.38303
G1 X113.572 Y73.237 E11.40196
G1 X113.843 Y73.3 E11.41581
G1 X114.41 Y73.473 E11.44531
G1 X114.948 Y73.721 E11.47479
G1 X115.449 Y74.038 E11.5043
G1 X115.902 Y74.42 E11.53379
G1 X116.216 Y74.757 E11.55671
G1 X116.664 Y75.291 E11.5914
G1 X117.013 Y75.77 E11.62089
G1 X117.295 Y76.291 E11.65037
G1 X117.504 Y76.846 E11.67989
G1 X117.634 Y77.405 E11.70845
G1 X118.264 Y81.242 E11.90195
G1 X119.357 Y86.576 E12.17292
G1 X119.998 Y89.146 E12.30473
G1 X121.549 Y94.398 E12.57726
G1 X122.789 Y97.981 E12.76595
G1 X122.945 Y98.553 E12.79545
G1 X123.031 Y99.411 E12.83837
G1 X123.045 Y106.7 E13.20111
G1 X123.006 Y107.291 E13.23058
G1 X122.888 Y107.872 E13.26009
G1 X122.693 Y108.432 E13.2896
G1 X122.387 Y109.022 E13.32267
G1 X122.27 Y109.211 E13.33373
G1 X121.924 Y109.693 E13.36326
G1 X121.517 Y110.124 E13.39276
G1 X121.056 Y110.497 E13.42227
G1 X120.549 Y110.804 E13.45177
G1 X119.962 Y111.055 E13.48354
G1 X118.1 Y111.696 E13.58154
G1 X117.245 Y111.897 E13.62525
G1 X112.553 Y112.517 E13.86078
G1 X106.59 Y113.623 E14.16259
G1 X105.788 Y113.697 E14.20267
G1 X101.359 Y113.697 E14.42309
G1 X100.768 Y113.657 E14.45256
G1 X100.173 Y113.534 E14.4828
G1 X93.768 Y111.739 E14.81383
G1 X91.116 Y111.128 E14.94926
G1 X88.555 Y110.614 E15.07926
G1 X83.16 Y109.768 E15.35102
G1 X77.806 Y109.234 E15.61879
G1 X70.951 Y108.987 E15.96015
G1 X70.322 Y108.919 E15.99164
G1 X68.805 Y108.643 E16.06837
G1 X68.241 Y108.501 E16.09731
G1 X67.076 Y108.125 E16.15823
G1 X66.319 Y107.8 E16.19923
G1 X64.961 Y107.058 E16.27624
G1 X64.273 Y106.592 E16.3176
G1 X63.255 Y105.753 E16.38325
G1 X62.753 Y105.268 E16.41798
G1 X62.023 Y104.44 E16.47292
G1 X61.666 Y103.977 E16.50201
G1 X61.155 Y103.213 E16.54775
G1 X60.794 Y102.558 E16.58497
G1 X60.117 Y101.039 E16.66774
G1 X59.913 Y100.483 E16.69721
G1 X59.835 Y100.179 E16.71283
G1 X59.541 Y98.82 E16.78202
G1 X59.445 Y98.053 E16.82049
G1 X59.398 Y96.789 E16.88344
G1 X59.415 Y96.207 E16.91241
G1 X59.483 Y95.496 E16.94796
G1 X59.576 Y94.923 E16.97685
G1 X59.885 Y93.589 E17.04499
G1 X60.093 Y92.932 E17.07929
G1 X60.424 Y92.114 E17.1232
G1 X60.667 Y91.609 E17.15109
G1 X61.226 Y90.614 E17.20789
G1 X61.599 Y90.054 E17.24137
G1 X62.305 Y89.154 E17.2983
G1 X62.76 Y88.658 E17.3318
G1 X63.607 Y87.865 E17.38954
G1 X64.173 Y87.416 E17.42549
G0 F2400 X64.394 Y87.748
G1 F1050 X65.513 Y87.002 E17.49242
G1 X66.031 Y86.711 E17.52199
G1 X66.863 Y86.32 E17.56774
G1 X67.248 Y86.162 E17.58845
G1 X72.846 Y84.213 E17.88344
G1 X77.88 Y82.143 E18.15431
G1 X82.772 Y79.799 E18.42426
G1 X87.531 Y77.179 E18.69462
G1 X91.248 Y74.857 E18.91272
G1 X91.364 Y74.796 E18.91925
G1 X92.39 Y74.134 E18.98001
G1 X92.885 Y73.862 E19.00812
G1 X93.414 Y73.663 E19.03625
G1 X93.966 Y73.54 E19.06439
G1 X94.556 Y73.496 E19.09383
G1 X98.1 Y73.496 E19.2702
G1 X98.22 Y73.498 E19.27617
G1 X101.337 Y73.591 E19.43136
G1 X107.668 Y73.489 E19.74647
G1 X107.761 Y73.488 E19.7511
G1 X112.604 Y73.522 E19.99212
G1 X113.168 Y73.566 E20.02027
G1 X113.481 Y73.626 E20.03613
G1 X113.752 Y73.689 E20.04998
G1 X114.292 Y73.855 E20.07809
G1 X114.804 Y74.096 E20.10625
G1 X115.276 Y74.407 E20.13438
G1 X115.699 Y74.781 E20.16248
G1 X115.91 Y75.013 E20.17809
G1 X116.358 Y75.547 E20.21278
G1 X116.69 Y76.005 E20.24093
G1 X116.954 Y76.505 E20.26907
G1 X117.144 Y77.037 E20.29718
G1 X117.24 Y77.47 E20.31925
G1 X117.866 Y81.285 E20.51164
G1 X118.977 Y86.701 E20.78679
G1 X119.61 Y89.242 E20.91711
G1 X121.165 Y94.509 E21.1904
G1 X122.412 Y98.111 E21.3801
G1 X122.559 Y98.657 E21.40824
G1 X122.632 Y99.411 E21.44594
G1 X122.646 Y106.7 E21.80868
G1 X122.607 Y107.264 E21.83681
G1 X122.489 Y107.817 E21.86495
G1 X122.294 Y108.347 E21.89306
G1 X122.047 Y108.812 E21.91926
G1 X121.93 Y109.001 E21.93032
G1 X121.6 Y109.46 E21.95845
G1 X121.208 Y109.867 E21.98658
G1 X120.762 Y110.215 E22.01473
G1 X120.272 Y110.496 E22.04284
G1 X119.832 Y110.677 E22.06652
G1 X117.97 Y111.318 E22.16452
G1 X117.193 Y111.502 E22.20425
G1 X112.484 Y112.125 E22.44064
G1 X106.517 Y113.231 E22.74265
G1 X105.788 Y113.298 E22.77908
G1 X101.359 Y113.298 E22.99949
G1 X100.795 Y113.258 E23.02763
G1 X100.28 Y113.15 E23.05382
G1 X93.853 Y111.349 E23.38598
G1 X91.219 Y110.742 E23.5205
G1 X88.622 Y110.221 E23.65232
G1 X83.21 Y109.372 E23.92494
G1 X77.828 Y108.835 E24.19411
G1 X70.965 Y108.588 E24.53587
G1 X70.393 Y108.526 E24.5645
G1 X68.876 Y108.25 E24.64124
G1 X68.364 Y108.122 E24.6675
G1 X67.199 Y107.746 E24.72842
G1 X66.51 Y107.449 E24.76576
G1 X65.152 Y106.707 E24.84277
G1 X64.526 Y106.284 E24.88037
G1 X63.508 Y105.445 E24.94602
G1 X63.052 Y105.004 E24.97759
G1 X62.322 Y104.176 E25.03252
G1 X61.998 Y103.755 E25.05896
G1 X61.487 Y102.991 E25.1047
G1 X61.158 Y102.396 E25.13854
G1 X60.481 Y100.877 E25.2213
G1 X60.225 Y100.094 E25.26229
G1 X59.931 Y98.735 E25.33149
G1 X59.844 Y98.039 E25.3664
G1 X59.797 Y96.775 E25.42934
G1 X59.812 Y96.245 E25.45573
G1 X59.88 Y95.534 E25.49127
G1 X59.965 Y95.013 E25.51755
G1 X60.274 Y93.679 E25.58569
G1 X60.463 Y93.081 E25.6169
G1 X60.794 Y92.263 E25.66082
G1 X61.014 Y91.805 E25.6861
G1 X61.573 Y90.81 E25.7429
G1 X61.913 Y90.3 E25.7734
G1 X62.619 Y89.4 E25.83033
G1 X63.033 Y88.949 E25.86079
G1 X63.88 Y88.156 E25.91854
G1 X64.394 Y87.748 E25.95119
G0 F2400 X64.616 Y88.08
G1 F1050 X65.735 Y87.334 E26.01812
G1 X66.2 Y87.072 E26.04468
G1 X67.032 Y86.681 E26.09043
G1 X67.38 Y86.539 E26.10914
G1 X72.981 Y84.589 E26.40428
G1 X78.041 Y82.508 E26.67656
G1 X82.966 Y80.149 E26.94832
G1 X87.722 Y77.53 E27.21852
G1 X91.46 Y75.195 E27.43785
G1 X91.568 Y75.138 E27.44393
G1 X92.606 Y74.469 E27.50539
G1 X93.077 Y74.213 E27.53206
G1 X93.581 Y74.03 E27.55875
G1 X94.106 Y73.923 E27.58541
G1 X94.556 Y73.895 E27.60785
G1 X98.1 Y73.895 E27.78422
G1 X98.208 Y73.897 E27.78959
G1 X101.31 Y73.99 E27.94404
G1 X107.675 Y73.887 E28.26084
G1 X107.758 Y73.887 E28.26497
G1 X112.601 Y73.921 E28.50599
G1 X113.391 Y74.014 E28.54557
G1 X113.662 Y74.077 E28.55942
G1 X114.174 Y74.237 E28.58611
G1 X114.656 Y74.472 E28.6128
G1 X115.098 Y74.775 E28.63947
G1 X115.604 Y75.27 E28.67469
G1 X116.052 Y75.804 E28.70938
G1 X116.365 Y76.239 E28.73605
G1 X116.61 Y76.716 E28.76274
G1 X116.782 Y77.224 E28.78943
G1 X116.846 Y77.534 E28.80518
G1 X117.473 Y81.355 E28.99788
G1 X118.587 Y86.786 E29.27378
G1 X119.221 Y89.333 E29.4044
G1 X120.791 Y94.646 E29.68011
G1 X122.035 Y98.242 E29.86947
G1 X122.172 Y98.76 E29.89614
G1 X122.233 Y99.412 E29.92873
G1 X122.247 Y106.701 E30.29147
G1 X122.208 Y107.236 E30.31816
G1 X122.09 Y107.759 E30.34484
G1 X121.896 Y108.259 E30.37153
G1 X121.708 Y108.602 E30.391
G1 X121.591 Y108.791 E30.40206
G1 X121.276 Y109.225 E30.42875
G1 X120.899 Y109.607 E30.45546
G1 X120.47 Y109.929 E30.48215
G1 X119.998 Y110.183 E30.50883
G1 X119.702 Y110.3 E30.52467
G1 X117.84 Y110.941 E30.62267
G1 X117.141 Y111.106 E30.65841
G1 X112.434 Y111.728 E30.89469
G1 X106.444 Y112.839 E31.19787
G1 X105.788 Y112.899 E31.23065
G1 X101.359 Y112.899 E31.45106
G1 X100.824 Y112.859 E31.47776
G1 X100.388 Y112.766 E31.49995
G1 X93.948 Y110.962 E31.83278
G1 X91.309 Y110.353 E31.96756
G1 X88.67 Y109.824 E32.1015
G1 X83.275 Y108.977 E32.37328
G1 X77.867 Y108.438 E32.64374
G1 X70.979 Y108.19 E32.98675
G1 X70.465 Y108.134 E33.01248
G1 X68.948 Y107.858 E33.08921
G1 X68.487 Y107.742 E33.11287
G1 X67.322 Y107.366 E33.17379
G1 X66.701 Y107.099 E33.20743
G1 X65.343 Y106.357 E33.28444
G1 X64.78 Y105.976 E33.31827
G1 X63.762 Y105.137 E33.38392
G1 X63.351 Y104.74 E33.41236
G1 X62.621 Y103.912 E33.46729
G1 X62.329 Y103.533 E33.4911
G1 X61.818 Y102.769 E33.53684
G1 X61.523 Y102.233 E33.56729
G1 X60.846 Y100.714 E33.65005
G1 X60.615 Y100.01 E33.68693
G1 X60.321 Y98.651 E33.75612
G1 X60.242 Y98.024 E33.78757
G1 X60.195 Y96.76 E33.85052
G1 X60.209 Y96.283 E33.87427
G1 X60.277 Y95.572 E33.90981
G1 X60.354 Y95.103 E33.93346
G1 X60.663 Y93.769 E34.00161
G1 X60.833 Y93.231 E34.02969
G1 X61.164 Y92.413 E34.0736
G1 X61.362 Y92 E34.0964
G1 X61.921 Y91.005 E34.15319
G1 X62.227 Y90.547 E34.1806
G1 X62.933 Y89.647 E34.23753
G1 X63.305 Y89.241 E34.26493
G1 X64.152 Y88.448 E34.32267
G1 X64.616 Y88.08 E34.35215
G0 F2400 X64.837 Y88.412
G1 F1050 X65.956 Y87.666 E34.41907
G1 X66.37 Y87.433 E34.44272
G1 X67.202 Y87.042 E34.48847
G1 X67.511 Y86.916 E34.50507
G1 X73.122 Y84.962 E34.80075
G1 X78.209 Y82.871 E35.07446
G1 X83.131 Y80.513 E35.34607
G1 X87.939 Y77.865 E35.61923
G1 X91.671 Y75.534 E35.8382
G1 X91.775 Y75.48 E35.84404
G1 X92.822 Y74.805 E35.90603
G1 X93.267 Y74.565 E35.93119
G1 X93.745 Y74.399 E35.95637
G1 X94.242 Y74.309 E35.98151
G1 X94.556 Y74.294 E35.99715
G1 X98.1 Y74.294 E36.17352
G1 X98.196 Y74.295 E36.1783
G1 X101.326 Y74.389 E36.33414
G1 X107.681 Y74.286 E36.65044
G1 X107.755 Y74.286 E36.65412
G1 X112.598 Y74.32 E36.89514
G1 X113.301 Y74.403 E36.93037
G1 X113.572 Y74.466 E36.94421
G1 X114.053 Y74.619 E36.96933
G1 X114.505 Y74.846 E36.9945
G1 X114.916 Y75.141 E37.01968
G1 X115.299 Y75.526 E37.04671
G1 X115.747 Y76.06 E37.08139
G1 X116.04 Y76.472 E37.10655
G1 X116.265 Y76.925 E37.13173
G1 X116.453 Y77.599 E37.16655
G1 X117.084 Y81.447 E37.3606
G1 X118.196 Y86.866 E37.6359
G1 X118.84 Y89.451 E37.76848
G1 X120.407 Y94.757 E38.04381
G1 X121.658 Y98.372 E38.23418
G1 X121.785 Y98.862 E38.25937
G1 X121.834 Y99.413 E38.2869
G1 X121.848 Y106.702 E38.64964
G1 X121.809 Y107.206 E38.6748
G1 X121.691 Y107.698 E38.69997
G1 X121.497 Y108.164 E38.72509
G1 X121.369 Y108.392 E38.73811
G1 X121.252 Y108.581 E38.74917
G1 X120.953 Y108.989 E38.77434
G1 X120.593 Y109.344 E38.7995
G1 X120.182 Y109.638 E38.82465
G1 X119.573 Y109.923 E38.85811
G1 X117.711 Y110.564 E38.95611
G1 X117.088 Y110.71 E38.98796
G1 X112.368 Y111.334 E39.22489
G1 X106.371 Y112.446 E39.52842
G1 X105.788 Y112.5 E39.55756
G1 X101.359 Y112.5 E39.77797
G1 X100.855 Y112.46 E39.80313
G1 X100.496 Y112.381 E39.82143
G1 X94.06 Y110.577 E40.15406
G1 X91.412 Y109.967 E40.28929
G1 X88.737 Y109.431 E40.42506
G1 X83.323 Y108.581 E40.69779
G1 X77.89 Y108.04 E40.9695
G1 X70.994 Y107.791 E41.31291
G1 X70.536 Y107.741 E41.33584
G1 X69.019 Y107.465 E41.41257
G1 X68.609 Y107.362 E41.43361
G1 X67.444 Y106.986 E41.49453
G1 X66.893 Y106.749 E41.52438
G1 X65.535 Y106.007 E41.60139
G1 X65.034 Y105.668 E41.6315
G1 X64.016 Y104.829 E41.69715
G1 X63.651 Y104.476 E41.72242
G1 X62.921 Y103.648 E41.77735
G1 X62.661 Y103.311 E41.79853
G1 X62.15 Y102.547 E41.84427
G1 X61.887 Y102.071 E41.87134
G1 X61.21 Y100.552 E41.9541
G1 X61.005 Y99.926 E41.98688
G1 X60.711 Y98.567 E42.05608
G1 X60.641 Y98.009 E42.08406
G1 X60.594 Y96.745 E42.14701
G1 X60.607 Y96.321 E42.16812
G1 X60.675 Y95.61 E42.20367
G1 X60.743 Y95.193 E42.22469
G1 X61.052 Y93.859 E42.29284
G1 X61.203 Y93.381 E42.31778
G1 X61.534 Y92.563 E42.3617
G1 X61.71 Y92.196 E42.38195
G1 X62.269 Y91.201 E42.43875
G1 X62.541 Y90.793 E42.46315
G1 X63.247 Y89.893 E42.52008
G1 X63.578 Y89.532 E42.54445
G1 X64.425 Y88.739 E42.60219
G1 X64.837 Y88.412 E42.62837
G0 F2400 X66.812 Y91.155
;TYPE:SUPPORT
G1 F1050 X67.054 Y90.972 E42.64347
G1 X67.332 Y90.79 E42.66
G1 X67.754 Y90.534 E42.68457
G1 X67.971 Y90.415 E42.69688
G1 X68.333 Y90.241 E42.71687
G1 X68.649 Y90.107 E42.73395
G1 X68.991 Y89.985 E42.75202
G1 X69.256 Y89.905 E42.7658
G1 X69.746 Y89.778 E42.79099
G1 X70.002 Y89.722 E42.80403
G1 X70.333 Y89.668 E42.82072
G1 X70.796 Y89.623 E42.84387
G1 X71.139 Y89.607 E42.86096
G1 X71.537 Y89.603 E42.88077
G1 X71.831 Y89.616 E42.89541
G1 X72.187 Y89.647 E42.9132
G1 X72.584 Y89.704 E42.93316
G1 X72.892 Y89.765 E42.94878
G1 X73.484 Y89.917 E42.9792
G1 X73.949 Y90.079 E43.0037
G1 X74.216 Y90.186 E43.01802
G1 X74.655 Y90.386 E43.04203
G1 X75.251 Y90.725 E43.07615
G1 X75.508 Y90.889 E43.09132
G1 X75.821 Y91.118 E43.11062
G1 X77.176 Y92.198 E43.19685
G1 X77.693 Y92.236 E43.22265
G1 X80.399 Y90.67 E43.37824
G1 X80.571 Y90.607 E43.38736
G1 X80.761 Y90.573 E43.39696
G1 X80.939 Y90.578 E43.40582
G1 X81.106 Y90.614 E43.41432
G1 X81.272 Y90.687 E43.42335
G1 X81.33 Y90.723 E43.42675
G1 X81.513 Y90.882 E43.43881
G1 X81.604 Y90.998 E43.44615
G1 X81.687 Y91.165 E43.45543
G1 X81.737 Y91.347 E43.46482
G1 X81.746 Y91.487 E43.4718
