;Generated with Cura_SteamEngine 15.01
; Default start code
;G28 ; Home extruder
;G1 Z15 F100
M107 ; Turn off fan
G90 ; Absolute positioning
M82 ; Extruder in absolute mode
M190 S55
; Activate all used extruder
M104 T0 S210
G92 E0 ; Reset extruder position
; Wait for all used extruders to reach temperature
M109 T0 S210
;Layer count: 219
;LAYER:0
M107
G0 F2400 X85.046 Y86.068 Z0.300
G0 X86.541 Y86.553
;TYPE:SKIRT
G1 F1800 X86.676 Y86.448 E0.00853
G1 X86.825 Y86.256 E0.02066
G1 X86.354 Y84.792 E0.09738
G1 X88.595 Y83.978 E0.21633
G1 X90.095 Y82.048 E0.33828
G1 X91.367 Y82.972 E0.41672
G1 X91.530 Y82.913 E0.42537
G1 X91.710 Y82.791 E0.43622
G1 X91.710 Y81.234 E0.51390
G1 X94.123 Y81.154 E0.63435
G1 X96.143 Y79.783 E0.75615
G1 X97.067 Y81.055 E0.83458
G1 X97.256 Y81.049 E0.84402
G1 X97.423 Y81.001 E0.85269
G1 X97.900 Y79.516 E0.93050
G1 X100.242 Y80.187 E1.05204
G1 X102.597 Y79.508 E1.17432
G1 X103.081 Y81.001 E1.25262
G1 X103.232 Y81.044 E1.26046
G1 X103.456 Y81.052 E1.27164
G1 X104.377 Y79.783 E1.34987
G1 X106.385 Y81.145 E1.47092
G1 X108.810 Y81.223 E1.59196
G1 X108.810 Y82.791 E1.67019
G1 X108.977 Y82.904 E1.68025
G1 X109.187 Y82.980 E1.69139
G1 X110.422 Y82.092 E1.76728
G1 X111.880 Y83.955 E1.88531
G1 X114.192 Y84.791 E2.00796
G1 X113.706 Y86.286 E2.08639
G1 X113.803 Y86.410 E2.09424
G1 X113.981 Y86.548 E2.10548
G1 X115.452 Y86.069 E2.18266
G1 X116.275 Y88.331 E2.30275
G1 X118.211 Y89.835 E2.42506
G1 X117.286 Y91.108 E2.50357
G1 X117.459 Y91.584 E2.52883
G1 X118.313 Y92.950 E2.60921
G1 X118.506 Y92.950 E2.61884
G1 X118.475 Y93.210 E2.63190
G1 X120.247 Y96.045 E2.79869
G1 X119.081 Y96.892 E2.87059
G1 X119.138 Y97.142 E2.88339
G1 X120.750 Y97.666 E2.96795
G1 X119.915 Y100.561 E3.11827
G1 X120.353 Y102.488 E3.21686
G1 X119.258 Y102.840 E3.27424
G1 X119.164 Y103.165 E3.29112
G1 X120.469 Y104.113 E3.37160
G1 X118.586 Y106.895 E3.53919
G1 X118.606 Y107.050 E3.54699
G1 X118.481 Y107.050 E3.55323
G1 X117.245 Y108.875 E3.66319
G1 X118.173 Y110.164 E3.74243
G1 X116.040 Y111.831 E3.87749
G1 X115.231 Y113.854 E3.98619
G1 X113.975 Y113.446 E4.05208
G1 X113.730 Y113.637 E4.06758
G1 X113.682 Y113.697 E4.07141
G1 X114.169 Y115.210 E4.15071
G1 X111.762 Y116.083 E4.27845
G1 X110.320 Y117.874 E4.39316
G1 X109.155 Y117.028 E4.46499
G1 X108.975 Y117.094 E4.47456
G1 X108.810 Y117.205 E4.48448
G1 X108.810 Y118.765 E4.56231
G1 X106.386 Y118.846 E4.68331
G1 X104.373 Y120.208 E4.80457
G1 X103.454 Y118.944 E4.88253
G1 X103.275 Y118.950 E4.89147
G1 X103.096 Y119.001 E4.90076
G1 X102.620 Y120.483 E4.97841
G1 X100.290 Y119.815 E5.09934
G1 X97.930 Y120.499 E5.22193
G1 X97.443 Y118.999 E5.30061
G1 X97.290 Y118.955 E5.30855
G1 X97.149 Y118.950 E5.31559
G1 X96.226 Y120.254 E5.39529
G1 X94.155 Y118.854 E5.52001
G1 X91.710 Y118.776 E5.64205
G1 X91.710 Y117.203 E5.72053
G1 X91.562 Y117.103 E5.72944
G1 X91.282 Y117.001 E5.74431
G1 X90.053 Y117.872 E5.81946
G1 X88.626 Y116.042 E5.93524
G1 X86.327 Y115.212 E6.05718
G1 X86.812 Y113.717 E6.13559
G1 X86.708 Y113.583 E6.14406
G1 X86.516 Y113.434 E6.15618
G1 X85.052 Y113.905 E6.23291
G1 X84.238 Y111.664 E6.35186
G1 X82.308 Y110.164 E6.47381
G1 X83.232 Y108.892 E6.55224
G1 X83.173 Y108.729 E6.56089
G1 X83.051 Y108.550 E6.57170
G1 X81.494 Y108.550 E6.64938
G1 X81.413 Y106.136 E6.76988
G1 X80.043 Y104.116 E6.89165
G1 X81.315 Y103.192 E6.97009
G1 X81.309 Y103.003 E6.97952
G1 X81.261 Y102.837 E6.98814
G1 X79.776 Y102.360 E7.06596
G1 X80.448 Y100.018 E7.18752
G1 X79.768 Y97.662 E7.30985
G1 X81.262 Y97.178 E7.38820
G1 X81.304 Y97.030 E7.39588
G1 X81.309 Y96.889 E7.40292
G1 X80.005 Y95.966 E7.48262
G1 X81.405 Y93.895 E7.60734
G1 X81.483 Y91.450 E7.72938
G1 X83.056 Y91.450 E7.80786
G1 X83.156 Y91.303 E7.81673
G1 X83.257 Y91.022 E7.83163
G1 X82.387 Y89.793 E7.90675
G1 X84.216 Y88.366 E8.02249
G1 X85.046 Y86.068 E8.14438
G1 X86.541 Y86.553 E8.22280
G0 F2400 X86.618 Y86.999
G1 F1800 X86.962 Y86.731 E8.24455
G1 X87.269 Y86.336 E8.26951
G1 X86.852 Y85.037 E8.33758
G1 X88.839 Y84.315 E8.44305
G1 X90.173 Y82.599 E8.55149
G1 X91.304 Y83.420 E8.62121
G1 X91.712 Y83.272 E8.64286
G1 X92.110 Y83.002 E8.66686
G1 X92.110 Y81.621 E8.73576
G1 X94.251 Y81.550 E8.84263
G1 X96.047 Y80.331 E8.95092
G1 X96.868 Y81.462 E9.02065
G1 X97.319 Y81.447 E9.04316
G1 X97.739 Y81.326 E9.06497
G1 X98.163 Y80.007 E9.13409
G1 X100.243 Y80.604 E9.24205
G1 X102.336 Y80.000 E9.35073
G1 X102.766 Y81.327 E9.42032
G1 X103.169 Y81.442 E9.44123
G1 X103.655 Y81.458 E9.46549
G1 X104.473 Y80.332 E9.53493
G1 X106.255 Y81.541 E9.64236
G1 X108.410 Y81.610 E9.74993
G1 X108.410 Y83.003 E9.81943
G1 X108.795 Y83.264 E9.84263
G1 X109.249 Y83.428 E9.86672
G1 X110.343 Y82.641 E9.93395
G1 X111.635 Y84.291 E10.03850
G1 X113.692 Y85.035 E10.14763
G1 X113.260 Y86.365 E10.21740
G1 X113.516 Y86.693 E10.23816
G1 X113.904 Y86.994 E10.26266
G1 X115.209 Y86.569 E10.33113
G1 X115.939 Y88.576 E10.43768
G1 X117.660 Y89.913 E10.54640
G1 X116.838 Y91.045 E10.61620
G1 X117.098 Y91.760 E10.65416
G1 X119.710 Y95.940 E10.90006
G1 X118.633 Y96.723 E10.96650
G1 X118.799 Y97.453 E11.00385
G1 X120.258 Y97.927 E11.08038
G1 X119.502 Y100.548 E11.21647
G1 X119.882 Y102.219 E11.30197
G1 X118.932 Y102.524 E11.35175
G1 X118.702 Y103.323 E11.39323
G1 X119.921 Y104.209 E11.46841
G1 X116.836 Y108.767 E11.74300
G1 X116.778 Y108.911 E11.75074
G1 X117.624 Y110.086 E11.82298
G1 X115.709 Y111.583 E11.94425
G1 X114.999 Y113.358 E12.03962
G1 X113.897 Y113.000 E12.09743
G1 X113.447 Y113.351 E12.12590
G1 X113.235 Y113.614 E12.14276
G1 X113.670 Y114.965 E12.21357
G1 X111.520 Y115.745 E12.32767
G1 X110.247 Y117.327 E12.42898
G1 X109.218 Y116.580 E12.49242
G1 X108.791 Y116.735 E12.51508
G1 X108.410 Y116.993 E12.53803
G1 X108.410 Y118.378 E12.60713
G1 X106.257 Y118.450 E12.71461
G1 X104.469 Y119.660 E12.82232
G1 X103.653 Y118.537 E12.89157
G1 X103.213 Y118.552 E12.91354
G1 X102.780 Y118.677 E12.93602
G1 X102.357 Y119.992 E13.00494
G1 X100.289 Y119.399 E13.11227
G1 X98.191 Y120.007 E13.22124
G1 X97.758 Y118.674 E13.29117
G1 X97.350 Y118.557 E13.31234
G1 X96.946 Y118.544 E13.33251
G1 X96.125 Y119.703 E13.40337
G1 X94.283 Y118.459 E13.51426
G1 X92.110 Y118.389 E13.62273
G1 X92.110 Y116.990 E13.69253
G1 X91.747 Y116.745 E13.71438
G1 X91.220 Y116.555 E13.74232
G1 X90.133 Y117.325 E13.80878
G1 X88.870 Y115.706 E13.91123
G1 X86.827 Y114.968 E14.01960
G1 X87.258 Y113.640 E14.08925
G1 X86.991 Y113.297 E14.11094
G1 X86.595 Y112.990 E14.13594
G1 X85.297 Y113.407 E14.20396
G1 X84.575 Y111.420 E14.30943
G1 X82.859 Y110.086 E14.41787
G1 X83.680 Y108.955 E14.48759
G1 X83.532 Y108.547 E14.50924
G1 X83.263 Y108.150 E14.53317
G1 X81.881 Y108.150 E14.60212
G1 X81.809 Y106.008 E14.70904
G1 X80.591 Y104.212 E14.81731
G1 X81.722 Y103.391 E14.88703
G1 X81.707 Y102.940 E14.90955
G1 X81.586 Y102.521 E14.93130
G1 X80.267 Y102.097 E15.00043
G1 X80.864 Y100.016 E15.10843
G1 X80.260 Y97.923 E15.21712
G1 X81.587 Y97.493 E15.28671
G1 X81.702 Y97.090 E15.30762
G1 X81.715 Y96.686 E15.32778
G1 X80.556 Y95.865 E15.39864
G1 X81.800 Y94.023 E15.50954
G1 X81.870 Y91.850 E15.61800
G1 X83.269 Y91.850 E15.68780
G1 X83.514 Y91.487 E15.70965
G1 X83.704 Y90.961 E15.73755
G1 X82.934 Y89.873 E15.80405
G1 X84.554 Y88.610 E15.90653
G1 X85.291 Y86.568 E16.01484
G1 X86.618 Y86.999 E16.08445
G0 F2400 X86.698 Y87.445
G1 F1800 X87.246 Y87.017 E16.11914
G1 X87.715 Y86.414 E16.15725
G1 X87.351 Y85.281 E16.21662
G1 X89.084 Y84.652 E16.30860
G1 X90.251 Y83.150 E16.40350
G1 X91.241 Y83.869 E16.46454
G1 X91.896 Y83.631 E16.49931
G1 X92.510 Y83.214 E16.53634
G1 X92.510 Y82.007 E16.59655
G1 X94.381 Y81.945 E16.68995
G1 X95.950 Y80.880 E16.78456
G1 X96.668 Y81.868 E16.84549
G1 X97.384 Y81.845 E16.88123
G1 X98.054 Y81.651 E16.91603
G1 X98.425 Y80.498 E16.97646
G1 X100.243 Y81.019 E17.07081
G1 X102.075 Y80.491 E17.16593
G1 X102.452 Y81.653 E17.22687
G1 X103.105 Y81.840 E17.26076
G1 X103.854 Y81.864 E17.29815
G1 X104.569 Y80.880 E17.35883
G1 X106.127 Y81.937 E17.45276
G1 X108.010 Y81.997 E17.54675
G1 X108.010 Y83.215 E17.60752
G1 X108.612 Y83.623 E17.64380
G1 X109.312 Y83.876 E17.68094
G1 X110.265 Y83.190 E17.73952
G1 X111.391 Y84.628 E17.83064
G1 X113.192 Y85.279 E17.92618
G1 X112.813 Y86.444 E17.98730
G1 X113.232 Y86.979 E18.02120
G1 X113.826 Y87.440 E18.05871
G1 X114.965 Y87.069 E18.11848
G1 X115.602 Y88.820 E18.21144
G1 X117.109 Y89.991 E18.30665
G1 X116.389 Y90.983 E18.36780
G1 X116.736 Y91.936 E18.41840
G1 X119.173 Y95.836 E18.64784
G1 X118.185 Y96.554 E18.70877
G1 X118.460 Y97.763 E18.77063
G1 X119.767 Y98.188 E18.83920
G1 X119.090 Y100.536 E18.96111
G1 X119.411 Y101.950 E19.03345
G1 X118.607 Y102.208 E19.07558
G1 X118.240 Y103.482 E19.14172
G1 X119.373 Y104.305 E19.21159
G1 X116.480 Y108.579 E19.46907
G1 X116.325 Y108.966 E19.48987
G1 X117.075 Y110.008 E19.55392
G1 X115.378 Y111.334 E19.66137
G1 X114.767 Y112.862 E19.74347
G1 X113.818 Y112.554 E19.79324
G1 X113.164 Y113.065 E19.83465
G1 X112.788 Y113.532 E19.86456
G1 X113.171 Y114.721 E19.92688
G1 X111.279 Y115.407 E20.02729
G1 X110.174 Y116.780 E20.11522
G1 X109.281 Y116.132 E20.17026
G1 X108.609 Y116.376 E20.20593
G1 X108.010 Y116.781 E20.24201
G1 X108.010 Y117.992 E20.30242
G1 X106.127 Y118.055 E20.39642
G1 X104.565 Y119.112 E20.49051
G1 X103.852 Y118.131 E20.55102
G1 X103.146 Y118.154 E20.58626
G1 X102.464 Y118.352 E20.62169
G1 X102.095 Y119.501 E20.68189
G1 X100.288 Y118.983 E20.77568
G1 X98.452 Y119.515 E20.87104
G1 X98.073 Y118.348 E20.93226
G1 X97.414 Y118.159 E20.96646
G1 X96.744 Y118.137 E20.99991
G1 X96.025 Y119.153 E21.06200
G1 X94.412 Y118.063 E21.15913
G1 X92.510 Y118.002 E21.25407
G1 X92.510 Y116.778 E21.31513
G1 X91.929 Y116.385 E21.35013
G1 X91.160 Y116.108 E21.39091
G1 X90.214 Y116.778 E21.44874
G1 X89.115 Y115.369 E21.53789
G1 X87.327 Y114.723 E21.63274
G1 X87.705 Y113.561 E21.69370
G1 X87.277 Y113.013 E21.72839
G1 X86.674 Y112.544 E21.76650
G1 X85.541 Y112.908 E21.82587
G1 X84.912 Y111.175 E21.91785
G1 X83.410 Y110.008 E22.01275
G1 X84.129 Y109.018 E22.07379
G1 X83.891 Y108.363 E22.10856
G1 X83.475 Y107.750 E22.14552
G1 X82.267 Y107.750 E22.20579
G1 X82.205 Y105.878 E22.29923
G1 X81.140 Y104.309 E22.39384
G1 X82.128 Y103.591 E22.45477
G1 X82.105 Y102.875 E22.49051
G1 X81.911 Y102.206 E22.52526
G1 X80.758 Y101.835 E22.58569
G1 X81.280 Y100.016 E22.68010
G1 X80.751 Y98.184 E22.77524
G1 X81.913 Y97.807 E22.83618
G1 X82.100 Y97.154 E22.87007
G1 X82.122 Y96.484 E22.90352
G1 X81.106 Y95.765 E22.96561
G1 X82.196 Y94.152 E23.06274
G1 X82.257 Y92.250 E23.15768
G1 X83.481 Y92.250 E23.21874
G1 X83.874 Y91.669 E23.25374
G1 X84.152 Y90.901 E23.29449
G1 X83.481 Y89.954 E23.35239
G1 X84.891 Y88.854 E23.44161
G1 X85.536 Y87.068 E23.53635
G1 X86.698 Y87.445 E23.59729
G0 F2400 X86.775 Y87.891
G1 F1800 X87.533 Y87.300 E23.64525
G1 X88.161 Y86.492 E23.69630
G1 X87.850 Y85.525 E23.74698
G1 X89.330 Y84.988 E23.82553
G1 X90.329 Y83.702 E23.90677
G1 X91.176 Y84.317 E23.95899
G1 X92.078 Y83.990 E24.00686
G1 X92.910 Y83.425 E24.05703
G1 X92.910 Y82.394 E24.10847
G1 X94.509 Y82.341 E24.18829
G1 X95.854 Y81.428 E24.26939
G1 X96.469 Y82.275 E24.32161
G1 X97.446 Y82.243 E24.37038
G1 X98.370 Y81.976 E24.41837
G1 X98.687 Y80.990 E24.47004
G1 X100.243 Y81.436 E24.55079
G1 X101.813 Y80.983 E24.63231
G1 X102.136 Y81.978 E24.68451
G1 X103.043 Y82.238 E24.73158
G1 X104.053 Y82.271 E24.78199
G1 X104.665 Y81.429 E24.83393
G1 X105.998 Y82.333 E24.91428
G1 X107.610 Y82.385 E24.99475
G1 X107.610 Y83.427 E25.04673
G1 X108.427 Y83.981 E25.09598
G1 X109.374 Y84.324 E25.14623
G1 X110.187 Y83.739 E25.19620
G1 X111.147 Y84.965 E25.27388
G1 X112.692 Y85.524 E25.35585
G1 X112.367 Y86.523 E25.40827
G1 X112.949 Y87.265 E25.45531
G1 X113.747 Y87.886 E25.50576
G1 X114.721 Y87.569 E25.55686
G1 X115.266 Y89.066 E25.63634
G1 X116.558 Y90.070 E25.71798
G1 X115.941 Y90.920 E25.77038
G1 X116.375 Y92.114 E25.83376
G1 X118.636 Y95.732 E26.04661
G1 X117.736 Y96.386 E26.10211
G1 X118.119 Y98.074 E26.18847
G1 X119.275 Y98.449 E26.24910
G1 X118.676 Y100.525 E26.35690
G1 X118.939 Y101.682 E26.41609
G1 X118.281 Y101.893 E26.45057
G1 X117.777 Y103.640 E26.54128
G1 X118.824 Y104.401 E26.60586
G1 X116.125 Y108.390 E26.84614
G1 X115.872 Y109.022 E26.88010
G1 X116.525 Y109.929 E26.93586
G1 X115.046 Y111.085 E27.02951
G1 X114.534 Y112.365 E27.09829
G1 X113.739 Y112.107 E27.13999
G1 X112.881 Y112.778 E27.19433
G1 X112.342 Y113.448 E27.23723
G1 X112.673 Y114.476 E27.29111
G1 X111.037 Y115.070 E27.37795
G1 X110.101 Y116.232 E27.45239
G1 X109.345 Y115.683 E27.49900
G1 X108.425 Y116.017 E27.54783
G1 X107.610 Y116.569 E27.59694
G1 X107.610 Y117.605 E27.64863
G1 X106.000 Y117.659 E27.72900
G1 X104.662 Y118.564 E27.80958
G1 X104.051 Y117.724 E27.86141
G1 X103.084 Y117.756 E27.90968
G1 X102.149 Y118.027 E27.95824
G1 X101.833 Y119.009 E28.00971
G1 X100.289 Y118.566 E28.08985
G1 X98.713 Y119.023 E28.17171
G1 X98.388 Y118.021 E28.22427
G1 X97.478 Y117.761 E28.27149
G1 X96.542 Y117.731 E28.31821
G1 X95.925 Y118.602 E28.37146
G1 X94.540 Y117.666 E28.45486
G1 X92.910 Y117.614 E28.53622
G1 X92.910 Y116.565 E28.58855
G1 X92.112 Y116.026 E28.63660
G1 X91.100 Y115.660 E28.69029
G1 X90.294 Y116.231 E28.73957
G1 X89.358 Y115.031 E28.81549
G1 X87.827 Y114.478 E28.89670
G1 X88.150 Y113.483 E28.94890
G1 X87.560 Y112.726 E28.99678
G1 X86.752 Y112.098 E29.04783
G1 X85.785 Y112.409 E29.09851
G1 X85.248 Y110.929 E29.17706
G1 X83.962 Y109.930 E29.25830
G1 X84.577 Y109.083 E29.31052
G1 X84.249 Y108.179 E29.35850
G1 X83.686 Y107.350 E29.40850
G1 X82.654 Y107.350 E29.45998
G1 X82.601 Y105.750 E29.53985
G1 X81.688 Y104.405 E29.62095
G1 X82.535 Y103.790 E29.67317
G1 X82.503 Y102.813 E29.72194
G1 X82.236 Y101.890 E29.76988
G1 X81.250 Y101.573 E29.82155
G1 X81.696 Y100.017 E29.90231
G1 X81.243 Y98.446 E29.98388
G1 X82.239 Y98.123 E30.03611
G1 X82.498 Y97.218 E30.08308
G1 X82.528 Y96.282 E30.12980
G1 X81.657 Y95.665 E30.18305
G1 X82.593 Y94.280 E30.26645
G1 X82.645 Y92.650 E30.34781
G1 X83.694 Y92.650 E30.40015
G1 X84.233 Y91.853 E30.44815
G1 X84.599 Y90.840 E30.50188
G1 X84.028 Y90.034 E30.55116
G1 X85.227 Y89.098 E30.62705
G1 X85.780 Y87.568 E30.70822
G1 X86.775 Y87.891 E30.76041
G0 F2400 X86.855 Y88.337
G1 F1800 X87.817 Y87.586 E30.82129
G1 X88.606 Y86.571 E30.88543
G1 X88.349 Y85.770 E30.92740
G1 X89.575 Y85.325 E30.99247
G1 X90.408 Y84.253 E31.06020
G1 X91.114 Y84.766 E31.10374
G1 X92.263 Y84.349 E31.16472
G1 X93.310 Y83.638 E31.22786
G1 X93.310 Y82.781 E31.27062
G1 X94.638 Y82.737 E31.33691
G1 X95.758 Y81.977 E31.40444
G1 X96.270 Y82.683 E31.44795
G1 X97.508 Y82.641 E31.50975
G1 X98.685 Y82.302 E31.57086
G1 X98.949 Y81.481 E31.61388
G1 X100.244 Y81.852 E31.68109
G1 X101.552 Y81.475 E31.74900
G1 X101.821 Y82.304 E31.79248
G1 X102.982 Y82.637 E31.85274
G1 X104.252 Y82.678 E31.91613
G1 X104.761 Y81.977 E31.95935
G1 X105.869 Y82.729 E32.02616
G1 X107.210 Y82.772 E32.09310
G1 X107.210 Y83.639 E32.13635
G1 X108.243 Y84.340 E32.19864
G1 X109.437 Y84.772 E32.26198
G1 X110.109 Y84.288 E32.30330
G1 X110.903 Y85.302 E32.36755
G1 X112.192 Y85.768 E32.43594
G1 X111.921 Y86.602 E32.47969
G1 X112.663 Y87.551 E32.53979
G1 X113.669 Y88.332 E32.60332
G1 X114.477 Y88.069 E32.64572
G1 X114.929 Y89.311 E32.71166
G1 X116.006 Y90.148 E32.77971
G1 X115.492 Y90.857 E32.82340
G1 X116.012 Y92.286 E32.89926
G1 X118.100 Y95.627 E33.09582
G1 X117.288 Y96.217 E33.14590
G1 X117.780 Y98.384 E33.25676
G1 X118.784 Y98.710 E33.30942
G1 X118.264 Y100.514 E33.40309
G1 X118.468 Y101.413 E33.44908
G1 X117.957 Y101.577 E33.47586
G1 X117.316 Y103.799 E33.59123
G1 X118.276 Y104.497 E33.65045
G1 X115.770 Y108.200 E33.87352
G1 X115.419 Y109.077 E33.92065
G1 X115.976 Y109.851 E33.96822
G1 X114.715 Y110.837 E34.04808
G1 X114.302 Y111.869 E34.10354
G1 X113.661 Y111.661 E34.13716
G1 X112.601 Y112.489 E34.20427
G1 X111.895 Y113.366 E34.26044
G1 X112.174 Y114.232 E34.30583
G1 X110.795 Y114.732 E34.37901
G1 X110.028 Y115.685 E34.44004
G1 X109.408 Y115.235 E34.47826
G1 X108.241 Y115.658 E34.54019
G1 X107.210 Y116.356 E34.60231
G1 X107.210 Y117.218 E34.64531
G1 X105.871 Y117.263 E34.71215
G1 X104.758 Y118.016 E34.77919
G1 X104.250 Y117.316 E34.82235
G1 X103.022 Y117.357 E34.88364
G1 X101.833 Y117.702 E34.94541
