; G-Code generated by Simplify3D(R) Version 3.1.1
; bre 1, 2017 at 7:51:11 ODP.
; Settings Summary
;   processName,aileron
;   applyToModels,cessna_152_aileron_L
;   profileName,Default (modified)
;   profileVersion,2016-04-14 15:44:02
;   baseProfile,Default
;   printMaterial,
;   printQuality,
;   printExtruders,
;   extruderName,Primary Extruder
;   extruderToolheadNumber,0
;   extruderDiameter,0.4
;   extruderAutoWidth,0
;   extruderWidth,0.42
;   extrusionMultiplier,1.02
;   extruderUseRetract,1
;   extruderRetractionDistance,0.8
;   extruderExtraRestartDistance,0.12
;   extruderRetractionZLift,0
;   extruderRetractionSpeed,1800
;   extruderUseCoasting,1
;   extruderCoastingDistance,0.2
;   extruderUseWipe,1
;   extruderWipeDistance,2
;   primaryExtruder,0
;   layerHeight,0.25
;   topSolidLayers,4
;   bottomSolidLayers,4
;   perimeterOutlines,1
;   printPerimetersInsideOut,1
;   startPointOption,3
;   startPointOriginX,200
;   startPointOriginY,0
;   startPointOriginZ,-300
;   sequentialIslands,0
;   spiralVaseMode,0
;   firstLayerHeightPercentage,90
;   firstLayerWidthPercentage,103
;   firstLayerUnderspeed,0.5
;   useRaft,0
;   raftExtruder,0
;   raftLayers,3
;   raftOffset,3
;   raftSeparationDistance,0.14
;   raftInfill,85
;   disableRaftBaseLayers,0
;   useSkirt,1
;   skirtExtruder,0
;   skirtLayers,1
;   skirtOutlines,1
;   skirtOffset,1.4
;   usePrimePillar,0
;   primePillarExtruder,999
;   primePillarWidth,12
;   primePillarLocation,7
;   primePillarSpeedMultiplier,1
;   useOozeShield,0
;   oozeShieldExtruder,999
;   oozeShieldOffset,2
;   oozeShieldOutlines,1
;   oozeShieldSidewallShape,1
;   oozeShieldSidewallAngle,30
;   oozeShieldSpeedMultiplier,1
;   infillExtruder,0
;   internalInfillPattern,Rectilinear
;   externalInfillPattern,Rectilinear
;   infillPercentage,0
;   outlineOverlapPercentage,15
;   infillExtrusionWidthPercentage,100
;   minInfillLength,5
;   infillLayerInterval,1
;   infillAngles,45,-45
;   overlapInfillAngles,0
;   generateSupport,0
;   supportExtruder,0
;   supportInfillPercentage,30
;   supportExtraInflation,0
;   denseSupportLayers,0
;   denseSupportInfillPercentage,70
;   supportLayerInterval,1
;   supportHorizontalPartOffset,0.3
;   supportUpperSeparationLayers,1
;   supportLowerSeparationLayers,1
;   supportType,0
;   supportGridSpacing,4
;   maxOverhangAngle,45
;   supportAngles,0
;   temperatureName,Primary Extruder,Heated Bed
;   temperatureNumber,0,1
;   temperatureSetpointCount,1,1
;   temperatureSetpointLayers,1,1
;   temperatureSetpointTemperatures,230,55
;   temperatureStabilizeAtStartup,1,1
;   temperatureHeatedBed,0,1
;   temperatureRelayBetweenLayers,0,0
;   temperatureRelayBetweenLoops,0,0
;   fanLayers,1
;   fanSpeeds,0
;   blipFanToFullPower,1
;   adjustSpeedForCooling,1
;   minSpeedLayerTime,15
;   minCoolingSpeedSlowdown,30
;   increaseFanForCooling,0
;   minFanLayerTime,45
;   maxCoolingFanSpeed,100
;   increaseFanForBridging,0
;   bridgingFanSpeed,100
;   use5D,1
;   relativeEdistances,0
;   allowEaxisZeroing,1
;   independentExtruderAxes,0
;   includeM10123,0
;   stickySupport,1
;   applyToolheadOffsets,0
;   gcodeXoffset,0
;   gcodeYoffset,0
;   gcodeZoffset,0
;   overrideMachineDefinition,1
;   machineTypeOverride,0
;   strokeXoverride,195
;   strokeYoverride,195
;   strokeZoverride,150
;   originOffsetXoverride,0
;   originOffsetYoverride,0
;   originOffsetZoverride,0
;   homeXdirOverride,-1
;   homeYdirOverride,-1
;   homeZdirOverride,-1
;   flipXoverride,1
;   flipYoverride,-1
;   flipZoverride,1
;   toolheadOffsets,0,0|0,0|0,0|0,0|0,0|0,0
;   overrideFirmwareConfiguration,1
;   firmwareTypeOverride,RepRap (Marlin/Repetier/Sprinter)
;   GPXconfigOverride,r2
;   baudRateOverride,115200
;   overridePrinterModels,0
;   printerModelsOverride
;   startingGcode,G28,
;   layerChangeGcode,
;   retractionGcode,
;   toolChangeGcode,
;   endingGcode,M104 S0 ; turn off extruder,M140 S0 ; turn off bed,G28 X0 ; home X axis,M84 ; disable motors,M107 ; turn off fan
;   exportFileFormat,gcode
;   celebration,0
;   celebrationSong,Random Song
;   postProcessing,
;   defaultSpeed,3000
;   outlineUnderspeed,0.7
;   solidInfillUnderspeed,0.8
;   supportUnderspeed,0.8
;   rapidXYspeed,7800
;   rapidZspeed,1002
;   minBridgingArea,5
;   bridgingExtraInflation,0
;   bridgingExtrusionMultiplier,1
;   bridgingSpeedMultiplier,0.3
;   filamentDiameter,1.75
;   filamentPricePerKg,1000
;   filamentDensity,1.25
;   useMinPrintHeight,1
;   minPrintHeight,0
;   useMaxPrintHeight,1
;   maxPrintHeight,2
;   useDiaphragm,0
;   diaphragmLayerInterval,20
;   robustSlicing,1
;   mergeAllIntoSolid,0
;   onlyRetractWhenCrossingOutline,0
;   retractBetweenLayers,0
;   useRetractionMinTravel,0
;   retractionMinTravel,3
;   retractWhileWiping,0
;   onlyWipeOutlines,1
;   avoidCrossingOutline,0
;   maxMovementDetourFactor,3
;   toolChangeRetractionDistance,0
;   toolChangeExtraRestartDistance,0
;   toolChangeRetractionSpeed,360
;   allowThinWallGapFill,1
;   thinWallAllowedOverlapPercentage,10
;   horizontalSizeCompensation,0
G90
M82
M106 S0
M140 S55
M190 S55
M104 S230 T0
M109 S230 T0
G28
G92 E0
G1 E-0.8000 F1800
G1 Z0.225 F1002
; layer 1, Z = 0.225
T0
; tool H0.250 W0.433
; skirt
G1 X35.284 Y20.234 F7800
G1 E0.1200 F540
G92 E0
G1 X36.169 Y19.405 E0.0556 F1500
G1 X36.245 Y19.376 E0.0593
G1 X38.235 Y19.406 E0.1507
G1 X38.306 Y19.434 E0.1541
G1 X39.141 Y20.178 E0.2054
G1 X39.176 Y20.245 E0.2089
G1 X44.024 Y57.515 E1.9326
G1 X44.025 Y57.523 E1.9330
G1 X44.731 Y63.383 E2.2037
G1 X44.657 Y63.507 E2.2103
G1 X42.489 Y64.343 E2.3168
G1 X42.351 Y64.301 E2.3234
G1 X41.604 Y63.247 E2.3827
G1 X41.609 Y63.278 E2.3841
G1 X41.609 Y63.288 E2.3846
G1 X41.631 Y63.813 E2.4087
G1 X41.631 Y63.825 E2.4093
G1 X41.619 Y63.995 E2.4170
G1 X41.617 Y64.006 E2.4176
G1 X41.519 Y64.537 E2.4423
G1 X41.516 Y64.547 E2.4428
G1 X41.475 Y64.689 E2.4496
G1 X41.472 Y64.698 E2.4500
G1 X41.323 Y65.071 E2.4684
G1 X41.319 Y65.080 E2.4689
G1 X41.248 Y65.216 E2.4759
G1 X41.242 Y65.225 E2.4764
G1 X40.954 Y65.663 E2.5005
G1 X40.947 Y65.672 E2.5010
G1 X40.845 Y65.796 E2.5084
G1 X40.837 Y65.804 E2.5089
G1 X40.561 Y66.075 E2.5266
G1 X40.553 Y66.081 E2.5271
G1 X40.449 Y66.167 E2.5333
G1 X40.441 Y66.172 E2.5337
G1 X40.133 Y66.381 E2.5508
G1 X40.125 Y66.386 E2.5512
G1 X40.001 Y66.453 E2.5577
G1 X39.992 Y66.458 E2.5581
G1 X39.649 Y66.606 E2.5753
G1 X39.639 Y66.609 E2.5757
G1 X39.498 Y66.654 E2.5825
G1 X39.488 Y66.657 E2.5830
G1 X39.107 Y66.739 E2.6009
G1 X39.097 Y66.740 E2.6014
G1 X38.944 Y66.757 E2.6084
G1 X38.933 Y66.758 E2.6089
G1 X38.557 Y66.760 E2.6262
G1 X38.546 Y66.760 E2.6266
G1 X38.398 Y66.746 E2.6335
G1 X38.388 Y66.745 E2.6340
G1 X38.021 Y66.674 E2.6511
G1 X38.011 Y66.671 E2.6516
G1 X37.870 Y66.629 E2.6583
G1 X37.861 Y66.626 E2.6588
G1 X37.515 Y66.485 E2.6759
G1 X37.506 Y66.481 E2.6763
G1 X37.380 Y66.415 E2.6829
G1 X37.371 Y66.410 E2.6833
G1 X37.059 Y66.208 E2.7004
G1 X37.051 Y66.202 E2.7008
G1 X36.944 Y66.117 E2.7071
G1 X36.936 Y66.111 E2.7075
G1 X36.655 Y65.845 E2.7253
G1 X36.647 Y65.837 E2.7258
G1 X36.542 Y65.712 E2.7333
G1 X36.535 Y65.703 E2.7338
G1 X36.240 Y65.270 E2.7579
G1 X36.235 Y65.260 E2.7584
G1 X36.161 Y65.124 E2.7655
G1 X36.156 Y65.114 E2.7660
G1 X36.009 Y64.756 E2.7837
G1 X36.006 Y64.749 E2.7841
G1 X35.970 Y64.635 E2.7896
G1 X35.968 Y64.627 E2.7899
G1 X35.879 Y64.253 E2.8076
G1 X35.877 Y64.243 E2.8080
G1 X35.857 Y64.100 E2.8147
G1 X35.857 Y64.090 E2.8151
G1 X35.834 Y63.550 E2.8399
G1 X35.835 Y63.536 E2.8405
G1 X35.850 Y63.367 E2.8483
G1 X35.200 Y64.295 E2.9003
G1 X35.066 Y64.338 E2.9068
G1 X32.933 Y63.595 E3.0104
G1 X32.855 Y63.478 E3.0169
G1 X34.168 Y41.579 E4.0230
G1 X35.243 Y20.426 E4.9944
G1 X35.249 Y20.308 F1500
G1 X35.284 Y20.234 F1500
G92 E0
G1 E-0.8000 F1800
G1 X51.378 Y34.182 F7800
G1 E0.1200 F1800
G92 E0
G1 X52.239 Y33.342 E0.0552 F1500
G1 X52.314 Y33.311 E0.0589
G1 X54.324 Y33.291 E0.1511
G1 X54.395 Y33.317 E0.1546
G1 X55.252 Y34.050 E0.2063
G1 X55.288 Y34.116 E0.2098
G1 X57.658 Y50.393 E0.9641
G1 X57.659 Y50.395 E0.9642
G1 X60.559 Y70.601 E1.9004
G1 X60.559 Y70.605 E1.9006
G1 X61.810 Y79.626 E2.3182
G1 X61.811 Y79.645 E2.3191
G1 X61.801 Y79.908 E2.3312
G1 X61.799 Y79.926 E2.3320
G1 X61.513 Y81.256 E2.3944
G1 X61.512 Y81.262 E2.3947
G1 X61.493 Y81.334 E2.3981
G1 X61.491 Y81.339 E2.3983
G1 X61.345 Y81.794 E2.4203
G1 X61.343 Y81.801 E2.4206
G1 X61.308 Y81.891 E2.4250
G1 X61.305 Y81.897 E2.4253
G1 X60.923 Y82.709 E2.4665
G1 X60.919 Y82.717 E2.4669
G1 X60.855 Y82.829 E2.4728
G1 X60.850 Y82.836 E2.4732
G1 X60.335 Y83.572 E2.5144
G1 X60.331 Y83.577 E2.5147
G1 X60.269 Y83.655 E2.5192
G1 X60.264 Y83.660 E2.5196
G1 X59.932 Y84.022 E2.5421
G1 X59.928 Y84.027 E2.5424
G1 X59.857 Y84.094 E2.5469
G1 X59.852 Y84.099 E2.5472
G1 X59.163 Y84.677 E2.5884
G1 X59.156 Y84.682 E2.5889
G1 X59.048 Y84.758 E2.5949
G1 X59.040 Y84.763 E2.5953
G1 X58.248 Y85.220 E2.6373
G1 X58.240 Y85.224 E2.6377
G1 X58.121 Y85.280 E2.6437
G1 X58.112 Y85.283 E2.6441
G1 X57.252 Y85.596 E2.6861
G1 X57.243 Y85.599 E2.6865
G1 X57.117 Y85.633 E2.6926
G1 X57.108 Y85.635 E2.6930
G1 X56.207 Y85.794 E2.7349
G1 X56.197 Y85.795 E2.7354
G1 X56.067 Y85.807 E2.7414
G1 X56.057 Y85.807 E2.7418
G1 X55.142 Y85.807 E2.7838
G1 X55.133 Y85.807 E2.7842
G1 X55.002 Y85.795 E2.7902
G1 X54.993 Y85.794 E2.7907
G1 X54.092 Y85.635 E2.8326
G1 X54.083 Y85.633 E2.8330
G1 X53.956 Y85.599 E2.8391
G1 X53.947 Y85.596 E2.8395
G1 X53.103 Y85.289 E2.8807
G1 X53.096 Y85.286 E2.8810
G1 X53.006 Y85.247 E2.8855
G1 X53.000 Y85.244 E2.8858
G1 X52.565 Y85.017 E2.9083
G1 X52.559 Y85.014 E2.9087
G1 X52.474 Y84.963 E2.9132
G1 X52.468 Y84.959 E2.9135
G1 X51.732 Y84.443 E2.9547
G1 X51.725 Y84.438 E2.9552
G1 X51.624 Y84.353 E2.9612
G1 X51.618 Y84.347 E2.9616
G1 X50.970 Y83.700 E3.0036
G1 X50.964 Y83.693 E3.0040
G1 X50.879 Y83.591 E3.0101
G1 X50.873 Y83.584 E3.0105
G1 X50.347 Y82.829 E3.0527
G1 X50.342 Y82.821 E3.0532
G1 X50.272 Y82.698 E3.0596
G1 X50.268 Y82.690 E3.0601
G1 X49.891 Y81.850 E3.1023
G1 X49.887 Y81.841 E3.1027
G1 X49.841 Y81.705 E3.1093
G1 X49.838 Y81.696 E3.1098
G1 X49.681 Y81.028 E3.1412
G1 X48.073 Y81.689 E3.2210
G1 X42.016 Y84.433 E3.5259
G1 X42.013 Y84.434 E3.5260
G1 X41.978 Y84.449 E3.5278
G1 X41.975 Y84.450 E3.5279
G1 X40.640 Y84.973 E3.5937
G1 X40.636 Y84.975 E3.5939
G1 X40.568 Y84.998 E3.5972
G1 X40.564 Y84.999 E3.5974
G1 X39.617 Y85.271 E3.6426
G1 X39.608 Y85.273 E3.6430
G1 X39.471 Y85.299 E3.6494
G1 X39.461 Y85.301 E3.6499
G1 X38.743 Y85.368 E3.6829
G1 X38.729 Y85.369 E3.6836
G1 X38.517 Y85.359 E3.6933
G1 X38.502 Y85.357 E3.6940
G1 X37.964 Y85.255 E3.7191
G1 X37.956 Y85.253 E3.7195
G1 X37.841 Y85.222 E3.7250
G1 X37.833 Y85.219 E3.7254
G1 X37.367 Y85.051 E3.7481
G1 X37.358 Y85.048 E3.7485
G1 X37.232 Y84.989 E3.7549
G1 X37.224 Y84.984 E3.7553
G1 X36.789 Y84.729 E3.7785
G1 X36.780 Y84.723 E3.7789
G1 X36.661 Y84.636 E3.7857
G1 X36.653 Y84.630 E3.7862
G1 X36.266 Y84.286 E3.8099
G1 X36.259 Y84.279 E3.8104
G1 X36.163 Y84.177 E3.8168
G1 X36.157 Y84.170 E3.8172
G1 X35.829 Y83.746 E3.8418
G1 X35.824 Y83.739 E3.8422
G1 X35.757 Y83.636 E3.8478
G1 X35.753 Y83.629 E3.8482
G1 X35.470 Y83.106 E3.8755
G1 X35.465 Y83.096 E3.8760
G1 X35.404 Y82.946 E3.8834
G1 X35.400 Y82.936 E3.8839
G1 X35.212 Y82.283 E3.9151
G1 X35.209 Y82.270 E3.9157
G1 X35.180 Y82.093 E3.9239
G1 X35.179 Y82.081 E3.9245
G1 X35.146 Y81.313 E3.9597
G1 X35.146 Y81.301 E3.9603
G1 X35.158 Y81.131 E3.9681
G1 X35.159 Y81.119 E3.9686
G1 X35.320 Y80.253 E4.0090
G1 X35.322 Y80.243 E4.0095
G1 X35.362 Y80.105 E4.0161
G1 X35.365 Y80.096 E4.0165
G1 X35.743 Y79.133 E4.0640
G1 X35.746 Y79.126 E4.0643
G1 X35.797 Y79.022 E4.0696
G1 X35.800 Y79.015 E4.0700
G1 X36.484 Y77.841 E4.1323
G1 X36.487 Y77.837 E4.1325
G1 X36.526 Y77.777 E4.1358
G1 X36.529 Y77.773 E4.1360
G1 X37.611 Y76.265 E4.2212
G1 X37.613 Y76.262 E4.2213
G1 X37.638 Y76.230 E4.2232
G1 X37.640 Y76.227 E4.2233
G1 X39.230 Y74.249 E4.3397
G1 X39.231 Y74.248 E4.3398
G1 X39.246 Y74.230 E4.3409
G1 X39.247 Y74.228 E4.3410
G1 X41.444 Y71.665 E4.4958
G1 X43.899 Y68.719 E4.6717
G1 X46.269 Y65.593 E4.8516
G1 X48.208 Y62.508 E5.0187
G1 X49.426 Y59.631 E5.1620
G1 X50.140 Y56.838 E5.2942
G1 X50.522 Y54.051 E5.4232
G1 X50.734 Y51.242 E5.5524
G1 X51.341 Y34.374 E6.3265
G1 X51.345 Y34.256 F1500
G1 X51.378 Y34.182 F1500
G92 E0
G1 E-0.8000 F1800
G1 X71.103 Y41.732 F7800
G1 E0.1200 F1800
G92 E0
G1 X71.139 Y41.665 E0.0035 F1500
G1 X71.996 Y40.931 E0.0552
G1 X72.068 Y40.905 E0.0587
G1 X74.078 Y40.926 E0.1509
G1 X74.153 Y40.957 E0.1547
G1 X75.014 Y41.796 E0.2098
G1 X75.047 Y41.871 E0.2136
G1 X75.654 Y58.851 E0.9928
G1 X75.843 Y61.629 E1.1205
G1 X76.203 Y64.382 E1.2479
G1 X76.900 Y67.151 E1.3788
G1 X78.109 Y70.024 E1.5218
G1 X80.051 Y73.126 E1.6896
G1 X82.433 Y76.281 E1.8709
G1 X84.902 Y79.257 E2.0483
G1 X87.115 Y81.846 E2.2045
G1 X87.116 Y81.847 E2.2045
G1 X87.131 Y81.865 E2.2056
G1 X87.132 Y81.866 E2.2057
G1 X88.731 Y83.860 E2.3229
G1 X88.733 Y83.862 E2.3230
G1 X88.757 Y83.894 E2.3249
G1 X88.759 Y83.897 E2.3250
G1 X89.846 Y85.413 E2.4106
G1 X89.849 Y85.417 E2.4108
G1 X89.888 Y85.476 E2.4141
G1 X89.890 Y85.481 E2.4143
G1 X90.575 Y86.656 E2.4767
G1 X90.579 Y86.663 E2.4771
G1 X90.630 Y86.767 E2.4824
G1 X90.633 Y86.774 E2.4827
G1 X91.011 Y87.737 E2.5302
G1 X91.014 Y87.747 E2.5306
G1 X91.054 Y87.885 E2.5372
G1 X91.057 Y87.895 E2.5377
G1 X91.217 Y88.761 E2.5781
G1 X91.218 Y88.773 E2.5786
G1 X91.230 Y88.943 E2.5864
G1 X91.230 Y88.954 E2.5870
G1 X91.197 Y89.723 E2.6223
G1 X91.196 Y89.735 E2.6228
G1 X91.167 Y89.912 E2.6310
G1 X91.164 Y89.924 E2.6316
G1 X90.976 Y90.577 E2.6628
G1 X90.972 Y90.588 E2.6633
G1 X90.911 Y90.737 E2.6707
G1 X90.906 Y90.748 E2.6712
G1 X90.623 Y91.270 E2.6985
G1 X90.619 Y91.278 E2.6989
G1 X90.552 Y91.380 E2.7045
G1 X90.547 Y91.387 E2.7049
G1 X90.219 Y91.811 E2.7295
G1 X90.212 Y91.819 E2.7299
G1 X90.117 Y91.921 E2.7364
G1 X90.110 Y91.928 E2.7368
G1 X89.723 Y92.272 E2.7606
G1 X89.715 Y92.278 E2.7610
G1 X89.596 Y92.365 E2.7678
G1 X89.587 Y92.370 E2.7682
G1 X89.152 Y92.626 E2.7914
G1 X89.144 Y92.630 E2.7918
G1 X89.018 Y92.689 E2.7982
G1 X89.009 Y92.693 E2.7987
G1 X88.543 Y92.861 E2.8213
G1 X88.535 Y92.864 E2.8217
G1 X88.420 Y92.895 E2.8272
G1 X88.412 Y92.897 E2.8276
G1 X87.873 Y92.999 E2.8527
G1 X87.858 Y93.001 E2.8534
G1 X87.646 Y93.010 E2.8632
G1 X87.631 Y93.010 E2.8639
G1 X86.918 Y92.942 E2.8967
G1 X86.908 Y92.940 E2.8972
G1 X86.767 Y92.913 E2.9038
G1 X86.757 Y92.911 E2.9042
G1 X85.829 Y92.637 E2.9486
G1 X85.824 Y92.635 E2.9488
G1 X85.754 Y92.611 E2.9522
G1 X85.749 Y92.609 E2.9525
G1 X84.457 Y92.083 E3.0165
G1 X84.454 Y92.082 E3.0166
G1 X84.416 Y92.066 E3.0185
G1 X84.414 Y92.064 E3.0186
G1 X78.591 Y89.315 E3.3139
G1 X77.019 Y88.651 E3.3922
G1 X76.725 Y88.569 E3.4062
G1 X76.688 Y88.808 E3.4173
G1 X76.686 Y88.816 E3.4177
G1 X76.656 Y88.940 E3.4235
G1 X76.654 Y88.949 E3.4240
G1 X76.364 Y89.817 E3.4660
G1 X76.360 Y89.827 E3.4664
G1 X76.300 Y89.961 E3.4732
G1 X76.296 Y89.970 E3.4736
G1 X75.839 Y90.773 E3.5160
G1 X75.834 Y90.781 E3.5164
G1 X75.757 Y90.893 E3.5227
G1 X75.751 Y90.900 E3.5231
G1 X75.172 Y91.591 E3.5644
G1 X75.167 Y91.596 E3.5647
G1 X75.099 Y91.667 E3.5693
G1 X75.094 Y91.672 E3.5696
G1 X74.732 Y92.003 E3.5921
G1 X74.727 Y92.008 E3.5924
G1 X74.650 Y92.069 E3.5969
G1 X74.645 Y92.073 E3.5972
G1 X73.909 Y92.589 E3.6384
G1 X73.901 Y92.594 E3.6389
G1 X73.787 Y92.660 E3.6449
G1 X73.778 Y92.664 E3.6453
G1 X72.949 Y93.051 E3.6873
G1 X72.940 Y93.054 E3.6877
G1 X72.817 Y93.099 E3.6937
G1 X72.809 Y93.102 E3.6942
G1 X71.925 Y93.339 E3.7361
G1 X71.916 Y93.341 E3.7366
G1 X71.786 Y93.364 E3.7426
G1 X71.777 Y93.365 E3.7430
G1 X70.865 Y93.445 E3.7850
G1 X70.856 Y93.445 E3.7854
G1 X70.725 Y93.445 E3.7914
G1 X70.716 Y93.445 E3.7918
G1 X69.804 Y93.365 E3.8338
G1 X69.795 Y93.364 E3.8342
G1 X69.665 Y93.341 E3.8403
G1 X69.656 Y93.339 E3.8407
G1 X68.772 Y93.102 E3.8827
G1 X68.763 Y93.099 E3.8831
G1 X68.640 Y93.054 E3.8891
G1 X68.632 Y93.051 E3.8895
G1 X67.802 Y92.664 E3.9315
G1 X67.794 Y92.660 E3.9319
G1 X67.680 Y92.594 E3.9380
G1 X67.672 Y92.589 E3.9384
G1 X66.922 Y92.064 E3.9804
G1 X66.915 Y92.058 E3.9808
G1 X66.815 Y91.974 E3.9868
G1 X66.808 Y91.968 E3.9872
G1 X66.161 Y91.321 E4.0292
