;Generated from BODY-EXTRUDEUR-WADE.stl f8afd973fed154dab53824e13d14839a816304bf
;Generated with Cura_SteamEngine 15.04
M140 S55.0
M109 T0 S210.0
T0
M190 S55.0

;Basic settings: Layer height: 0.2 Walls: 1.2 Fill: 20
;Print time: ?print_time?
;Filament used: ?filament_amount?m ?filament_weight?g
;Filament cost: ?filament_cost?
;M190 S55 ;Uncomment to add your own bed temperature line
;M109 S210 ;Uncomment to add your own temperature line
G21        ;metric values
G90        ;absolute positioning
M82        ;set extruder to absolute mode
M107       ;start with the fan off
G28 X0 Y0  ;move X/Y to min endstops
G28 Z0     ;move Z to min endstops
G1 Z5.0 F9000 ;move the platform down 15mm
G92 E0                  ;zero the extruded length
G1 F200 E3              ;extrude 3mm of feed stock
G92 E0                  ;zero the extruded length again
G1 F9000
;Put printing message on LCD screen
M117 Printing...

;Layer count: 170
;LAYER:0
M107
G0 F9000 X79.998 Y99.958 Z0.300
;TYPE:SKIRT
G1 F1200 X78.994 Y100.908 E0.06896
G1 X78.168 Y102.015 E0.13787
G1 X77.546 Y103.241 E0.20645
G1 X77.069 Y104.799 E0.28774
G1 X76.610 Y106.238 E0.36310
G1 X77.589 Y109.356 E0.52615
G1 X78.292 Y110.672 E0.60058
G1 X79.228 Y111.840 E0.67526
G1 X80.358 Y112.808 E0.74949
G1 X81.654 Y113.555 E0.82412
G1 X83.059 Y114.048 E0.89840
G1 X84.535 Y114.272 E0.97289
G1 X86.029 Y114.220 E1.04747
G1 X87.476 Y113.895 E1.12146
G1 X88.857 Y113.300 E1.19648
G1 X90.082 Y112.474 E1.27019
G1 X91.139 Y111.435 E1.34413
G1 X91.990 Y110.215 E1.41834
G1 X92.600 Y108.863 E1.49234
G1 X92.950 Y107.423 E1.56628
G1 X93.030 Y105.944 E1.64017
G1 X92.838 Y104.473 E1.71418
G1 X92.393 Y103.107 E1.78586
G1 X91.664 Y101.758 E1.86236
G1 X90.728 Y100.612 E1.93618
G1 X89.596 Y99.658 E2.01004
G1 X88.308 Y98.926 E2.08395
G1 X86.905 Y98.443 E2.15797
G1 X85.438 Y98.225 E2.23197
G1 X83.955 Y98.282 E2.30601
G1 X82.510 Y98.609 E2.37992
G1 X81.140 Y99.200 E2.45436
G1 X79.998 Y99.958 E2.52274
G0 F9000 X70.800 Y82.950
G1 F1200 X66.675 Y82.950 E2.72854
G1 X60.800 Y77.075 E3.14305
G1 X60.800 Y60.550 E3.96749
G1 X95.325 Y60.550 E5.68995
G1 X101.200 Y66.425 E6.10446
G1 X101.200 Y70.050 E6.28531
G1 X107.800 Y70.050 E6.61459
G1 X107.800 Y49.050 E7.66228
G1 X122.200 Y49.050 E8.38070
G1 X122.200 Y102.050 E11.02488
G1 X140.251 Y102.050 E11.92545
G1 X142.236 Y102.363 E12.02571
G1 X144.255 Y103.392 E12.13876
G1 X145.857 Y104.994 E12.25179
G1 X146.885 Y107.012 E12.36478
G1 X147.200 Y108.998 E12.46510
G1 X147.200 Y112.502 E12.63992
G1 X146.885 Y114.487 E12.74019
G1 X145.857 Y116.505 E12.85318
G1 X144.255 Y118.107 E12.96621
G1 X142.237 Y119.135 E13.07920
G1 X140.252 Y119.450 E13.17947
G1 X129.393 Y119.450 E13.72123
G1 X126.960 Y117.433 E13.87890
G1 X125.357 Y116.495 E13.97156
G1 X123.733 Y115.886 E14.05809
G1 X121.918 Y115.525 E14.15041
G1 X120.128 Y115.480 E14.23974
G1 X118.404 Y115.723 E14.32660
G1 X116.691 Y116.258 E14.41614
G1 X115.045 Y117.094 E14.50824
G1 X113.607 Y118.164 E14.59766
G1 X112.374 Y119.450 E14.68655
G1 X111.356 Y120.943 E14.77670
G1 X110.607 Y122.573 E14.86620
G1 X110.139 Y124.304 E14.95566
G1 X109.963 Y126.088 E15.04509
G1 X110.086 Y127.882 E15.13481
G1 X110.502 Y129.620 E15.22397
G1 X111.205 Y131.276 E15.31372
G1 X112.169 Y132.788 E15.40318
G1 X113.373 Y134.121 E15.49280
G1 X114.950 Y135.371 E15.59319
G1 X116.200 Y136.376 E15.67321
G1 X116.200 Y144.001 E16.05362
G1 X115.887 Y145.986 E16.15388
G1 X114.858 Y148.005 E16.26694
G1 X113.256 Y149.607 E16.37997
G1 X111.238 Y150.635 E16.49295
G1 X109.252 Y150.950 E16.59328
G1 X101.748 Y150.950 E16.96765
G1 X99.763 Y150.635 E17.06792
G1 X97.745 Y149.607 E17.18091
G1 X96.143 Y148.005 E17.29394
G1 X95.115 Y145.987 E17.40693
G1 X94.800 Y144.002 E17.50720
G1 X94.800 Y132.000 E18.10598
G1 X94.723 Y131.512 E18.13063
G1 X94.617 Y131.304 E18.14228
G1 X94.447 Y131.134 E18.15427
G1 X94.236 Y131.027 E18.16608
G1 X93.749 Y130.950 E18.19067
G1 X78.725 Y130.950 E18.94022
G1 X77.668 Y130.938 E18.99296
G1 X75.762 Y130.635 E19.08925
G1 X73.745 Y129.607 E19.20219
G1 X72.143 Y128.005 E19.31522
G1 X71.115 Y125.987 E19.42821
G1 X70.800 Y124.002 E19.52848
G1 X70.800 Y82.950 E21.57657
G1 F2400 E17.07657
G0 F9000 X68.414 Y78.750
;TYPE:WALL-INNER
G1 F2400 E21.57657
G1 F1200 X65.000 Y75.336 E21.81745
G1 X65.000 Y64.750 E22.34559
G1 X71.434 Y64.750 E22.66658
G1 X71.264 Y64.835 E22.67606
G1 X70.505 Y65.789 E22.73688
G1 X70.226 Y66.990 E22.79840
G1 X70.496 Y68.195 E22.86001
G1 X71.263 Y69.163 E22.92162
G1 X72.376 Y69.704 E22.98336
G1 X73.444 Y69.707 E23.03665
G1 X73.684 Y69.675 E23.04873
G1 X74.578 Y69.245 E23.09822
G1 X74.781 Y69.109 E23.11041
G1 X75.371 Y68.368 E23.15766
G1 X75.509 Y68.172 E23.16962
G1 X75.701 Y67.325 E23.21295
G1 X75.795 Y67.098 E23.22521
G1 X75.554 Y66.022 E23.28022
G1 X75.491 Y65.782 E23.29260
G1 X74.862 Y64.992 E23.34298
G1 X74.693 Y64.811 E23.35534
G1 X74.567 Y64.750 E23.36232
G1 X86.436 Y64.750 E23.95447
G1 X86.233 Y64.874 E23.96633
G1 X85.630 Y65.631 E24.01462
G1 X85.493 Y65.827 E24.02655
G1 X85.299 Y66.674 E24.06990
G1 X85.204 Y66.903 E24.08227
G1 X85.447 Y67.978 E24.13725
G1 X85.510 Y68.217 E24.14959
G1 X86.139 Y69.007 E24.19997
G1 X86.308 Y69.188 E24.21232
G1 X87.171 Y69.604 E24.26012
G1 X87.392 Y69.706 E24.27226
G1 X88.345 Y69.705 E24.31981
G1 X88.588 Y69.720 E24.33195
G1 X89.520 Y69.272 E24.38354
G1 X89.737 Y69.164 E24.39564
G1 X90.496 Y68.210 E24.45646
G1 X90.773 Y67.010 E24.51790
G1 X90.505 Y65.805 E24.57949
G1 X89.813 Y64.930 E24.63514
G1 X89.626 Y64.778 E24.64716
G1 X89.568 Y64.750 E24.65038
G1 X93.586 Y64.750 E24.85084
G1 X97.000 Y68.164 E25.09171
G1 X97.000 Y74.250 E25.39534
G1 X112.000 Y74.250 E26.14370
G1 X112.000 Y53.250 E27.19139
G1 X118.000 Y53.250 E27.49073
G1 X118.000 Y106.250 E30.13491
G1 X139.920 Y106.250 E31.22851
G1 X140.924 Y106.408 E31.27921
G1 X141.756 Y106.832 E31.32580
G1 X142.417 Y107.493 E31.37244
G1 X142.841 Y108.325 E31.41903
G1 X143.000 Y109.330 E31.46979
G1 X143.000 Y112.169 E31.61143
G1 X142.841 Y113.174 E31.66219
G1 X142.417 Y114.006 E31.70878
G1 X141.756 Y114.667 E31.75542
G1 X140.924 Y115.091 E31.80200
G1 X139.919 Y115.250 E31.85277
G1 X130.907 Y115.250 E32.30238
G1 X129.375 Y113.980 E32.40166
G1 X127.296 Y112.763 E32.52184
G1 X127.172 Y112.690 E32.52902
G1 X124.890 Y111.834 E32.65062
G1 X122.528 Y111.364 E32.77077
G1 X122.390 Y111.336 E32.77779
G1 X120.032 Y111.275 E32.89547
G1 X119.894 Y111.271 E32.90236
G1 X117.480 Y111.611 E33.02399
G1 X115.101 Y112.355 E33.14834
G1 X112.946 Y113.448 E33.26889
G1 X112.819 Y113.515 E33.27606
G1 X110.820 Y115.003 E33.40039
G1 X109.191 Y116.702 E33.51782
G1 X109.093 Y116.805 E33.52491
G1 X107.767 Y118.751 E33.64239
G1 X107.687 Y118.870 E33.64954
G1 X106.705 Y121.005 E33.76679
G1 X106.647 Y121.129 E33.77362
G1 X106.033 Y123.397 E33.89084
G1 X105.993 Y123.539 E33.89820
G1 X105.763 Y125.880 E34.01556
G1 X105.748 Y126.024 E34.02278
G1 X105.919 Y128.516 E34.14740
G1 X106.467 Y130.807 E34.26492
G1 X106.501 Y130.945 E34.27201
G1 X107.420 Y133.109 E34.38931
G1 X107.475 Y133.240 E34.39639
G1 X108.740 Y135.223 E34.51374
G1 X108.817 Y135.344 E34.52090
G1 X110.388 Y137.082 E34.63778
G1 X110.485 Y137.192 E34.64510
G1 X112.000 Y138.392 E34.74152
G1 X112.000 Y143.670 E35.00484
G1 X111.842 Y144.674 E35.05555
G1 X111.418 Y145.506 E35.10213
G1 X110.757 Y146.167 E35.14877
G1 X109.925 Y146.591 E35.19536
G1 X108.920 Y146.750 E35.24612
G1 X102.081 Y146.750 E35.58732
G1 X101.076 Y146.591 E35.63808
G1 X100.244 Y146.167 E35.68467
G1 X99.583 Y145.506 E35.73131
G1 X99.159 Y144.674 E35.77790
G1 X99.000 Y143.669 E35.82866
G1 X99.000 Y131.672 E36.42719
G1 X98.798 Y130.387 E36.49209
G1 X98.767 Y130.199 E36.50160
G1 X98.138 Y128.963 E36.57079
G1 X98.049 Y128.795 E36.58027
G1 X96.947 Y127.694 E36.65799
G1 X95.718 Y127.069 E36.72678
G1 X95.560 Y126.984 E36.73573
G1 X94.078 Y126.750 E36.81058
G1 X78.754 Y126.750 E37.57510
G1 X78.026 Y126.742 E37.61142
G1 X77.076 Y126.591 E37.65941
G1 X76.244 Y126.167 E37.70600
G1 X75.583 Y125.506 E37.75264
G1 X75.159 Y124.674 E37.79922
G1 X75.000 Y123.667 E37.85009
G1 X75.000 Y113.282 E38.36819
G1 X76.104 Y114.659 E38.45625
G1 X76.196 Y114.773 E38.46356
G1 X77.814 Y116.160 E38.56988
G1 X77.925 Y116.254 E38.57713
G1 X79.768 Y117.316 E38.68326
G1 X79.891 Y117.388 E38.69037
G1 X81.903 Y118.093 E38.79673
G1 X82.037 Y118.141 E38.80383
G1 X84.148 Y118.462 E38.91036
G1 X84.291 Y118.484 E38.91758
G1 X86.421 Y118.408 E39.02391
G1 X86.566 Y118.403 E39.03115
G1 X88.649 Y117.936 E39.13765
G1 X88.791 Y117.902 E39.14493
G1 X90.744 Y117.060 E39.25104
G1 X90.878 Y117.002 E39.25832
G1 X92.622 Y115.827 E39.36324
G1 X92.748 Y115.744 E39.37077
G1 X94.263 Y114.254 E39.47678
G1 X94.366 Y114.152 E39.48401
G1 X95.657 Y112.300 E39.59664
G1 X96.525 Y110.377 E39.70190
G1 X96.587 Y110.241 E39.70936
G1 X97.085 Y108.193 E39.81451
G1 X97.122 Y108.047 E39.82202
G1 X97.238 Y105.928 E39.92790
G1 X97.246 Y105.785 E39.93505
G1 X96.970 Y103.684 E40.04077
G1 X96.951 Y103.541 E40.04796
G1 X96.269 Y101.444 E40.15798
G1 X95.238 Y99.537 E40.26613
G1 X95.168 Y99.408 E40.27345
G1 X93.827 Y97.768 E40.37914
G1 X93.739 Y97.658 E40.38617
G1 X92.122 Y96.293 E40.49174
G1 X92.010 Y96.198 E40.49907
G1 X90.168 Y95.152 E40.60475
G1 X90.041 Y95.080 E40.61204
G1 X88.040 Y94.391 E40.71762
G1 X87.902 Y94.344 E40.72489
G1 X85.810 Y94.035 E40.83039
G1 X85.670 Y94.013 E40.83747
G1 X83.407 Y94.099 E40.95045
G1 X81.339 Y94.568 E41.05624
G1 X81.198 Y94.601 E41.06347
G1 X79.256 Y95.439 E41.16899
G1 X79.126 Y95.496 E41.17607
G1 X77.489 Y96.583 E41.27411
G1 X77.374 Y96.658 E41.28096
G1 X75.944 Y98.013 E41.37924
G1 X75.846 Y98.105 E41.38595
G1 X75.000 Y99.237 E41.45645
G1 X75.000 Y78.750 E42.47855
G1 X68.414 Y78.750 E42.80713
G0 F9000 X87.500 Y76.750
G1 F1200 X87.500 Y91.382 E43.53712
G1 X90.298 Y92.218 E43.68281
G1 X92.206 Y93.096 E43.78760
G1 X93.979 Y94.236 E43.89276
G1 X95.569 Y95.608 E43.99753
G1 X96.955 Y97.194 E44.10262
G1 X98.670 Y99.821 E44.25914
G1 X106.466 Y95.137 E44.71288
G1 X107.000 Y94.812 E44.74407
G1 X107.000 Y76.750 E45.64519
G1 X87.500 Y76.750 E46.61805
G0 F9000 X111.000 Y77.000
G1 F1200 X111.000 Y86.500 E47.09200
G1 X117.000 Y86.500 E47.39134
G1 X117.000 Y77.000 E47.86530
G1 X111.000 Y77.000 E48.16464
G0 F9000 X107.632 Y108.005
G1 F1200 X103.114 Y108.000 E48.39005
G1 X102.888 Y108.000 E48.40132
G1 X102.022 Y108.197 E48.44563
G1 X101.783 Y108.259 E48.45795
G1 X101.021 Y108.866 E48.50655
G1 X100.828 Y109.023 E48.51896
G1 X100.409 Y109.895 E48.56723
G1 X100.294 Y110.124 E48.58001
G1 X100.294 Y111.367 E48.64203
G1 X100.725 Y112.263 E48.69163
G1 X100.836 Y112.486 E48.70406
G1 X101.594 Y113.089 E48.75238
G1 X101.791 Y113.249 E48.76505
G1 X102.868 Y113.495 E48.82016
G1 X107.386 Y113.500 E49.04557
G1 X107.613 Y113.500 E49.05689
G1 X108.479 Y113.302 E49.10121
G1 X108.718 Y113.240 E49.11353
G1 X109.480 Y112.633 E49.16213
G1 X109.673 Y112.476 E49.17454
G1 X110.092 Y111.604 E49.22281
G1 X110.207 Y111.375 E49.23559
G1 X110.207 Y110.132 E49.29761
G1 X109.776 Y109.236 E49.34721
G1 X109.665 Y109.013 E49.35964
G1 X108.907 Y108.410 E49.40796
G1 X108.709 Y108.249 E49.42070
G1 X107.632 Y108.005 E49.47579
G0 F9000 X109.416 Y109.412
G0 X109.802 Y110.225
G0 X109.661 Y111.505
G0 X109.229 Y112.321
G0 X106.389 Y123.613
G0 X106.151 Y126.032
G0 X106.856 Y130.711
G0 X107.632 Y139.005
G1 F1200 X103.114 Y139.000 E49.70119
G1 X102.888 Y139.000 E49.71247
G1 X102.022 Y139.197 E49.75678
G1 X101.783 Y139.259 E49.76910
G1 X101.021 Y139.866 E49.81770
G1 X100.828 Y140.023 E49.83011
G1 X100.409 Y140.895 E49.87838
G1 X100.294 Y141.124 E49.89116
G1 X100.294 Y142.367 E49.95318
G1 X100.725 Y143.263 E50.00278
G1 X100.836 Y143.486 E50.01521
G1 X101.594 Y144.089 E50.06353
G1 X101.791 Y144.249 E50.07619
G1 X102.868 Y144.495 E50.13131
G1 X107.386 Y144.500 E50.35671
G1 X107.613 Y144.500 E50.36804
G1 X108.479 Y144.302 E50.41236
G1 X108.718 Y144.240 E50.42468
G1 X109.480 Y143.633 E50.47328
G1 X109.673 Y143.476 E50.48569
G1 X110.092 Y142.604 E50.53396
G1 X110.207 Y142.375 E50.54674
G1 X110.207 Y141.132 E50.60876
G1 X109.776 Y140.236 E50.65836
G1 X109.665 Y140.013 E50.67079
G1 X108.907 Y139.410 E50.71911
G1 X108.709 Y139.249 E50.73184
G1 X107.632 Y139.005 E50.78694
G0 F9000 X106.161 Y125.923
G0 X107.025 Y121.268
G0 X108.099 Y118.976
G0 X111.086 Y115.304
G0 X113.129 Y113.805
G0 X117.570 Y112.003
G0 X122.343 Y111.736
G0 X126.998 Y113.053
G0 X131.835 Y112.486
G1 F1200 X132.593 Y113.089 E50.83526
G1 X132.790 Y113.249 E50.84792
G1 X133.868 Y113.495 E50.90309
G1 X138.386 Y113.500 E51.12849
G1 X138.613 Y113.500 E51.13981
G1 X139.479 Y113.302 E51.18413
G1 X139.717 Y113.240 E51.19640
G1 X140.479 Y112.633 E51.24501
G1 X140.672 Y112.476 E51.25742
G1 X141.091 Y111.604 E51.30569
G1 X141.206 Y111.375 E51.31847
G1 X141.206 Y110.132 E51.38048
G1 X140.775 Y109.236 E51.43009
G1 X140.664 Y109.013 E51.44252
G1 X139.906 Y108.410 E51.49084
G1 X139.708 Y108.250 E51.50354
G1 X138.632 Y108.005 E51.55860
G1 X134.114 Y108.000 E51.78400
G1 X133.888 Y108.000 E51.79527
G1 X133.021 Y108.197 E51.83963
G1 X132.782 Y108.259 E51.85195
G1 X132.020 Y108.866 E51.90055
G1 X131.827 Y109.023 E51.91297
G1 X131.408 Y109.895 E51.96123
G1 X131.293 Y110.124 E51.97402
G1 X131.293 Y111.367 E52.03603
G1 X131.724 Y112.263 E52.08564
G1 X131.835 Y112.486 E52.09806
G0 F9000 X132.083 Y112.087
G1 F1200 X132.154 Y112.228 E52.10594
G1 X132.846 Y112.779 E52.15007
G1 X132.970 Y112.880 E52.15805
G1 X133.913 Y113.095 E52.20630
G1 X138.567 Y113.100 E52.43849
G1 X139.383 Y112.914 E52.48025
G1 X139.534 Y112.874 E52.48804
G1 X140.228 Y112.322 E52.53228
G1 X140.351 Y112.222 E52.54019
G1 X140.734 Y111.425 E52.58430
G1 X140.806 Y111.281 E52.59234
G1 X140.806 Y110.223 E52.64512
G1 X140.416 Y109.412 E52.69002
G1 X140.345 Y109.271 E52.69789
G1 X139.649 Y108.717 E52.74227
G1 X139.529 Y108.619 E52.75000
G1 X138.587 Y108.405 E52.79820
G1 X133.933 Y108.400 E53.03039
G1 X133.116 Y108.585 E53.07218
G1 X132.965 Y108.625 E53.07997
G1 X132.271 Y109.177 E53.12421
G1 X132.148 Y109.277 E53.13212
G1 X131.765 Y110.074 E53.17624
G1 X131.693 Y110.218 E53.18427
G1 X131.693 Y111.276 E53.23705
G1 X132.083 Y112.087 E53.28195
G0 F9000 X129.145 Y114.309
G1 F1200 X127.094 Y113.108 E53.40053
G1 X126.999 Y113.052 E53.40603
G1 X124.780 Y112.220 E53.52426
G1 X122.455 Y111.758 E53.64252
G1 X122.344 Y111.735 E53.64818
G1 X120.026 Y111.675 E53.76386
G1 X119.915 Y111.672 E53.76940
G1 X117.569 Y112.003 E53.88760
G1 X115.252 Y112.727 E54.00871
G1 X113.129 Y113.804 E54.12748
G1 X113.032 Y113.855 E54.13294
G1 X111.086 Y115.304 E54.25399
G1 X109.480 Y116.978 E54.36973
G1 X109.405 Y117.058 E54.37520
G1 X108.098 Y118.976 E54.49099
G1 X108.037 Y119.066 E54.49641
G1 X107.071 Y121.167 E54.61178
G1 X107.024 Y121.268 E54.61734
G1 X106.418 Y123.505 E54.73297
G1 X106.388 Y123.613 E54.73856
G1 X106.161 Y125.921 E54.85426
G1 X106.150 Y126.031 E54.85978
G1 X106.316 Y128.455 E54.98099
G1 X106.856 Y130.712 E55.09677
G1 X106.882 Y130.818 E55.10222
G1 X107.830 Y133.052 E55.22329
G1 X109.136 Y135.100 E55.34448
G1 X110.687 Y136.817 E55.45991
G1 X110.761 Y136.901 E55.46550
G1 X112.400 Y138.199 E55.56980
G1 X112.400 Y143.700 E55.84425
G1 X112.227 Y144.799 E55.89975
G1 X111.745 Y145.745 E55.95272
G1 X110.996 Y146.494 E56.00557
G1 X110.050 Y146.976 E56.05854
G1 X108.950 Y147.150 E56.11410
G1 X102.050 Y147.150 E56.45834
G1 X100.951 Y146.976 E56.51386
G1 X100.005 Y146.494 E56.56682
G1 X99.256 Y145.745 E56.61967
G1 X98.774 Y144.799 E56.67264
G1 X98.600 Y143.700 E56.72815
G1 X98.600 Y131.703 E57.32668
G1 X98.403 Y130.450 E57.38996
G1 X98.382 Y130.325 E57.39629
G1 X97.784 Y129.148 E57.46215
G1 X97.724 Y129.036 E57.46849
G1 X96.709 Y128.021 E57.54011
G1 X95.537 Y127.425 E57.60570
G1 X95.431 Y127.368 E57.61171
G1 X94.047 Y127.150 E57.68161
G1 X78.750 Y127.150 E58.44478
G1 X77.992 Y127.142 E58.48260
G1 X76.951 Y126.976 E58.53519
G1 X76.005 Y126.494 E58.58816
G1 X75.256 Y125.745 E58.64100
G1 X74.774 Y124.799 E58.69397
G1 X74.600 Y123.700 E58.74949
G1 X74.600 Y111.827 E59.34183
G1 X75.107 Y112.776 E59.39551
G1 X76.416 Y114.409 E59.49993
G1 X76.484 Y114.493 E59.50532
G1 X78.073 Y115.855 E59.60973
G1 X78.156 Y115.926 E59.61518
G1 X79.963 Y116.966 E59.71920
G1 X80.060 Y117.023 E59.72481
