;Generated from BODY-EXTRUDEUR-WADE-with-support.stl b9c0753e3cd10a58ad4aaf0773bf484eadd2cbdd
;Generated with Cura_SteamEngine 15.04
M140 S55.0
M109 T0 S210.0
T0
M190 S55.0

;Basic settings: Layer height: 0.2 Walls: 1.2 Fill: 20
;Print time: ?print_time?
;Filament used: ?filament_amount?m ?filament_weight?g
;Filament cost: ?filament_cost?
;M190 S55 ;Uncomment to add your own bed temperature line
;M109 S210 ;Uncomment to add your own temperature line
G21        ;metric values
G90        ;absolute positioning
M82        ;set extruder to absolute mode
M107       ;start with the fan off
G28 X0 Y0  ;move X/Y to min endstops
G28 Z0     ;move Z to min endstops
G1 Z5.0 F9000 ;move the platform down 15mm
G92 E0                  ;zero the extruded length
G1 F200 E3              ;extrude 3mm of feed stock
G92 E0                  ;zero the extruded length again
G1 F9000
;Put printing message on LCD screen
M117 Printing...

;Layer count: 170
;LAYER:0
M107
G0 F9000 X52.050 Y59.050 Z0.300
;TYPE:SKIRT
G1 F1200 X67.950 Y59.050 E0.79325
G1 X67.950 Y60.550 E0.86809
G1 X96.075 Y60.550 E2.27125
G1 X101.950 Y66.425 E2.68576
G1 X101.950 Y70.050 E2.86662
G1 X108.550 Y70.050 E3.19589
G1 X108.550 Y49.050 E4.24359
G1 X122.950 Y49.050 E4.96200
G1 X122.950 Y102.050 E7.60619
G1 X141.001 Y102.050 E8.50675
G1 X142.986 Y102.363 E8.60701
G1 X145.005 Y103.392 E8.72007
G1 X146.607 Y104.994 E8.83310
G1 X147.635 Y107.012 E8.94608
G1 X147.950 Y108.998 E9.04640
G1 X147.950 Y112.502 E9.22122
G1 X147.635 Y114.487 E9.32149
G1 X146.607 Y116.505 E9.43448
G1 X145.005 Y118.107 E9.54751
G1 X142.987 Y119.135 E9.66050
G1 X141.002 Y119.450 E9.76077
G1 X130.143 Y119.450 E10.30253
G1 X127.710 Y117.433 E10.46020
G1 X126.107 Y116.495 E10.55286
G1 X124.483 Y115.886 E10.63939
G1 X122.668 Y115.525 E10.73171
G1 X120.878 Y115.480 E10.82105
G1 X119.154 Y115.723 E10.90791
G1 X117.441 Y116.258 E10.99744
G1 X115.795 Y117.094 E11.08954
G1 X114.357 Y118.164 E11.17897
G1 X113.124 Y119.450 E11.26785
G1 X112.106 Y120.943 E11.35800
G1 X111.357 Y122.573 E11.44750
G1 X110.889 Y124.304 E11.53696
G1 X110.713 Y126.088 E11.62640
G1 X110.836 Y127.882 E11.71611
G1 X111.252 Y129.620 E11.80527
G1 X111.955 Y131.276 E11.89502
G1 X112.919 Y132.788 E11.98448
G1 X114.123 Y134.121 E12.07410
G1 X115.700 Y135.371 E12.17449
G1 X116.950 Y136.376 E12.25451
G1 X116.950 Y144.001 E12.63493
G1 X116.637 Y145.986 E12.73518
G1 X115.608 Y148.005 E12.84824
G1 X114.006 Y149.607 E12.96127
G1 X111.988 Y150.635 E13.07426
G1 X110.002 Y150.950 E13.17458
G1 X102.498 Y150.950 E13.54895
G1 X100.513 Y150.635 E13.64922
G1 X98.495 Y149.607 E13.76221
G1 X96.893 Y148.005 E13.87524
G1 X95.865 Y145.987 E13.98823
G1 X95.550 Y144.002 E14.08850
G1 X95.550 Y132.000 E14.68729
G1 X95.473 Y131.512 E14.71193
G1 X95.367 Y131.304 E14.72358
G1 X95.197 Y131.134 E14.73558
G1 X94.986 Y131.027 E14.74738
G1 X94.499 Y130.950 E14.77198
G1 X78.498 Y130.950 E15.57027
G1 X76.513 Y130.635 E15.67054
G1 X74.495 Y129.607 E15.78353
G1 X72.893 Y128.005 E15.89656
G1 X71.865 Y125.987 E16.00955
G1 X71.550 Y124.002 E16.10982
G1 X71.550 Y107.265 E16.94483
G1 X71.001 Y105.800 E17.02288
G1 X71.550 Y105.800 E17.05027
G1 X71.550 Y99.950 E17.34213
G1 X59.550 Y99.950 E17.94081
G1 X59.550 Y77.050 E19.08330
G1 X61.550 Y77.050 E19.18308
G1 X61.550 Y75.450 E19.26291
G1 X52.050 Y75.450 E19.73686
G1 X52.050 Y59.050 E20.55506
G1 F2400 E16.05506
G0 F9000 X65.750 Y64.750
;TYPE:WALL-INNER
G1 F2400 E20.55506
G1 F1200 X72.184 Y64.750 E20.87605
G1 X72.014 Y64.835 E20.88554
G1 X71.255 Y65.789 E20.94636
G1 X70.976 Y66.990 E21.00787
G1 X71.246 Y68.195 E21.06948
G1 X72.013 Y69.163 E21.13110
G1 X73.126 Y69.704 E21.19284
G1 X74.194 Y69.707 E21.24612
G1 X74.434 Y69.675 E21.25820
G1 X75.328 Y69.245 E21.30769
G1 X75.531 Y69.109 E21.31988
G1 X76.121 Y68.368 E21.36714
G1 X76.259 Y68.172 E21.37910
G1 X76.451 Y67.325 E21.42243
G1 X76.545 Y67.098 E21.43468
G1 X76.304 Y66.022 E21.48970
G1 X76.241 Y65.782 E21.50208
G1 X75.612 Y64.992 E21.55246
G1 X75.443 Y64.811 E21.56481
G1 X75.317 Y64.750 E21.57179
G1 X87.186 Y64.750 E22.16394
G1 X86.983 Y64.874 E22.17581
G1 X86.380 Y65.631 E22.22409
G1 X86.243 Y65.827 E22.23602
G1 X86.049 Y66.674 E22.27937
G1 X85.954 Y66.903 E22.29174
G1 X86.197 Y67.978 E22.34673
G1 X86.260 Y68.217 E22.35906
G1 X86.889 Y69.007 E22.40944
G1 X87.058 Y69.188 E22.42179
G1 X87.921 Y69.604 E22.46959
G1 X88.142 Y69.706 E22.48173
G1 X89.095 Y69.705 E22.52928
G1 X89.338 Y69.720 E22.54143
G1 X90.270 Y69.272 E22.59302
G1 X90.487 Y69.164 E22.60511
G1 X91.246 Y68.210 E22.66593
G1 X91.523 Y67.010 E22.72737
G1 X91.255 Y65.805 E22.78896
G1 X90.563 Y64.930 E22.84462
G1 X90.376 Y64.778 E22.85664
G1 X90.318 Y64.750 E22.85985
G1 X94.336 Y64.750 E23.06031
G1 X97.750 Y68.164 E23.30119
G1 X97.750 Y74.250 E23.60482
G1 X112.750 Y74.250 E24.35317
G1 X112.750 Y53.250 E25.40087
G1 X118.750 Y53.250 E25.70021
G1 X118.750 Y106.250 E28.34439
G1 X140.670 Y106.250 E29.43798
G1 X141.674 Y106.408 E29.48869
G1 X142.506 Y106.832 E29.53527
G1 X143.167 Y107.493 E29.58191
G1 X143.591 Y108.325 E29.62850
G1 X143.750 Y109.330 E29.67926
G1 X143.750 Y112.169 E29.82090
G1 X143.591 Y113.174 E29.87166
G1 X143.167 Y114.006 E29.91825
G1 X142.506 Y114.667 E29.96489
G1 X141.674 Y115.091 E30.01148
G1 X140.669 Y115.250 E30.06224
G1 X131.657 Y115.250 E30.51185
G1 X130.125 Y113.980 E30.61113
G1 X128.046 Y112.763 E30.73132
G1 X127.922 Y112.690 E30.73850
G1 X125.640 Y111.834 E30.86009
G1 X123.278 Y111.364 E30.98024
G1 X123.140 Y111.336 E30.98727
G1 X120.782 Y111.275 E31.10495
G1 X120.644 Y111.271 E31.11184
G1 X118.230 Y111.611 E31.23346
G1 X115.851 Y112.355 E31.35782
G1 X113.696 Y113.448 E31.47837
G1 X113.569 Y113.515 E31.48553
G1 X111.570 Y115.003 E31.60986
G1 X109.941 Y116.702 E31.72729
G1 X109.843 Y116.805 E31.73438
G1 X108.517 Y118.751 E31.85186
G1 X108.437 Y118.870 E31.85902
G1 X107.455 Y121.005 E31.97626
G1 X107.397 Y121.129 E31.98309
G1 X106.783 Y123.397 E32.10031
G1 X106.743 Y123.539 E32.10767
G1 X106.513 Y125.880 E32.22503
G1 X106.498 Y126.024 E32.23225
G1 X106.669 Y128.516 E32.35687
G1 X107.217 Y130.807 E32.47439
G1 X107.251 Y130.945 E32.48149
G1 X108.170 Y133.109 E32.59878
G1 X108.225 Y133.240 E32.60587
G1 X109.490 Y135.223 E32.72322
G1 X109.567 Y135.344 E32.73037
G1 X111.138 Y137.082 E32.84725
G1 X111.235 Y137.192 E32.85457
G1 X112.750 Y138.392 E32.95099
G1 X112.750 Y143.670 E33.21431
G1 X112.592 Y144.674 E33.26502
G1 X112.168 Y145.506 E33.31161
G1 X111.507 Y146.167 E33.35824
G1 X110.675 Y146.591 E33.40483
G1 X109.670 Y146.750 E33.45560
G1 X102.831 Y146.750 E33.79679
G1 X101.826 Y146.591 E33.84756
G1 X100.994 Y146.167 E33.89415
G1 X100.333 Y145.506 E33.94078
G1 X99.909 Y144.674 E33.98737
G1 X99.750 Y143.669 E34.03813
G1 X99.750 Y131.672 E34.63667
G1 X99.548 Y130.387 E34.70156
G1 X99.517 Y130.199 E34.71107
G1 X98.888 Y128.963 E34.78026
G1 X98.799 Y128.795 E34.78974
G1 X97.697 Y127.694 E34.86746
G1 X96.468 Y127.069 E34.93625
G1 X96.310 Y126.984 E34.94520
G1 X94.828 Y126.750 E35.02005
G1 X78.831 Y126.750 E35.81815
G1 X77.826 Y126.591 E35.86891
G1 X76.994 Y126.167 E35.91550
G1 X76.333 Y125.506 E35.96214
G1 X75.909 Y124.674 E36.00872
G1 X75.750 Y123.667 E36.05959
G1 X75.750 Y113.282 E36.57769
G1 X76.854 Y114.659 E36.66575
G1 X76.946 Y114.773 E36.67306
G1 X78.564 Y116.160 E36.77938
G1 X78.675 Y116.254 E36.78663
G1 X80.518 Y117.316 E36.89276
G1 X80.641 Y117.388 E36.89987
G1 X82.653 Y118.093 E37.00623
G1 X82.787 Y118.141 E37.01333
G1 X84.898 Y118.462 E37.11986
G1 X85.041 Y118.484 E37.12708
G1 X87.171 Y118.408 E37.23341
G1 X87.316 Y118.403 E37.24065
G1 X89.399 Y117.936 E37.34715
G1 X89.541 Y117.902 E37.35444
G1 X91.494 Y117.060 E37.46054
G1 X91.628 Y117.002 E37.46783
G1 X93.372 Y115.827 E37.57274
G1 X93.498 Y115.744 E37.58027
G1 X95.013 Y114.254 E37.68628
G1 X95.116 Y114.152 E37.69351
G1 X96.407 Y112.300 E37.80614
G1 X97.275 Y110.377 E37.91140
G1 X97.337 Y110.241 E37.91886
G1 X97.835 Y108.193 E38.02401
G1 X97.872 Y108.047 E38.03152
G1 X97.988 Y105.928 E38.13740
G1 X97.996 Y105.785 E38.14455
G1 X97.720 Y103.684 E38.25027
G1 X97.701 Y103.541 E38.25746
G1 X97.019 Y101.444 E38.36748
G1 X95.988 Y99.537 E38.47563
G1 X95.918 Y99.408 E38.48295
G1 X94.577 Y97.768 E38.58864
G1 X94.489 Y97.658 E38.59567
G1 X92.872 Y96.293 E38.70125
G1 X92.760 Y96.198 E38.70857
G1 X90.918 Y95.152 E38.81425
G1 X90.791 Y95.080 E38.82154
G1 X88.790 Y94.391 E38.92712
G1 X88.652 Y94.344 E38.93439
G1 X86.560 Y94.035 E39.03990
G1 X86.420 Y94.013 E39.04697
G1 X84.157 Y94.099 E39.15995
G1 X82.089 Y94.568 E39.26574
G1 X81.948 Y94.601 E39.27297
G1 X80.006 Y95.439 E39.37849
G1 X79.876 Y95.496 E39.38557
G1 X78.239 Y96.583 E39.48361
G1 X78.124 Y96.658 E39.49046
G1 X76.694 Y98.013 E39.58874
G1 X76.596 Y98.105 E39.59545
G1 X75.750 Y99.237 E39.66595
G1 X75.750 Y78.750 E40.68805
G1 X69.164 Y78.750 E41.01663
G1 X65.750 Y75.336 E41.25750
G1 X65.750 Y64.750 E41.78564
G0 F9000 X73.220 Y69.299
G0 X88.250 Y76.750
G1 F1200 X88.250 Y91.382 E42.51564
G1 X91.048 Y92.218 E42.66133
G1 X92.956 Y93.096 E42.76611
G1 X94.729 Y94.236 E42.87127
G1 X96.319 Y95.608 E42.97605
G1 X97.705 Y97.194 E43.08113
G1 X99.420 Y99.821 E43.23765
G1 X107.216 Y95.137 E43.69140
G1 X107.750 Y94.812 E43.72258
G1 X107.750 Y76.750 E44.62370
G1 X88.250 Y76.750 E45.59656
G0 F9000 X111.750 Y77.000
G1 F1200 X111.750 Y86.500 E46.07052
G1 X117.750 Y86.500 E46.36986
G1 X117.750 Y77.000 E46.84381
G1 X111.750 Y77.000 E47.14316
G0 F9000 X108.382 Y108.005
G1 F1200 X103.864 Y108.000 E47.36856
G1 X103.638 Y108.000 E47.37984
G1 X102.772 Y108.197 E47.42414
G1 X102.533 Y108.259 E47.43646
G1 X101.771 Y108.866 E47.48507
G1 X101.578 Y109.023 E47.49748
G1 X101.159 Y109.895 E47.54574
G1 X101.044 Y110.124 E47.55853
G1 X101.044 Y111.367 E47.62054
G1 X101.475 Y112.263 E47.67015
G1 X101.586 Y112.486 E47.68257
G1 X102.344 Y113.089 E47.73090
G1 X102.541 Y113.249 E47.74356
G1 X103.618 Y113.495 E47.79868
G1 X108.136 Y113.500 E48.02408
G1 X108.363 Y113.500 E48.03540
G1 X109.229 Y113.302 E48.07972
G1 X109.468 Y113.240 E48.09204
G1 X110.230 Y112.633 E48.14065
G1 X110.423 Y112.476 E48.15306
G1 X110.842 Y111.604 E48.20132
G1 X110.957 Y111.375 E48.21411
G1 X110.957 Y110.132 E48.27612
G1 X110.526 Y109.236 E48.32573
G1 X110.415 Y109.013 E48.33815
G1 X109.657 Y108.410 E48.38648
G1 X109.459 Y108.249 E48.39921
G1 X108.382 Y108.005 E48.45430
G0 F9000 X110.166 Y109.412
G0 X110.552 Y110.225
G0 X110.411 Y111.505
G0 X109.979 Y112.321
G0 X107.139 Y123.613
G0 X106.901 Y126.032
G0 X107.606 Y130.711
G0 X108.382 Y139.005
G1 F1200 X103.864 Y139.000 E48.67971
G1 X103.638 Y139.000 E48.69098
G1 X102.772 Y139.197 E48.73529
G1 X102.533 Y139.259 E48.74761
G1 X101.771 Y139.866 E48.79621
G1 X101.578 Y140.023 E48.80863
G1 X101.159 Y140.895 E48.85689
G1 X101.044 Y141.124 E48.86968
G1 X101.044 Y142.367 E48.93169
G1 X101.475 Y143.263 E48.98129
G1 X101.586 Y143.486 E48.99372
G1 X102.344 Y144.089 E49.04204
G1 X102.541 Y144.249 E49.05471
G1 X103.618 Y144.495 E49.10982
G1 X108.136 Y144.500 E49.33523
G1 X108.363 Y144.500 E49.34655
G1 X109.229 Y144.302 E49.39087
G1 X109.468 Y144.240 E49.40319
G1 X110.230 Y143.633 E49.45179
G1 X110.423 Y143.476 E49.46421
G1 X110.842 Y142.604 E49.51247
G1 X110.957 Y142.375 E49.52526
G1 X110.957 Y141.132 E49.58727
G1 X110.526 Y140.236 E49.63687
G1 X110.415 Y140.013 E49.64930
G1 X109.657 Y139.410 E49.69762
G1 X109.459 Y139.249 E49.71036
G1 X108.382 Y139.005 E49.76545
G0 F9000 X106.911 Y125.923
G0 X107.775 Y121.268
G0 X108.849 Y118.976
G0 X111.836 Y115.304
G0 X113.879 Y113.805
G0 X118.320 Y112.003
G0 X123.093 Y111.736
G0 X127.748 Y113.053
G0 X132.585 Y112.486
G1 F1200 X133.343 Y113.089 E49.81377
G1 X133.540 Y113.249 E49.82643
G1 X134.618 Y113.495 E49.88160
G1 X139.136 Y113.500 E50.10700
G1 X139.363 Y113.500 E50.11833
G1 X140.229 Y113.302 E50.16265
G1 X140.467 Y113.240 E50.17492
G1 X141.229 Y112.633 E50.22352
G1 X141.422 Y112.476 E50.23593
G1 X141.841 Y111.604 E50.28420
G1 X141.956 Y111.375 E50.29698
G1 X141.956 Y110.132 E50.35900
G1 X141.525 Y109.236 E50.40860
G1 X141.414 Y109.013 E50.42103
G1 X140.656 Y108.410 E50.46935
G1 X140.458 Y108.250 E50.48205
G1 X139.382 Y108.005 E50.53711
G1 X134.864 Y108.000 E50.76251
G1 X134.638 Y108.000 E50.77379
G1 X133.771 Y108.197 E50.81815
G1 X133.532 Y108.259 E50.83046
G1 X132.770 Y108.866 E50.87907
G1 X132.577 Y109.023 E50.89148
G1 X132.158 Y109.895 E50.93975
G1 X132.043 Y110.124 E50.95253
G1 X132.043 Y111.367 E51.01454
G1 X132.474 Y112.263 E51.06415
G1 X132.585 Y112.486 E51.07658
G0 F9000 X132.833 Y112.087
G1 F1200 X132.904 Y112.228 E51.08445
G1 X133.596 Y112.779 E51.12858
G1 X133.720 Y112.880 E51.13656
G1 X134.663 Y113.095 E51.18482
G1 X139.317 Y113.100 E51.41701
G1 X140.133 Y112.914 E51.45876
G1 X140.284 Y112.874 E51.46655
G1 X140.978 Y112.322 E51.51079
G1 X141.101 Y112.222 E51.51870
G1 X141.484 Y111.425 E51.56282
G1 X141.556 Y111.281 E51.57085
G1 X141.556 Y110.223 E51.62363
G1 X141.166 Y109.412 E51.66853
G1 X141.095 Y109.271 E51.67641
G1 X140.399 Y108.717 E51.72079
G1 X140.279 Y108.619 E51.72852
G1 X139.337 Y108.405 E51.77671
G1 X134.683 Y108.400 E52.00890
G1 X133.866 Y108.585 E52.05069
G1 X133.715 Y108.625 E52.05849
G1 X133.021 Y109.177 E52.10273
G1 X132.898 Y109.277 E52.11063
G1 X132.515 Y110.074 E52.15475
G1 X132.443 Y110.218 E52.16278
G1 X132.443 Y111.276 E52.21557
G1 X132.833 Y112.087 E52.26046
G0 F9000 X129.895 Y114.309
G1 F1200 X127.844 Y113.108 E52.37904
G1 X127.749 Y113.052 E52.38454
G1 X125.530 Y112.220 E52.50277
G1 X123.205 Y111.758 E52.62104
G1 X123.094 Y111.735 E52.62669
G1 X120.776 Y111.675 E52.74238
G1 X120.665 Y111.672 E52.74792
G1 X118.319 Y112.003 E52.86612
G1 X116.002 Y112.727 E52.98723
G1 X113.879 Y113.804 E53.10599
G1 X113.782 Y113.855 E53.11146
G1 X111.836 Y115.304 E53.23250
G1 X110.230 Y116.978 E53.34824
G1 X110.155 Y117.058 E53.35371
G1 X108.848 Y118.976 E53.46950
G1 X108.787 Y119.066 E53.47493
G1 X107.821 Y121.167 E53.59030
G1 X107.774 Y121.268 E53.59585
G1 X107.168 Y123.505 E53.71148
G1 X107.138 Y123.613 E53.71707
G1 X106.911 Y125.921 E53.83278
G1 X106.900 Y126.031 E53.83829
G1 X107.066 Y128.455 E53.95951
G1 X107.606 Y130.712 E54.07529
G1 X107.632 Y130.818 E54.08073
G1 X108.580 Y133.052 E54.20181
G1 X109.886 Y135.100 E54.32299
G1 X111.437 Y136.817 E54.43843
G1 X111.511 Y136.901 E54.44401
G1 X113.150 Y138.199 E54.54832
G1 X113.150 Y143.700 E54.82276
G1 X112.977 Y144.799 E54.87827
G1 X112.495 Y145.745 E54.93124
G1 X111.746 Y146.494 E54.98408
G1 X110.800 Y146.976 E55.03705
G1 X109.700 Y147.150 E55.09261
G1 X102.800 Y147.150 E55.43686
G1 X101.701 Y146.976 E55.49237
G1 X100.755 Y146.494 E55.54534
G1 X100.006 Y145.745 E55.59818
G1 X99.524 Y144.799 E55.65115
G1 X99.350 Y143.700 E55.70667
G1 X99.350 Y131.703 E56.30520
G1 X99.153 Y130.450 E56.36848
G1 X99.132 Y130.325 E56.37480
G1 X98.534 Y129.148 E56.44067
G1 X98.474 Y129.036 E56.44701
G1 X97.459 Y128.021 E56.51862
G1 X96.287 Y127.425 E56.58422
G1 X96.181 Y127.368 E56.59022
G1 X94.797 Y127.150 E56.66012
G1 X78.800 Y127.150 E57.45822
G1 X77.701 Y126.976 E57.51373
G1 X76.755 Y126.494 E57.56670
G1 X76.006 Y125.745 E57.61954
G1 X75.524 Y124.799 E57.67251
G1 X75.350 Y123.700 E57.72802
G1 X75.350 Y111.827 E58.32037
G1 X75.857 Y112.776 E58.37405
G1 X77.166 Y114.409 E58.47846
G1 X77.234 Y114.493 E58.48386
G1 X78.823 Y115.855 E58.58827
G1 X78.906 Y115.926 E58.59372
G1 X80.713 Y116.966 E58.69773
G1 X80.810 Y117.023 E58.70335
G1 X82.781 Y117.713 E58.80753
G1 X82.886 Y117.751 E58.81310
G1 X84.957 Y118.066 E58.91761
G1 X85.065 Y118.083 E58.92307
G1 X87.156 Y118.009 E59.02745
G1 X87.265 Y118.004 E59.03290
G1 X89.309 Y117.546 E59.13740
G1 X89.415 Y117.521 E59.14284
G1 X91.335 Y116.693 E59.24715
G1 X91.434 Y116.650 E59.25254
G1 X93.157 Y115.490 E59.35616
G1 X93.245 Y115.432 E59.36142
G1 X94.731 Y113.970 E59.46542
G1 X94.808 Y113.894 E59.47082
G1 X96.058 Y112.102 E59.57983
G1 X96.913 Y110.207 E59.68355
G1 X96.957 Y110.110 E59.68886
G1 X97.449 Y108.088 E59.79268
G1 X97.475 Y107.986 E59.79793
G1 X97.588 Y105.909 E59.90171
G1 X97.594 Y105.800 E59.90715
G1 X97.324 Y103.737 E60.01096
G1 X97.309 Y103.630 E60.01635
G1 X96.650 Y101.603 E60.12268
G1 X95.637 Y99.728 E60.22901
G1 X95.584 Y99.632 E60.23448
G1 X94.268 Y98.021 E60.33826
