;Generated from FAN-DUCT.stl 816a820e8fe4c9acde5039e3e0a26cdffb135ca0
;Generated with Cura_SteamEngine 15.04
M140 S55.0
M109 T0 S210.0
T0
M190 S55.0

;Basic settings: Layer height: 0.2 Walls: 1.2 Fill: 20
;Print time: ?print_time?
;Filament used: ?filament_amount?m ?filament_weight?g
;Filament cost: ?filament_cost?
;M190 S55 ;Uncomment to add your own bed temperature line
;M109 S210 ;Uncomment to add your own temperature line
G21        ;metric values
G90        ;absolute positioning
M82        ;set extruder to absolute mode
M107       ;start with the fan off
G28 X0 Y0  ;move X/Y to min endstops
G28 Z0     ;move Z to min endstops
G1 Z5.0 F9000 ;move the platform down 15mm
G92 E0                  ;zero the extruded length
G1 F200 E3              ;extrude 3mm of feed stock
G92 E0                  ;zero the extruded length again
G1 F9000
;Put printing message on LCD screen
M117 Printing...

;Layer count: 152
;LAYER:0
M107
G0 F9000 X77.951 Y79.332 Z0.300
;TYPE:SKIRT
G1 F1200 X79.332 Y77.951 E0.09744
G1 X81.072 Y77.064 E0.19487
G1 X82.750 Y76.800 E0.27962
G1 X116.631 Y76.800 E1.96995
G1 X117.344 Y76.814 E2.00553
G1 X118.928 Y77.065 E2.08554
G1 X120.667 Y77.951 E2.18291
G1 X122.048 Y79.332 E2.28035
G1 X122.934 Y81.071 E2.37772
G1 X123.200 Y82.748 E2.46243
G1 X123.200 Y116.631 E4.15286
G1 X123.186 Y117.345 E4.18849
G1 X122.934 Y118.930 E4.26856
G1 X122.048 Y120.667 E4.36584
G1 X120.667 Y122.048 E4.46328
G1 X118.929 Y122.934 E4.56060
G1 X117.252 Y123.200 E4.64531
G1 X83.369 Y123.200 E6.33574
G1 X82.655 Y123.186 E6.37137
G1 X81.070 Y122.934 E6.45144
G1 X79.332 Y122.048 E6.54877
G1 X77.951 Y120.667 E6.64620
G1 X77.064 Y118.927 E6.74364
G1 X76.800 Y117.250 E6.82834
G1 X76.800 Y83.369 E8.51867
G1 X76.814 Y82.657 E8.55420
G1 X77.064 Y81.071 E8.63430
G1 X77.951 Y79.332 E8.73169
G1 F2400 E4.23169
G0 F9000 X82.433 Y118.385
;TYPE:FILL
G1 F2400 E8.73169
G1 F1200 X82.186 Y118.632 E8.74912
G0 F9000 X85.377 Y117.914
G0 X86.070 Y117.132
G0 X86.356 Y116.124
G0 X84.248 Y109.868
G0 X82.153 Y105.240
G0 X81.399 Y99.999
G0 X82.153 Y94.759
G0 X84.352 Y89.943
G0 X87.819 Y85.942
G0 X92.272 Y83.080
G0 X97.352 Y81.589
G0 X102.647 Y81.589
G0 X107.727 Y83.080
G0 X112.180 Y85.942
G0 X116.403 Y86.325
G0 X117.377 Y85.914
G0 X118.070 Y85.132
G0 X118.356 Y84.124
G0 X118.380 Y82.438
G1 F1200 X118.631 Y82.187 E8.76683
G0 F9000 X118.890 Y82.384
;TYPE:WALL-INNER
G1 F1200 X119.000 Y83.080 E8.80198
G1 X119.000 Y99.960 E9.64413
G1 X118.826 Y97.535 E9.76543
G1 X118.808 Y97.293 E9.77753
G1 X118.284 Y94.882 E9.90063
G1 X118.232 Y94.644 E9.91278
G1 X117.285 Y92.106 E10.04793
G1 X116.102 Y89.939 E10.17110
G1 X115.985 Y89.725 E10.18327
G1 X114.507 Y87.751 E10.30630
G1 X114.361 Y87.556 E10.31845
G1 X112.444 Y85.638 E10.45374
G1 X110.468 Y84.159 E10.57688
G1 X110.272 Y84.013 E10.58907
G1 X108.107 Y82.831 E10.71214
G1 X107.895 Y82.715 E10.72419
G1 X105.353 Y81.767 E10.85955
G1 X102.944 Y81.244 E10.98253
G1 X102.705 Y81.191 E10.99474
G1 X100.247 Y81.016 E11.11768
G1 X100.041 Y81.000 E11.12799
G1 X116.580 Y81.000 E11.95313
G1 X116.972 Y81.008 E11.97269
G1 X117.615 Y81.109 E12.00516
G1 X118.168 Y81.391 E12.03613
G1 X118.608 Y81.831 E12.06717
G1 X118.890 Y82.384 E12.09814
G0 F9000 X118.607 Y83.202
G1 F1200 X118.559 Y82.926 E12.11212
G1 X118.002 Y82.148 E12.15986
G1 X117.838 Y81.920 E12.17387
G1 X117.000 Y81.463 E12.22149
G1 X116.754 Y81.329 E12.23547
G1 X115.801 Y81.280 E12.28307
G1 X115.525 Y81.264 E12.29687
G1 X114.635 Y81.637 E12.34501
G1 X114.377 Y81.749 E12.35904
G1 X113.749 Y82.460 E12.40637
G1 X113.565 Y82.666 E12.42015
G1 X113.309 Y83.573 E12.46717
G1 X113.226 Y83.849 E12.48155
G1 X113.392 Y84.796 E12.52951
G1 X113.440 Y85.073 E12.54354
G1 X113.997 Y85.851 E12.59128
G1 X114.161 Y86.079 E12.60529
G1 X114.999 Y86.536 E12.65291
G1 X115.245 Y86.670 E12.66688
G1 X116.198 Y86.719 E12.71449
G1 X116.474 Y86.735 E12.72829
G1 X117.364 Y86.362 E12.77643
G1 X117.622 Y86.250 E12.79046
G1 X118.250 Y85.539 E12.83779
G1 X118.434 Y85.333 E12.85157
G1 X118.690 Y84.426 E12.89859
G1 X118.773 Y84.150 E12.91297
G1 X118.607 Y83.202 E12.96098
G0 F9000 X118.984 Y100.247
G1 F1200 X119.000 Y100.041 E12.97129
G1 X119.000 Y116.580 E13.79642
G1 X118.992 Y116.971 E13.81594
G1 X118.890 Y117.615 E13.84847
G1 X118.608 Y118.168 E13.87944
G1 X118.168 Y118.608 E13.91048
G1 X117.615 Y118.890 E13.94145
G1 X116.919 Y119.000 E13.97660
G1 X100.040 Y119.000 E14.81870
G1 X102.464 Y118.826 E14.93995
G1 X102.706 Y118.808 E14.95205
G1 X105.117 Y118.284 E15.07515
G1 X105.355 Y118.232 E15.08730
G1 X107.893 Y117.285 E15.22245
G1 X110.060 Y116.102 E15.34562
G1 X110.274 Y115.985 E15.35779
G1 X112.248 Y114.507 E15.48082
G1 X112.443 Y114.361 E15.49297
G1 X114.361 Y112.444 E15.62826
G1 X115.840 Y110.468 E15.75140
G1 X115.986 Y110.272 E15.76359
G1 X117.166 Y108.110 E15.88648
G1 X117.284 Y107.895 E15.89871
G1 X118.232 Y105.353 E16.03407
G1 X118.755 Y102.944 E16.15705
G1 X118.808 Y102.705 E16.16926
G1 X118.984 Y100.247 E16.29221
G0 F9000 X116.754 Y113.329
G1 F1200 X115.801 Y113.280 E16.33982
G1 X115.525 Y113.264 E16.35361
G1 X114.635 Y113.637 E16.40175
G1 X114.377 Y113.749 E16.41579
G1 X113.749 Y114.460 E16.46311
G1 X113.565 Y114.666 E16.47689
G1 X113.309 Y115.573 E16.52391
G1 X113.226 Y115.849 E16.53829
G1 X113.392 Y116.796 E16.58626
G1 X113.440 Y117.073 E16.60028
G1 X113.997 Y117.851 E16.64802
G1 X114.161 Y118.079 E16.66203
G1 X114.999 Y118.536 E16.70965
G1 X115.245 Y118.670 E16.72363
G1 X116.198 Y118.719 E16.77124
G1 X116.474 Y118.735 E16.78503
G1 X117.364 Y118.362 E16.83317
G1 X117.622 Y118.250 E16.84720
G1 X118.250 Y117.539 E16.89453
G1 X118.434 Y117.333 E16.90831
G1 X118.690 Y116.426 E16.95533
G1 X118.773 Y116.150 E16.96971
G1 X118.607 Y115.202 E17.01772
G1 X118.559 Y114.926 E17.03170
G1 X118.002 Y114.148 E17.07944
G1 X117.838 Y113.920 E17.09345
G1 X117.000 Y113.463 E17.14107
G1 X116.754 Y113.329 E17.15505
G0 F9000 X105.030 Y117.893
G0 X102.433 Y118.427
G0 X99.753 Y118.984
G1 F1200 X99.959 Y119.000 E17.16535
G1 X83.420 Y119.000 E17.99049
G1 X83.029 Y118.992 E18.01000
G1 X82.384 Y118.890 E18.04258
G1 X81.831 Y118.608 E18.07355
G1 X81.391 Y118.168 E18.10459
G1 X81.109 Y117.615 E18.13556
G1 X81.000 Y116.920 E18.17066
G1 X81.000 Y100.040 E19.01281
G1 X81.173 Y102.463 E19.13400
G1 X81.191 Y102.706 E19.14615
G1 X81.715 Y105.117 E19.26925
G1 X81.767 Y105.355 E19.28140
G1 X82.714 Y107.893 E19.41655
G1 X83.897 Y110.060 E19.53972
G1 X84.014 Y110.274 E19.55189
G1 X85.492 Y112.248 E19.67492
G1 X85.638 Y112.443 E19.68707
G1 X87.555 Y114.361 E19.82236
G1 X89.531 Y115.840 E19.94550
G1 X89.727 Y115.986 E19.95770
G1 X91.892 Y117.168 E20.08076
G1 X92.104 Y117.284 E20.09281
G1 X94.646 Y118.232 E20.22817
G1 X97.055 Y118.755 E20.35115
G1 X97.294 Y118.808 E20.36337
G1 X99.753 Y118.984 E20.48636
G0 F9000 X86.690 Y116.426
G1 F1200 X86.773 Y116.150 E20.50074
G1 X86.607 Y115.202 E20.54875
G1 X86.559 Y114.926 E20.56273
G1 X86.002 Y114.148 E20.61047
G1 X85.838 Y113.920 E20.62448
G1 X85.000 Y113.463 E20.67210
G1 X84.754 Y113.329 E20.68608
G1 X83.801 Y113.280 E20.73368
G1 X83.525 Y113.264 E20.74748
G1 X82.635 Y113.637 E20.79562
G1 X82.377 Y113.749 E20.80965
G1 X81.749 Y114.460 E20.85698
G1 X81.565 Y114.666 E20.87076
G1 X81.309 Y115.573 E20.91778
G1 X81.226 Y115.849 E20.93216
G1 X81.392 Y116.796 E20.98012
G1 X81.440 Y117.073 E20.99415
G1 X81.997 Y117.851 E21.04189
G1 X82.161 Y118.079 E21.05590
G1 X82.999 Y118.536 E21.10352
G1 X83.245 Y118.670 E21.11750
G1 X84.198 Y118.719 E21.16510
G1 X84.474 Y118.735 E21.17890
G1 X85.364 Y118.362 E21.22704
G1 X85.622 Y118.250 E21.24107
G1 X86.250 Y117.539 E21.28840
G1 X86.434 Y117.333 E21.30218
G1 X86.690 Y116.426 E21.34920
G0 F9000 X82.106 Y105.030
G0 X81.399 Y99.999
G0 X82.153 Y94.759
G0 X84.352 Y89.943
G0 X84.474 Y86.735
G1 F1200 X85.364 Y86.362 E21.39734
G1 X85.622 Y86.250 E21.41137
G1 X86.250 Y85.539 E21.45870
G1 X86.434 Y85.333 E21.47248
G1 X86.690 Y84.426 E21.51950
G1 X86.773 Y84.150 E21.53388
G1 X86.607 Y83.202 E21.58190
G1 X86.559 Y82.926 E21.59587
G1 X86.002 Y82.148 E21.64361
G1 X85.838 Y81.920 E21.65762
G1 X85.000 Y81.463 E21.70524
G1 X84.754 Y81.329 E21.71922
G1 X83.801 Y81.280 E21.76682
G1 X83.525 Y81.264 E21.78062
G1 X82.635 Y81.637 E21.82876
G1 X82.377 Y81.749 E21.84279
G1 X81.749 Y82.460 E21.89012
G1 X81.565 Y82.666 E21.90390
G1 X81.309 Y83.573 E21.95092
G1 X81.226 Y83.849 E21.96530
G1 X81.392 Y84.796 E22.01327
G1 X81.440 Y85.073 E22.02729
G1 X81.997 Y85.851 E22.07503
G1 X82.161 Y86.079 E22.08904
G1 X82.999 Y86.536 E22.13666
G1 X83.245 Y86.670 E22.15064
G1 X84.198 Y86.719 E22.19824
G1 X84.474 Y86.735 E22.21204
G0 F9000 X85.638 Y87.555
G1 F1200 X84.159 Y89.531 E22.33518
G1 X84.013 Y89.727 E22.34737
G1 X82.833 Y91.889 E22.47025
G1 X82.715 Y92.104 E22.48249
G1 X81.767 Y94.646 E22.61784
G1 X81.244 Y97.055 E22.74083
G1 X81.191 Y97.294 E22.75304
G1 X81.016 Y99.753 E22.87603
G1 X81.000 Y99.959 E22.88634
G1 X81.000 Y83.420 E23.71147
G1 X81.008 Y83.028 E23.73103
G1 X81.109 Y82.384 E23.76355
G1 X81.391 Y81.831 E23.79452
G1 X81.831 Y81.391 E23.82557
G1 X82.384 Y81.109 E23.85654
G1 X83.079 Y81.000 E23.89164
G1 X99.960 Y81.000 E24.73383
G1 X97.536 Y81.173 E24.85507
G1 X97.293 Y81.191 E24.86723
G1 X94.882 Y81.715 E24.99032
G1 X94.644 Y81.767 E25.00248
G1 X92.106 Y82.714 E25.13763
G1 X89.939 Y83.897 E25.26080
G1 X89.725 Y84.014 E25.27297
G1 X87.751 Y85.492 E25.39600
G1 X87.556 Y85.638 E25.40815
G1 X85.638 Y87.555 E25.54344
G0 F9000 X85.941 Y87.818
G1 F1200 X84.351 Y89.943 E25.67585
G1 X83.183 Y92.082 E25.79744
G1 X83.079 Y92.271 E25.80820
G1 X82.152 Y94.759 E25.94066
G1 X81.634 Y97.141 E26.06228
G1 X81.588 Y97.352 E26.07305
G1 X81.415 Y99.784 E26.19469
G1 X81.398 Y99.999 E26.20545
G1 X81.572 Y102.434 E26.32724
G1 X81.588 Y102.648 E26.33795
G1 X82.106 Y105.031 E26.45961
G1 X82.152 Y105.241 E26.47034
G1 X83.079 Y107.727 E26.60271
G1 X84.248 Y109.868 E26.72441
G1 X84.351 Y110.057 E26.73515
G1 X85.941 Y112.181 E26.86752
G1 X87.818 Y114.058 E26.99995
G1 X89.943 Y115.648 E27.13236
G1 X92.082 Y116.816 E27.25395
G1 X92.271 Y116.920 E27.26471
G1 X94.759 Y117.847 E27.39717
G1 X97.141 Y118.365 E27.51879
G1 X97.352 Y118.411 E27.52956
G1 X99.784 Y118.585 E27.65120
G1 X99.999 Y118.602 E27.66196
G1 X102.434 Y118.427 E27.78376
G1 X102.648 Y118.411 E27.79447
G1 X105.031 Y117.893 E27.91613
G1 X105.241 Y117.847 E27.92686
G1 X107.727 Y116.920 E28.05923
G1 X109.868 Y115.751 E28.18093
G1 X110.057 Y115.648 E28.19166
G1 X112.181 Y114.058 E28.32403
G1 X114.058 Y112.181 E28.45647
G1 X115.648 Y110.056 E28.58887
G1 X116.816 Y107.917 E28.71046
G1 X116.920 Y107.728 E28.72122
G1 X117.847 Y105.240 E28.85369
G1 X118.365 Y102.858 E28.97530
G1 X118.411 Y102.647 E28.98608
G1 X118.585 Y100.216 E29.10767
G1 X118.602 Y100.001 E29.11843
G1 X118.427 Y97.565 E29.24028
G1 X118.411 Y97.351 E29.25098
G1 X117.893 Y94.968 E29.37265
G1 X117.847 Y94.758 E29.38337
G1 X116.920 Y92.272 E29.51574
G1 X115.751 Y90.131 E29.63744
G1 X115.648 Y89.942 E29.64818
G1 X114.058 Y87.818 E29.78055
G1 X112.181 Y85.941 E29.91298
G1 X110.056 Y84.351 E30.04539
G1 X107.915 Y83.182 E30.16709
G1 X107.728 Y83.079 E30.17774
G1 X105.240 Y82.152 E30.31020
G1 X102.858 Y81.634 E30.43182
G1 X102.647 Y81.588 E30.44259
G1 X100.216 Y81.415 E30.56418
G1 X100.001 Y81.398 E30.57494
G1 X97.565 Y81.572 E30.69679
G1 X97.351 Y81.588 E30.70749
G1 X94.968 Y82.106 E30.82916
G1 X94.758 Y82.152 E30.83988
G1 X92.272 Y83.079 E30.97225
G1 X90.131 Y84.248 E31.09395
G1 X89.942 Y84.351 E31.10469
G1 X87.818 Y85.941 E31.23706
G1 X85.941 Y87.818 E31.36949
G0 F9000 X85.207 Y85.995
G1 F1200 X85.381 Y85.919 E31.37896
G1 X85.947 Y85.278 E31.42163
G1 X86.075 Y85.135 E31.43120
G1 X86.307 Y84.311 E31.47391
G1 X86.362 Y84.125 E31.48359
G1 X86.213 Y83.271 E31.52684
G1 X86.181 Y83.084 E31.53630
G1 X85.677 Y82.382 E31.57941
G1 X85.566 Y82.228 E31.58889
G1 X84.809 Y81.814 E31.63193
G1 X84.643 Y81.724 E31.64135
G1 X83.785 Y81.680 E31.68421
G1 X83.594 Y81.669 E31.69376
G1 X82.792 Y82.004 E31.73712
G1 X82.618 Y82.080 E31.74659
G1 X82.052 Y82.721 E31.78926
G1 X81.924 Y82.864 E31.79883
G1 X81.692 Y83.688 E31.84154
G1 X81.637 Y83.874 E31.85122
G1 X81.786 Y84.727 E31.89442
G1 X81.818 Y84.915 E31.90393
G1 X82.322 Y85.617 E31.94705
G1 X82.433 Y85.771 E31.95652
G1 X83.190 Y86.185 E31.99956
G1 X83.356 Y86.275 E32.00898
G1 X84.214 Y86.319 E32.05185
G1 X84.405 Y86.330 E32.06139
G1 X85.207 Y85.995 E32.10475
G0 F9000 X84.215 Y86.318
G0 X83.357 Y86.270
G0 X82.322 Y85.616
G0 X81.824 Y84.913
G0 X80.600 Y83.412
G1 F1200 X80.608 Y82.994 E32.12561
G1 X80.724 Y82.259 E32.16273
G1 X81.064 Y81.592 E32.20008
G1 X81.592 Y81.064 E32.23734
G1 X82.259 Y80.724 E32.27469
G1 X83.049 Y80.600 E32.31458
G1 X116.588 Y80.600 E33.98785
G1 X117.006 Y80.608 E34.00871
G1 X117.740 Y80.724 E34.04578
G1 X118.407 Y81.064 E34.08313
G1 X118.935 Y81.592 E34.12039
G1 X119.275 Y82.259 E34.15774
G1 X119.400 Y83.050 E34.19769
G1 X119.400 Y116.588 E35.87091
G1 X119.392 Y117.006 E35.89177
G1 X119.275 Y117.740 E35.92885
G1 X118.935 Y118.407 E35.96620
G1 X118.407 Y118.935 E36.00345
G1 X117.740 Y119.275 E36.04080
G1 X116.950 Y119.400 E36.08071
G1 X83.412 Y119.400 E37.75392
G1 X82.994 Y119.392 E37.77478
G1 X82.259 Y119.275 E37.81191
G1 X81.592 Y118.935 E37.84926
G1 X81.064 Y118.407 E37.88652
G1 X80.724 Y117.740 E37.92387
G1 X80.600 Y116.951 E37.96371
G1 X80.600 Y83.412 E39.63698
G0 F9000 X81.589 Y102.647
G0 X82.153 Y105.240
G0 X83.594 Y113.669
G1 F1200 X82.792 Y114.004 E39.68034
G1 X82.618 Y114.080 E39.68982
G1 X82.052 Y114.721 E39.73248
G1 X81.924 Y114.864 E39.74205
G1 X81.692 Y115.688 E39.78476
G1 X81.637 Y115.874 E39.79444
G1 X81.786 Y116.727 E39.83764
G1 X81.818 Y116.915 E39.84715
G1 X82.322 Y117.617 E39.89027
G1 X82.433 Y117.771 E39.89974
G1 X83.190 Y118.185 E39.94278
G1 X83.356 Y118.275 E39.95221
G1 X84.214 Y118.319 E39.99507
G1 X84.405 Y118.330 E40.00461
G1 X85.207 Y117.995 E40.04797
G1 X85.381 Y117.919 E40.05745
G1 X85.947 Y117.278 E40.10011
G1 X86.075 Y117.135 E40.10968
G1 X86.307 Y116.311 E40.15239
G1 X86.362 Y116.125 E40.16207
G1 X86.213 Y115.271 E40.20532
G1 X86.181 Y115.084 E40.21478
G1 X85.677 Y114.382 E40.25790
G1 X85.566 Y114.228 E40.26737
G1 X84.809 Y113.814 E40.31042
G1 X84.643 Y113.724 E40.31984
G1 X83.785 Y113.680 E40.36270
G1 X83.594 Y113.669 E40.37224
G0 F9000 X87.871 Y113.982
G0 X89.943 Y115.647
G0 X94.759 Y117.846
G0 X99.999 Y118.601
G0 X105.240 Y117.846
G0 X107.727 Y116.919
G0 X113.637 Y115.874
G1 F1200 X113.786 Y116.727 E40.41544
G1 X113.818 Y116.915 E40.42496
G1 X114.322 Y117.617 E40.46807
G1 X114.433 Y117.771 E40.47754
G1 X115.190 Y118.185 E40.52059
G1 X115.356 Y118.275 E40.53001
G1 X116.214 Y118.319 E40.57287
G1 X116.405 Y118.330 E40.58242
G1 X117.207 Y117.995 E40.62578
G1 X117.381 Y117.919 E40.63525
G1 X117.947 Y117.278 E40.67791
G1 X118.075 Y117.135 E40.68749
G1 X118.307 Y116.311 E40.73020
G1 X118.362 Y116.125 E40.73987
G1 X118.213 Y115.271 E40.78312
G1 X118.181 Y115.084 E40.79259
G1 X117.677 Y114.382 E40.83570
G1 X117.566 Y114.228 E40.84517
G1 X116.809 Y113.814 E40.88822
G1 X116.643 Y113.724 E40.89764
G1 X115.785 Y113.680 E40.94050
G1 X115.594 Y113.669 E40.95005
G1 X114.792 Y114.004 E40.99341
G1 X114.618 Y114.080 E41.00288
G1 X114.052 Y114.721 E41.04554
G1 X113.924 Y114.864 E41.05512
G1 X113.692 Y115.688 E41.09783
G1 X113.637 Y115.874 E41.10750
G0 F9000 X117.846 Y105.240
G0 X118.601 Y100.001
G0 X117.846 Y94.759
G0 X116.919 Y92.272
G0 X116.214 Y86.319
G1 F1200 X116.405 Y86.330 E41.11705
G1 X117.207 Y85.995 E41.16041
G1 X117.381 Y85.919 E41.16988
G1 X117.947 Y85.278 E41.21255
G1 X118.075 Y85.135 E41.22212
G1 X118.307 Y84.311 E41.26483
G1 X118.362 Y84.125 E41.27451
G1 X118.213 Y83.271 E41.31776
G1 X118.181 Y83.084 E41.32722
G1 X117.677 Y82.382 E41.37034
G1 X117.566 Y82.228 E41.37981
G1 X116.809 Y81.814 E41.42285
G1 X116.643 Y81.724 E41.43227
G1 X115.785 Y81.680 E41.47513
G1 X115.594 Y81.669 E41.48468
G1 X114.792 Y82.004 E41.52804
G1 X114.618 Y82.080 E41.53751
G1 X114.052 Y82.721 E41.58018
G1 X113.924 Y82.864 E41.58975
G1 X113.692 Y83.688 E41.63246
G1 X113.637 Y83.874 E41.64214
G1 X113.786 Y84.727 E41.68534
G1 X113.818 Y84.915 E41.69485
G1 X114.322 Y85.617 E41.73797
G1 X114.433 Y85.771 E41.74744
G1 X115.190 Y86.185 E41.79048
