;Generated from WADE-BIG-GEAR.tmp.1505473722827.stl 487fc5320e920a22acacc86bcfd14409c4d974de
;Generated with Cura_SteamEngine 15.04
M140 S55.0
M109 T0 S210.0
T0
M190 S55.0

;Basic settings: Layer height: 0.15 Walls: 1.2 Fill: 50
;Print time: ?print_time?
;Filament used: ?filament_amount?m ?filament_weight?g
;Filament cost: ?filament_cost?
;M190 S55 ;Uncomment to add your own bed temperature line
;M109 S210 ;Uncomment to add your own temperature line
G21        ;metric values
G90        ;absolute positioning
M82        ;set extruder to absolute mode
M107       ;start with the fan off
;G28 X0 Y0  ;move X/Y to min endstops
;G28 Z0     ;move Z to min endstops
;G1 Z5.0 F9000 ;move the platform down 15mm
G92 E0                  ;zero the extruded length
G1 F200 E3              ;extrude 3mm of feed stock
G92 E0                  ;zero the extruded length again
G1 F9000
;Put printing message on LCD screen
M117 Printing...

;Layer count: 59
;LAYER:0
M107
G0 F9000 X71.569 Y74.170 Z0.300
G0 X71.578 Y74.171
;TYPE:SKIRT
G1 F1200 X73.614 Y72.210 E0.14103
G1 X75.190 Y70.706 E0.24971
G1 X75.184 Y70.642 E0.25292
G1 X75.475 Y70.434 E0.27077
G1 X75.612 Y70.303 E0.28022
G1 X75.645 Y70.312 E0.28193
G1 X77.929 Y68.678 E0.42204
G1 X79.773 Y67.351 E0.53538
G1 X79.775 Y67.322 E0.53683
G1 X79.907 Y67.254 E0.54424
G1 X80.178 Y67.059 E0.56090
G1 X80.236 Y67.085 E0.56407
G1 X82.722 Y65.804 E0.70359
G1 X84.695 Y64.781 E0.81447
G1 X84.703 Y64.743 E0.81641
G1 X84.894 Y64.678 E0.82647
G1 X85.181 Y64.529 E0.84261
G1 X85.233 Y64.562 E0.84568
G1 X87.888 Y63.656 E0.98564
G1 X90.011 Y62.924 E1.09767
G1 X90.026 Y62.885 E1.09976
G1 X90.234 Y62.847 E1.11031
G1 X90.504 Y62.754 E1.12455
G1 X90.546 Y62.790 E1.12731
G1 X93.263 Y62.294 E1.26510
G1 X95.539 Y61.839 E1.38090
G1 X95.542 Y61.834 E1.38119
G1 X95.570 Y61.833 E1.38259
G1 X96.000 Y61.747 E1.40447
G1 X96.060 Y61.816 E1.40903
G1 X98.812 Y61.720 E1.54641
G1 X101.588 Y61.535 E1.68521
G1 X101.671 Y61.664 E1.69287
G1 X104.506 Y61.969 E1.83512
G1 X106.590 Y62.247 E1.94001
G1 X106.667 Y62.170 E1.94545
G1 X109.976 Y63.030 E2.11602
G1 X112.089 Y63.613 E2.22537
G1 X112.148 Y63.571 E2.22899
G1 X112.547 Y63.739 E2.25059
G1 X112.643 Y63.766 E2.25556
G1 X112.648 Y63.782 E2.25640
G1 X115.226 Y64.871 E2.39602
G1 X117.180 Y65.709 E2.50209
G1 X117.238 Y65.676 E2.50542
G1 X117.557 Y65.870 E2.52405
G1 X117.780 Y65.966 E2.53616
G1 X117.786 Y66.010 E2.53838
G1 X120.183 Y67.471 E2.67843
G1 X122.062 Y68.627 E2.78849
G1 X122.120 Y68.607 E2.79155
G1 X122.375 Y68.819 E2.80809
G1 X122.543 Y68.923 E2.81795
G1 X122.542 Y68.959 E2.81975
G1 X124.700 Y70.759 E2.95995
G1 X126.361 Y72.143 E3.06781
G1 X126.414 Y72.132 E3.07051
G1 X126.611 Y72.351 E3.08521
G1 X126.828 Y72.532 E3.09931
G1 X126.820 Y72.583 E3.10188
G1 X128.688 Y74.663 E3.24136
G1 X130.190 Y76.307 E3.35246
G1 X130.215 Y76.306 E3.35370
G1 X130.284 Y76.411 E3.35997
G1 X130.552 Y76.704 E3.37978
G1 X130.528 Y76.780 E3.38376
G1 X132.082 Y79.134 E3.52448
G1 X133.286 Y80.976 E3.63427
G1 X133.349 Y80.982 E3.63743
G1 X133.497 Y81.297 E3.65479
G1 X133.598 Y81.452 E3.66402
G1 X133.583 Y81.482 E3.66569
G1 X134.776 Y84.027 E3.80592
G1 X135.720 Y86.059 E3.91771
G1 X135.773 Y86.073 E3.92044
G1 X135.859 Y86.358 E3.93529
G1 X135.943 Y86.540 E3.94529
G1 X135.922 Y86.570 E3.94712
G1 X136.730 Y89.261 E4.08730
G1 X137.394 Y91.400 E4.19903
G1 X137.416 Y91.409 E4.20022
G1 X137.433 Y91.528 E4.20622
G1 X137.547 Y91.894 E4.22534
G1 X137.495 Y91.950 E4.22916
G1 X137.889 Y94.647 E4.36514
G1 X138.353 Y97.430 E4.50590
G1 X138.265 Y97.501 E4.51154
G1 X138.265 Y102.555 E4.76368
G1 X138.298 Y102.583 E4.76584
G1 X138.265 Y102.807 E4.77714
G1 X138.265 Y103.074 E4.79046
G1 X138.222 Y103.099 E4.79294
G1 X137.495 Y108.037 E5.04196
G1 X137.530 Y108.075 E5.04453
G1 X137.450 Y108.340 E5.05834
G1 X137.410 Y108.614 E5.07216
G1 X137.362 Y108.634 E5.07475
G1 X135.924 Y113.422 E5.32417
G1 X135.952 Y113.463 E5.32664
G1 X135.839 Y113.703 E5.33988
G1 X135.756 Y113.981 E5.35435
G1 X135.703 Y113.994 E5.35708
G1 X133.580 Y118.525 E5.60671
G1 X133.600 Y118.566 E5.60899
G1 X133.466 Y118.769 E5.62112
G1 X133.338 Y119.042 E5.63617
G1 X133.282 Y119.047 E5.63897
G1 X130.540 Y123.202 E5.88733
G1 X130.558 Y123.257 E5.89022
G1 X130.358 Y123.479 E5.90513
G1 X130.215 Y123.695 E5.91805
G1 X130.166 Y123.692 E5.92050
G1 X126.869 Y127.361 E6.16660
G1 X126.880 Y127.423 E6.16974
G1 X126.611 Y127.647 E6.18720
G1 X126.436 Y127.842 E6.20027
G1 X126.389 Y127.833 E6.20266
G1 X122.571 Y131.017 E6.45069
G1 X122.572 Y131.072 E6.45343
G1 X122.323 Y131.224 E6.46799
G1 X122.107 Y131.404 E6.48201
G1 X122.057 Y131.386 E6.48466
G1 X117.783 Y133.993 E6.73443
G1 X117.775 Y134.052 E6.73740
G1 X117.486 Y134.174 E6.75305
G1 X117.291 Y134.293 E6.76445
G1 X117.253 Y134.273 E6.76659
G1 X112.647 Y136.218 E7.01603
G1 X112.631 Y136.276 E7.01904
G1 X112.316 Y136.358 E7.03528
G1 X112.113 Y136.444 E7.04627
G1 X112.080 Y136.420 E7.04831
G1 X107.235 Y137.684 E7.29812
G1 X107.212 Y137.736 E7.30096
G1 X106.909 Y137.769 E7.31616
G1 X106.679 Y137.829 E7.32802
G1 X106.647 Y137.797 E7.33028
G1 X101.669 Y138.339 E7.58010
G1 X101.641 Y138.383 E7.58270
G1 X101.356 Y138.373 E7.59693
G1 X101.096 Y138.401 E7.60998
G1 X101.067 Y138.362 E7.61240
G1 X96.062 Y138.181 E7.86226
G1 X96.034 Y138.214 E7.86442
G1 X95.805 Y138.172 E7.87604
G1 X95.498 Y138.161 E7.89136
G1 X95.471 Y138.111 E7.89420
G1 X90.548 Y137.209 E8.14390
G1 X90.512 Y137.240 E8.14627
G1 X90.274 Y137.159 E8.15881
G1 X89.991 Y137.107 E8.17317
G1 X89.972 Y137.056 E8.17588
G1 X85.233 Y135.438 E8.42571
G1 X85.188 Y135.467 E8.42838
G1 X84.935 Y135.337 E8.44257
G1 X84.693 Y135.254 E8.45534
G1 X84.683 Y135.207 E8.45773
G1 X80.236 Y132.916 E8.70731
G1 X80.186 Y132.938 E8.71003
G1 X79.945 Y132.765 E8.72483
G1 X79.723 Y132.651 E8.73728
G1 X79.720 Y132.605 E8.73958
G1 X75.647 Y129.689 E8.98950
G1 X75.601 Y129.702 E8.99188
G1 X75.415 Y129.523 E9.00476
G1 X75.186 Y129.359 E9.01881
G1 X75.191 Y129.307 E9.02142
G1 X71.579 Y125.830 E9.27155
G1 X71.532 Y125.836 E9.27391
G1 X71.380 Y125.639 E9.28632
G1 X71.171 Y125.438 E9.30079
G1 X71.184 Y125.385 E9.30351
G1 X68.121 Y121.420 E9.55348
G1 X68.074 Y121.419 E9.55582
G1 X67.951 Y121.200 E9.56836
G1 X67.778 Y120.976 E9.58248
G1 X67.798 Y120.927 E9.58512
G1 X65.343 Y116.559 E9.83510
G1 X65.294 Y116.551 E9.83757
G1 X65.200 Y116.306 E9.85067
G1 X65.065 Y116.065 E9.86445
G1 X65.091 Y116.020 E9.86704
G1 X63.305 Y111.345 E10.11672
G1 X63.255 Y111.329 E10.11934
G1 X63.194 Y111.057 E10.13324
G1 X63.097 Y110.802 E10.14686
G1 X63.129 Y110.762 E10.14941
G1 X62.040 Y105.877 E10.39911
G1 X61.998 Y105.856 E10.40145
G1 X61.979 Y105.604 E10.41406
G1 X61.917 Y105.324 E10.42837
G1 X61.956 Y105.288 E10.43101
G1 X61.588 Y100.300 E10.68054
G1 X61.549 Y100.273 E10.68291
G1 X61.567 Y100.019 E10.69561
G1 X61.546 Y99.729 E10.71012
G1 X61.591 Y99.698 E10.71285
G1 X61.798 Y96.841 E10.85576
G1 X62.007 Y94.759 E10.96015
G1 X61.919 Y94.677 E10.96615
G1 X62.657 Y91.355 E11.13593
G1 X63.146 Y89.256 E11.24345
G1 X63.098 Y89.195 E11.24732
G1 X63.258 Y88.775 E11.26974
G1 X63.285 Y88.661 E11.27559
G1 X63.304 Y88.655 E11.27658
G1 X64.304 Y86.039 E11.41631
G1 X65.087 Y83.975 E11.52644
G1 X65.064 Y83.935 E11.52874
G1 X65.182 Y83.726 E11.54072
G1 X65.287 Y83.448 E11.55554
G1 X65.343 Y83.439 E11.55837
G1 X66.720 Y80.990 E11.69854
G1 X67.791 Y79.061 E11.80862
G1 X67.778 Y79.028 E11.81039
G1 X67.892 Y78.881 E11.81967
G1 X68.058 Y78.581 E11.83678
G1 X68.124 Y78.579 E11.84007
G1 X69.857 Y76.332 E11.98164
G1 X71.191 Y74.647 E12.08886
G1 X71.171 Y74.563 E12.09317
G1 X71.537 Y74.211 E12.11850
G1 X71.569 Y74.170 E12.12110
G1 X71.578 Y74.171 E12.12155
G0 F9000 X71.625 Y74.743
G1 F1200 X71.613 Y74.692 E12.12416
G1 X73.891 Y72.499 E12.28192
G1 X75.605 Y70.862 E12.40017
G1 X75.603 Y70.835 E12.40152
G1 X78.162 Y69.003 E12.55853
G1 X80.225 Y67.517 E12.68537
G1 X80.248 Y67.527 E12.68663
G1 X82.905 Y66.159 E12.83572
G1 X82.905 Y66.160 E12.83577
G1 X85.047 Y65.049 E12.95616
G1 X85.047 Y65.048 E12.95621
G1 X85.053 Y65.046 E12.95652
G1 X85.161 Y64.990 E12.96259
G1 X85.181 Y65.002 E12.96375
G1 X88.004 Y64.040 E13.11255
G1 X88.004 Y64.039 E13.11260
G1 X90.320 Y63.241 E13.23481
G1 X90.321 Y63.238 E13.23497
G1 X90.336 Y63.235 E13.23573
G1 X90.418 Y63.207 E13.24005
G1 X90.431 Y63.218 E13.24090
G1 X93.357 Y62.683 E13.38930
G1 X95.851 Y62.185 E13.51618
G1 X95.884 Y62.222 E13.51866
G1 X98.820 Y62.121 E13.66522
G1 X101.378 Y61.950 E13.79313
G1 X101.436 Y62.041 E13.79851
G1 X104.458 Y62.366 E13.95015
G1 X106.733 Y62.670 E14.06466
G1 X106.788 Y62.615 E14.06854
G1 X109.872 Y63.417 E14.22752
G1 X112.167 Y64.050 E14.34629
G1 X112.199 Y64.027 E14.34826
G1 X115.069 Y65.239 E14.50368
G1 X117.203 Y66.153 E14.61950
G1 X117.229 Y66.139 E14.62098
G1 X117.368 Y66.224 E14.62911
G1 X117.413 Y66.243 E14.63154
G1 X117.414 Y66.252 E14.63199
G1 X119.974 Y67.812 E14.78156
G1 X122.014 Y69.067 E14.90105
G1 X122.038 Y69.059 E14.90231
G1 X124.444 Y71.066 E15.05863
G1 X126.254 Y72.574 E15.17617
G1 X126.270 Y72.571 E15.17698
G1 X126.331 Y72.639 E15.18153
G1 X126.396 Y72.693 E15.18575
G1 X126.393 Y72.708 E15.18651
G1 X128.366 Y74.904 E15.33380
G1 X130.100 Y76.803 E15.46209
G1 X130.088 Y76.840 E15.46403
G1 X131.748 Y79.354 E15.61433
G1 X133.057 Y81.354 E15.73359
G1 X133.083 Y81.357 E15.73489
G1 X134.413 Y84.196 E15.89130
G1 X135.436 Y86.398 E16.01244
G1 X135.455 Y86.403 E16.01342
G1 X136.334 Y89.336 E16.16617
G1 X137.096 Y91.792 E16.29447
G1 X137.072 Y91.818 E16.29623
G1 X137.503 Y94.769 E16.44502
G1 X137.920 Y97.265 E16.57127
G1 X137.865 Y97.309 E16.57479
G1 X137.865 Y102.744 E16.84594
G1 X137.869 Y102.747 E16.84619
G1 X137.865 Y102.774 E16.84755
G1 X137.865 Y102.845 E16.85109
G1 X137.854 Y102.852 E16.85174
G1 X137.072 Y108.170 E17.11991
G1 X137.081 Y108.180 E17.12058
G1 X137.060 Y108.251 E17.12428
G1 X137.048 Y108.330 E17.12826
G1 X137.034 Y108.336 E17.12902
G1 X135.486 Y113.490 E17.39751
G1 X135.493 Y113.500 E17.39811
G1 X135.466 Y113.559 E17.40135
G1 X135.439 Y113.647 E17.40594
G1 X135.422 Y113.651 E17.40682
G1 X133.137 Y118.528 E17.67551
G1 X133.141 Y118.536 E17.67596
G1 X133.115 Y118.575 E17.67830
G1 X133.073 Y118.665 E17.68325
G1 X133.055 Y118.667 E17.68415
G1 X130.100 Y123.142 E17.95170
G1 X130.106 Y123.161 E17.95269
G1 X130.037 Y123.238 E17.95785
G1 X130.007 Y123.283 E17.96055
G1 X129.997 Y123.282 E17.96105
G1 X126.439 Y127.240 E18.22657
G1 X126.444 Y127.266 E18.22789
G1 X126.332 Y127.359 E18.23515
G1 X126.291 Y127.405 E18.23823
G1 X126.280 Y127.403 E18.23879
G1 X122.166 Y130.834 E18.50605
G1 X122.166 Y130.851 E18.50689
G1 X122.087 Y130.899 E18.51151
G1 X122.026 Y130.950 E18.51547
G1 X122.012 Y130.945 E18.51621
G1 X117.411 Y133.751 E18.78508
G1 X117.408 Y133.773 E18.78619
G1 X117.300 Y133.819 E18.79204
G1 X117.278 Y133.832 E18.79332
G1 X117.274 Y133.830 E18.79354
G1 X112.314 Y135.925 E19.06217
G1 X112.308 Y135.947 E19.06330
G1 X112.187 Y135.979 E19.06955
G1 X112.167 Y135.987 E19.07062
G1 X112.164 Y135.985 E19.07080
G1 X106.949 Y137.345 E19.33968
G1 X106.941 Y137.363 E19.34066
G1 X106.835 Y137.374 E19.34598
G1 X106.799 Y137.384 E19.34784
G1 X106.794 Y137.379 E19.34820
G1 X101.435 Y137.962 E19.61714
G1 X101.427 Y137.975 E19.61790
G1 X101.344 Y137.972 E19.62204
G1 X101.280 Y137.979 E19.62525
G1 X101.273 Y137.969 E19.62586
G1 X95.886 Y137.774 E19.89480
G1 X95.882 Y137.779 E19.89512
G1 X95.849 Y137.773 E19.89679
G1 X95.741 Y137.769 E19.90218
G1 X95.731 Y137.751 E19.90321
G1 X90.433 Y136.780 E20.17193
G1 X90.425 Y136.787 E20.17246
G1 X90.375 Y136.770 E20.17509
G1 X90.288 Y136.754 E20.17951
G1 X90.282 Y136.738 E20.18036
G1 X85.182 Y134.998 E20.44920
G1 X85.168 Y135.007 E20.45003
G1 X85.088 Y134.966 E20.45452
G1 X85.039 Y134.949 E20.45710
G1 X85.037 Y134.940 E20.45756
G1 X80.249 Y132.472 E20.72631
G1 X80.233 Y132.479 E20.72718
G1 X80.158 Y132.425 E20.73179
G1 X80.109 Y132.400 E20.73453
G1 X80.108 Y132.390 E20.73503
G1 X75.725 Y129.253 E21.00394
G1 X75.714 Y129.256 E21.00451
G1 X75.668 Y129.212 E21.00768
G1 X75.604 Y129.166 E21.01162
G1 X75.605 Y129.151 E21.01237
G1 X71.719 Y125.410 E21.28148
G1 X71.709 Y125.411 E21.28198
G1 X71.677 Y125.370 E21.28457
G1 X71.613 Y125.308 E21.28902
G1 X71.617 Y125.292 E21.28984
G1 X68.322 Y121.024 E21.55885
G1 X68.311 Y121.024 E21.55939
G1 X68.283 Y120.974 E21.56225
G1 X68.235 Y120.912 E21.56617
G1 X68.240 Y120.898 E21.56691
G1 X65.599 Y116.197 E21.83592
G1 X65.586 Y116.195 E21.83657
G1 X65.562 Y116.132 E21.83994
G1 X65.526 Y116.068 E21.84360
G1 X65.533 Y116.056 E21.84429
G1 X63.611 Y111.024 E22.11303
G1 X63.596 Y111.019 E22.11382
G1 X63.578 Y110.939 E22.11791
G1 X63.553 Y110.873 E22.12143
G1 X63.561 Y110.863 E22.12207
G1 X62.390 Y105.604 E22.39087
G1 X62.380 Y105.599 E22.39143
G1 X62.376 Y105.539 E22.39443
G1 X62.358 Y105.460 E22.39847
G1 X62.369 Y105.450 E22.39921
G1 X61.973 Y100.081 E22.66780
G1 X61.965 Y100.075 E22.66830
G1 X61.969 Y100.021 E22.67100
G1 X61.962 Y99.928 E22.67565
G1 X61.976 Y99.918 E22.67651
G1 X62.197 Y96.876 E22.82868
G1 X62.424 Y94.602 E22.94269
G1 X62.359 Y94.541 E22.94714
G1 X63.047 Y91.444 E23.10541
G1 X63.580 Y89.158 E23.22252
G1 X63.553 Y89.124 E23.22469
G1 X64.678 Y86.181 E23.38188
G1 X65.529 Y83.939 E23.50152
G1 X65.525 Y83.932 E23.50192
G1 X65.545 Y83.897 E23.50393
G1 X65.580 Y83.804 E23.50889
G1 X65.599 Y83.801 E23.50985
G1 X67.069 Y81.186 E23.65951
G1 X68.297 Y78.976 E23.78565
G1 X68.323 Y78.975 E23.78694
G1 X70.172 Y76.579 E23.93794
G1 X71.625 Y74.743 E24.05475
G0 F9000 X72.109 Y75.043
G1 F1200 X72.056 Y74.821 E24.06614
G1 X74.168 Y72.788 E24.21239
G1 X75.837 Y71.195 E24.32750
G1 X76.041 Y71.251 E24.33805
G1 X76.021 Y71.027 E24.34927
G1 X78.395 Y69.328 E24.49492
G1 X80.273 Y67.976 E24.61036
G1 X80.518 Y68.085 E24.62374
G1 X80.538 Y67.829 E24.63655
G1 X83.088 Y66.515 E24.77967
G1 X85.142 Y65.450 E24.89510
G1 X85.345 Y65.578 E24.90707
G1 X85.392 Y65.353 E24.91854
G1 X88.147 Y64.413 E25.06377
G1 X90.331 Y63.660 E25.17902
G1 X90.525 Y63.827 E25.19179
G1 X90.615 Y63.590 E25.20444
G1 X93.452 Y63.073 E25.34831
G1 X95.702 Y62.623 E25.46279
G1 X95.894 Y62.843 E25.47735
G1 X96.020 Y62.617 E25.49026
G1 X98.861 Y62.519 E25.63209
G1 X101.169 Y62.365 E25.74749
G1 X101.351 Y62.649 E25.76432
G1 X101.505 Y62.451 E25.77683
G1 X104.410 Y62.763 E25.92260
G1 X106.696 Y63.068 E26.03766
G1 X106.759 Y63.209 E26.04536
G1 X106.909 Y63.059 E26.05594
G1 X109.768 Y63.803 E26.20333
G1 X111.997 Y64.418 E26.31869
G1 X112.055 Y64.623 E26.32932
G1 X112.250 Y64.483 E26.34130
G1 X114.913 Y65.607 E26.48550
G1 X117.046 Y66.521 E26.60128
G1 X117.068 Y66.688 E26.60968
G1 X117.221 Y66.602 E26.61844
G1 X119.765 Y68.153 E26.76709
G1 X121.736 Y69.366 E26.88255
G1 X121.733 Y69.590 E26.89373
G1 X121.956 Y69.512 E26.90551
G1 X124.188 Y71.373 E27.05050
G1 X125.965 Y72.854 E27.16590
G1 X125.933 Y73.050 E27.17581
G1 X126.127 Y73.009 E27.18571
G1 X128.071 Y75.174 E27.33087
G1 X129.649 Y76.903 E27.44766
G1 X129.574 Y77.140 E27.46006
G1 X129.799 Y77.128 E27.47130
G1 X131.414 Y79.573 E27.61749
G1 X132.680 Y81.509 E27.73289
G1 X132.583 Y81.708 E27.74394
G1 X132.817 Y81.732 E27.75567
G1 X134.051 Y84.365 E27.90075
G1 X135.026 Y86.464 E28.01621
G1 X134.887 Y86.667 E28.02849
G1 X135.136 Y86.732 E28.04133
G1 X135.952 Y89.454 E28.18310
G1 X136.646 Y91.690 E28.29990
G1 X136.469 Y91.881 E28.31289
G1 X136.690 Y91.973 E28.32484
G1 X137.098 Y94.765 E28.46561
G1 X137.487 Y97.100 E28.58371
G1 X137.278 Y97.269 E28.59712
G1 X137.465 Y97.379 E28.60794
G1 X137.465 Y102.617 E28.86927
G1 X137.245 Y102.747 E28.88202
G1 X137.441 Y102.910 E28.89473
G1 X136.685 Y108.046 E29.15373
G1 X136.486 Y108.128 E29.16447
G1 X136.632 Y108.285 E29.17516
G1 X135.121 Y113.313 E29.43709
G1 X134.913 Y113.364 E29.44778
G1 X135.033 Y113.538 E29.45832
G1 X132.808 Y118.289 E29.72006
G1 X132.587 Y118.310 E29.73113
G1 X132.682 Y118.506 E29.74200
G1 X129.799 Y122.872 E30.00303
G1 X129.588 Y122.861 E30.01357
G1 X129.654 Y123.065 E30.02426
G1 X126.145 Y126.969 E30.28615
G1 X125.976 Y126.935 E30.29475
G1 X126.008 Y127.109 E30.30357
G1 X121.946 Y130.497 E30.56747
G1 X121.755 Y130.429 E30.57758
G1 X121.760 Y130.630 E30.58761
G1 X117.265 Y133.372 E30.85030
G1 X117.072 Y133.269 E30.86121
