;Generated from X-CARRIAGE.stl 41a2f325f9515b43afd394e647dfbd548fdd511e
;Generated with Cura_SteamEngine 15.04
M140 S55.0
M109 T0 S210.0
T0
M190 S55.0

;Basic settings: Layer height: 0.2 Walls: 1.2 Fill: 20
;Print time: ?print_time?
;Filament used: ?filament_amount?m ?filament_weight?g
;Filament cost: ?filament_cost?
;M190 S55 ;Uncomment to add your own bed temperature line
;M109 S210 ;Uncomment to add your own temperature line
G21        ;metric values
G90        ;absolute positioning
M82        ;set extruder to absolute mode
M107       ;start with the fan off
G28 X0 Y0  ;move X/Y to min endstops
G28 Z0     ;move Z to min endstops
G1 Z5.0 F9000 ;move the platform down 15mm
G92 E0                  ;zero the extruded length
G1 F200 E3              ;extrude 3mm of feed stock
G92 E0                  ;zero the extruded length again
G1 F9000
;Put printing message on LCD screen
M117 Printing...

;Layer count: 70
;LAYER:0
M107
G0 F9000 X70.143 Y65.745 Z0.300
;TYPE:SKIRT
G1 F1200 X71.745 Y64.143 E0.11303
G1 X73.763 Y63.115 E0.22602
G1 X75.748 Y62.800 E0.32629
G1 X124.252 Y62.800 E2.74616
G1 X126.237 Y63.115 E2.84644
G1 X128.255 Y64.143 E2.95942
G1 X129.857 Y65.745 E3.07245
G1 X130.885 Y67.763 E3.18544
G1 X131.200 Y69.748 E3.28571
G1 X131.200 Y129.743 E6.27888
G1 X131.194 Y130.289 E6.30612
G1 X130.885 Y132.238 E6.40457
G1 X129.857 Y134.255 E6.51751
G1 X128.255 Y135.857 E6.63054
G1 X126.237 Y136.885 E6.74353
G1 X124.252 Y137.200 E6.84380
G1 X75.748 Y137.200 E9.26368
G1 X73.763 Y136.885 E9.36395
G1 X71.745 Y135.857 E9.47694
G1 X70.143 Y134.255 E9.58997
G1 X69.115 Y132.237 E9.70296
G1 X68.800 Y130.252 E9.80323
G1 X68.800 Y70.257 E12.79639
G1 X68.806 Y69.711 E12.82363
G1 X69.115 Y67.762 E12.92208
G1 X70.143 Y65.745 E13.03503
G1 F2400 E8.53503
G0 F9000 X73.583 Y68.244
;TYPE:WALL-INNER
G1 F2400 E13.03503
G1 F1200 X74.244 Y67.583 E13.08167
G1 X75.076 Y67.159 E13.12825
G1 X76.000 Y67.013 E13.17492
G1 X76.000 Y88.500 E14.24691
G1 X82.000 Y88.500 E14.54626
G1 X82.000 Y67.000 E15.61889
G1 X92.000 Y67.000 E16.11780
G1 X92.000 Y88.500 E17.19044
G1 X98.000 Y88.500 E17.48978
G1 X98.000 Y67.000 E18.56242
G1 X102.500 Y67.000 E18.78692
G1 X102.500 Y88.500 E19.85956
G1 X108.280 Y88.500 E20.14793
G1 X108.241 Y88.828 E20.16441
G1 X108.572 Y89.883 E20.21957
G1 X108.643 Y90.083 E20.23016
G1 X109.310 Y90.881 E20.28205
G1 X109.448 Y91.047 E20.29282
G1 X110.391 Y91.539 E20.34588
G1 X110.572 Y91.637 E20.35615
G1 X111.617 Y91.730 E20.40849
G1 X111.827 Y91.759 E20.41907
G1 X112.882 Y91.428 E20.47423
G1 X113.082 Y91.357 E20.48482
G1 X113.880 Y90.690 E20.53671
G1 X114.046 Y90.552 E20.54748
G1 X114.538 Y89.609 E20.60054
G1 X114.636 Y89.428 E20.61081
G1 X114.729 Y88.383 E20.66315
G1 X114.758 Y88.173 E20.67373
G1 X114.427 Y87.118 E20.72889
G1 X114.356 Y86.918 E20.73948
G1 X113.688 Y86.119 E20.79144
G1 X113.551 Y85.954 E20.80214
G1 X112.608 Y85.462 E20.85520
G1 X112.427 Y85.364 E20.86547
G1 X111.382 Y85.271 E20.91781
G1 X111.172 Y85.242 E20.92839
G1 X110.117 Y85.573 E20.98355
G1 X109.917 Y85.644 E20.99414
G1 X109.119 Y86.311 E21.04603
G1 X108.953 Y86.449 E21.05680
G1 X108.500 Y87.317 E21.10565
G1 X108.500 Y67.000 E22.11927
G1 X118.500 Y67.000 E22.61817
G1 X118.500 Y88.500 E23.69081
G1 X124.500 Y88.500 E23.99015
G1 X124.500 Y67.092 E25.05820
G1 X124.924 Y67.159 E25.07961
G1 X125.756 Y67.583 E25.12620
G1 X126.417 Y68.244 E25.17284
G1 X126.841 Y69.076 E25.21943
G1 X127.000 Y70.081 E25.27019
G1 X127.000 Y129.717 E28.24544
G1 X126.998 Y129.934 E28.25627
G1 X126.841 Y130.924 E28.30628
G1 X126.417 Y131.756 E28.35287
G1 X125.756 Y132.417 E28.39950
G1 X124.924 Y132.841 E28.44609
G1 X124.500 Y132.908 E28.46751
G1 X124.500 Y111.499 E29.53561
G1 X118.500 Y111.499 E29.83495
G1 X118.500 Y133.000 E30.90764
G1 X108.500 Y133.000 E31.40654
G1 X108.500 Y112.653 E32.42166
G1 X108.643 Y113.082 E32.44422
G1 X109.310 Y113.880 E32.49610
G1 X109.448 Y114.046 E32.50687
G1 X110.391 Y114.538 E32.55994
G1 X110.572 Y114.636 E32.57021
G1 X111.617 Y114.729 E32.62255
G1 X111.827 Y114.758 E32.63312
G1 X112.882 Y114.427 E32.68829
G1 X113.082 Y114.356 E32.69888
G1 X113.880 Y113.689 E32.75076
G1 X114.046 Y113.551 E32.76153
G1 X114.538 Y112.608 E32.81460
G1 X114.636 Y112.427 E32.82487
G1 X114.729 Y111.382 E32.87721
G1 X114.758 Y111.172 E32.88779
G1 X114.427 Y110.117 E32.94295
G1 X114.356 Y109.917 E32.95354
G1 X113.688 Y109.118 E33.00550
G1 X113.551 Y108.953 E33.01620
G1 X112.608 Y108.461 E33.06926
G1 X112.427 Y108.363 E33.07953
G1 X111.382 Y108.270 E33.13187
G1 X111.172 Y108.241 E33.14245
G1 X110.117 Y108.572 E33.19761
G1 X109.917 Y108.643 E33.20820
G1 X109.119 Y109.310 E33.26009
G1 X108.953 Y109.448 E33.27086
G1 X108.461 Y110.391 E33.32392
G1 X108.363 Y110.572 E33.33419
G1 X108.280 Y111.499 E33.38062
G1 X102.500 Y111.499 E33.66899
G1 X102.500 Y133.000 E34.74168
G1 X98.000 Y133.000 E34.96618
G1 X98.000 Y111.499 E36.03887
G1 X92.000 Y111.499 E36.33821
G1 X92.000 Y133.000 E37.41090
G1 X82.000 Y133.000 E37.90981
G1 X82.000 Y111.499 E38.98250
G1 X76.000 Y111.499 E39.28184
G1 X76.000 Y132.987 E40.35388
G1 X75.076 Y132.841 E40.40055
G1 X74.244 Y132.417 E40.44714
G1 X73.583 Y131.756 E40.49377
G1 X73.159 Y130.924 E40.54036
G1 X73.000 Y129.919 E40.59112
G1 X73.000 Y70.283 E43.56638
G1 X73.002 Y70.066 E43.57720
G1 X73.159 Y69.076 E43.62721
G1 X73.583 Y68.244 E43.67380
G0 F9000 X76.459 Y66.959
G0 X81.541 Y66.959
G0 X86.918 Y85.644
G1 F1200 X86.120 Y86.311 E43.72569
G1 X85.954 Y86.449 E43.73646
G1 X85.462 Y87.392 E43.78952
G1 X85.364 Y87.573 E43.79979
G1 X85.271 Y88.618 E43.85213
G1 X85.242 Y88.828 E43.86271
G1 X85.573 Y89.883 E43.91787
G1 X85.644 Y90.083 E43.92846
G1 X86.311 Y90.881 E43.98035
G1 X86.449 Y91.047 E43.99112
G1 X87.392 Y91.539 E44.04418
G1 X87.573 Y91.637 E44.05445
G1 X88.618 Y91.730 E44.10679
G1 X88.828 Y91.759 E44.11737
G1 X89.883 Y91.428 E44.17253
G1 X90.083 Y91.357 E44.18312
G1 X90.881 Y90.690 E44.23501
G1 X91.047 Y90.552 E44.24578
G1 X91.539 Y89.609 E44.29884
G1 X91.637 Y89.428 E44.30911
G1 X91.730 Y88.383 E44.36145
G1 X91.759 Y88.173 E44.37203
G1 X91.428 Y87.118 E44.42719
G1 X91.357 Y86.918 E44.43778
G1 X90.689 Y86.119 E44.48974
G1 X90.552 Y85.954 E44.50044
G1 X89.609 Y85.462 E44.55351
G1 X89.428 Y85.364 E44.56377
G1 X88.383 Y85.271 E44.61612
G1 X88.173 Y85.242 E44.62669
G1 X87.118 Y85.573 E44.68186
G1 X86.918 Y85.644 E44.69244
G0 F9000 X85.760 Y87.693
G0 X85.656 Y88.792
G0 X85.999 Y89.879
G0 X88.173 Y108.241
G1 F1200 X87.118 Y108.572 E44.74761
G1 X86.918 Y108.643 E44.75820
G1 X86.120 Y109.310 E44.81008
G1 X85.954 Y109.448 E44.82085
G1 X85.462 Y110.391 E44.87392
G1 X85.364 Y110.572 E44.88419
G1 X85.271 Y111.617 E44.93653
G1 X85.242 Y111.827 E44.94711
G1 X85.573 Y112.882 E45.00227
G1 X85.644 Y113.082 E45.01286
G1 X86.311 Y113.880 E45.06475
G1 X86.449 Y114.046 E45.07552
G1 X87.392 Y114.538 E45.12858
G1 X87.573 Y114.636 E45.13885
G1 X88.618 Y114.729 E45.19119
G1 X88.828 Y114.758 E45.20177
G1 X89.883 Y114.427 E45.25693
G1 X90.083 Y114.356 E45.26752
G1 X90.881 Y113.689 E45.31941
G1 X91.047 Y113.551 E45.33018
G1 X91.539 Y112.608 E45.38324
G1 X91.637 Y112.427 E45.39351
G1 X91.730 Y111.382 E45.44585
G1 X91.759 Y111.172 E45.45643
G1 X91.428 Y110.117 E45.51159
G1 X91.357 Y109.917 E45.52218
G1 X90.689 Y109.118 E45.57414
G1 X90.552 Y108.953 E45.58484
G1 X89.609 Y108.461 E45.63790
G1 X89.428 Y108.363 E45.64817
G1 X88.383 Y108.270 E45.70051
G1 X88.173 Y108.241 E45.71109
G0 F9000 X88.335 Y108.667
G1 F1200 X88.208 Y108.650 E45.71748
G1 X87.245 Y108.951 E45.76782
G1 X87.119 Y108.996 E45.77449
G1 X86.271 Y109.704 E45.82961
G1 X85.821 Y110.569 E45.87825
G1 X85.755 Y110.690 E45.88513
G1 X85.668 Y111.665 E45.93396
G1 X85.651 Y111.792 E45.94036
G1 X85.952 Y112.755 E45.99069
G1 X85.997 Y112.881 E45.99737
G1 X86.705 Y113.729 E46.05248
G1 X87.577 Y114.183 E46.10153
G1 X87.691 Y114.245 E46.10800
G1 X88.666 Y114.332 E46.15684
G1 X88.793 Y114.349 E46.16323
G1 X89.756 Y114.048 E46.21357
G1 X89.882 Y114.003 E46.22024
G1 X90.730 Y113.295 E46.27536
G1 X91.180 Y112.430 E46.32400
G1 X91.246 Y112.309 E46.33088
G1 X91.334 Y111.328 E46.38002
G1 X91.350 Y111.207 E46.38611
G1 X91.049 Y110.244 E46.43644
G1 X91.004 Y110.118 E46.44312
G1 X90.296 Y109.270 E46.49823
G1 X89.424 Y108.816 E46.54728
G1 X89.310 Y108.754 E46.55376
G1 X88.335 Y108.667 E46.60259
G0 F9000 X89.425 Y108.816
G0 X90.293 Y109.274
G0 X91.048 Y110.246
G0 X92.400 Y111.899
G1 F1200 X92.400 Y133.099 E47.66026
G1 X97.600 Y133.099 E47.91969
G1 X97.600 Y111.899 E48.97737
G1 X92.400 Y111.899 E49.23679
G0 F9000 X102.900 Y111.899
G1 F1200 X102.900 Y133.099 E50.29447
G1 X108.100 Y133.099 E50.55390
G1 X108.100 Y111.899 E51.61157
G1 X102.900 Y111.899 E51.87100
G0 F9000 X108.667 Y111.665
G1 F1200 X108.650 Y111.792 E51.87739
G1 X108.951 Y112.755 E51.92773
G1 X108.996 Y112.881 E51.93440
G1 X109.704 Y113.729 E51.98951
G1 X110.576 Y114.183 E52.03856
G1 X110.690 Y114.245 E52.04504
G1 X111.665 Y114.332 E52.09387
G1 X111.792 Y114.349 E52.10027
G1 X112.755 Y114.048 E52.15060
G1 X112.881 Y114.003 E52.15728
G1 X113.729 Y113.295 E52.21239
G1 X114.179 Y112.430 E52.26104
G1 X114.245 Y112.309 E52.26791
G1 X114.333 Y111.328 E52.31705
G1 X114.349 Y111.207 E52.32314
G1 X114.048 Y110.244 E52.37348
G1 X114.003 Y110.118 E52.38015
G1 X113.295 Y109.270 E52.43527
G1 X112.423 Y108.816 E52.48431
G1 X112.309 Y108.754 E52.49079
G1 X111.334 Y108.667 E52.53962
G1 X111.207 Y108.650 E52.54602
G1 X110.244 Y108.951 E52.59635
G1 X110.118 Y108.996 E52.60303
G1 X109.270 Y109.704 E52.65814
G1 X108.820 Y110.569 E52.70679
G1 X108.754 Y110.690 E52.71366
G1 X108.667 Y111.665 E52.76250
G0 F9000 X108.820 Y110.570
G0 X109.274 Y109.707
G0 X110.246 Y108.952
G0 X111.339 Y108.669
G0 X112.424 Y108.816
G0 X113.292 Y109.274
G0 X114.047 Y110.246
G0 X118.900 Y111.899
G1 F1200 X118.900 Y133.099 E53.82017
G1 X124.100 Y133.099 E54.07960
G1 X124.100 Y111.899 E55.13727
G1 X118.900 Y111.899 E55.39670
G0 F9000 X112.755 Y91.049
G1 F1200 X112.881 Y91.004 E55.40338
G1 X113.729 Y90.296 E55.45849
G1 X114.179 Y89.431 E55.50714
G1 X114.245 Y89.310 E55.51401
G1 X114.333 Y88.329 E55.56315
G1 X114.349 Y88.208 E55.56924
G1 X114.048 Y87.245 E55.61958
G1 X114.003 Y87.119 E55.62625
G1 X113.295 Y86.271 E55.68137
G1 X112.423 Y85.817 E55.73041
G1 X112.309 Y85.755 E55.73689
G1 X111.334 Y85.668 E55.78572
G1 X111.207 Y85.651 E55.79212
G1 X110.244 Y85.952 E55.84245
G1 X110.118 Y85.997 E55.84913
G1 X109.270 Y86.705 E55.90424
G1 X108.820 Y87.570 E55.95289
G1 X108.754 Y87.691 E55.95976
G1 X108.667 Y88.666 E56.00860
G1 X108.650 Y88.793 E56.01499
G1 X108.951 Y89.756 E56.06533
G1 X108.996 Y89.882 E56.07200
G1 X109.704 Y90.730 E56.12712
G1 X110.576 Y91.184 E56.17617
G1 X110.690 Y91.246 E56.18264
G1 X111.665 Y91.333 E56.23148
G1 X111.792 Y91.350 E56.23787
G1 X112.755 Y91.049 E56.28821
G0 F9000 X111.660 Y91.331
G0 X110.575 Y91.184
G0 X109.707 Y90.726
G0 X108.952 Y89.754
G0 X108.100 Y88.100
G1 F1200 X108.100 Y66.900 E57.34588
G1 X102.900 Y66.900 E57.60531
G1 X102.900 Y88.100 E58.66298
G1 X108.100 Y88.100 E58.92241
G0 F9000 X97.600 Y88.100
G1 F1200 X97.600 Y66.900 E59.98008
G1 X92.400 Y66.900 E60.23951
G1 X92.400 Y88.100 E61.29718
G1 X97.600 Y88.100 E61.55661
G0 F9000 X91.334 Y88.329
G1 F1200 X91.350 Y88.208 E61.56270
G1 X91.049 Y87.245 E61.61304
G1 X91.004 Y87.119 E61.61971
G1 X90.296 Y86.271 E61.67483
G1 X89.424 Y85.817 E61.72387
G1 X89.310 Y85.755 E61.73035
G1 X88.335 Y85.668 E61.77918
G1 X88.208 Y85.651 E61.78558
G1 X87.245 Y85.952 E61.83591
G1 X87.119 Y85.997 E61.84259
G1 X86.271 Y86.705 E61.89770
G1 X85.821 Y87.570 E61.94635
G1 X85.755 Y87.691 E61.95322
G1 X85.668 Y88.666 E62.00206
G1 X85.651 Y88.793 E62.00845
G1 X85.952 Y89.756 E62.05879
G1 X85.997 Y89.882 E62.06546
G1 X86.705 Y90.730 E62.12058
G1 X87.577 Y91.184 E62.16962
G1 X87.691 Y91.246 E62.17610
G1 X88.666 Y91.333 E62.22493
G1 X88.793 Y91.350 E62.23133
G1 X89.756 Y91.049 E62.28166
G1 X89.882 Y91.004 E62.28834
G1 X90.730 Y90.296 E62.34345
G1 X91.180 Y89.431 E62.39210
G1 X91.246 Y89.310 E62.39897
G1 X91.334 Y88.329 E62.44811
G0 F9000 X91.002 Y87.122
G0 X90.293 Y86.275
G0 X89.307 Y85.760
G0 X88.209 Y85.656
G0 X87.122 Y85.999
G0 X86.275 Y86.708
G0 X81.600 Y88.100
G1 F1200 X81.600 Y66.900 E63.50579
G1 X76.400 Y66.900 E63.76521
G1 X76.400 Y88.100 E64.82289
G1 X81.600 Y88.100 E65.08232
G0 F9000 X81.600 Y111.899
G1 F1200 X76.400 Y111.899 E65.34175
G1 X76.400 Y133.099 E66.39942
G1 X81.600 Y133.099 E66.65885
G1 X81.600 Y111.899 E67.71652
G0 F9000 X81.541 Y133.040
G0 X76.459 Y133.040
G0 X72.600 Y129.950
G1 F1200 X72.600 Y70.279 E70.69352
G1 X72.603 Y70.033 E70.70579
G1 X72.774 Y68.951 E70.76044
G1 X73.256 Y68.005 E70.81341
G1 X74.005 Y67.256 E70.86626
G1 X74.951 Y66.774 E70.91923
G1 X76.050 Y66.600 E70.97474
G1 X123.950 Y66.600 E73.36448
G1 X125.049 Y66.774 E73.41999
G1 X125.995 Y67.256 E73.47296
G1 X126.744 Y68.005 E73.52581
G1 X127.226 Y68.951 E73.57878
G1 X127.400 Y70.050 E73.63429
G1 X127.400 Y129.721 E76.61129
G1 X127.397 Y129.967 E76.62356
G1 X127.226 Y131.049 E76.67821
G1 X126.744 Y131.995 E76.73118
G1 X125.995 Y132.744 E76.78403
G1 X125.049 Y133.226 E76.83700
G1 X123.950 Y133.400 E76.89251
G1 X76.050 Y133.400 E79.28225
G1 X74.951 Y133.226 E79.33776
G1 X74.005 Y132.744 E79.39073
G1 X73.256 Y131.995 E79.44358
G1 X72.774 Y131.049 E79.49655
G1 X72.600 Y129.950 E79.55206
G0 F9000 X76.459 Y111.958
G0 X81.541 Y111.958
G0 X118.900 Y88.100
G1 F1200 X124.100 Y88.100 E79.81149
G1 X124.100 Y66.900 E80.86916
G1 X118.900 Y66.900 E81.12859
G1 X118.900 Y88.100 E82.18626
G0 F9000 X119.300 Y87.700
;TYPE:WALL-OUTER
G1 F1200 X123.700 Y87.700 E82.40578
G1 X123.700 Y67.300 E83.42354
G1 X119.300 Y67.300 E83.64305
G1 X119.300 Y87.700 E84.66081
G0 F9000 X119.000 Y87.700
G0 X114.232 Y88.331
G0 X113.933 Y88.301
G1 F1200 X113.941 Y88.243 E84.66374
G1 X113.669 Y87.372 E84.70926
G1 X113.650 Y87.321 E84.71198
G1 X113.039 Y86.589 E84.75954
G1 X112.241 Y86.173 E84.80444
G1 X112.192 Y86.146 E84.80723
G1 X111.294 Y86.066 E84.85221
G1 X111.242 Y86.059 E84.85483
G1 X110.371 Y86.331 E84.90035
G1 X110.320 Y86.350 E84.90307
G1 X109.588 Y86.961 E84.95064
G1 X109.172 Y87.759 E84.99554
G1 X109.145 Y87.808 E84.99833
G1 X109.066 Y88.700 E85.04300
G1 X109.058 Y88.758 E85.04592
G1 X109.330 Y89.629 E85.09145
G1 X109.349 Y89.680 E85.09416
G1 X109.960 Y90.412 E85.14173
G1 X110.758 Y90.828 E85.18663
G1 X110.807 Y90.855 E85.18942
G1 X111.705 Y90.935 E85.23440
G1 X111.757 Y90.942 E85.23702
G1 X112.628 Y90.670 E85.28254
G1 X112.679 Y90.651 E85.28526
G1 X113.411 Y90.040 E85.33283
G1 X113.827 Y89.242 E85.37773
G1 X113.854 Y89.193 E85.38052
G1 X113.933 Y88.301 E85.42519
G0 F9000 X114.232 Y88.331
G0 X114.001 Y87.122
G0 X113.292 Y86.275
G0 X112.306 Y85.760
G0 X111.208 Y85.656
G0 X110.121 Y85.999
G0 X109.274 Y86.708
G0 X108.723 Y88.051
G0 X107.700 Y88.000
G0 X107.700 Y87.700
G1 F1200 X107.700 Y67.300 E86.44295
G1 X103.300 Y67.300 E86.66247
G1 X103.300 Y87.700 E87.68023
G1 X107.700 Y87.700 E87.89975
G0 F9000 X107.700 Y88.000
G0 X97.200 Y88.000
G0 X97.200 Y87.700
G1 F1200 X97.200 Y67.300 E88.91751
G1 X92.800 Y67.300 E89.13702
G1 X92.800 Y87.700 E90.15478
G1 X97.200 Y87.700 E90.37430
G0 F9000 X97.200 Y88.000
G0 X91.233 Y88.331
G0 X90.934 Y88.301
G1 F1200 X90.942 Y88.243 E90.37722
G1 X90.670 Y87.372 E90.42275
G1 X90.651 Y87.321 E90.42546
G1 X90.040 Y86.589 E90.47303
G1 X89.242 Y86.173 E90.51793
G1 X89.193 Y86.146 E90.52072
G1 X88.295 Y86.066 E90.56570
G1 X88.243 Y86.059 E90.56832
G1 X87.372 Y86.331 E90.61384
G1 X87.321 Y86.350 E90.61655
G1 X86.589 Y86.961 E90.66412
G1 X86.173 Y87.759 E90.70902
G1 X86.146 Y87.808 E90.71181
G1 X86.067 Y88.700 E90.75649
G1 X86.059 Y88.758 E90.75941
G1 X86.331 Y89.629 E90.80493
G1 X86.350 Y89.680 E90.80765
G1 X86.961 Y90.412 E90.85522
G1 X87.759 Y90.828 E90.90012
G1 X87.808 Y90.855 E90.90291
G1 X88.706 Y90.935 E90.94789
G1 X88.758 Y90.942 E90.95050
G1 X89.629 Y90.670 E90.99603
G1 X89.680 Y90.651 E90.99874
G1 X90.412 Y90.040 E91.04631
G1 X90.828 Y89.242 E91.09121
G1 X90.855 Y89.193 E91.09400
G1 X90.934 Y88.301 E91.13868
G0 F9000 X91.233 Y88.331
G0 X91.002 Y87.122
G0 X90.293 Y86.275
G0 X89.307 Y85.760
G0 X88.209 Y85.656
G0 X87.122 Y85.999
G0 X86.275 Y86.708
G0 X81.200 Y88.000
G0 X81.200 Y87.700
