;Generated from X-END-MOTOR-V2.stl 4b6b311467739c0a6fd3e47c9973ae817c8ae12c
;Generated with Cura_SteamEngine 15.04
M140 S55.0
M109 T0 S210.0
T0
M190 S55.0

;Basic settings: Layer height: 0.2 Walls: 1.2 Fill: 20
;Print time: ?print_time?
;Filament used: ?filament_amount?m ?filament_weight?g
;Filament cost: ?filament_cost?
;M190 S55 ;Uncomment to add your own bed temperature line
;M109 S210 ;Uncomment to add your own temperature line
G21        ;metric values
G90        ;absolute positioning
M82        ;set extruder to absolute mode
M107       ;start with the fan off
G28 X0 Y0  ;move X/Y to min endstops
G28 Z0     ;move Z to min endstops
G1 Z5.0 F9000 ;move the platform down 15mm
G92 E0                  ;zero the extruded length
G1 F200 E3              ;extrude 3mm of feed stock
G92 E0                  ;zero the extruded length again
G1 F9000
;Put printing message on LCD screen
M117 Printing...

;Layer count: 285
;LAYER:0
M107
G0 F9000 X80.779 Y90.917 Z0.300
;TYPE:SKIRT
G1 F1200 X80.007 Y91.839 E0.05999
G1 X79.584 Y93.024 E0.12277
G1 X79.471 Y94.000 E0.17179
G1 X79.578 Y94.955 E0.21973
G1 X79.892 Y95.854 E0.26724
G1 X80.403 Y96.666 E0.31510
G1 X81.082 Y97.345 E0.36301
G1 X81.891 Y97.854 E0.41070
G1 X82.791 Y98.169 E0.45827
G1 X83.749 Y98.278 E0.50637
G1 X84.697 Y98.172 E0.55396
G1 X85.607 Y97.855 E0.60204
G1 X86.413 Y97.349 E0.64952
G1 X87.094 Y96.669 E0.69753
G1 X87.604 Y95.860 E0.74524
G1 X87.921 Y94.953 E0.79317
G1 X88.030 Y93.992 E0.84143
G1 X87.936 Y93.100 E0.88618
G1 X87.653 Y92.241 E0.93130
G1 X87.189 Y91.450 E0.97705
G1 X86.579 Y90.786 E1.02203
G1 X85.835 Y90.261 E1.06746
G1 X85.000 Y89.906 E1.11273
G1 X84.102 Y89.734 E1.15834
G1 X83.197 Y89.753 E1.20351
G1 X82.318 Y89.965 E1.24862
G1 X81.497 Y90.359 E1.29405
G1 X80.779 Y90.917 E1.33942
G0 F9000 X74.372 Y85.466
G1 F1200 X74.652 Y85.116 E1.36178
G1 X76.571 Y83.504 E1.48681
G1 X78.769 Y82.300 E1.61185
G1 X81.159 Y81.551 E1.73680
G1 X83.649 Y81.285 E1.86173
G1 X86.144 Y81.511 E1.98672
G1 X88.547 Y82.223 E2.11176
G1 X90.761 Y83.393 E2.23669
G1 X92.705 Y84.973 E2.36167
G1 X94.302 Y86.904 E2.48669
G1 X95.488 Y89.111 E2.61169
G1 X96.218 Y91.506 E2.73660
G1 X96.450 Y93.840 E2.85362
G1 X96.450 Y97.299 E3.02619
G1 X98.491 Y97.299 E3.12801
G1 X131.491 Y102.299 E4.79318
G1 X144.450 Y102.299 E5.43971
G1 X144.450 Y118.699 E6.25791
G1 X55.550 Y118.699 E10.69315
G1 X55.550 Y93.363 E11.95716
G1 X59.435 Y85.727 E12.38460
G1 X60.415 Y83.799 E12.49250
G1 X72.265 Y83.799 E13.08370
G1 X73.406 Y85.862 E13.20131
G1 X73.725 Y85.092 E13.24290
G1 X74.372 Y85.466 E13.28018
G1 F2400 E8.78018
G0 F9000 X77.671 Y88.065
;TYPE:WALL-INNER
G1 F2400 E13.28018
G1 F1200 X77.734 Y88.012 E13.28429
G1 X77.293 Y88.539 E13.31857
G1 X77.671 Y88.065 E13.34882
G0 F9000 X78.955 Y86.986
G1 F1200 X79.081 Y86.917 E13.35598
G1 X78.491 Y87.376 E13.39328
G1 X78.955 Y86.986 E13.42352
G0 F9000 X80.421 Y86.183
G1 F1200 X80.622 Y86.121 E13.43401
G1 X79.928 Y86.454 E13.47242
G1 X80.421 Y86.183 E13.50048
G0 F9000 X82.019 Y85.682
G1 F1200 X82.285 Y85.654 E13.51383
G1 X81.534 Y85.835 E13.55237
G1 X82.019 Y85.682 E13.57774
G0 F9000 X83.681 Y85.505
G1 F1200 X84.014 Y85.535 E13.59442
G1 X83.238 Y85.552 E13.63314
G1 X83.681 Y85.505 E13.65537
G0 F9000 X85.349 Y85.656
G1 F1200 X85.731 Y85.769 E13.67524
G1 X84.955 Y85.620 E13.71467
G1 X85.349 Y85.656 E13.73440
G0 F9000 X86.956 Y86.132
G1 F1200 X87.358 Y86.345 E13.75710
G1 X86.635 Y86.037 E13.79631
G1 X86.956 Y86.132 E13.81301
G0 F9000 X88.432 Y86.912
G1 F1200 X88.821 Y87.228 E13.83801
G1 X88.200 Y86.789 E13.87596
G1 X88.432 Y86.912 E13.88906
G0 F9000 X89.734 Y87.970
G1 F1200 X90.084 Y88.394 E13.91649
G1 X89.578 Y87.843 E13.95381
G1 X89.734 Y87.970 E13.96384
G0 F9000 X90.799 Y89.259
G1 F1200 X91.083 Y89.787 E13.99375
G1 X90.712 Y89.153 E14.03040
G1 X90.799 Y89.259 E14.03724
G0 F9000 X91.592 Y90.735
G1 F1200 X91.767 Y91.308 E14.06713
G1 X91.554 Y90.663 E14.10102
G1 X91.592 Y90.735 E14.10508
G0 F9000 X91.851 Y94.008
G0 X91.645 Y95.808
G0 X91.047 Y97.520
G0 X90.080 Y99.055
G0 X88.797 Y100.337
G0 X87.259 Y101.302
G0 X85.545 Y101.900
G0 X83.744 Y102.101
G0 X81.942 Y101.895
G0 X80.232 Y101.298
G0 X78.696 Y100.332
G0 X77.414 Y99.049
G0 X76.448 Y97.514
G0 X75.843 Y95.742
G0 X75.648 Y93.991
G0 X75.669 Y91.376
G1 F1200 X75.772 Y91.126 E14.11857
G1 X75.797 Y91.140 E14.12000
G1 X75.577 Y91.758 E14.15273
G1 X75.669 Y91.376 E14.17233
G0 F9000 X75.358 Y92.668
G1 F1200 X75.434 Y92.352 E14.18855
G1 X75.274 Y93.741 E14.25830
G1 X75.358 Y92.668 E14.31200
G0 F9000 X74.775 Y94.458
G0 X73.962 Y94.635
G0 X70.328 Y92.926
G1 F1200 X70.285 Y92.705 E14.32323
G1 X69.747 Y91.773 E14.37692
G1 X69.637 Y91.581 E14.38796
G1 X68.633 Y90.739 E14.45333
G1 X67.615 Y90.368 E14.50739
G1 X67.411 Y90.291 E14.51827
G1 X66.097 Y90.291 E14.58382
G1 X65.073 Y90.663 E14.63818
G1 X64.862 Y90.743 E14.64944
G1 X64.039 Y91.434 E14.70305
G1 X63.867 Y91.579 E14.71427
G1 X63.323 Y92.519 E14.76846
G1 X63.211 Y92.714 E14.77968
G1 X63.027 Y93.764 E14.83286
G1 X62.983 Y93.991 E14.84440
G1 X63.173 Y95.071 E14.89910
G1 X63.215 Y95.292 E14.91033
G1 X63.754 Y96.226 E14.96413
G1 X63.864 Y96.418 E14.97517
G1 X64.695 Y97.116 E15.02931
G1 X64.868 Y97.261 E15.04057
G1 X65.886 Y97.631 E15.09461
G1 X66.090 Y97.708 E15.10549
G1 X67.404 Y97.708 E15.17104
G1 X68.428 Y97.336 E15.22540
G1 X68.637 Y97.256 E15.23656
G1 X69.635 Y96.420 E15.30152
G1 X70.178 Y95.480 E15.35567
G1 X70.290 Y95.284 E15.36694
G1 X70.474 Y94.231 E15.42027
G1 X70.516 Y94.005 E15.43174
G1 X70.328 Y92.926 E15.48638
G0 F9000 X73.735 Y95.134
G1 F1200 X75.189 Y94.819 E15.56060
G1 X75.250 Y94.038 E15.59968
G1 X75.446 Y95.799 E15.68808
G1 X75.467 Y95.922 E15.69431
G1 X76.084 Y97.690 E15.78773
G1 X77.098 Y99.301 E15.88270
G1 X78.443 Y100.648 E15.97767
G1 X80.056 Y101.662 E16.07272
G1 X81.852 Y102.290 E16.16764
G1 X83.743 Y102.504 E16.26259
G1 X85.635 Y102.293 E16.35756
G1 X87.435 Y101.666 E16.45266
G1 X89.049 Y100.653 E16.54773
G1 X90.395 Y99.308 E16.64266
G1 X91.410 Y97.696 E16.73770
G1 X92.040 Y95.899 E16.83270
G1 X92.250 Y94.054 E16.92534
G1 X92.250 Y101.499 E17.29678
G1 X98.173 Y101.499 E17.59227
G1 X131.175 Y106.499 E19.25754
G1 X140.250 Y106.499 E19.71029
G1 X140.250 Y114.499 E20.10942
G1 X59.750 Y114.499 E24.12558
G1 X59.750 Y94.369 E25.12987
G1 X62.991 Y87.999 E25.48644
G1 X69.788 Y87.999 E25.82554
G1 X73.735 Y95.134 E26.23234
G0 F9000 X73.941 Y94.680
G1 F1200 X74.813 Y94.491 E26.27686
G1 X74.962 Y92.605 E26.37124
G1 X75.287 Y91.251 E26.44071
G1 X75.577 Y90.551 E26.47852
G1 X76.286 Y90.961 E26.51938
G1 X75.859 Y92.157 E26.58273
G1 X75.647 Y93.991 E26.67484
G1 X75.842 Y95.744 E26.76284
G1 X75.856 Y95.822 E26.76679
G1 X76.447 Y97.515 E26.85625
G1 X77.413 Y99.050 E26.94674
G1 X78.694 Y100.333 E27.03719
G1 X80.231 Y101.299 E27.12776
G1 X81.941 Y101.898 E27.21815
G1 X83.743 Y102.102 E27.30863
G1 X85.546 Y101.901 E27.39914
G1 X87.260 Y101.303 E27.48971
G1 X88.798 Y100.338 E27.58029
G1 X90.081 Y99.057 E27.67074
G1 X91.048 Y97.521 E27.76130
G1 X91.648 Y95.809 E27.85180
G1 X91.853 Y94.008 E27.94223
G1 X91.672 Y92.297 E28.02807
G1 X91.134 Y90.665 E28.11380
G1 X90.264 Y89.181 E28.19963
G1 X89.100 Y87.915 E28.28543
G1 X87.696 Y86.923 E28.37119
G1 X86.113 Y86.250 E28.45701
G1 X84.426 Y85.926 E28.54271
G1 X82.706 Y85.964 E28.62854
G1 X81.035 Y86.366 E28.71429
G1 X79.484 Y87.110 E28.80011
G1 X78.127 Y88.166 E28.88590
G1 X77.384 Y89.053 E28.94362
G1 X76.690 Y88.652 E28.98361
G1 X77.387 Y87.780 E29.03930
G1 X78.726 Y86.655 E29.12656
G1 X80.260 Y85.816 E29.21379
G1 X81.938 Y85.290 E29.30152
G1 X83.680 Y85.103 E29.38893
G1 X85.428 Y85.262 E29.47650
G1 X87.103 Y85.759 E29.56366
G1 X88.657 Y86.579 E29.65132
G1 X90.019 Y87.686 E29.73889
G1 X91.130 Y89.030 E29.82588
G1 X91.963 Y90.580 E29.91367
G1 X92.474 Y92.256 E30.00109
G1 X92.650 Y94.028 E30.08993
G1 X92.650 Y101.099 E30.44270
G1 X98.206 Y101.099 E30.71989
G1 X131.205 Y106.099 E32.38501
G1 X140.650 Y106.099 E32.85622
G1 X140.650 Y114.899 E33.29526
G1 X59.350 Y114.899 E37.35133
G1 X59.350 Y94.274 E38.38032
G1 X62.746 Y87.599 E38.75396
G1 X70.024 Y87.599 E39.11706
G1 X73.941 Y94.680 E39.52078
G0 F9000 X70.081 Y94.158
G1 F1200 X70.110 Y94.003 E39.52864
G1 X69.934 Y92.998 E39.57955
G1 X69.905 Y92.846 E39.58727
G1 X69.401 Y91.976 E39.63743
G1 X69.325 Y91.841 E39.64516
G1 X68.430 Y91.090 E39.70345
G1 X67.478 Y90.744 E39.75398
G1 X67.338 Y90.691 E39.76145
G1 X66.167 Y90.691 E39.81987
G1 X65.212 Y91.038 E39.87056
G1 X65.067 Y91.093 E39.87830
G1 X64.177 Y91.840 E39.93627
G1 X63.670 Y92.718 E39.98685
G1 X63.593 Y92.852 E39.99456
G1 X63.420 Y93.839 E40.04456
G1 X63.390 Y93.994 E40.05243
G1 X63.567 Y94.999 E40.10334
G1 X63.595 Y95.151 E40.11105
G1 X64.100 Y96.023 E40.16133
G1 X64.176 Y96.158 E40.16906
G1 X65.070 Y96.909 E40.22731
G1 X66.023 Y97.255 E40.27789
G1 X66.163 Y97.308 E40.28536
G1 X67.334 Y97.308 E40.34378
G1 X68.289 Y96.961 E40.39447
G1 X68.432 Y96.906 E40.40212
G1 X69.324 Y96.159 E40.46016
G1 X69.831 Y95.281 E40.51074
G1 X69.908 Y95.147 E40.51845
G1 X70.081 Y94.158 E40.56854
G0 F9000 X69.687 Y94.084
;TYPE:WALL-OUTER
G1 F1200 X69.703 Y94.000 E40.57281
G1 X69.541 Y93.070 E40.61991
G1 X69.525 Y92.988 E40.62408
G1 X69.054 Y92.174 E40.67099
G1 X69.013 Y92.102 E40.67513
G1 X68.227 Y91.442 E40.72633
G1 X67.341 Y91.120 E40.77336
G1 X67.265 Y91.091 E40.77742
G1 X66.238 Y91.091 E40.82866
G1 X65.351 Y91.413 E40.87574
G1 X65.272 Y91.443 E40.87995
G1 X64.488 Y92.101 E40.93102
G1 X64.017 Y92.917 E40.97802
G1 X63.975 Y92.990 E40.98223
G1 X63.813 Y93.914 E41.02903
G1 X63.797 Y93.997 E41.03324
G1 X63.960 Y94.928 E41.08040
G1 X63.976 Y95.010 E41.08457
G1 X64.446 Y95.824 E41.13146
G1 X64.488 Y95.897 E41.13566
G1 X65.273 Y96.557 E41.18683
G1 X66.157 Y96.878 E41.23375
G1 X66.236 Y96.908 E41.23797
G1 X67.263 Y96.908 E41.28920
G1 X68.150 Y96.586 E41.33628
G1 X68.227 Y96.556 E41.34040
G1 X69.013 Y95.898 E41.39155
G1 X69.484 Y95.082 E41.43855
G1 X69.526 Y95.009 E41.44275
G1 X69.687 Y94.084 E41.48959
G0 F9000 X69.983 Y94.130
G0 X74.209 Y94.519
G0 X74.147 Y94.226
G1 F1200 X74.438 Y94.163 E41.50445
G1 X74.563 Y92.571 E41.58412
G1 X74.566 Y92.540 E41.58567
G1 X74.905 Y91.130 E41.65802
G1 X75.383 Y89.976 E41.72034
G1 X76.775 Y90.781 E41.80056
G1 X76.251 Y92.248 E41.87828
G1 X76.050 Y93.992 E41.96587
G1 X76.239 Y95.689 E42.05105
G1 X76.810 Y97.340 E42.13821
G1 X77.728 Y98.799 E42.22421
G1 X78.945 Y100.018 E42.31014
G1 X80.406 Y100.936 E42.39623
G1 X82.031 Y101.505 E42.48213
G1 X83.744 Y101.699 E42.56813
G1 X85.457 Y101.508 E42.65413
G1 X87.086 Y100.940 E42.74020
G1 X88.547 Y100.023 E42.82625
G1 X89.766 Y98.806 E42.91219
G1 X90.685 Y97.346 E42.99826
G1 X91.255 Y95.719 E43.08427
G1 X91.450 Y94.007 E43.17023
G1 X91.279 Y92.382 E43.25175
G1 X90.767 Y90.830 E43.33328
G1 X89.941 Y89.420 E43.41481
G1 X88.835 Y88.217 E43.49634
G1 X87.500 Y87.274 E43.57788
G1 X85.996 Y86.635 E43.65941
G1 X84.392 Y86.327 E43.74090
G1 X82.758 Y86.363 E43.82244
G1 X81.170 Y86.745 E43.90392
G1 X79.696 Y87.452 E43.98548
G1 X78.406 Y88.455 E44.06700
G1 X77.475 Y89.568 E44.13940
G1 X76.086 Y88.766 E44.21942
G1 X77.096 Y87.503 E44.30010
G1 X78.502 Y86.322 E44.39171
G1 X80.104 Y85.445 E44.48282
G1 X81.855 Y84.896 E44.57437
G1 X83.678 Y84.701 E44.66584
G1 X85.499 Y84.866 E44.75706
G1 X87.259 Y85.388 E44.84865
G1 X88.878 Y86.243 E44.94000
G1 X90.300 Y87.399 E45.03142
G1 X91.465 Y88.808 E45.12264
G1 X92.334 Y90.426 E45.21426
G1 X92.868 Y92.174 E45.30545
G1 X93.050 Y94.007 E45.39735
G1 X93.050 Y100.699 E45.73121
G1 X98.233 Y100.699 E45.98980
G1 X131.235 Y105.699 E47.65506
G1 X141.050 Y105.699 E48.14473
G1 X141.050 Y115.299 E48.62368
G1 X58.950 Y115.299 E52.71967
G1 X58.950 Y94.178 E53.77340
G1 X62.501 Y87.199 E54.16406
G1 X70.260 Y87.199 E54.55116
G1 X74.147 Y94.226 E54.95180
G0 F9000 X74.469 Y95.117
;TYPE:SKIN
G1 F1200 X75.345 Y95.992 E55.01357
G0 F9000 X75.253 Y95.335
G1 F1200 X74.934 Y95.016 E55.03607
G0 F9000 X74.005 Y95.218
G1 F1200 X75.648 Y96.861 E55.15200
G0 F9000 X75.951 Y97.730
G1 F1200 X69.796 Y91.575 E55.58627
G0 F9000 X69.519 Y91.298
G1 F1200 X66.359 Y88.138 E55.80922
G0 F9000 X66.924 Y88.138
G1 F1200 X73.148 Y94.361 E56.24832
G0 F9000 X72.448 Y93.095
G1 F1200 X67.490 Y88.138 E56.59810
G0 F9000 X68.056 Y88.138
G1 F1200 X71.747 Y91.829 E56.85852
G0 F9000 X71.047 Y90.563
G1 F1200 X68.621 Y88.138 E57.02965
G0 F9000 X69.187 Y88.138
G1 F1200 X70.346 Y89.296 E57.11139
G0 F9000 X68.018 Y90.363
G1 F1200 X65.793 Y88.138 E57.26838
G0 F9000 X65.227 Y88.138
G1 F1200 X67.240 Y90.150 E57.41037
G0 F9000 X66.674 Y90.150
G1 F1200 X64.662 Y88.138 E57.55233
G0 F9000 X64.096 Y88.138
G1 F1200 X66.108 Y90.150 E57.69428
G0 F9000 X65.683 Y90.291
G1 F1200 X63.530 Y88.138 E57.84619
G0 F9000 X63.038 Y88.211
G1 F1200 X65.270 Y90.443 E58.00367
G0 F9000 X64.855 Y90.594
G1 F1200 X62.847 Y88.586 E58.14535
G0 F9000 X62.657 Y88.961
G1 F1200 X64.531 Y90.836 E58.27760
G0 F9000 X64.224 Y91.094
G1 F1200 X62.466 Y89.336 E58.40164
G0 F9000 X62.275 Y89.711
G1 F1200 X63.916 Y91.352 E58.51742
G0 F9000 X63.657 Y91.659
G1 F1200 X62.084 Y90.086 E58.62840
G0 F9000 X61.894 Y90.461
G1 F1200 X63.450 Y92.017 E58.73819
G0 F9000 X63.243 Y92.376
G1 F1200 X61.703 Y90.836 E58.84684
G0 F9000 X61.512 Y91.211
G1 F1200 X63.060 Y92.758 E58.95603
G0 F9000 X62.977 Y93.241
G1 F1200 X61.321 Y91.585 E59.07287
G0 F9000 X61.131 Y91.961
G1 F1200 X62.892 Y93.722 E59.19711
G0 F9000 X62.895 Y94.291
G1 F1200 X60.940 Y92.336 E59.33505
G0 F9000 X60.749 Y92.710
G1 F1200 X63.017 Y94.978 E59.49507
G0 F9000 X63.446 Y95.973
G1 F1200 X60.558 Y93.085 E59.69883
G0 F9000 X60.368 Y93.461
G1 F1200 X81.265 Y114.358 E61.17323
G0 F9000 X80.699 Y114.358
G1 F1200 X60.177 Y93.835 E62.62120
G0 F9000 X64.893 Y97.420
G1 F1200 X81.831 Y114.358 E63.81627
G0 F9000 X82.397 Y114.358
G1 F1200 X65.784 Y97.746 E64.98837
G0 F9000 X66.451 Y97.847
G1 F1200 X82.962 Y114.358 E66.15331
G0 F9000 X83.528 Y114.358
G1 F1200 X67.017 Y97.847 E67.31825
G0 F9000 X67.542 Y97.806
G1 F1200 X84.094 Y114.358 E68.48609
G0 F9000 X84.659 Y114.358
G1 F1200 X67.955 Y97.654 E69.66464
G0 F9000 X68.370 Y97.502
G1 F1200 X85.225 Y114.358 E70.85389
G0 F9000 X85.791 Y114.358
G1 F1200 X68.764 Y97.331 E72.05524
G0 F9000 X69.072 Y97.073
G1 F1200 X86.356 Y114.358 E73.27475
G0 F9000 X86.922 Y114.358
G1 F1200 X69.380 Y96.816 E74.51243
G0 F9000 X69.688 Y96.558
G1 F1200 X87.488 Y114.358 E75.76832
G0 F9000 X88.053 Y114.358
G1 F1200 X69.913 Y96.217 E77.04823
G0 F9000 X70.119 Y95.858
G1 F1200 X88.619 Y114.358 E78.35351
G0 F9000 X89.185 Y114.358
G1 F1200 X70.326 Y95.499 E79.68411
G0 F9000 X70.468 Y95.075
G1 F1200 X89.750 Y114.358 E81.04459
G0 F9000 X90.316 Y114.358
G1 F1200 X70.552 Y94.593 E82.43909
G0 F9000 X70.637 Y94.113
G1 F1200 X90.882 Y114.358 E83.86748
G0 F9000 X91.447 Y114.358
G1 F1200 X70.566 Y93.476 E85.34078
G0 F9000 X70.444 Y92.788
G1 F1200 X76.897 Y99.241 E85.79608
G0 F9000 X78.511 Y100.856
G1 F1200 X92.013 Y114.358 E86.74872
G0 F9000 X92.579 Y114.358
G1 F1200 X80.014 Y101.793 E87.63525
G0 F9000 X80.885 Y102.099
G1 F1200 X93.145 Y114.358 E88.50022
G0 F9000 X93.710 Y114.358
G1 F1200 X81.756 Y102.403 E89.34367
G0 F9000 X82.411 Y102.493
G1 F1200 X94.276 Y114.358 E90.18081
G0 F9000 X94.842 Y114.358
G1 F1200 X83.049 Y102.565 E91.01287
G0 F9000 X83.687 Y102.637
G1 F1200 X95.407 Y114.358 E91.83982
G0 F9000 X95.973 Y114.358
G1 F1200 X84.207 Y102.592 E92.66997
G0 F9000 X84.716 Y102.535
G1 F1200 X96.539 Y114.358 E93.50415
G0 F9000 X97.104 Y114.358
G1 F1200 X85.225 Y102.478 E94.34231
G0 F9000 X85.722 Y102.410
G1 F1200 X97.670 Y114.358 E95.18531
G0 F9000 X98.236 Y114.358
G1 F1200 X86.141 Y102.263 E96.03868
G0 F9000 X86.561 Y102.118
G1 F1200 X98.801 Y114.358 E96.90227
G0 F9000 X99.367 Y114.358
G1 F1200 X86.981 Y101.971 E97.77621
G0 F9000 X87.400 Y101.825
G1 F1200 X99.933 Y114.358 E98.66048
G0 F9000 X100.498 Y114.358
G1 F1200 X87.764 Y101.623 E99.55897
G0 F9000 X88.111 Y101.405
G1 F1200 X101.064 Y114.358 E100.47287
G0 F9000 X101.630 Y114.358
G1 F1200 X88.459 Y101.187 E101.40216
G0 F9000 X88.806 Y100.969
G1 F1200 X102.196 Y114.358 E102.34686
G0 F9000 X102.761 Y114.358
G1 F1200 X89.152 Y100.748 E103.30708
G0 F9000 X89.434 Y100.465
G1 F1200 X103.327 Y114.358 E104.28731
G0 F9000 X103.893 Y114.358
