;Generated from X-END-IDLER.stl 6f882e6ef012d47fb8e57ba50aae9c3c45dc2fbf
;Generated with Cura_SteamEngine 15.04
M140 S55.0
M109 T0 S210.0
T0
M190 S55.0

;Basic settings: Layer height: 0.2 Walls: 1.2 Fill: 20
;Print time: ?print_time?
;Filament used: ?filament_amount?m ?filament_weight?g
;Filament cost: ?filament_cost?
;M190 S55 ;Uncomment to add your own bed temperature line
;M109 S210 ;Uncomment to add your own temperature line
G21        ;metric values
G90        ;absolute positioning
M82        ;set extruder to absolute mode
M107       ;start with the fan off
G28 X0 Y0  ;move X/Y to min endstops
G28 Z0     ;move Z to min endstops
G1 Z5.0 F9000 ;move the platform down 15mm
G92 E0                  ;zero the extruded length
G1 F200 E3              ;extrude 3mm of feed stock
G92 E0                  ;zero the extruded length again
G1 F9000
;Put printing message on LCD screen
M117 Printing...

;Layer count: 285
;LAYER:0
M107
G0 F9000 X80.799 Y90.221 Z0.300
;TYPE:SKIRT
G1 F1200 X79.833 Y91.164 E0.06735
G1 X79.206 Y92.371 E0.13521
G1 X78.991 Y93.707 E0.20272
G1 X79.199 Y95.019 E0.26899
G1 X79.804 Y96.207 E0.33550
G1 X80.741 Y97.144 E0.40161
G1 X81.932 Y97.752 E0.46833
G1 X83.249 Y97.962 E0.53486
G1 X84.564 Y97.756 E0.60127
G1 X85.751 Y97.152 E0.66772
G1 X86.691 Y96.214 E0.73397
G1 X87.301 Y95.019 E0.80090
G1 X87.521 Y93.629 E0.87111
G1 X87.420 Y92.741 E0.91570
G1 X86.999 Y91.559 E0.97830
G1 X85.873 Y90.349 E1.06076
G1 X84.680 Y89.692 E1.12871
G1 X83.353 Y89.446 E1.19604
G1 X82.012 Y89.629 E1.26357
G1 X80.799 Y90.221 E1.33091
G0 F9000 X74.896 Y84.094
G1 F1200 X77.936 Y82.133 E1.51139
G1 X81.403 Y81.105 E1.69180
G1 X85.021 Y81.095 E1.87231
G1 X88.494 Y82.101 E2.05270
G1 X91.545 Y84.043 E2.23313
G1 X92.564 Y85.208 E2.31035
G1 X93.405 Y84.723 E2.35878
G1 X93.568 Y85.166 E2.38233
G1 X94.414 Y83.503 E2.47542
G1 X106.264 Y83.503 E3.06662
G1 X110.952 Y91.977 E3.54977
G1 X111.450 Y92.875 E3.60100
G1 X111.450 Y96.503 E3.78200
G1 X129.450 Y96.503 E4.68003
G1 X129.450 Y118.903 E5.79757
G1 X70.550 Y118.903 E8.73610
G1 X70.550 Y93.851 E9.98595
G1 X70.552 Y93.454 E10.00576
G1 X71.032 Y90.122 E10.17371
G1 X72.531 Y86.831 E10.35412
G1 X74.896 Y84.094 E10.53459
G1 F2400 E6.03459
G0 F9000 X77.682 Y87.295
;TYPE:WALL-INNER
G1 F2400 E10.53459
G1 F1200 X77.981 Y87.102 E10.55234
G1 X77.134 Y87.929 E10.61140
G1 X77.682 Y87.295 E10.65321
G0 F9000 X79.705 Y85.990
G1 F1200 X80.183 Y85.848 E10.67809
G1 X79.120 Y86.367 E10.73711
G1 X79.705 Y85.990 E10.77183
G0 F9000 X82.019 Y85.304
G1 F1200 X82.655 Y85.302 E10.80356
G1 X81.490 Y85.460 E10.86221
G1 X82.019 Y85.304 E10.88973
G0 F9000 X84.433 Y85.296
G1 F1200 X85.190 Y85.516 E10.92906
G1 X84.013 Y85.298 E10.98878
G1 X84.433 Y85.296 E11.00973
G0 F9000 X86.744 Y85.966
G1 F1200 X87.536 Y86.470 E11.05657
G1 X86.481 Y85.890 E11.11663
G1 X86.744 Y85.966 E11.13029
G0 F9000 X88.782 Y87.263
G1 F1200 X89.461 Y88.040 E11.18177
G1 X88.676 Y87.196 E11.23927
G1 X88.782 Y87.263 E11.24553
G0 F9000 X84.489 Y84.894
G0 X77.413 Y86.989
G0 X74.350 Y93.863
G0 X74.291 Y115.162
G0 X107.657 Y93.857
G0 X96.727 Y87.273
G0 X96.971 Y91.810
G1 F1200 X96.555 Y93.369 E11.32603
G1 X96.464 Y93.699 E11.34311
G1 X96.884 Y95.271 E11.42429
G1 X96.974 Y95.598 E11.44121
G1 X98.358 Y96.982 E11.53886
G1 X99.916 Y97.398 E11.61931
G1 X100.246 Y97.489 E11.63639
G1 X101.818 Y97.069 E11.71756
G1 X102.146 Y96.979 E11.73453
G1 X103.528 Y95.595 E11.83211
G1 X103.945 Y94.037 E11.91258
G1 X104.036 Y93.707 E11.92965
G1 X103.615 Y92.135 E12.01085
G1 X103.525 Y91.808 E12.02777
G1 X102.143 Y90.425 E12.12531
G1 X100.578 Y90.006 E12.20614
G1 X100.254 Y89.917 E12.22290
G1 X98.682 Y90.338 E12.30409
G1 X98.355 Y90.428 E12.32101
G1 X96.971 Y91.810 E12.41859
G0 F9000 X93.047 Y94.478
G0 X92.193 Y94.272
G0 X89.799 Y98.474
G0 X88.008 Y100.264
G0 X85.749 Y101.413
G0 X83.243 Y101.807
G0 X80.738 Y101.407
G0 X78.480 Y100.252
G0 X76.649 Y98.385
G0 X75.526 Y96.118
G0 X75.161 Y93.594
G0 X75.608 Y91.055
G0 X76.103 Y89.122
G1 F1200 X76.250 Y88.952 E12.42980
G1 X75.688 Y90.033 E12.49059
G1 X76.103 Y89.122 E12.54053
G0 F9000 X75.104 Y91.316
G1 F1200 X75.133 Y91.253 E12.54399
G1 X74.946 Y92.408 E12.60236
G1 X75.104 Y91.316 E12.65741
G0 F9000 X74.750 Y93.787
G1 F1200 X75.131 Y96.187 E12.77865
G1 X75.164 Y96.352 E12.78704
G1 X76.295 Y98.573 E12.91139
G1 X76.377 Y98.720 E12.91979
G1 X78.240 Y100.583 E13.05123
G1 X80.612 Y101.795 E13.18412
G1 X83.243 Y102.214 E13.31704
G1 X85.875 Y101.801 E13.44996
G1 X88.248 Y100.595 E13.58276
G1 X90.130 Y98.715 E13.71547
G1 X91.269 Y96.485 E13.84040
G1 X91.343 Y96.352 E13.84799
G1 X91.733 Y93.891 E13.97231
G1 X91.750 Y93.801 E13.97688
G1 X91.750 Y94.623 E14.01788
G1 X93.284 Y94.990 E14.09658
G1 X96.990 Y87.703 E14.50444
G1 X103.787 Y87.703 E14.84355
G1 X107.250 Y93.961 E15.20037
G1 X107.250 Y100.703 E15.53673
G1 X125.250 Y100.703 E16.43476
G1 X125.250 Y114.703 E17.13322
G1 X74.750 Y114.703 E19.65267
G1 X74.750 Y93.787 E20.69618
G0 F9000 X75.141 Y93.691
G1 F1200 X75.525 Y96.117 E20.81872
G1 X75.546 Y96.220 E20.82396
G1 X76.648 Y98.385 E20.94516
G1 X76.699 Y98.477 E20.95041
G1 X78.478 Y100.255 E21.07589
G1 X80.738 Y101.410 E21.20252
G1 X83.243 Y101.809 E21.32907
G1 X85.750 Y101.416 E21.45567
G1 X88.010 Y100.267 E21.58216
G1 X89.802 Y98.476 E21.70856
G1 X90.912 Y96.303 E21.83029
G1 X90.959 Y96.220 E21.83505
G1 X91.341 Y93.807 E21.95694
G1 X91.357 Y93.728 E21.96096
G1 X91.145 Y91.876 E22.05396
G1 X90.714 Y90.665 E22.11809
G1 X91.399 Y90.269 E22.15756
G1 X91.900 Y91.628 E22.22982
G1 X92.150 Y93.739 E22.33588
G1 X92.150 Y94.307 E22.36421
G1 X93.070 Y94.528 E22.41142
G1 X96.745 Y87.303 E22.81583
G1 X104.024 Y87.303 E23.17898
G1 X107.650 Y93.857 E23.55266
G1 X107.650 Y100.303 E23.87426
G1 X125.650 Y100.303 E24.77228
G1 X125.650 Y115.103 E25.51065
G1 X74.350 Y115.103 E28.07002
G1 X74.350 Y93.865 E29.12959
G1 X74.351 Y93.738 E29.13593
G1 X74.716 Y91.203 E29.26370
G1 X75.764 Y88.902 E29.38985
G1 X77.415 Y86.991 E29.51584
G1 X79.537 Y85.622 E29.64183
G1 X81.960 Y84.904 E29.76790
G1 X84.488 Y84.896 E29.89403
G1 X86.913 Y85.599 E30.01999
G1 X89.043 Y86.955 E30.14597
G1 X90.283 Y88.372 E30.23991
G1 X89.594 Y88.770 E30.27960
G1 X88.239 Y87.314 E30.37883
G1 X86.068 Y86.119 E30.50247
G1 X85.976 Y86.068 E30.50772
G1 X83.548 Y85.618 E30.63091
G1 X83.448 Y85.598 E30.63600
G1 X80.980 Y85.934 E30.76027
G1 X80.875 Y85.955 E30.76561
G1 X78.660 Y87.037 E30.88859
G1 X78.567 Y87.089 E30.89391
G1 X76.744 Y88.869 E31.02103
G1 X75.602 Y91.066 E31.14456
G1 X75.553 Y91.153 E31.14954
G1 X75.164 Y93.575 E31.27192
G1 X75.141 Y93.691 E31.27782
G0 F9000 X75.549 Y96.219
G0 X76.702 Y98.475
G0 X78.480 Y100.252
G0 X80.738 Y101.407
G0 X83.243 Y101.807
G0 X85.749 Y101.413
G0 X88.008 Y100.264
G0 X89.799 Y98.474
G0 X90.956 Y96.217
G0 X91.354 Y93.729
G0 X91.143 Y91.876
G0 X92.193 Y94.272
G0 X93.047 Y94.478
G0 X96.878 Y93.701
G1 F1200 X97.270 Y95.166 E31.35348
G1 X97.332 Y95.390 E31.36508
G1 X98.565 Y96.623 E31.45207
G1 X100.026 Y97.014 E31.52753
G1 X100.248 Y97.075 E31.53901
G1 X101.713 Y96.683 E31.61467
G1 X101.937 Y96.621 E31.62627
G1 X103.169 Y95.388 E31.71323
G1 X103.561 Y93.927 E31.78870
G1 X103.622 Y93.705 E31.80018
G1 X103.229 Y92.240 E31.87586
G1 X103.167 Y92.016 E31.88745
G1 X101.936 Y90.784 E31.97434
G1 X100.474 Y90.392 E32.04986
G1 X100.252 Y90.331 E32.06134
G1 X98.787 Y90.724 E32.13702
G1 X98.563 Y90.786 E32.14861
G1 X97.330 Y92.017 E32.23554
G1 X96.939 Y93.479 E32.31104
G1 X96.878 Y93.701 E32.32252
G0 F9000 X97.326 Y93.581
;TYPE:WALL-OUTER
G1 F1200 X97.293 Y93.702 E32.32878
G1 X97.656 Y95.061 E32.39896
G1 X97.689 Y95.182 E32.40522
G1 X98.772 Y96.264 E32.48159
G1 X100.128 Y96.627 E32.55163
G1 X100.249 Y96.660 E32.55788
G1 X101.608 Y96.297 E32.62806
G1 X101.729 Y96.264 E32.63432
G1 X102.810 Y95.181 E32.71066
G1 X103.174 Y93.825 E32.78071
G1 X103.207 Y93.704 E32.78696
G1 X102.843 Y92.345 E32.85715
G1 X102.810 Y92.224 E32.86341
G1 X101.729 Y91.143 E32.93968
G1 X100.372 Y90.779 E33.00978
G1 X100.251 Y90.746 E33.01603
G1 X98.892 Y91.110 E33.08622
G1 X98.771 Y91.143 E33.09248
G1 X97.689 Y92.224 E33.16879
G1 X97.326 Y93.581 E33.23887
G0 F9000 X97.143 Y93.428
G0 X92.787 Y94.356
G0 X92.857 Y94.065
G1 F1200 X96.500 Y86.903 E33.63975
G1 X104.259 Y86.903 E34.02685
G1 X108.050 Y93.755 E34.41753
G1 X108.050 Y99.903 E34.72425
G1 X126.050 Y99.903 E35.62228
G1 X126.050 Y115.503 E36.40056
G1 X73.950 Y115.503 E38.99984
G1 X73.950 Y93.862 E40.07952
G1 X73.951 Y93.704 E40.08740
G1 X74.328 Y91.089 E40.21921
G1 X75.423 Y88.685 E40.35100
G1 X77.150 Y86.686 E40.48280
G1 X79.368 Y85.255 E40.61449
G1 X81.902 Y84.504 E40.74634
G1 X84.543 Y84.496 E40.87810
G1 X87.080 Y85.231 E41.00988
G1 X89.306 Y86.648 E41.14153
G1 X90.905 Y88.476 E41.26269
G1 X89.519 Y89.277 E41.34256
G1 X87.990 Y87.633 E41.45457
G1 X85.838 Y86.449 E41.57711
G1 X83.475 Y86.011 E41.69701
G1 X83.435 Y86.003 E41.69904
G1 X81.046 Y86.329 E41.81934
G1 X81.004 Y86.337 E41.82147
G1 X78.845 Y87.392 E41.94135
G1 X78.808 Y87.412 E41.94345
G1 X77.069 Y89.110 E42.06471
G1 X75.959 Y91.246 E42.18481
G1 X75.937 Y91.286 E42.18708
G1 X75.556 Y93.654 E42.30674
G1 X75.547 Y93.699 E42.30903
G1 X75.919 Y96.046 E42.42759
G1 X75.927 Y96.087 E42.42967
G1 X77.001 Y98.197 E42.54779
G1 X77.022 Y98.234 E42.54991
G1 X78.716 Y99.928 E42.66943
G1 X80.863 Y101.025 E42.78972
G1 X83.244 Y101.404 E42.91000
G1 X85.625 Y101.031 E43.03024
G1 X87.772 Y99.939 E43.15041
G1 X89.475 Y98.238 E43.27050
G1 X90.553 Y96.127 E43.38876
G1 X90.575 Y96.087 E43.39103
G1 X90.946 Y93.744 E43.50938
G1 X90.952 Y93.711 E43.51106
G1 X90.753 Y91.967 E43.59863
G1 X90.225 Y90.484 E43.67716
G1 X91.610 Y89.685 E43.75694
G1 X92.292 Y91.534 E43.85526
G1 X92.550 Y93.718 E43.96498
G1 X92.550 Y93.992 E43.97865
G1 X92.857 Y94.065 E43.99439
G0 F9000 X93.676 Y94.525
;TYPE:SKIN
G1 F1200 X113.714 Y114.562 E45.40814
G0 F9000 X114.279 Y114.562
G1 F1200 X93.867 Y94.150 E46.84832
G0 F9000 X94.057 Y93.775
G1 F1200 X114.845 Y114.562 E48.31499
G0 F9000 X115.411 Y114.562
G1 F1200 X94.248 Y93.400 E49.80812
G0 F9000 X94.439 Y93.025
G1 F1200 X96.761 Y95.346 E49.97191
G0 F9000 X96.554 Y94.574
G1 F1200 X94.629 Y92.650 E50.10770
G0 F9000 X94.820 Y92.275
G1 F1200 X96.346 Y93.800 E50.21533
G0 F9000 X96.422 Y93.311
G1 F1200 X95.011 Y91.900 E50.31488
G0 F9000 X95.202 Y91.525
G1 F1200 X96.542 Y92.865 E50.40943
G0 F9000 X96.662 Y92.419
G1 F1200 X95.392 Y91.150 E50.49900
G0 F9000 X95.583 Y90.775
G1 F1200 X96.781 Y91.973 E50.58352
G0 F9000 X96.977 Y91.603
G1 F1200 X95.774 Y90.400 E50.66840
G0 F9000 X95.964 Y90.025
G1 F1200 X97.260 Y91.320 E50.75981
G0 F9000 X97.543 Y91.037
G1 F1200 X96.155 Y89.650 E50.85770
G0 F9000 X96.346 Y89.275
G1 F1200 X97.826 Y90.755 E50.96212
G0 F9000 X98.109 Y90.472
G1 F1200 X96.537 Y88.900 E51.07304
G0 F9000 X96.727 Y88.525
G1 F1200 X98.457 Y90.255 E51.19510
G0 F9000 X98.903 Y90.134
G1 F1200 X96.918 Y88.150 E51.33511
G0 F9000 X97.176 Y87.843
G1 F1200 X99.349 Y90.015 E51.48840
G0 F9000 X99.794 Y89.895
G1 F1200 X97.742 Y87.843 E51.63318
G0 F9000 X98.308 Y87.843
G1 F1200 X100.240 Y89.775 E51.76949
G0 F9000 X101.004 Y89.973
G1 F1200 X98.874 Y87.843 E51.91977
G0 F9000 X99.439 Y87.843
G1 F1200 X101.778 Y90.182 E52.08480
G0 F9000 X101.702 Y87.843
G1 F1200 X106.182 Y92.323 E52.40089
G0 F9000 X106.883 Y93.589
G1 F1200 X101.136 Y87.843 E52.80634
G0 F9000 X100.571 Y87.843
G1 F1200 X107.108 Y94.381 E53.26759
G0 F9000 X107.108 Y94.946
G1 F1200 X100.005 Y87.843 E53.76875
G0 F9000 X102.268 Y87.843
G1 F1200 X105.481 Y91.056 E53.99544
G0 F9000 X104.781 Y89.790
G1 F1200 X102.833 Y87.843 E54.13285
G0 F9000 X103.399 Y87.843
G1 F1200 X104.080 Y88.524 E54.18090
G0 F9000 X103.765 Y92.169
G1 F1200 X107.108 Y95.512 E54.41676
G0 F9000 X107.108 Y96.078
G1 F1200 X103.974 Y92.943 E54.63792
G0 F9000 X104.178 Y93.712
G1 F1200 X107.108 Y96.643 E54.84468
G0 F9000 X107.108 Y97.209
G1 F1200 X104.058 Y94.159 E55.05988
G0 F9000 X103.938 Y94.604
G1 F1200 X107.108 Y97.775 E55.28357
G0 F9000 X107.108 Y98.340
G1 F1200 X103.818 Y95.050 E55.51570
G0 F9000 X103.698 Y95.496
G1 F1200 X107.108 Y98.906 E55.75629
G0 F9000 X107.108 Y99.472
G1 F1200 X103.478 Y95.841 E56.01244
G0 F9000 X103.195 Y96.124
G1 F1200 X107.108 Y100.037 E56.28853
G0 F9000 X107.108 Y100.603
G1 F1200 X102.913 Y96.408 E56.58451
G0 F9000 X102.630 Y96.691
G1 F1200 X120.502 Y114.562 E57.84544
G0 F9000 X121.067 Y114.562
G1 F1200 X107.348 Y100.842 E58.81342
G0 F9000 X107.913 Y100.842
G1 F1200 X121.633 Y114.562 E59.78144
G0 F9000 X122.199 Y114.562
G1 F1200 X108.479 Y100.842 E60.74946
G0 F9000 X109.045 Y100.842
G1 F1200 X122.765 Y114.562 E61.71748
G0 F9000 X123.330 Y114.562
G1 F1200 X109.610 Y100.842 E62.68550
G0 F9000 X110.176 Y100.842
G1 F1200 X123.896 Y114.562 E63.65352
G0 F9000 X124.462 Y114.562
G1 F1200 X110.742 Y100.842 E64.62154
G0 F9000 X111.307 Y100.842
G1 F1200 X125.027 Y114.562 E65.58956
G0 F9000 X125.109 Y114.078
G1 F1200 X111.873 Y100.842 E66.52343
G0 F9000 X112.439 Y100.842
G1 F1200 X125.109 Y113.512 E67.41737
G0 F9000 X125.109 Y112.946
G1 F1200 X113.004 Y100.842 E68.27141
G0 F9000 X113.570 Y100.842
G1 F1200 X125.109 Y112.381 E69.08555
G0 F9000 X125.109 Y111.815
G1 F1200 X114.136 Y100.842 E69.85975
G0 F9000 X114.701 Y100.842
G1 F1200 X125.109 Y111.249 E70.59406
G0 F9000 X125.109 Y110.684
G1 F1200 X115.267 Y100.842 E71.28846
G0 F9000 X115.833 Y100.842
G1 F1200 X125.109 Y110.118 E71.94294
G0 F9000 X125.109 Y109.552
G1 F1200 X116.398 Y100.842 E72.55751
G0 F9000 X116.964 Y100.842
G1 F1200 X125.109 Y108.987 E73.13218
G0 F9000 X125.109 Y108.421
G1 F1200 X117.530 Y100.842 E73.66692
G0 F9000 X118.096 Y100.842
G1 F1200 X125.109 Y107.855 E74.16173
G0 F9000 X125.109 Y107.290
G1 F1200 X118.661 Y100.842 E74.61667
G0 F9000 X119.227 Y100.842
G1 F1200 X125.109 Y106.724 E75.03168
G0 F9000 X125.109 Y106.158
G1 F1200 X119.793 Y100.842 E75.40675
G0 F9000 X119.936 Y114.562
G1 F1200 X102.348 Y96.974 E76.64768
G0 F9000 X101.977 Y97.169
G1 F1200 X119.370 Y114.562 E77.87485
G0 F9000 X118.805 Y114.562
G1 F1200 X101.532 Y97.289 E79.09355
G0 F9000 X101.085 Y97.408
G1 F1200 X118.239 Y114.562 E80.30386
G0 F9000 X117.673 Y114.562
G1 F1200 X100.640 Y97.529 E81.50563
G0 F9000 X100.156 Y97.611
G1 F1200 X117.108 Y114.562 E82.70165
G0 F9000 X116.542 Y114.562
G1 F1200 X99.383 Y97.403 E83.91231
G0 F9000 X98.609 Y97.195
G1 F1200 X115.976 Y114.562 E85.13764
G0 F9000 X113.148 Y114.562
G1 F1200 X93.485 Y94.900 E86.52494
G0 F9000 X93.112 Y95.092
G1 F1200 X112.582 Y114.562 E87.89865
G0 F9000 X112.017 Y114.562
G1 F1200 X92.369 Y94.914 E89.28492
G0 F9000 X91.725 Y94.836
G1 F1200 X111.451 Y114.562 E90.67670
G0 F9000 X110.885 Y114.562
G1 F1200 X91.648 Y95.325 E92.03397
G0 F9000 X91.570 Y95.812
G1 F1200 X110.319 Y114.562 E93.35685
G0 F9000 X109.754 Y114.562
G1 F1200 X91.493 Y96.301 E94.64527
G0 F9000 X91.319 Y96.693
G1 F1200 X109.188 Y114.562 E95.90602
G0 F9000 X108.622 Y114.562
G1 F1200 X91.128 Y97.068 E97.14032
G0 F9000 X90.936 Y97.442
G1 F1200 X108.057 Y114.562 E98.34826
G0 F9000 X107.491 Y114.562
G1 F1200 X90.745 Y97.816 E99.52978
G0 F9000 X90.554 Y98.191
G1 F1200 X106.925 Y114.562 E100.68484
G0 F9000 X106.360 Y114.562
G1 F1200 X90.363 Y98.565 E101.81352
G0 F9000 X90.137 Y98.905
G1 F1200 X105.794 Y114.562 E102.91820
G0 F9000 X105.228 Y114.562
G1 F1200 X89.854 Y99.188 E104.00292
G0 F9000 X89.572 Y99.471
G1 F1200 X104.663 Y114.562 E105.06767
G0 F9000 X104.097 Y114.562
G1 F1200 X89.288 Y99.753 E106.11253
G0 F9000 X89.005 Y100.036
G1 F1200 X103.531 Y114.562 E107.13742
G0 F9000 X102.966 Y114.562
G1 F1200 X88.722 Y100.319 E108.14237
G0 F9000 X88.439 Y100.602
G1 F1200 X102.400 Y114.562 E109.12736
G0 F9000 X101.834 Y114.562
G1 F1200 X88.099 Y100.827 E110.09644
G0 F9000 X87.724 Y101.017
G1 F1200 X101.269 Y114.562 E111.05211
G0 F9000 X100.703 Y114.562
G1 F1200 X87.349 Y101.208 E111.99431
G0 F9000 X86.974 Y101.399
G1 F1200 X100.137 Y114.562 E112.92303
G0 F9000 X99.571 Y114.562
G1 F1200 X86.599 Y101.590 E113.83827
G0 F9000 X86.223 Y101.780
G1 F1200 X99.006 Y114.562 E114.74015
G0 F9000 X98.440 Y114.562
G1 F1200 X85.827 Y101.949 E115.63006
G0 F9000 X85.338 Y102.026
G1 F1200 X97.874 Y114.562 E116.51455
G0 F9000 X97.309 Y114.562
G1 F1200 X84.849 Y102.103 E117.39363
G0 F9000 X84.360 Y102.179
