;Generated from Y-CORNERS.stl 8867765552c4bed22c622d461e2240fe5907bd39
;Generated with Cura_SteamEngine 15.04
M140 S55.0
M109 T0 S210.0
T0
M190 S55.0

;Basic settings: Layer height: 0.2 Walls: 1.2 Fill: 20
;Print time: ?print_time?
;Filament used: ?filament_amount?m ?filament_weight?g
;Filament cost: ?filament_cost?
;M190 S55 ;Uncomment to add your own bed temperature line
;M109 S210 ;Uncomment to add your own temperature line
G21        ;metric values
G90        ;absolute positioning
M82        ;set extruder to absolute mode
M107       ;start with the fan off
G28 X0 Y0  ;move X/Y to min endstops
G28 Z0     ;move Z to min endstops
G1 Z5.0 F9000 ;move the platform down 15mm
G92 E0                  ;zero the extruded length
G1 F200 E3              ;extrude 3mm of feed stock
G92 E0                  ;zero the extruded length again
G1 F9000
;Put printing message on LCD screen
M117 Printing...

;Layer count: 280
;LAYER:0
M107
G0 F9000 X87.400 Y89.509 Z0.300
;TYPE:SKIRT
G1 F1200 X91.509 Y85.400 E0.28991
G1 X108.491 Y85.400 E1.13715
G1 X112.600 Y89.509 E1.42706
G1 X112.600 Y114.600 E2.67885
G1 X87.400 Y114.600 E3.93609
G1 X87.400 Y89.509 E5.18788
G0 F9000 X87.800 Y89.675
G1 F1200 X91.675 Y85.800 E5.46129
G1 X108.325 Y85.800 E6.29196
G1 X112.200 Y89.675 E6.56536
G1 X112.200 Y114.200 E7.78892
G1 X87.800 Y114.200 E9.00624
G1 X87.800 Y89.675 E10.22979
G1 F2400 E5.72979
G0 F9000 X92.000 Y91.414
;TYPE:WALL-INNER
G1 F2400 E10.22979
G1 F1200 X93.414 Y90.000 E10.32956
G1 X106.586 Y90.000 E10.98671
G1 X108.000 Y91.414 E11.08648
G1 X108.000 Y110.000 E12.01374
G1 X92.000 Y110.000 E12.81198
G1 X92.000 Y91.414 E13.73924
G0 F9000 X91.600 Y91.248
G1 F1200 X93.248 Y89.600 E13.85552
G1 X106.752 Y89.600 E14.52923
G1 X108.400 Y91.248 E14.64551
G1 X108.400 Y110.400 E15.60101
G1 X91.600 Y110.400 E16.43916
G1 X91.600 Y91.248 E17.39466
G0 F9000 X91.200 Y91.082
;TYPE:WALL-OUTER
G1 F1200 X93.082 Y89.200 E17.52744
G1 X106.918 Y89.200 E18.21772
G1 X108.800 Y91.082 E18.35051
G1 X108.800 Y110.800 E19.33424
G1 X91.200 Y110.800 E20.21231
G1 X91.200 Y91.082 E21.19605
G0 F9000 X92.229 Y91.380
;TYPE:SKIN
G1 F1200 X107.859 Y107.011 E22.29886
G0 F9000 X107.859 Y107.577
G1 F1200 X92.139 Y91.856 E23.40803
G0 F9000 X92.139 Y92.422
G1 F1200 X107.859 Y108.142 E24.51716
G0 F9000 X107.859 Y108.708
G1 F1200 X92.139 Y92.988 E25.62629
G0 F9000 X92.139 Y93.553
G1 F1200 X107.859 Y109.274 E26.73546
G0 F9000 X107.859 Y109.839
G1 F1200 X92.139 Y94.119 E27.84459
G0 F9000 X92.139 Y94.685
G1 F1200 X107.313 Y109.858 E28.91516
G0 F9000 X106.747 Y109.858
G1 F1200 X92.139 Y95.250 E29.94583
G0 F9000 X92.139 Y95.816
G1 F1200 X106.181 Y109.858 E30.93657
G0 F9000 X105.616 Y109.858
G1 F1200 X92.139 Y96.382 E31.88741
G0 F9000 X92.139 Y96.947
G1 F1200 X105.050 Y109.858 E32.79835
G0 F9000 X104.484 Y109.858
G1 F1200 X92.139 Y97.513 E33.66936
G0 F9000 X92.139 Y98.079
G1 F1200 X103.919 Y109.858 E34.50047
G0 F9000 X103.353 Y109.858
G1 F1200 X92.139 Y98.644 E35.29168
G0 F9000 X92.139 Y99.210
G1 F1200 X102.787 Y109.858 E36.04295
G0 F9000 X102.222 Y109.858
G1 F1200 X92.139 Y99.776 E36.75432
G0 F9000 X92.512 Y91.097
G1 F1200 X107.859 Y106.445 E37.83717
G0 F9000 X107.859 Y105.880
G1 F1200 X92.795 Y90.815 E38.90006
G0 F9000 X93.077 Y90.532
G1 F1200 X107.859 Y105.314 E39.94301
G0 F9000 X107.859 Y104.748
G1 F1200 X93.360 Y90.249 E40.96599
G0 F9000 X93.816 Y90.139
G1 F1200 X107.859 Y104.182 E41.95680
G0 F9000 X107.859 Y103.617
G1 F1200 X94.382 Y90.139 E42.90771
G0 F9000 X94.948 Y90.139
G1 F1200 X107.859 Y103.051 E43.81868
G0 F9000 X107.859 Y102.485
G1 F1200 X95.513 Y90.139 E44.68976
G0 F9000 X96.079 Y90.139
G1 F1200 X107.859 Y101.920 E45.52094
G0 F9000 X107.859 Y101.354
G1 F1200 X96.645 Y90.139 E46.31218
G0 F9000 X97.210 Y90.139
G1 F1200 X107.859 Y100.788 E47.06353
G0 F9000 X107.859 Y100.223
G1 F1200 X97.776 Y90.139 E47.77497
G0 F9000 X98.342 Y90.139
G1 F1200 X107.859 Y99.657 E48.44648
G0 F9000 X107.859 Y99.091
G1 F1200 X98.907 Y90.139 E49.07810
G0 F9000 X99.473 Y90.139
G1 F1200 X107.859 Y98.526 E49.66981
G0 F9000 X107.859 Y97.960
G1 F1200 X100.039 Y90.139 E50.22159
G0 F9000 X100.605 Y90.139
G1 F1200 X107.859 Y97.394 E50.73343
G0 F9000 X107.859 Y96.829
G1 F1200 X101.170 Y90.139 E51.20541
G0 F9000 X101.736 Y90.139
G1 F1200 X107.859 Y96.263 E51.63746
G0 F9000 X107.859 Y95.697
G1 F1200 X102.302 Y90.139 E52.02957
G0 F9000 X102.867 Y90.139
G1 F1200 X107.859 Y95.132 E52.38182
G0 F9000 X107.859 Y94.566
G1 F1200 X103.433 Y90.139 E52.69413
G0 F9000 X103.999 Y90.139
G1 F1200 X107.859 Y94.000 E52.96651
G0 F9000 X107.859 Y93.434
G1 F1200 X104.564 Y90.139 E53.19899
G0 F9000 X105.130 Y90.139
G1 F1200 X107.859 Y92.869 E53.39157
G0 F9000 X107.859 Y92.303
G1 F1200 X105.696 Y90.139 E53.54422
G0 F9000 X106.261 Y90.139
G1 F1200 X107.859 Y91.737 E53.65696
G0 F9000 X92.139 Y100.341
G1 F1200 X101.656 Y109.858 E54.32844
G0 F9000 X101.090 Y109.858
G1 F1200 X92.139 Y100.907 E54.95998
G0 F9000 X92.139 Y101.473
G1 F1200 X100.525 Y109.858 E55.55162
G0 F9000 X99.959 Y109.858
G1 F1200 X92.139 Y102.039 E56.10333
G0 F9000 X92.139 Y102.604
G1 F1200 X99.393 Y109.858 E56.61514
G0 F9000 X98.828 Y109.858
G1 F1200 X92.139 Y103.170 E57.08705
G0 F9000 X92.139 Y103.736
G1 F1200 X98.262 Y109.858 E57.51903
G0 F9000 X97.696 Y109.858
G1 F1200 X92.139 Y104.301 E57.91110
G0 F9000 X92.139 Y104.867
G1 F1200 X97.131 Y109.858 E58.26328
G0 F9000 X96.565 Y109.858
G1 F1200 X92.139 Y105.433 E58.57552
G0 F9000 X92.139 Y105.998
G1 F1200 X95.999 Y109.858 E58.84787
G0 F9000 X95.433 Y109.858
G1 F1200 X92.139 Y106.564 E59.08028
G0 F9000 X92.139 Y107.130
G1 F1200 X94.868 Y109.858 E59.27279
G0 F9000 X94.302 Y109.858
G1 F1200 X92.139 Y107.695 E59.42540
G0 F9000 X92.139 Y108.261
G1 F1200 X93.736 Y109.858 E59.53807
G0 F9000 X93.171 Y109.858
G1 F1200 X92.139 Y108.827 E59.61085
G0 F9000 X92.139 Y109.392
G1 F1200 X92.605 Y109.858 E59.64373
;LAYER:1
M106 S255
G0 F9000 X92.000 Y110.000 Z0.500
;TYPE:WALL-INNER
G1 F1500 X92.000 Y91.414 E60.26190
G1 X93.414 Y90.000 E60.32841
G1 X106.586 Y90.000 E60.76652
G1 X108.000 Y91.414 E60.83303
G1 X108.000 Y110.000 E61.45120
G1 X92.000 Y110.000 E61.98336
G0 F9000 X91.600 Y110.400
G1 F1500 X91.600 Y91.248 E62.62036
G1 X93.248 Y89.600 E62.69788
G1 X106.752 Y89.600 E63.14702
G1 X108.400 Y91.248 E63.22454
G1 X108.400 Y110.400 E63.86154
G1 X91.600 Y110.400 E64.42031
G0 F9000 X91.200 Y110.800
;TYPE:WALL-OUTER
G1 F1500 X91.200 Y91.082 E65.07613
G1 X93.082 Y89.200 E65.16465
G1 X106.918 Y89.200 E65.62484
G1 X108.800 Y91.082 E65.71337
G1 X108.800 Y110.800 E66.36919
G1 X91.200 Y110.800 E66.95457
G0 F9000 X91.410 Y110.500
G0 X92.372 Y109.859
;TYPE:SKIN
G1 F1500 X107.859 Y94.373 E67.68300
G0 F9000 X107.859 Y94.938
G1 F1500 X92.938 Y109.859 E68.38484
G0 F9000 X93.504 Y109.859
G1 F1500 X107.859 Y95.504 E69.06006
G0 F9000 X107.859 Y96.070
G1 F1500 X94.069 Y109.859 E69.70867
G0 F9000 X94.635 Y109.859
G1 F1500 X107.859 Y96.636 E70.33067
G0 F9000 X107.859 Y97.201
G1 F1500 X95.201 Y109.859 E70.92606
G0 F9000 X95.767 Y109.859
G1 F1500 X107.859 Y97.767 E71.49483
G0 F9000 X107.859 Y98.333
G1 F1500 X96.332 Y109.859 E72.03700
G0 F9000 X96.898 Y109.859
G1 F1500 X107.859 Y98.898 E72.55257
G0 F9000 X107.859 Y99.464
G1 F1500 X97.464 Y109.859 E73.04152
G0 F9000 X98.029 Y109.859
G1 F1500 X107.859 Y100.030 E73.50387
G0 F9000 X107.859 Y100.595
G1 F1500 X98.595 Y109.859 E73.93962
G0 F9000 X99.161 Y109.859
G1 F1500 X107.859 Y101.161 E74.34875
G0 F9000 X107.859 Y101.727
G1 F1500 X99.726 Y109.859 E74.73128
G0 F9000 X92.140 Y109.526
G1 F1500 X107.859 Y93.807 E75.47065
G0 F9000 X107.859 Y93.241
G1 F1500 X92.140 Y108.960 E76.21002
G0 F9000 X92.140 Y108.395
G1 F1500 X107.859 Y92.676 E76.94940
G0 F9000 X107.859 Y92.110
G1 F1500 X92.140 Y107.829 E77.68877
G0 F9000 X92.140 Y107.263
G1 F1500 X107.859 Y91.544 E78.42815
G0 F9000 X107.613 Y91.225
G1 F1500 X92.140 Y106.698 E79.15595
G0 F9000 X92.140 Y106.132
G1 F1500 X107.330 Y90.942 E79.87044
G0 F9000 X107.047 Y90.659
G1 F1500 X92.140 Y105.566 E80.57162
G0 F9000 X92.140 Y105.001
G1 F1500 X106.764 Y90.376 E81.25951
G0 F9000 X106.435 Y90.139
G1 F1500 X92.140 Y104.435 E81.93193
G0 F9000 X92.140 Y103.869
G1 F1500 X105.870 Y90.139 E82.57774
G0 F9000 X105.304 Y90.139
G1 F1500 X92.140 Y103.304 E83.19696
G0 F9000 X92.140 Y102.738
G1 F1500 X104.738 Y90.139 E83.78956
G0 F9000 X104.173 Y90.139
G1 F1500 X92.140 Y102.172 E84.35555
G0 F9000 X92.140 Y101.607
G1 F1500 X103.607 Y90.139 E84.89495
G0 F9000 X103.041 Y90.139
G1 F1500 X92.140 Y101.041 E85.40772
G0 F9000 X92.140 Y100.475
G1 F1500 X102.476 Y90.139 E85.89389
G0 F9000 X101.910 Y90.139
G1 F1500 X92.140 Y99.909 E86.35345
G0 F9000 X92.140 Y99.344
G1 F1500 X101.344 Y90.139 E86.78640
G0 F9000 X100.778 Y90.139
G1 F1500 X92.140 Y98.778 E87.19273
G0 F9000 X92.140 Y98.212
G1 F1500 X100.213 Y90.139 E87.57245
G0 F9000 X99.647 Y90.139
G1 F1500 X92.140 Y97.647 E87.92558
G0 F9000 X92.140 Y97.081
G1 F1500 X99.081 Y90.139 E88.25209
G0 F9000 X98.516 Y90.139
G1 F1500 X92.140 Y96.515 E88.55200
G0 F9000 X92.140 Y95.950
G1 F1500 X97.950 Y90.139 E88.82531
G0 F9000 X97.384 Y90.139
G1 F1500 X92.140 Y95.384 E89.07199
G0 F9000 X92.140 Y94.818
G1 F1500 X96.819 Y90.139 E89.29208
G0 F9000 X96.253 Y90.139
G1 F1500 X92.140 Y94.253 E89.48556
G0 F9000 X92.140 Y93.687
G1 F1500 X95.687 Y90.139 E89.65243
G0 F9000 X95.122 Y90.139
G1 F1500 X92.140 Y93.121 E89.79269
G0 F9000 X92.140 Y92.556
G1 F1500 X94.556 Y90.139 E89.90636
G0 F9000 X93.990 Y90.139
G1 F1500 X92.140 Y91.990 E89.99340
G0 F9000 X107.859 Y102.292
G1 F1500 X100.292 Y109.859 E90.34933
G0 F9000 X100.858 Y109.859
G1 F1500 X107.859 Y102.858 E90.67863
G0 F9000 X107.859 Y103.424
G1 F1500 X101.423 Y109.859 E90.98134
G0 F9000 X101.989 Y109.859
G1 F1500 X107.859 Y103.989 E91.25745
G0 F9000 X107.859 Y104.555
G1 F1500 X102.555 Y109.859 E91.50693
G0 F9000 X103.120 Y109.859
G1 F1500 X107.859 Y105.121 E91.72981
G0 F9000 X107.859 Y105.687
G1 F1500 X103.686 Y109.859 E91.92608
G0 F9000 X104.252 Y109.859
G1 F1500 X107.859 Y106.252 E92.09574
G0 F9000 X107.859 Y106.818
G1 F1500 X104.817 Y109.859 E92.23880
G0 F9000 X105.383 Y109.859
G1 F1500 X107.859 Y107.384 E92.35524
G0 F9000 X107.859 Y107.949
G1 F1500 X105.949 Y109.859 E92.44508
G0 F9000 X106.515 Y109.859
G1 F1500 X107.859 Y108.515 E92.50830
G0 F9000 X107.859 Y109.081
G1 F1500 X107.080 Y109.859 E92.54492
G0 F9000 X107.646 Y109.859
G1 F1500 X107.859 Y109.646 E92.55494
;LAYER:2
G0 F9000 X108.000 Y110.000 Z0.700
;TYPE:WALL-INNER
G1 F1800 X92.000 Y110.000 E93.08710
G1 X92.000 Y91.414 E93.70527
G1 X93.414 Y90.000 E93.77178
G1 X106.586 Y90.000 E94.20988
G1 X108.000 Y91.414 E94.27639
G1 X108.000 Y110.000 E94.89457
G0 F9000 X108.400 Y110.400
G1 F1800 X91.600 Y110.400 E95.45334
G1 X91.600 Y91.248 E96.09033
G1 X93.248 Y89.600 E96.16785
G1 X106.752 Y89.600 E96.61700
G1 X108.400 Y91.248 E96.69451
G1 X108.400 Y110.400 E97.33151
G0 F9000 X108.800 Y110.800
;TYPE:WALL-OUTER
G1 F1800 X91.200 Y110.800 E97.91689
G1 X91.200 Y91.082 E98.57271
G1 X93.082 Y89.200 E98.66124
G1 X106.918 Y89.200 E99.12142
G1 X108.800 Y91.082 E99.20995
G1 X108.800 Y110.800 E99.86577
G0 F9000 X107.859 Y109.839
;TYPE:SKIN
G1 F1800 X92.139 Y94.119 E100.60519
G0 F9000 X92.139 Y94.685
G1 F1800 X107.313 Y109.858 E101.31891
G0 F9000 X106.747 Y109.858
G1 F1800 X92.139 Y95.250 E102.00602
G0 F9000 X92.139 Y95.816
G1 F1800 X106.181 Y109.858 E102.66651
G0 F9000 X105.616 Y109.858
G1 F1800 X92.139 Y96.382 E103.30041
G0 F9000 X92.139 Y96.947
G1 F1800 X105.050 Y109.858 E103.90770
G0 F9000 X104.484 Y109.858
G1 F1800 X92.139 Y97.513 E104.48837
G0 F9000 X92.139 Y98.079
G1 F1800 X103.919 Y109.858 E105.04244
G0 F9000 X103.353 Y109.858
G1 F1800 X92.139 Y98.644 E105.56992
G0 F9000 X92.139 Y99.210
G1 F1800 X102.787 Y109.858 E106.07077
G0 F9000 X102.222 Y109.858
G1 F1800 X92.139 Y99.776 E106.54502
G0 F9000 X92.139 Y93.553
G1 F1800 X107.859 Y109.274 E107.28446
G0 F9000 X107.859 Y108.708
G1 F1800 X92.139 Y92.988 E108.02388
G0 F9000 X92.139 Y92.422
G1 F1800 X107.859 Y108.142 E108.76330
G0 F9000 X107.859 Y107.577
G1 F1800 X92.139 Y91.856 E109.50275
G0 F9000 X92.229 Y91.380
G1 F1800 X107.859 Y107.011 E110.23796
G0 F9000 X107.859 Y106.445
G1 F1800 X92.512 Y91.097 E110.95986
G0 F9000 X92.795 Y90.815
G1 F1800 X107.859 Y105.880 E111.66844
G0 F9000 X107.859 Y105.314
G1 F1800 X93.077 Y90.532 E112.36374
G0 F9000 X93.360 Y90.249
G1 F1800 X107.859 Y104.748 E113.04573
G0 F9000 X107.859 Y104.182
G1 F1800 X93.816 Y90.139 E113.70627
G0 F9000 X94.382 Y90.139
G1 F1800 X107.859 Y103.617 E114.34021
G0 F9000 X107.859 Y103.051
G1 F1800 X94.948 Y90.139 E114.94753
G0 F9000 X95.513 Y90.139
G1 F1800 X107.859 Y102.485 E115.52825
G0 F9000 X107.859 Y101.920
G1 F1800 X96.079 Y90.139 E116.08237
G0 F9000 X96.645 Y90.139
G1 F1800 X107.859 Y101.354 E116.60986
G0 F9000 X107.859 Y100.788
G1 F1800 X97.210 Y90.139 E117.11076
G0 F9000 X97.776 Y90.139
G1 F1800 X107.859 Y100.223 E117.58505
G0 F9000 X101.656 Y109.858
G1 F1800 X92.139 Y100.341 E118.03270
G0 F9000 X92.139 Y100.907
G1 F1800 X101.090 Y109.858 E118.45373
G0 F9000 X100.525 Y109.858
G1 F1800 X92.139 Y101.473 E118.84816
G0 F9000 X92.139 Y102.039
G1 F1800 X99.959 Y109.858 E119.21597
G0 F9000 X99.393 Y109.858
G1 F1800 X92.139 Y102.604 E119.55717
G0 F9000 X92.139 Y103.170
G1 F1800 X98.828 Y109.858 E119.87178
G0 F9000 X98.262 Y109.858
G1 F1800 X92.139 Y103.736 E120.15976
G0 F9000 X92.139 Y104.301
G1 F1800 X97.696 Y109.858 E120.42115
G0 F9000 X97.131 Y109.858
G1 F1800 X92.139 Y104.867 E120.65593
G0 F9000 X92.139 Y105.433
G1 F1800 X96.565 Y109.858 E120.86409
G0 F9000 X95.999 Y109.858
G1 F1800 X92.139 Y105.998 E121.04566
G0 F9000 X92.139 Y106.564
G1 F1800 X95.433 Y109.858 E121.20060
G0 F9000 X94.868 Y109.858
G1 F1800 X92.139 Y107.130 E121.32894
G0 F9000 X92.139 Y107.695
G1 F1800 X94.302 Y109.858 E121.43068
G0 F9000 X93.736 Y109.858
G1 F1800 X92.139 Y108.261 E121.50579
G0 F9000 X92.139 Y108.827
G1 F1800 X93.171 Y109.858 E121.55431
G0 F9000 X92.605 Y109.858
G1 F1800 X92.139 Y109.392 E121.57623
G0 F9000 X107.859 Y99.657
G1 F1800 X98.342 Y90.139 E122.02391
G0 F9000 X98.907 Y90.139
G1 F1800 X107.859 Y99.091 E122.44498
G0 F9000 X107.859 Y98.526
G1 F1800 X99.473 Y90.139 E122.83946
G0 F9000 X100.039 Y90.139
G1 F1800 X107.859 Y97.960 E123.20731
G0 F9000 X107.859 Y97.394
G1 F1800 X100.605 Y90.139 E123.54854
G0 F9000 X101.170 Y90.139
G1 F1800 X107.859 Y96.829 E123.86319
G0 F9000 X107.859 Y96.263
G1 F1800 X101.736 Y90.139 E124.15122
G0 F9000 X102.302 Y90.139
G1 F1800 X107.859 Y95.697 E124.41263
G0 F9000 X107.859 Y95.132
G1 F1800 X102.867 Y90.139 E124.64746
G0 F9000 X103.433 Y90.139
G1 F1800 X107.859 Y94.566 E124.85567
G0 F9000 X107.859 Y94.000
G1 F1800 X103.999 Y90.139 E125.03726
G0 F9000 X104.564 Y90.139
G1 F1800 X107.859 Y93.434 E125.19224
G0 F9000 X107.859 Y92.869
G1 F1800 X105.130 Y90.139 E125.32063
G0 F9000 X105.696 Y90.139
G1 F1800 X107.859 Y92.303 E125.42240
G0 F9000 X107.859 Y91.737
G1 F1800 X106.261 Y90.139 E125.49756
;LAYER:3
G0 F9000 X105.021 Y90.139 Z0.900
;TYPE:FILL
G1 F2100 X92.140 Y103.021 E126.10347
G0 F9000 X92.139 Y100.624
G1 F2100 X101.373 Y109.858 E126.53781
G0 F9000 X102.272 Y109.859
G1 F2100 X107.859 Y104.272 E126.80060
G0 F9000 X107.859 Y105.031
G1 F2100 X93.219 Y90.390 E127.48925
G0 F9000 X93.707 Y90.139
G1 F2100 X92.140 Y91.707 E127.56298
G0 F9000 X92.139 Y94.967
G1 F2100 X107.030 Y109.858 E128.26340
G0 F9000 X96.615 Y109.859
G1 F2100 X107.859 Y98.615 E128.79229
G0 F9000 X107.859 Y99.374
G1 F2100 X98.625 Y90.139 E129.22665
G0 F9000 X99.364 Y90.139
G1 F2100 X92.140 Y97.364 E129.56647
G0 F9000 X92.139 Y106.281
G1 F2100 X95.716 Y109.858 E129.73472
G0 F9000 X92.140 Y108.678
G1 F2100 X107.859 Y92.959 E130.47409
G0 F9000 X107.859 Y93.717
G1 F2100 X104.281 Y90.139 E130.64239
G0 F9000 X106.586 Y90.000
;TYPE:WALL-INNER
G1 F2100 X108.000 Y91.414 E130.70890
G1 X108.000 Y110.000 E131.32707
G1 X92.000 Y110.000 E131.85923
G1 X92.000 Y91.414 E132.47741
G1 X93.414 Y90.000 E132.54392
G1 X106.586 Y90.000 E132.98202
G0 F9000 X106.752 Y89.600
G1 F2100 X108.400 Y91.248 E133.05954
G1 X108.400 Y110.400 E133.69654
G1 X91.600 Y110.400 E134.25531
G1 X91.600 Y91.248 E134.89230
G1 X93.248 Y89.600 E134.96982
G1 X106.752 Y89.600 E135.41897
G0 F9000 X106.918 Y89.200
;TYPE:WALL-OUTER
