;Generated from Z-AXIS-TOP-LEFT-V2.stl 4905f20cc8ca576944bddafbc05c33ff68840511
;Generated with Cura_SteamEngine 15.04
M140 S55.0
M109 T0 S210.0
T0
M190 S55.0

;Basic settings: Layer height: 0.2 Walls: 1.2 Fill: 20
;Print time: ?print_time?
;Filament used: ?filament_amount?m ?filament_weight?g
;Filament cost: ?filament_cost?
;M190 S55 ;Uncomment to add your own bed temperature line
;M109 S210 ;Uncomment to add your own temperature line
G21        ;metric values
G90        ;absolute positioning
M82        ;set extruder to absolute mode
M107       ;start with the fan off
G28 X0 Y0  ;move X/Y to min endstops
G28 Z0     ;move Z to min endstops
G1 Z5.0 F9000 ;move the platform down 15mm
G92 E0                  ;zero the extruded length
G1 F200 E3              ;extrude 3mm of feed stock
G92 E0                  ;zero the extruded length again
G1 F9000
;Put printing message on LCD screen
M117 Printing...

;Layer count: 80
;LAYER:0
M107
G0 F9000 X77.800 Y81.175 Z0.300
;TYPE:SKIRT
G1 F1200 X84.675 Y74.300 E0.48507
G1 X114.325 Y74.300 E1.96431
G1 X122.200 Y82.175 E2.51994
G1 X122.200 Y122.825 E4.54797
G1 X118.000 Y127.025 E4.84431
G1 X107.800 Y116.825 E5.56397
G1 X107.800 Y95.700 E6.61790
G1 X82.675 Y95.700 E7.87139
G1 X77.800 Y90.825 E8.21535
G1 X77.800 Y81.175 E8.69679
G1 F2400 E4.19679
G0 F9000 X82.000 Y82.914
;TYPE:WALL-INNER
G1 F2400 E8.69679
G1 F1200 X86.414 Y78.500 E9.00822
G1 X112.586 Y78.500 E10.31395
G1 X118.000 Y83.914 E10.69594
G1 X118.000 Y121.086 E12.55045
G1 X112.000 Y115.086 E12.97379
G1 X112.000 Y91.500 E14.15050
G1 X90.082 Y91.500 E15.24399
G1 X91.227 Y91.319 E15.30182
G1 X91.504 Y91.282 E15.31577
G1 X92.834 Y90.614 E15.39002
G1 X92.986 Y90.516 E15.39904
G1 X93.941 Y89.561 E15.46642
G1 X94.067 Y89.422 E15.47578
G1 X94.687 Y88.206 E15.54388
G1 X94.769 Y88.037 E15.55325
G1 X94.983 Y86.687 E15.62144
G1 X95.013 Y86.504 E15.63070
G1 X94.796 Y85.136 E15.69980
G1 X94.766 Y84.949 E15.70925
G1 X94.137 Y83.713 E15.77844
G1 X94.048 Y83.545 E15.78792
G1 X92.946 Y82.444 E15.86564
G1 X91.717 Y81.819 E15.93443
G1 X91.559 Y81.734 E15.94338
G1 X90.187 Y81.517 E16.01268
G1 X90.002 Y81.487 E16.02203
G1 X88.637 Y81.702 E16.09097
G1 X88.449 Y81.733 E16.10047
G1 X87.213 Y82.362 E16.16966
G1 X87.045 Y82.451 E16.17915
G1 X85.944 Y83.553 E16.25687
G1 X85.329 Y84.763 E16.32458
G1 X85.234 Y84.940 E16.33461
G1 X85.017 Y86.313 E16.40396
G1 X84.987 Y86.498 E16.41331
G1 X85.203 Y87.865 E16.48235
G1 X85.234 Y88.051 E16.49176
G1 X85.941 Y89.442 E16.56961
G1 X87.048 Y90.551 E16.64778
G1 X88.428 Y91.257 E16.72512
G1 X89.718 Y91.471 E16.79035
G1 X89.931 Y91.500 E16.80108
G1 X84.414 Y91.500 E17.07632
G1 X82.000 Y89.086 E17.24664
G1 X82.000 Y82.914 E17.55457
G0 F9000 X81.600 Y82.748
G1 F1200 X86.248 Y78.100 E17.88251
G1 X112.752 Y78.100 E19.20480
G1 X118.400 Y83.748 E19.60329
G1 X118.400 Y121.252 E21.47438
G1 X118.000 Y121.652 E21.50260
G1 X111.600 Y115.252 E21.95415
G1 X111.600 Y91.900 E23.11919
G1 X84.248 Y91.900 E24.48379
G1 X81.600 Y89.252 E24.67062
G1 X81.600 Y82.748 E24.99510
G0 F9000 X85.681 Y84.952
G1 F1200 X85.618 Y85.069 E25.00173
G1 X85.412 Y86.376 E25.06774
G1 X85.392 Y86.499 E25.07396
G1 X85.598 Y87.801 E25.13973
G1 X85.618 Y87.925 E25.14599
G1 X86.269 Y89.205 E25.21764
G1 X87.286 Y90.224 E25.28946
G1 X88.555 Y90.873 E25.36057
G1 X89.777 Y91.075 E25.42237
G1 X90.007 Y91.106 E25.43394
G1 X91.161 Y90.925 E25.49222
G1 X91.384 Y90.894 E25.50345
G1 X92.635 Y90.267 E25.57327
G1 X92.733 Y90.203 E25.57911
G1 X93.651 Y89.285 E25.64388
G1 X93.735 Y89.193 E25.65009
G1 X94.329 Y88.028 E25.71533
G1 X94.383 Y87.916 E25.72154
G1 X94.587 Y86.629 E25.78655
G1 X94.608 Y86.502 E25.79297
G1 X94.401 Y85.199 E25.85879
G1 X94.381 Y85.075 E25.86506
G1 X93.783 Y83.898 E25.93092
G1 X93.723 Y83.786 E25.93726
G1 X92.708 Y82.771 E26.00887
G1 X91.536 Y82.175 E26.07447
G1 X91.430 Y82.118 E26.08048
G1 X90.124 Y81.912 E26.14644
G1 X90.001 Y81.892 E26.15266
G1 X88.700 Y82.097 E26.21836
G1 X88.575 Y82.118 E26.22469
G1 X87.398 Y82.716 E26.29055
G1 X87.286 Y82.776 E26.29689
G1 X86.271 Y83.791 E26.36850
G1 X85.681 Y84.952 E26.43348
G0 F9000 X86.034 Y85.141
;TYPE:WALL-OUTER
G1 F1200 X86.003 Y85.198 E26.43671
G1 X85.798 Y86.500 E26.50247
G1 X85.993 Y87.737 E26.56495
G1 X86.003 Y87.798 E26.56803
G1 X86.597 Y88.967 E26.63345
G1 X87.525 Y89.897 E26.69900
G1 X88.682 Y90.488 E26.76381
G1 X89.836 Y90.680 E26.82218
G1 X90.002 Y90.702 E26.83053
G1 X91.102 Y90.529 E26.88609
G1 X91.265 Y90.507 E26.89429
G1 X92.436 Y89.919 E26.95967
G1 X92.480 Y89.890 E26.96230
G1 X93.362 Y89.009 E27.02449
G1 X93.403 Y88.964 E27.02753
G1 X93.970 Y87.851 E27.08985
G1 X93.997 Y87.795 E27.09295
G1 X94.193 Y86.561 E27.15528
G1 X94.203 Y86.501 E27.15832
G1 X93.997 Y85.200 E27.22403
G1 X93.428 Y84.083 E27.28657
G1 X93.398 Y84.027 E27.28974
G1 X92.470 Y83.099 E27.35522
G1 X91.355 Y82.532 E27.41763
G1 X91.301 Y82.503 E27.42068
G1 X90.000 Y82.298 E27.48639
G1 X88.701 Y82.502 E27.55199
G1 X87.583 Y83.071 E27.61458
G1 X87.527 Y83.101 E27.61775
G1 X86.599 Y84.029 E27.68322
G1 X86.034 Y85.141 E27.74545
G0 F9000 X85.765 Y85.007
G0 X81.477 Y82.729
G0 X81.200 Y82.582
G1 F1200 X86.082 Y77.700 E28.08990
G1 X112.918 Y77.700 E29.42876
G1 X118.800 Y83.582 E29.84376
G1 X118.800 Y121.418 E31.73141
G1 X118.000 Y122.218 E31.78785
G1 X111.200 Y115.418 E32.26763
G1 X111.200 Y92.300 E33.42099
G1 X84.082 Y92.300 E34.77392
G1 X81.200 Y89.418 E34.97726
G1 X81.200 Y82.582 E35.31831
G0 F9000 X82.139 Y82.988
;TYPE:SKIN
G1 F1200 X84.954 Y85.803 E35.51692
G0 F9000 X84.877 Y86.291
G1 F1200 X82.139 Y83.553 E35.71010
G0 F9000 X82.139 Y84.119
G1 F1200 X84.907 Y86.887 E35.90540
G0 F9000 X85.015 Y87.561
G1 F1200 X82.139 Y84.685 E36.10831
G0 F9000 X82.139 Y85.250
G1 F1200 X85.219 Y88.331 E36.32566
G0 F9000 X85.803 Y89.480
G1 F1200 X82.139 Y85.816 E36.58418
G0 F9000 X82.139 Y86.382
G1 F1200 X87.116 Y91.359 E36.93533
G0 F9000 X86.551 Y91.359
G1 F1200 X82.139 Y86.947 E37.24662
G0 F9000 X82.139 Y87.513
G1 F1200 X85.985 Y91.359 E37.51798
G0 F9000 X85.419 Y91.359
G1 F1200 X82.139 Y88.079 E37.74940
G0 F9000 X82.139 Y88.645
G1 F1200 X84.854 Y91.359 E37.94092
G0 F9000 X87.013 Y90.690
G1 F1200 X87.682 Y91.359 E37.98812
G0 F9000 X92.025 Y91.177
G1 F1200 X92.304 Y91.173 E38.00096
G1 X92.776 Y91.079 E38.02726
G1 X93.340 Y91.360 E38.05869
G0 F9000 X93.905 Y91.360
G1 F1200 X93.123 Y90.577 E38.11390
G0 F9000 X93.405 Y90.294
G1 F1200 X94.471 Y91.360 E38.18911
G0 F9000 X95.037 Y91.360
G1 F1200 X93.688 Y90.011 E38.28429
G0 F9000 X93.971 Y89.729
G1 F1200 X95.602 Y91.360 E38.39937
G0 F9000 X96.168 Y91.360
G1 F1200 X94.226 Y89.417 E38.53642
G0 F9000 X94.417 Y89.043
G1 F1200 X96.734 Y91.360 E38.69990
G0 F9000 X97.300 Y91.360
G1 F1200 X94.607 Y88.667 E38.88991
G0 F9000 X94.798 Y88.292
G1 F1200 X97.865 Y91.360 E39.10633
G0 F9000 X98.431 Y91.360
G1 F1200 X94.937 Y87.866 E39.35286
G0 F9000 X95.014 Y87.377
G1 F1200 X98.997 Y91.360 E39.63388
G0 F9000 X99.562 Y91.360
G1 F1200 X95.091 Y86.889 E39.94933
G0 F9000 X95.132 Y86.363
G1 F1200 X100.128 Y91.360 E40.30186
G0 F9000 X100.694 Y91.360
G1 F1200 X95.025 Y85.691 E40.70184
G0 F9000 X94.918 Y85.018
G1 F1200 X101.259 Y91.360 E41.14927
G0 F9000 X101.825 Y91.360
G1 F1200 X94.413 Y83.948 E41.67222
G0 F9000 X92.551 Y82.086
G1 F1200 X89.105 Y78.640 E41.91536
G0 F9000 X88.539 Y78.640
G1 F1200 X91.479 Y81.579 E42.12275
G0 F9000 X90.805 Y81.472
G1 F1200 X87.973 Y78.640 E42.32257
G0 F9000 X87.408 Y78.640
G1 F1200 X90.133 Y81.365 E42.51483
G0 F9000 X89.609 Y81.407
G1 F1200 X86.842 Y78.640 E42.71006
G0 F9000 X86.373 Y78.737
G1 F1200 X89.121 Y81.484 E42.90391
G0 F9000 X88.633 Y81.562
G1 F1200 X86.090 Y79.019 E43.08333
G0 F9000 X85.808 Y79.302
G1 F1200 X88.205 Y81.699 E43.25245
G0 F9000 X87.829 Y81.890
G1 F1200 X85.525 Y79.585 E43.41505
G0 F9000 X85.242 Y79.868
G1 F1200 X87.454 Y82.080 E43.57112
G0 F9000 X87.080 Y82.272
G1 F1200 X84.959 Y80.151 E43.72076
G0 F9000 X84.676 Y80.434
G1 F1200 X86.769 Y82.527 E43.86844
G0 F9000 X86.486 Y82.809
G1 F1200 X84.393 Y80.716 E44.01611
G0 F9000 X84.111 Y80.999
G1 F1200 X86.204 Y83.092 E44.16378
G0 F9000 X85.921 Y83.375
G1 F1200 X83.828 Y81.282 E44.31145
G0 F9000 X83.545 Y81.565
G1 F1200 X85.700 Y83.720 E44.46350
G0 F9000 X85.510 Y84.096
G1 F1200 X83.262 Y81.848 E44.62211
G0 F9000 X82.979 Y82.131
G1 F1200 X85.319 Y84.470 E44.78717
G0 F9000 X85.126 Y84.843
G1 F1200 X82.696 Y82.414 E44.95859
G0 F9000 X82.414 Y82.696
G1 F1200 X85.032 Y85.315 E45.14334
G0 F9000 X89.671 Y78.640
G1 F1200 X102.391 Y91.360 E46.04080
G0 F9000 X102.956 Y91.360
G1 F1200 X90.236 Y78.640 E46.93827
G0 F9000 X90.802 Y78.640
G1 F1200 X103.522 Y91.360 E47.83573
G0 F9000 X104.088 Y91.360
G1 F1200 X91.368 Y78.640 E48.73320
G0 F9000 X91.933 Y78.640
G1 F1200 X104.653 Y91.360 E49.63066
G0 F9000 X105.219 Y91.360
G1 F1200 X92.499 Y78.640 E50.52813
G0 F9000 X93.065 Y78.640
G1 F1200 X105.785 Y91.360 E51.42559
G0 F9000 X106.350 Y91.360
G1 F1200 X93.630 Y78.640 E52.32305
G0 F9000 X94.196 Y78.640
G1 F1200 X106.916 Y91.360 E53.22052
G0 F9000 X107.482 Y91.360
G1 F1200 X94.762 Y78.640 E54.11798
G0 F9000 X95.327 Y78.640
G1 F1200 X108.048 Y91.360 E55.01548
G0 F9000 X108.613 Y91.360
G1 F1200 X95.893 Y78.640 E55.91295
G0 F9000 X96.459 Y78.640
G1 F1200 X109.179 Y91.360 E56.81041
G0 F9000 X109.745 Y91.360
G1 F1200 X97.024 Y78.640 E57.70791
G0 F9000 X97.590 Y78.640
G1 F1200 X110.310 Y91.360 E58.60538
G0 F9000 X110.876 Y91.360
G1 F1200 X98.156 Y78.640 E59.50284
G0 F9000 X98.722 Y78.640
G1 F1200 X111.442 Y91.360 E60.40031
G0 F9000 X112.007 Y91.360
G1 F1200 X99.287 Y78.640 E61.29777
G0 F9000 X99.853 Y78.640
G1 F1200 X117.859 Y96.646 E62.56819
G0 F9000 X117.859 Y97.212
G1 F1200 X112.139 Y91.491 E62.97180
G0 F9000 X112.139 Y92.057
G1 F1200 X117.859 Y97.778 E63.37542
G0 F9000 X117.859 Y98.343
G1 F1200 X112.139 Y92.623 E63.77899
G0 F9000 X112.139 Y93.188
G1 F1200 X117.859 Y98.909 E64.18261
G0 F9000 X117.859 Y99.475
G1 F1200 X112.139 Y93.754 E64.58622
G0 F9000 X112.139 Y94.320
G1 F1200 X117.859 Y100.040 E64.98980
G0 F9000 X117.859 Y100.606
G1 F1200 X112.139 Y94.885 E65.39341
G0 F9000 X112.139 Y95.451
G1 F1200 X117.859 Y101.172 E65.79702
G0 F9000 X117.859 Y101.737
G1 F1200 X112.139 Y96.017 E66.20060
G0 F9000 X112.139 Y96.583
G1 F1200 X117.859 Y102.303 E66.60417
G0 F9000 X117.859 Y102.869
G1 F1200 X112.139 Y97.148 E67.00779
G0 F9000 X112.139 Y97.714
G1 F1200 X117.859 Y103.434 E67.41136
G0 F9000 X117.859 Y104.000
G1 F1200 X112.139 Y98.280 E67.81494
G0 F9000 X112.139 Y98.845
G1 F1200 X117.859 Y104.566 E68.21855
G0 F9000 X117.859 Y105.131
G1 F1200 X112.139 Y99.411 E68.62213
G0 F9000 X112.139 Y99.977
G1 F1200 X117.859 Y105.697 E69.02571
G0 F9000 X117.859 Y106.263
G1 F1200 X112.139 Y100.542 E69.42932
G0 F9000 X112.139 Y101.108
G1 F1200 X117.859 Y106.828 E69.83289
G0 F9000 X117.859 Y107.394
G1 F1200 X112.139 Y101.674 E70.23647
G0 F9000 X112.139 Y102.239
G1 F1200 X117.859 Y107.960 E70.64008
G0 F9000 X117.859 Y108.526
G1 F1200 X112.139 Y102.805 E71.04370
G0 F9000 X112.139 Y103.371
G1 F1200 X117.859 Y109.091 E71.44727
G0 F9000 X117.859 Y109.657
G1 F1200 X112.139 Y103.936 E71.85088
G0 F9000 X112.139 Y104.502
G1 F1200 X117.859 Y110.223 E72.25450
G0 F9000 X117.859 Y110.788
G1 F1200 X112.139 Y105.068 E72.65807
G0 F9000 X112.139 Y105.633
G1 F1200 X117.859 Y111.354 E73.06169
G0 F9000 X117.859 Y111.920
G1 F1200 X112.139 Y106.199 E73.46530
G0 F9000 X112.139 Y106.765
G1 F1200 X117.859 Y112.485 E73.86887
G0 F9000 X117.859 Y113.051
G1 F1200 X112.139 Y107.331 E74.27245
G0 F9000 X112.139 Y107.896
G1 F1200 X117.859 Y113.617 E74.67606
G0 F9000 X117.859 Y114.182
G1 F1200 X112.139 Y108.462 E75.07964
G0 F9000 X112.139 Y109.028
G1 F1200 X117.859 Y114.748 E75.48322
G0 F9000 X117.859 Y115.314
G1 F1200 X112.139 Y109.593 E75.88683
G0 F9000 X112.139 Y110.159
G1 F1200 X117.859 Y115.879 E76.29041
G0 F9000 X117.859 Y116.445
G1 F1200 X112.139 Y110.725 E76.69398
G0 F9000 X112.139 Y111.290
G1 F1200 X117.859 Y117.011 E77.09760
G0 F9000 X117.859 Y117.577
G1 F1200 X112.139 Y111.856 E77.50121
G0 F9000 X112.139 Y112.422
G1 F1200 X117.859 Y118.142 E77.90478
G0 F9000 X117.859 Y118.708
G1 F1200 X112.139 Y112.987 E78.30840
G0 F9000 X112.139 Y113.553
G1 F1200 X117.859 Y119.274 E78.71201
G0 F9000 X117.859 Y119.839
G1 F1200 X112.139 Y114.119 E79.11559
G0 F9000 X112.139 Y114.684
G1 F1200 X117.859 Y120.405 E79.51920
G0 F9000 X117.859 Y96.080
G1 F1200 X100.419 Y78.640 E80.74968
G0 F9000 X100.984 Y78.640
G1 F1200 X117.859 Y95.515 E81.94031
G0 F9000 X117.859 Y94.949
G1 F1200 X101.550 Y78.640 E83.09099
G0 F9000 X102.116 Y78.640
G1 F1200 X117.859 Y94.383 E84.20175
G0 F9000 X117.859 Y93.818
G1 F1200 X102.681 Y78.640 E85.27264
G0 F9000 X103.247 Y78.640
G1 F1200 X117.859 Y93.252 E86.30359
G0 F9000 X117.859 Y92.686
G1 F1200 X103.813 Y78.640 E87.29462
G0 F9000 X104.378 Y78.640
G1 F1200 X117.859 Y92.121 E88.24577
G0 F9000 X117.859 Y91.555
G1 F1200 X104.944 Y78.640 E89.15700
G0 F9000 X105.510 Y78.640
G1 F1200 X117.859 Y90.989 E90.02828
G0 F9000 X117.859 Y90.424
G1 F1200 X106.075 Y78.640 E90.85971
G0 F9000 X106.641 Y78.640
G1 F1200 X117.859 Y89.858 E91.65120
G0 F9000 X117.859 Y89.292
G1 F1200 X107.207 Y78.640 E92.40276
G0 F9000 X107.772 Y78.640
G1 F1200 X117.859 Y88.727 E93.11445
G0 F9000 X117.859 Y88.161
G1 F1200 X108.338 Y78.640 E93.78621
G0 F9000 X108.904 Y78.640
G1 F1200 X117.859 Y87.595 E94.41803
G0 F9000 X117.859 Y87.029
G1 F1200 X109.470 Y78.640 E95.00992
G0 F9000 X110.035 Y78.640
G1 F1200 X117.859 Y86.464 E95.56194
G0 F9000 X117.859 Y85.898
G1 F1200 X110.601 Y78.640 E96.07404
G0 F9000 X111.167 Y78.640
G1 F1200 X117.859 Y85.332 E96.54619
G0 F9000 X117.859 Y84.767
G1 F1200 X111.732 Y78.640 E96.97849
G0 F9000 X112.298 Y78.640
G1 F1200 X117.859 Y84.201 E97.37084
;LAYER:1
M106 S255
G0 F9000 X118.000 Y83.914 Z0.500
;TYPE:WALL-INNER
G1 F1500 X118.000 Y121.086 E98.60719
G1 X112.000 Y115.086 E98.88941
G1 X112.000 Y91.500 E99.67388
G1 X90.077 Y91.500 E100.40305
G1 X91.044 Y91.348 E100.43560
G1 X91.401 Y91.301 E100.44758
G1 X91.657 Y91.214 E100.45657
G1 X92.824 Y90.621 E100.50011
G1 X92.990 Y90.513 E100.50670
G1 X93.914 Y89.588 E100.55018
G1 X94.064 Y89.431 E100.55741
G1 X94.677 Y88.227 E100.60234
G1 X94.769 Y88.032 E100.60951
G1 X94.979 Y86.713 E100.65394
G1 X95.012 Y86.497 E100.66120
G1 X94.801 Y85.167 E100.70599
G1 X94.766 Y84.949 E100.71334
G1 X94.155 Y83.747 E100.75818
G1 X94.053 Y83.551 E100.76553
G1 X92.946 Y82.444 E100.81760
G1 X91.746 Y81.833 E100.86239
G1 X91.552 Y81.732 E100.86967
G1 X90.218 Y81.522 E100.91458
G1 X90.002 Y81.487 E100.92186
G1 X88.668 Y81.697 E100.96677
G1 X88.449 Y81.733 E100.97416
G1 X87.247 Y82.344 E101.01900
G1 X87.051 Y82.446 E101.02635
G1 X85.944 Y83.553 E101.07842
G1 X85.336 Y84.747 E101.12299
G1 X85.232 Y84.947 E101.13048
G1 X85.022 Y86.282 E101.17543
G1 X84.987 Y86.498 E101.18271
G1 X85.198 Y87.834 E101.22770
G1 X85.234 Y88.050 E101.23498
G1 X85.939 Y89.440 E101.28682
G1 X87.010 Y90.514 E101.33727
G1 X88.339 Y91.213 E101.38721
G1 X88.587 Y91.297 E101.39592
G1 X89.590 Y91.455 E101.42969
G1 X89.936 Y91.500 E101.44129
G1 X84.414 Y91.500 E101.62496
G1 X82.000 Y89.086 E101.73850
G1 X82.000 Y82.914 E101.94379
G1 X86.414 Y78.500 E102.15141
G1 X112.586 Y78.500 E103.02189
G1 X118.000 Y83.914 E103.27655
G0 F9000 X118.400 Y83.748
G1 F1500 X118.400 Y121.252 E104.52394
G1 X118.000 Y121.652 E104.54275
G1 X111.600 Y115.252 E104.84379
G1 X111.600 Y91.900 E105.62048
G1 X84.248 Y91.900 E106.53021
G1 X81.600 Y89.252 E106.65476
G1 X81.600 Y82.748 E106.87109
G1 X86.248 Y78.100 E107.08972
G1 X112.752 Y78.100 E107.97124
G1 X118.400 Y83.748 E108.23691
G0 F9000 X94.607 Y86.498
G1 F1500 X94.406 Y85.230 E108.27961
G1 X94.381 Y85.075 E108.28483
G1 X93.799 Y83.930 E108.32755
G1 X93.726 Y83.790 E108.33280
G1 X92.708 Y82.771 E108.38071
G1 X91.564 Y82.189 E108.42340
G1 X91.426 Y82.117 E108.42858
G1 X90.155 Y81.917 E108.47137
G1 X90.001 Y81.892 E108.47656
G1 X88.731 Y82.092 E108.51932
G1 X88.575 Y82.118 E108.52458
G1 X87.430 Y82.700 E108.56730
G1 X87.290 Y82.773 E108.57255
G1 X86.271 Y83.791 E108.62046
G1 X85.691 Y84.931 E108.66300
G1 X85.617 Y85.074 E108.66836
G1 X85.417 Y86.345 E108.71115
G1 X85.392 Y86.499 E108.71634
G1 X85.593 Y87.770 E108.75914
G1 X85.618 Y87.923 E108.76429
