;Generated from Z-AXIS-BOTTOM-RIGHT-V2.stl f3b4a8558a0a1aa6f6287b1364df9cbfc2c9548e
;Generated with Cura_SteamEngine 15.04
M140 S55.0
M109 T0 S210.0
T0
M190 S55.0

;Basic settings: Layer height: 0.2 Walls: 1.2 Fill: 20
;Print time: ?print_time?
;Filament used: ?filament_amount?m ?filament_weight?g
;Filament cost: ?filament_cost?
;M190 S55 ;Uncomment to add your own bed temperature line
;M109 S210 ;Uncomment to add your own temperature line
G21        ;metric values
G90        ;absolute positioning
M82        ;set extruder to absolute mode
M107       ;start with the fan off
G28 X0 Y0  ;move X/Y to min endstops
G28 Z0     ;move Z to min endstops
G1 Z5.0 F9000 ;move the platform down 15mm
G92 E0                  ;zero the extruded length
G1 F200 E3              ;extrude 3mm of feed stock
G92 E0                  ;zero the extruded length again
G1 F9000
;Put printing message on LCD screen
M117 Printing...

;Layer count: 205
;LAYER:0
M107
G0 F9000 X71.800 Y79.675 Z0.300
;TYPE:SKIRT
G1 F1200 X79.675 Y71.800 E0.55562
G1 X88.325 Y71.800 E0.98717
G1 X93.200 Y76.675 E1.33113
G1 X93.200 Y103.800 E2.68440
G1 X120.324 Y103.800 E4.03763
G1 X128.199 Y111.675 E4.59325
G1 X128.199 Y120.325 E5.02480
G1 X120.324 Y128.200 E5.58042
G1 X76.675 Y128.200 E7.75808
G1 X71.800 Y123.325 E8.10204
G1 X71.800 Y79.675 E10.27975
G1 F2400 E5.77975
G0 F9000 X76.000 Y81.414
;TYPE:WALL-INNER
G1 F2400 E10.27975
G1 F1200 X81.414 Y76.000 E10.66173
G1 X86.586 Y76.000 E10.91976
G1 X89.000 Y78.414 E11.09009
G1 X89.000 Y94.000 E11.86767
G1 X88.533 Y94.000 E11.89097
G1 X88.325 Y93.515 E11.91730
G1 X88.251 Y93.349 E11.92637
G1 X87.272 Y92.204 E12.00153
G1 X85.986 Y91.398 E12.07725
G1 X84.559 Y91.026 E12.15082
G1 X84.377 Y91.020 E12.15990
G1 X83.003 Y91.089 E12.22854
G1 X81.580 Y91.612 E12.30418
G1 X80.420 Y92.505 E12.37721
G1 X80.300 Y92.644 E12.38637
G1 X79.554 Y93.716 E12.45153
G1 X79.473 Y93.879 E12.46061
G1 X79.051 Y95.226 E12.53103
G1 X79.045 Y96.657 E12.60243
G1 X79.070 Y96.838 E12.61154
G1 X79.472 Y98.121 E12.67862
G1 X79.553 Y98.284 E12.68770
G1 X80.299 Y99.356 E12.75286
G1 X80.418 Y99.494 E12.76195
G1 X81.550 Y100.369 E12.83333
G1 X82.862 Y100.862 E12.90325
G1 X83.040 Y100.913 E12.91249
G1 X84.342 Y100.978 E12.97753
G1 X84.524 Y100.984 E12.98662
G1 X85.819 Y100.648 E13.05336
G1 X85.994 Y100.598 E13.06244
G1 X87.140 Y99.882 E13.12986
G1 X87.289 Y99.776 E13.13898
G1 X88.145 Y98.777 E13.20462
G1 X88.260 Y98.637 E13.21365
G1 X88.532 Y98.000 E13.24821
G1 X89.000 Y98.000 E13.27156
G1 X89.000 Y108.000 E13.77046
G1 X118.585 Y108.000 E15.24646
G1 X123.999 Y113.414 E15.62845
G1 X123.999 Y118.586 E15.88648
G1 X118.585 Y124.000 E16.26847
G1 X78.414 Y124.000 E18.27261
G1 X76.000 Y121.586 E18.44293
G1 X76.000 Y81.414 E20.44712
G0 F9000 X82.726 Y80.377
G1 F1200 X82.675 Y80.633 E20.46014
G1 X82.955 Y81.623 E20.51147
G1 X83.026 Y81.861 E20.52386
G1 X83.698 Y82.620 E20.57444
G1 X83.867 Y82.802 E20.58683
G1 X85.012 Y83.284 E20.64881
G1 X86.045 Y83.233 E20.70041
G1 X86.291 Y83.208 E20.71274
G1 X87.157 Y82.735 E20.76197
G1 X87.375 Y82.614 E20.77441
G1 X87.963 Y81.794 E20.82475
G1 X88.107 Y81.590 E20.83721
G1 X88.275 Y80.624 E20.88613
G1 X88.326 Y80.368 E20.89915
G1 X88.046 Y79.378 E20.95048
G1 X87.975 Y79.140 E20.96287
G1 X87.303 Y78.381 E21.01344
G1 X87.134 Y78.199 E21.02584
G1 X85.989 Y77.717 E21.08782
G1 X84.956 Y77.768 E21.13941
G1 X84.710 Y77.793 E21.15175
G1 X83.844 Y78.266 E21.20098
G1 X83.626 Y78.387 E21.21342
G1 X83.038 Y79.207 E21.26376
G1 X82.894 Y79.411 E21.27622
G1 X82.726 Y80.377 E21.32514
G0 F9000 X79.453 Y95.289
G0 X79.462 Y96.750
G0 X80.617 Y99.110
G0 X81.749 Y100.013
G0 X84.956 Y108.768
G1 F1200 X84.710 Y108.793 E21.33747
G1 X83.844 Y109.266 E21.38670
G1 X83.626 Y109.387 E21.39914
G1 X83.038 Y110.207 E21.44948
G1 X82.894 Y110.411 E21.46194
G1 X82.726 Y111.377 E21.51086
G1 X82.675 Y111.633 E21.52388
G1 X82.955 Y112.623 E21.57521
G1 X83.026 Y112.861 E21.58760
G1 X83.698 Y113.620 E21.63817
G1 X83.867 Y113.802 E21.65056
G1 X85.012 Y114.284 E21.71254
G1 X86.045 Y114.233 E21.76414
G1 X86.291 Y114.208 E21.77648
G1 X87.157 Y113.735 E21.82571
G1 X87.375 Y113.614 E21.83815
G1 X87.963 Y112.794 E21.88849
G1 X88.107 Y112.590 E21.90095
G1 X88.275 Y111.624 E21.94986
G1 X88.326 Y111.368 E21.96289
G1 X88.046 Y110.378 E22.01422
G1 X87.975 Y110.140 E22.02661
G1 X87.303 Y109.381 E22.07718
G1 X87.134 Y109.199 E22.08957
G1 X85.989 Y108.717 E22.15155
G1 X84.956 Y108.768 E22.20315
G0 F9000 X113.674 Y111.633
G1 F1200 X113.954 Y112.623 E22.25448
G1 X114.025 Y112.861 E22.26687
G1 X114.697 Y113.620 E22.31745
G1 X114.866 Y113.802 E22.32984
G1 X116.011 Y114.284 E22.39182
G1 X117.044 Y114.233 E22.44342
G1 X117.290 Y114.208 E22.45575
G1 X118.156 Y113.735 E22.50498
G1 X118.374 Y113.614 E22.51742
G1 X118.962 Y112.794 E22.56776
G1 X119.106 Y112.590 E22.58022
G1 X119.274 Y111.624 E22.62914
G1 X119.325 Y111.368 E22.64216
G1 X119.045 Y110.378 E22.69349
G1 X118.974 Y110.140 E22.70588
G1 X118.302 Y109.381 E22.75646
G1 X118.133 Y109.199 E22.76885
G1 X116.988 Y108.717 E22.83083
G1 X115.955 Y108.768 E22.88243
G1 X115.709 Y108.793 E22.89476
G1 X114.843 Y109.266 E22.94399
G1 X114.625 Y109.387 E22.95643
G1 X114.037 Y110.207 E23.00677
G1 X113.893 Y110.411 E23.01923
G1 X113.725 Y111.377 E23.06815
G1 X113.674 Y111.633 E23.08117
G0 F9000 X114.118 Y111.455
G1 F1200 X114.085 Y111.617 E23.08942
G1 X114.338 Y112.511 E23.13577
G1 X114.383 Y112.662 E23.14363
G1 X114.993 Y113.351 E23.18954
G1 X115.100 Y113.466 E23.19738
G1 X116.082 Y113.880 E23.25055
G1 X117.014 Y113.834 E23.29710
G1 X117.170 Y113.818 E23.30492
G1 X117.963 Y113.385 E23.35000
G1 X118.101 Y113.308 E23.35789
G1 X118.636 Y112.562 E23.40369
G1 X118.727 Y112.433 E23.41156
G1 X118.881 Y111.546 E23.45648
G1 X118.914 Y111.384 E23.46472
G1 X118.661 Y110.490 E23.51108
G1 X118.616 Y110.339 E23.51894
G1 X118.006 Y109.650 E23.56485
G1 X117.899 Y109.535 E23.57269
G1 X116.917 Y109.121 E23.62585
G1 X115.985 Y109.167 E23.67241
G1 X115.829 Y109.183 E23.68023
G1 X115.036 Y109.616 E23.72531
G1 X114.898 Y109.693 E23.73319
G1 X114.363 Y110.439 E23.77899
G1 X114.272 Y110.568 E23.78687
G1 X114.118 Y111.455 E23.83178
G0 F9000 X114.364 Y110.440
G0 X115.036 Y109.617
G0 X115.986 Y109.168
G0 X118.751 Y107.600
G1 F1200 X124.399 Y113.248 E24.23028
G1 X124.399 Y118.752 E24.50487
G1 X118.751 Y124.400 E24.90337
G1 X78.248 Y124.400 E26.92407
G1 X75.600 Y121.752 E27.11091
G1 X75.600 Y81.248 E29.13166
G1 X81.248 Y75.600 E29.53015
G1 X86.752 Y75.600 E29.80475
G1 X89.400 Y78.248 E29.99158
G1 X89.400 Y94.400 E30.79741
G1 X88.268 Y94.400 E30.85388
G1 X87.958 Y93.675 E30.89322
G1 X87.909 Y93.564 E30.89928
G1 X87.007 Y92.510 E30.96849
G1 X85.825 Y91.770 E31.03806
G1 X84.501 Y91.425 E31.10632
G1 X84.380 Y91.420 E31.11236
G1 X83.084 Y91.485 E31.17710
G1 X81.776 Y91.967 E31.24665
G1 X80.696 Y92.798 E31.31463
G1 X79.899 Y93.921 E31.38334
G1 X79.845 Y94.029 E31.38936
G1 X79.450 Y95.288 E31.45519
G1 X79.445 Y96.630 E31.52214
G1 X79.461 Y96.751 E31.52823
G1 X79.844 Y97.971 E31.59203
G1 X79.898 Y98.079 E31.59805
G1 X80.615 Y99.110 E31.66070
G1 X80.694 Y99.202 E31.66675
G1 X81.747 Y100.016 E31.73315
G1 X82.988 Y100.482 E31.79929
G1 X83.105 Y100.516 E31.80537
G1 X84.359 Y100.578 E31.86801
G1 X84.479 Y100.583 E31.87400
G1 X85.714 Y100.262 E31.93766
G1 X85.830 Y100.229 E31.94368
G1 X86.919 Y99.549 E32.00773
G1 X87.017 Y99.479 E32.01374
G1 X87.838 Y98.520 E32.07672
G1 X87.914 Y98.427 E32.08271
G1 X88.269 Y97.600 E32.12761
G1 X89.400 Y97.600 E32.18404
G1 X89.400 Y107.600 E32.68294
G1 X118.751 Y107.600 E34.14727
G0 F9000 X87.915 Y111.384
G1 F1200 X87.662 Y110.490 E34.19362
G1 X87.617 Y110.339 E34.20148
G1 X87.007 Y109.650 E34.24739
G1 X86.900 Y109.535 E34.25523
G1 X85.918 Y109.121 E34.30840
G1 X84.986 Y109.167 E34.35495
G1 X84.830 Y109.183 E34.36278
G1 X84.037 Y109.616 E34.40785
G1 X83.899 Y109.693 E34.41574
G1 X83.364 Y110.439 E34.46154
G1 X83.273 Y110.568 E34.46941
G1 X83.119 Y111.455 E34.51433
G1 X83.086 Y111.617 E34.52257
G1 X83.339 Y112.511 E34.56893
G1 X83.384 Y112.662 E34.57679
G1 X83.994 Y113.351 E34.62270
G1 X84.101 Y113.466 E34.63054
G1 X85.083 Y113.880 E34.68370
G1 X86.015 Y113.834 E34.73026
G1 X86.171 Y113.818 E34.73808
G1 X86.964 Y113.385 E34.78316
G1 X87.102 Y113.308 E34.79104
G1 X87.637 Y112.562 E34.83684
G1 X87.728 Y112.433 E34.84472
G1 X87.882 Y111.546 E34.88963
G1 X87.915 Y111.384 E34.89788
G0 F9000 X118.757 Y107.584
G0 X75.584 Y121.758
G0 X81.242 Y75.584
G0 X89.416 Y78.242
G0 X86.646 Y92.329
G0 X86.015 Y82.834
G1 F1200 X86.171 Y82.818 E34.90571
G1 X86.964 Y82.385 E34.95078
G1 X87.102 Y82.308 E34.95867
G1 X87.637 Y81.562 E35.00447
G1 X87.728 Y81.433 E35.01234
G1 X87.882 Y80.546 E35.05726
G1 X87.915 Y80.384 E35.06550
G1 X87.662 Y79.490 E35.11186
G1 X87.617 Y79.339 E35.11972
G1 X87.007 Y78.650 E35.16563
G1 X86.900 Y78.535 E35.17347
G1 X85.918 Y78.121 E35.22663
G1 X84.986 Y78.167 E35.27319
G1 X84.830 Y78.183 E35.28101
G1 X84.037 Y78.616 E35.32609
G1 X83.899 Y78.693 E35.33397
G1 X83.364 Y79.439 E35.37977
G1 X83.273 Y79.568 E35.38765
G1 X83.119 Y80.455 E35.43256
G1 X83.086 Y80.617 E35.44081
G1 X83.339 Y81.511 E35.48716
G1 X83.384 Y81.662 E35.49503
G1 X83.994 Y82.351 E35.54094
G1 X84.101 Y82.466 E35.54877
G1 X85.083 Y82.880 E35.60194
G1 X86.015 Y82.834 E35.64849
G0 F9000 X85.985 Y82.435
;TYPE:WALL-OUTER
G1 F1200 X86.050 Y82.428 E35.65176
G1 X86.771 Y82.034 E35.69275
G1 X86.829 Y82.002 E35.69605
G1 X87.311 Y81.330 E35.73731
G1 X87.349 Y81.276 E35.74061
G1 X87.490 Y80.467 E35.78157
G1 X87.504 Y80.400 E35.78499
G1 X87.278 Y79.602 E35.82637
G1 X87.259 Y79.538 E35.82970
G1 X86.711 Y78.919 E35.87094
G1 X86.666 Y78.870 E35.87426
G1 X85.847 Y78.525 E35.91860
G1 X85.016 Y78.566 E35.96011
G1 X84.951 Y78.573 E35.96337
G1 X84.230 Y78.967 E36.00436
G1 X84.172 Y78.999 E36.00767
G1 X83.690 Y79.671 E36.04893
G1 X83.652 Y79.725 E36.05222
G1 X83.511 Y80.534 E36.09319
G1 X83.497 Y80.601 E36.09660
G1 X83.723 Y81.399 E36.13798
G1 X83.742 Y81.463 E36.14131
G1 X84.290 Y82.082 E36.18256
G1 X84.335 Y82.131 E36.18588
G1 X85.154 Y82.476 E36.23022
G1 X85.985 Y82.435 E36.27172
G0 F9000 X85.994 Y82.734
G0 X87.098 Y82.304
G0 X87.723 Y81.430
G0 X89.500 Y78.176
G0 X89.800 Y78.082
G1 F1200 X89.800 Y94.800 E37.10579
G1 X88.005 Y94.800 E37.19534
G1 X87.591 Y93.835 E37.24773
G1 X87.567 Y93.780 E37.25072
G1 X86.743 Y92.817 E37.31395
G1 X85.665 Y92.141 E37.37744
G1 X84.443 Y91.823 E37.44043
G1 X84.383 Y91.821 E37.44343
G1 X83.165 Y91.882 E37.50427
G1 X81.971 Y92.321 E37.56774
G1 X80.972 Y93.090 E37.63063
G1 X80.244 Y94.126 E37.69381
G1 X80.217 Y94.179 E37.69677
G1 X79.850 Y95.350 E37.75800
G1 X79.845 Y96.603 E37.82051
G1 X79.853 Y96.663 E37.82353
G1 X80.216 Y97.821 E37.88407
G1 X80.243 Y97.874 E37.88704
G1 X80.932 Y98.865 E37.94726
G1 X80.971 Y98.910 E37.95023
G1 X81.944 Y99.663 E38.01161
G1 X83.113 Y100.102 E38.07391
G1 X83.171 Y100.119 E38.07692
G1 X84.376 Y100.179 E38.13712
G1 X84.435 Y100.181 E38.14006
G1 X85.609 Y99.876 E38.20058
G1 X85.666 Y99.860 E38.20353
G1 X86.697 Y99.216 E38.26418
G1 X86.746 Y99.181 E38.26718
G1 X87.531 Y98.263 E38.32744
G1 X87.569 Y98.218 E38.33038
G1 X88.005 Y97.200 E38.38563
G1 X89.800 Y97.200 E38.47518
G1 X89.800 Y107.200 E38.97409
G1 X118.917 Y107.200 E40.42674
G1 X124.799 Y113.082 E40.84175
G1 X124.799 Y118.918 E41.13291
G1 X118.917 Y124.800 E41.54791
G1 X78.082 Y124.800 E43.58518
G1 X75.200 Y121.918 E43.78852
G1 X75.200 Y81.082 E45.82584
G1 X81.082 Y75.200 E46.24084
G1 X86.918 Y75.200 E46.53200
G1 X89.800 Y78.082 E46.73534
G0 F9000 X89.500 Y78.176
G0 X81.242 Y75.584
G0 X75.584 Y121.758
G0 X118.757 Y107.584
G0 X89.459 Y107.541
G0 X85.962 Y109.249
G0 X85.847 Y109.525
G1 F1200 X85.016 Y109.566 E46.77685
G1 X84.951 Y109.573 E46.78011
G1 X84.230 Y109.967 E46.82111
G1 X84.172 Y109.999 E46.82441
G1 X83.690 Y110.671 E46.86567
G1 X83.652 Y110.725 E46.86896
G1 X83.511 Y111.534 E46.90993
G1 X83.497 Y111.601 E46.91335
G1 X83.723 Y112.399 E46.95473
G1 X83.742 Y112.463 E46.95806
G1 X84.290 Y113.082 E46.99930
G1 X84.335 Y113.131 E47.00262
G1 X85.154 Y113.476 E47.04696
G1 X85.985 Y113.435 E47.08847
G1 X86.050 Y113.428 E47.09173
G1 X86.771 Y113.034 E47.13272
G1 X86.829 Y113.002 E47.13602
G1 X87.311 Y112.330 E47.17728
G1 X87.349 Y112.276 E47.18058
G1 X87.490 Y111.467 E47.22155
G1 X87.504 Y111.400 E47.22496
G1 X87.278 Y110.602 E47.26634
G1 X87.259 Y110.538 E47.26967
G1 X86.711 Y109.919 E47.31092
G1 X86.666 Y109.870 E47.31424
G1 X85.847 Y109.525 E47.35857
G0 F9000 X85.962 Y109.249
G0 X114.216 Y111.477
G0 X114.510 Y111.534
G1 F1200 X114.496 Y111.601 E47.36199
G1 X114.722 Y112.399 E47.40337
G1 X114.741 Y112.463 E47.40670
G1 X115.289 Y113.082 E47.44794
G1 X115.334 Y113.131 E47.45126
G1 X116.153 Y113.476 E47.49560
G1 X116.984 Y113.435 E47.53711
G1 X117.049 Y113.428 E47.54037
G1 X117.770 Y113.034 E47.58136
G1 X117.828 Y113.002 E47.58466
G1 X118.310 Y112.330 E47.62592
G1 X118.348 Y112.276 E47.62922
G1 X118.489 Y111.467 E47.67019
G1 X118.503 Y111.400 E47.67360
G1 X118.277 Y110.602 E47.71498
G1 X118.258 Y110.538 E47.71831
G1 X117.710 Y109.919 E47.75956
G1 X117.665 Y109.870 E47.76288
G1 X116.846 Y109.525 E47.80721
G1 X116.015 Y109.566 E47.84872
G1 X115.950 Y109.573 E47.85198
G1 X115.229 Y109.967 E47.89297
G1 X115.171 Y109.999 E47.89628
G1 X114.689 Y110.671 E47.93754
G1 X114.651 Y110.725 E47.94083
G1 X114.510 Y111.534 E47.98180
G0 F9000 X113.544 Y111.564
;TYPE:SKIN
G1 F1200 X110.119 Y108.139 E48.22345
G0 F9000 X109.554 Y108.139
G1 F1200 X113.721 Y112.306 E48.51746
G0 F9000 X113.633 Y111.087
G1 F1200 X110.685 Y108.139 E48.72546
G0 F9000 X111.251 Y108.139
G1 F1200 X113.716 Y110.605 E48.89941
G0 F9000 X113.873 Y110.196
G1 F1200 X111.816 Y108.139 E49.04454
G0 F9000 X112.382 Y108.139
G1 F1200 X114.110 Y109.867 E49.16646
G0 F9000 X114.346 Y109.537
G1 F1200 X112.948 Y108.139 E49.26510
G0 F9000 X113.513 Y108.139
G1 F1200 X114.609 Y109.235 E49.34243
G0 F9000 X114.975 Y109.035
G1 F1200 X114.079 Y108.139 E49.40565
G0 F9000 X114.645 Y108.139
G1 F1200 X115.340 Y108.835 E49.45472
G0 F9000 X115.721 Y108.650
G1 F1200 X115.493 Y108.139 E49.49066
G1 X116.295 Y108.376 E49.52404
G1 X116.789 Y108.586 E49.55082
G0 F9000 X116.908 Y108.139
G1 F1200 X117.584 Y108.815 E49.59851
G0 F9000 X117.473 Y108.139
G1 F1200 X123.858 Y114.524 E50.04901
G0 F9000 X123.858 Y115.090
G1 F1200 X119.201 Y110.433 E50.37759
G0 F9000 X119.429 Y111.227
G1 F1200 X123.858 Y115.655 E50.69004
G0 F9000 X123.858 Y116.221
G1 F1200 X119.392 Y111.755 E51.00514
G0 F9000 X119.308 Y112.237
G1 F1200 X123.858 Y116.787 E51.32617
G0 F9000 X123.858 Y117.352
G1 F1200 X119.201 Y112.695 E51.65474
G0 F9000 X118.965 Y113.025
G1 F1200 X123.858 Y117.918 E51.99997
G0 F9000 X123.858 Y118.484
G1 F1200 X118.728 Y113.354 E52.36192
G0 F9000 X118.493 Y113.685
G1 F1200 X123.598 Y118.789 E52.72207
G0 F9000 X123.315 Y119.072
G1 F1200 X118.141 Y113.899 E53.08709
G0 F9000 X117.776 Y114.099
G1 F1200 X123.032 Y119.355 E53.45793
G0 F9000 X122.749 Y119.638
G1 F1200 X117.410 Y114.299 E53.83462
G0 F9000 X116.924 Y114.378
G1 F1200 X122.466 Y119.921 E54.22568
G0 F9000 X123.858 Y113.958
G1 F1200 X118.039 Y108.139 E54.63624
G0 F9000 X118.881 Y111.544
G0 X118.635 Y112.561
G0 X117.963 Y113.384
G0 X116.385 Y114.405
G1 F1200 X122.183 Y120.203 E55.04532
G0 F9000 X121.900 Y120.486
G1 F1200 X115.734 Y114.320 E55.48036
G0 F9000 X121.618 Y120.769
G1 F1200 X108.988 Y108.139 E56.37148
G0 F9000 X108.422 Y108.139
G1 F1200 X121.335 Y121.052 E57.28256
G0 F9000 X121.052 Y121.335
G1 F1200 X107.857 Y108.139 E58.21357
G0 F9000 X107.291 Y108.139
G1 F1200 X120.769 Y121.618 E59.16456
G0 F9000 X120.486 Y121.900
G1 F1200 X106.725 Y108.139 E60.13547
G0 F9000 X106.160 Y108.139
G1 F1200 X120.203 Y122.183 E61.12631
G0 F9000 X119.921 Y122.466
G1 F1200 X105.594 Y108.139 E62.13716
G0 F9000 X105.028 Y108.139
G1 F1200 X119.638 Y122.749 E63.16797
G0 F9000 X119.355 Y123.032
G1 F1200 X104.463 Y108.139 E64.21872
G0 F9000 X103.897 Y108.139
G1 F1200 X119.072 Y123.315 E65.28943
G0 F9000 X118.789 Y123.598
G1 F1200 X103.331 Y108.139 E66.38011
G0 F9000 X102.765 Y108.139
G1 F1200 X118.484 Y123.858 E67.48918
G0 F9000 X117.919 Y123.858
G1 F1200 X102.200 Y108.139 E68.59824
G0 F9000 X101.634 Y108.139
G1 F1200 X117.353 Y123.858 E69.70730
