;FLAVOR:Marlin
;TIME:13029
;Filament used: 11.1903m
;Layer height: 0.15
;Generated with Cura_SteamEngine 2.7.0
M190 S60
M104 S220
M109 S220
G21 ;metric values
G90 ;absolute positioning
M82 ;set extruder to absolute mode
M107 ;start with the fan off
G92 E0 ;zero the extruded length
G1 F200 E3 ;extrude 3mm of feed stock
G92 E0 ;zero the extruded length again
G1 F9000
M301 P26.92 I2.54 D71.46 ;set PID tuning for E0
M117 Printing...
;LAYER_COUNT:312
;LAYER:0
M107
G0 F2400 X61.545 Y65.619 Z0.3
;TYPE:SKIRT
G1 F1200 X68.949 Y58.747 E0.50271
G1 X69.088 Y58.623 E0.51198
G1 X71.926 Y56.187 E0.69811
G1 X72.416 Y55.818 E0.72864
G1 X74.119 Y54.699 E0.83005
G1 X74.824 Y54.316 E0.86997
G1 X76.686 Y53.498 E0.97119
G1 X77.082 Y53.345 E0.99231
G1 X78.41 Y52.897 E1.06206
G1 X78.787 Y52.787 E1.0816
G1 X80.9 Y52.262 E1.18996
G1 X81.673 Y52.135 E1.22894
G1 X83.582 Y51.982 E1.32425
G1 X83.965 Y51.967 E1.34332
G1 X100.589 Y51.968 E2.17062
G1 X101.382 Y52.034 E2.21022
G1 X102.962 Y52.299 E2.28995
G1 X103.669 Y52.474 E2.3262
G1 X105.986 Y53.237 E2.4476
G1 X106.398 Y53.394 E2.46954
G1 X108.091 Y54.13 E2.56141
G1 X108.344 Y54.249 E2.57532
G1 X110.02 Y55.097 E2.6688
G1 X110.416 Y55.321 E2.69144
G1 X111.784 Y56.185 E2.77196
G1 X112.265 Y56.533 E2.8015
G1 X118.57 Y61.707 E3.2074
G1 X118.749 Y61.861 E3.21915
G1 X124.835 Y67.378 E3.62795
G1 X125.217 Y67.765 E3.65501
G1 X125.79 Y68.417 E3.6982
G1 X126.167 Y68.907 E3.72897
G1 X126.35 Y69.202 E3.74625
G1 X126.812 Y70.01 E3.79257
G1 X127.084 Y70.567 E3.82341
G1 X127.301 Y71.225 E3.85789
G1 X127.5 Y72.019 E3.89863
G1 X127.612 Y72.628 E3.92945
G1 X127.643 Y73.085 E3.95224
G1 X127.725 Y77.027 E4.14846
G1 X127.726 Y77.144 E4.15428
G1 X127.553 Y124.598 E6.51587
G1 X127.484 Y125.394 E6.55563
G1 X127.251 Y126.749 E6.62405
G1 X127.107 Y127.351 E6.65486
G1 X126.836 Y128.035 E6.69147
G1 X126.356 Y129.021 E6.74604
G1 X126.05 Y129.559 E6.77685
G1 X125.677 Y130.053 E6.80765
G1 X125.22 Y130.515 E6.83999
G1 X124.591 Y131.071 E6.88177
G1 X124.102 Y131.451 E6.91259
G1 X123.568 Y131.764 E6.94339
G1 X123.154 Y131.948 E6.96594
G1 X122.288 Y132.285 E7.01218
G1 X121.698 Y132.471 E7.04297
G1 X121.281 Y132.555 E7.06414
G1 X120.251 Y132.714 E7.116
G1 X119.788 Y132.762 E7.13917
G1 X114.895 Y133.037 E7.38306
G1 X114.488 Y133.043 E7.40331
G1 X111.506 Y132.957 E7.55177
G1 X110.829 Y132.889 E7.58564
G1 X108.781 Y132.536 E7.68906
G1 X108.1 Y132.367 E7.72398
G1 X101.118 Y130.074 E8.0897
G1 X95.903 Y128.713 E8.35792
G1 X93.262 Y128.14 E8.49241
G1 X90.705 Y127.665 E8.62183
G1 X85.305 Y126.891 E8.89331
G1 X79.964 Y126.433 E9.16009
G1 X74.525 Y126.275 E9.43087
G1 X66.345 Y126.331 E9.83797
G1 X65.727 Y126.295 E9.86877
G1 X65.119 Y126.18 E9.89957
G1 X64.53 Y125.988 E9.9304
G1 X63.707 Y125.562 E9.97651
G1 X59.46 Y122.815 E10.22823
G1 X58.963 Y122.446 E10.25903
G1 X58.518 Y122.016 E10.28983
G1 X58.132 Y121.532 E10.32064
G1 X57.811 Y121.003 E10.35143
G1 X57.561 Y120.436 E10.38227
G1 X57.386 Y119.842 E10.41308
G1 X57.289 Y119.231 E10.44387
G1 X57.269 Y118.787 E10.46599
G1 X57.278 Y77.55 E12.51817
G1 X57.297 Y77.122 E12.53949
G1 X57.501 Y74.853 E12.65286
G1 X57.581 Y74.314 E12.67998
G1 X57.929 Y72.625 E12.7658
G1 X58.022 Y72.251 E12.78498
G1 X58.335 Y71.177 E12.84065
G1 X58.442 Y70.851 E12.85773
G1 X58.784 Y69.929 E12.90666
G1 X59.01 Y69.415 E12.93461
G1 X59.603 Y68.254 E12.99949
G1 X59.977 Y67.64 E13.03526
G1 X60.911 Y66.338 E13.11501
G1 X61.304 Y65.86 E13.1458
G1 X61.545 Y65.619 E13.16276
G0 F2400 X61.817 Y65.911
G1 F1200 X69.221 Y59.039 E13.66548
G1 X69.348 Y58.926 E13.67394
G1 X72.186 Y56.49 E13.86006
G1 X72.635 Y56.151 E13.88806
G1 X74.338 Y55.032 E13.98947
G1 X74.984 Y54.681 E14.02606
G1 X76.846 Y53.863 E14.12727
G1 X77.209 Y53.723 E14.14663
G1 X78.537 Y53.275 E14.21638
G1 X78.883 Y53.174 E14.23432
G1 X80.996 Y52.649 E14.34267
G1 X81.705 Y52.533 E14.37842
G1 X83.614 Y52.38 E14.47373
G1 X83.965 Y52.366 E14.49121
G1 X100.589 Y52.367 E15.31851
G1 X101.316 Y52.428 E15.35482
G1 X102.896 Y52.693 E15.43455
G1 X103.544 Y52.853 E15.46776
G1 X105.861 Y53.616 E15.58916
G1 X106.239 Y53.76 E15.60929
G1 X107.932 Y54.496 E15.70116
G1 X108.164 Y54.605 E15.71392
G1 X109.84 Y55.453 E15.80739
G1 X110.203 Y55.658 E15.82814
G1 X111.571 Y56.522 E15.90866
G1 X112.012 Y56.841 E15.93575
G1 X118.317 Y62.015 E16.34164
G1 X118.481 Y62.156 E16.35241
G1 X124.567 Y67.673 E16.7612
G1 X124.917 Y68.028 E16.78601
G1 X125.49 Y68.68 E16.82921
G1 X126.004 Y69.4 E16.87323
G1 X126.466 Y70.208 E16.91955
G1 X126.725 Y70.742 E16.94909
G1 X126.914 Y71.322 E16.97944
G1 X127.113 Y72.116 E17.02018
G1 X127.218 Y72.699 E17.04966
G1 X127.244 Y73.094 E17.06936
G1 X127.326 Y77.036 E17.26558
G1 X127.327 Y77.143 E17.2709
G1 X127.154 Y124.597 E19.63249
G1 X127.09 Y125.326 E19.66891
G1 X126.857 Y126.681 E19.73733
G1 X126.718 Y127.257 E19.76682
G1 X126.477 Y127.861 E19.79918
G1 X125.997 Y128.847 E19.85375
G1 X125.703 Y129.361 E19.88322
G1 X125.341 Y129.831 E19.91275
G1 X124.956 Y130.216 E19.93984
G1 X124.327 Y130.772 E19.98162
G1 X123.858 Y131.134 E20.0111
G1 X123.344 Y131.429 E20.0406
G1 X123.01 Y131.576 E20.05876
G1 X122.144 Y131.913 E20.105
G1 X121.578 Y132.09 E20.13452
G1 X121.22 Y132.161 E20.15268
G1 X120.19 Y132.32 E20.20454
G1 X119.766 Y132.364 E20.22576
G1 X114.873 Y132.639 E20.46964
G1 X114.499 Y132.644 E20.48826
G1 X111.517 Y132.558 E20.63672
G1 X110.897 Y132.496 E20.66773
G1 X108.849 Y132.143 E20.77115
G1 X108.224 Y131.988 E20.8032
G1 X101.227 Y129.69 E21.16971
G1 X95.992 Y128.324 E21.43895
G1 X93.354 Y127.751 E21.57329
G1 X90.761 Y127.269 E21.70455
G1 X85.36 Y126.496 E21.97607
G1 X79.975 Y126.034 E22.24504
G1 X74.534 Y125.875 E22.51593
G1 X66.342 Y125.932 E22.92362
G1 X65.751 Y125.896 E22.95308
G1 X65.169 Y125.781 E22.98261
G1 X64.608 Y125.589 E23.01212
G1 X63.924 Y125.227 E23.05063
G1 X59.677 Y122.48 E23.30234
G1 X59.202 Y122.125 E23.33185
G1 X58.779 Y121.71 E23.36134
G1 X58.416 Y121.241 E23.39086
G1 X58.119 Y120.728 E23.42036
G1 X57.894 Y120.18 E23.44984
G1 X57.745 Y119.606 E23.47935
G1 X57.668 Y118.787 E23.52029
G1 X57.677 Y77.55 E25.57246
G1 X57.695 Y77.157 E25.59204
G1 X57.899 Y74.888 E25.70542
G1 X57.971 Y74.395 E25.73021
G1 X58.319 Y72.706 E25.81603
G1 X58.405 Y72.363 E25.83363
G1 X58.718 Y71.289 E25.8893
G1 X58.816 Y70.99 E25.90496
G1 X59.158 Y70.068 E25.9539
G1 X59.365 Y69.597 E25.9795
G1 X59.958 Y68.436 E26.04438
G1 X60.301 Y67.873 E26.07719
G1 X61.235 Y66.571 E26.15693
G1 X61.817 Y65.911 E26.20072
G0 F2400 X62.088 Y66.204
G1 F1200 X69.492 Y59.332 E26.70343
G1 X69.608 Y59.228 E26.71119
G1 X72.446 Y56.792 E26.89732
G1 X72.855 Y56.485 E26.92277
G1 X74.558 Y55.366 E27.02417
G1 X75.145 Y55.047 E27.05742
G1 X77.007 Y54.229 E27.15863
G1 X77.337 Y54.101 E27.17625
G1 X78.665 Y53.653 E27.246
G1 X78.979 Y53.561 E27.26228
G1 X81.092 Y53.036 E27.37063
G1 X81.737 Y52.931 E27.40315
G1 X83.646 Y52.778 E27.49846
G1 X83.965 Y52.765 E27.51435
G1 X100.589 Y52.766 E28.34165
G1 X101.25 Y52.821 E28.37466
G1 X102.83 Y53.086 E28.45438
G1 X103.42 Y53.232 E28.48463
G1 X105.737 Y53.995 E28.60603
G1 X106.08 Y54.125 E28.62428
G1 X107.773 Y54.861 E28.71615
G1 X107.984 Y54.961 E28.72777
G1 X109.66 Y55.809 E28.82125
G1 X109.99 Y55.996 E28.84013
G1 X111.358 Y56.86 E28.92065
G1 X111.759 Y57.149 E28.94524
G1 X118.064 Y62.323 E29.35114
G1 X118.213 Y62.452 E29.36095
G1 X124.299 Y67.969 E29.76974
G1 X124.617 Y68.292 E29.7923
G1 X125.19 Y68.944 E29.8355
G1 X125.658 Y69.599 E29.87556
G1 X126.12 Y70.407 E29.92188
G1 X126.365 Y70.916 E29.94999
G1 X126.527 Y71.419 E29.97629
G1 X126.726 Y72.213 E30.01703
G1 X126.824 Y72.77 E30.04517
G1 X126.845 Y73.102 E30.06173
G1 X126.927 Y77.044 E30.25794
G1 X126.928 Y77.142 E30.26282
G1 X126.755 Y124.596 E32.62441
G1 X126.697 Y125.259 E32.65753
G1 X126.464 Y126.614 E32.72595
G1 X126.329 Y127.162 E32.75404
G1 X126.119 Y127.686 E32.78213
G1 X125.639 Y128.672 E32.8367
G1 X125.356 Y129.161 E32.86482
G1 X125.007 Y129.606 E32.89297
G1 X124.692 Y129.917 E32.91499
G1 X124.063 Y130.473 E32.95677
G1 X123.614 Y130.817 E32.98492
G1 X122.865 Y131.204 E33.02688
G1 X121.999 Y131.541 E33.07312
G1 X121.459 Y131.708 E33.10125
G1 X121.159 Y131.766 E33.11646
G1 X120.129 Y131.925 E33.16832
G1 X119.743 Y131.966 E33.18764
G1 X114.85 Y132.241 E33.43153
G1 X114.511 Y132.245 E33.4484
G1 X111.529 Y132.159 E33.59686
G1 X110.965 Y132.103 E33.62507
G1 X108.917 Y131.75 E33.72849
G1 X108.349 Y131.608 E33.75763
G1 X101.356 Y129.312 E34.12391
G1 X96.086 Y127.936 E34.39497
G1 X93.44 Y127.361 E34.52972
G1 X90.821 Y126.875 E34.66228
G1 X85.397 Y126.098 E34.93497
G1 X80.003 Y125.636 E35.20439
G1 X74.542 Y125.476 E35.47627
G1 X66.34 Y125.533 E35.88446
G1 X65.776 Y125.497 E35.91258
G1 X65.222 Y125.382 E35.94074
G1 X64.691 Y125.189 E35.96886
G1 X64.141 Y124.892 E35.99996
G1 X59.894 Y122.145 E36.25168
G1 X59.442 Y121.805 E36.27982
G1 X59.043 Y121.405 E36.30794
G1 X58.704 Y120.953 E36.33606
G1 X58.432 Y120.457 E36.36421
G1 X58.233 Y119.928 E36.39234
G1 X58.111 Y119.377 E36.42042
G1 X58.067 Y118.787 E36.44986
G1 X58.076 Y77.55 E38.50204
G1 X58.092 Y77.193 E38.51983
G1 X58.296 Y74.924 E38.6332
G1 X58.362 Y74.475 E38.65579
G1 X58.71 Y72.786 E38.74161
G1 X58.788 Y72.474 E38.75761
G1 X59.101 Y71.4 E38.81328
G1 X59.191 Y71.129 E38.82749
G1 X59.533 Y70.207 E38.87643
G1 X59.721 Y69.778 E38.89974
G1 X60.314 Y68.617 E38.96462
G1 X60.625 Y68.106 E38.99439
G1 X61.559 Y66.804 E39.07413
G1 X62.088 Y66.204 E39.11394
G0 F2400 X62.36 Y66.496
G1 F1200 X69.764 Y59.624 E39.61665
G1 X69.868 Y59.531 E39.62359
G1 X72.706 Y57.095 E39.80972
G1 X73.074 Y56.818 E39.83264
G1 X74.777 Y55.699 E39.93405
G1 X75.305 Y55.412 E39.96396
G1 X77.167 Y54.594 E40.06517
G1 X77.465 Y54.479 E40.08107
G1 X78.793 Y54.031 E40.15082
G1 X79.075 Y53.948 E40.16544
G1 X81.188 Y53.423 E40.2738
G1 X81.768 Y53.329 E40.30304
G1 X83.677 Y53.176 E40.39834
G1 X83.965 Y53.164 E40.41269
G1 X100.589 Y53.165 E41.23999
G1 X101.184 Y53.215 E41.2697
G1 X102.764 Y53.48 E41.34943
G1 X103.295 Y53.611 E41.37665
G1 X105.612 Y54.374 E41.49805
G1 X105.921 Y54.491 E41.51449
G1 X107.614 Y55.227 E41.60636
G1 X107.804 Y55.317 E41.61682
G1 X109.48 Y56.165 E41.7103
G1 X109.777 Y56.333 E41.72728
G1 X111.145 Y57.197 E41.8078
G1 X111.506 Y57.458 E41.82997
G1 X117.811 Y62.632 E42.23587
G1 X117.945 Y62.748 E42.24469
G1 X124.031 Y68.265 E42.65348
G1 X124.317 Y68.555 E42.67375
G1 X124.89 Y69.207 E42.71695
G1 X125.311 Y69.797 E42.75302
G1 X125.773 Y70.605 E42.79934
G1 X126.004 Y71.089 E42.82603
G1 X126.14 Y71.516 E42.84833
G1 X126.339 Y72.31 E42.88906
G1 X126.43 Y72.838 E42.91573
G1 X126.446 Y73.11 E42.92929
G1 X126.528 Y77.052 E43.1255
G1 X126.529 Y77.14 E43.12988
G1 X126.356 Y124.594 E45.49147
G1 X126.304 Y125.191 E45.52129
G1 X126.071 Y126.546 E45.58972
G1 X125.941 Y127.066 E45.61639
G1 X125.76 Y127.511 E45.6403
G1 X125.28 Y128.497 E45.69487
G1 X125.01 Y128.961 E45.72159
G1 X124.674 Y129.379 E45.74828
G1 X124.428 Y129.619 E45.76538
G1 X123.799 Y130.175 E45.80716
G1 X123.371 Y130.499 E45.83387
G1 X122.72 Y130.832 E45.87026
G1 X121.854 Y131.169 E45.91651
G1 X121.098 Y131.372 E45.95546
G1 X120.068 Y131.531 E46.00733
G1 X119.721 Y131.567 E46.02469
G1 X114.828 Y131.842 E46.26858
G1 X114.522 Y131.847 E46.28381
G1 X111.54 Y131.761 E46.43227
G1 X111.033 Y131.71 E46.45763
G1 X108.985 Y131.357 E46.56105
G1 X108.473 Y131.229 E46.58731
G1 X101.465 Y128.928 E46.95439
G1 X96.175 Y127.547 E47.22647
G1 X93.5 Y126.966 E47.3627
G1 X90.901 Y126.483 E47.49425
G1 X85.453 Y125.703 E47.76814
G1 X80.013 Y125.237 E48.03986
G1 X74.551 Y125.077 E48.31179
G1 X66.337 Y125.134 E48.72057
G1 X65.802 Y125.098 E48.74726
G1 X65.278 Y124.982 E48.77397
G1 X64.777 Y124.79 E48.80067
G1 X64.357 Y124.557 E48.82457
G1 X60.11 Y121.81 E49.07628
G1 X59.683 Y121.486 E49.10296
G1 X59.309 Y121.102 E49.12963
G1 X58.995 Y120.667 E49.15633
G1 X58.75 Y120.19 E49.18302
G1 X58.579 Y119.682 E49.20969
G1 X58.485 Y119.154 E49.23638
G1 X58.466 Y118.787 E49.25467
G1 X58.475 Y77.55 E51.30685
G1 X58.489 Y77.229 E51.32284
G1 X58.693 Y74.96 E51.43621
G1 X58.753 Y74.556 E51.45654
G1 X59.101 Y72.867 E51.54236
G1 X59.171 Y72.586 E51.55677
G1 X59.484 Y71.512 E51.61244
G1 X59.565 Y71.267 E51.62528
G1 X59.907 Y70.345 E51.67422
G1 X60.076 Y69.96 E51.69515
G1 X60.669 Y68.799 E51.76002
G1 X60.95 Y68.338 E51.78689
G1 X61.884 Y67.036 E51.86663
G1 X62.36 Y66.496 E51.90246
G0 F2400 X62.631 Y66.789
G1 F1200 X70.035 Y59.917 E52.40517
G1 X70.128 Y59.834 E52.41138
G1 X72.966 Y57.398 E52.5975
G1 X73.293 Y57.152 E52.61787
G1 X74.996 Y56.033 E52.71928
G1 X75.466 Y55.777 E52.74591
G1 X77.328 Y54.959 E52.84712
G1 X77.592 Y54.857 E52.86121
G1 X78.92 Y54.409 E52.93095
G1 X79.171 Y54.335 E52.94398
G1 X81.284 Y53.81 E53.05233
G1 X81.8 Y53.726 E53.07835
G1 X83.709 Y53.573 E53.17365
G1 X83.965 Y53.563 E53.1864
G1 X100.589 Y53.564 E54.0137
G1 X101.118 Y53.608 E54.04012
G1 X102.698 Y53.873 E54.11985
G1 X103.17 Y53.99 E54.14405
G1 X105.487 Y54.753 E54.26545
G1 X105.762 Y54.857 E54.28008
G1 X107.455 Y55.593 E54.37195
G1 X107.624 Y55.673 E54.38125
G1 X109.3 Y56.521 E54.47473
G1 X109.564 Y56.67 E54.48981
G1 X110.932 Y57.534 E54.57033
G1 X111.253 Y57.766 E54.59004
G1 X117.558 Y62.94 E54.99594
G1 X117.677 Y63.043 E55.00377
G1 X123.763 Y68.56 E55.41257
G1 X124.018 Y68.819 E55.43066
G1 X124.591 Y69.471 E55.47385
G1 X124.965 Y69.995 E55.50589
G1 X125.427 Y70.803 E55.55221
G1 X125.642 Y71.26 E55.57734
G1 X125.753 Y71.613 E55.59576
G1 X125.952 Y72.407 E55.6365
G1 X126.047 Y73.118 E55.67219
G1 X126.129 Y77.06 E55.86841
G1 X126.13 Y77.139 E55.87234
G1 X125.957 Y124.593 E58.23393
G1 X125.911 Y125.123 E58.2604
G1 X125.678 Y126.478 E58.32883
G1 X125.553 Y126.968 E58.35399
G1 X125.401 Y127.337 E58.37385
G1 X124.921 Y128.323 E58.42843
G1 X124.665 Y128.758 E58.45355
G1 X124.163 Y129.32 E58.49105
G1 X123.534 Y129.876 E58.53283
G1 X123.13 Y130.179 E58.55796
G1 X122.575 Y130.46 E58.58891
G1 X121.709 Y130.797 E58.63516
G1 X121.037 Y130.978 E58.66979
G1 X120.007 Y131.137 E58.72166
G1 X119.699 Y131.169 E58.73707
G1 X114.806 Y131.444 E58.98096
G1 X114.534 Y131.448 E58.99449
G1 X111.552 Y131.362 E59.14296
G1 X111.1 Y131.316 E59.16557
G1 X109.052 Y130.963 E59.26899
G1 X108.598 Y130.85 E59.29227
G1 X101.579 Y128.545 E59.65993
G1 X96.269 Y127.159 E59.93304
G1 X93.585 Y126.576 E60.06972
G1 X90.96 Y126.089 E60.20259
G1 X85.49 Y125.305 E60.47759
G1 X80.059 Y124.84 E60.74885
G1 X74.533 Y124.678 E61.02397
G1 X66.334 Y124.735 E61.43201
G1 X65.83 Y124.698 E61.45716
G1 X65.338 Y124.583 E61.4823
G1 X64.87 Y124.392 E61.50746
G1 X64.574 Y124.222 E61.52445
G1 X60.327 Y121.475 E61.77616
G1 X59.926 Y121.168 E61.80129
G1 X59.577 Y120.801 E61.82649
G1 X59.291 Y120.384 E61.85166
G1 X59.075 Y119.927 E61.87681
G1 X58.933 Y119.442 E61.90196
G1 X58.865 Y118.787 E61.93473
G1 X58.874 Y77.55 E63.98691
G1 X58.887 Y77.264 E64.00116
G1 X59.091 Y74.995 E64.11453
G1 X59.144 Y74.636 E64.13259
G1 X59.492 Y72.947 E64.21841
G1 X59.554 Y72.698 E64.23118
G1 X59.867 Y71.624 E64.28686
G1 X59.939 Y71.406 E64.29828
G1 X60.281 Y70.484 E64.34722
G1 X60.431 Y70.141 E64.36585
G1 X61.024 Y68.98 E64.43073
G1 X61.274 Y68.571 E64.45458
G1 X62.208 Y67.269 E64.53433
G1 X62.631 Y66.789 E64.56616
G1 F1500 E63.56616
G0 F2400 X61.41 Y76.864
G0 X61.394 Y118.952
G0 X61.898 Y119.456
G0 X67.458 Y119.697
;TYPE:SUPPORT
G1 F1500 E64.56616
G1 F1200 X71.646 Y119.699 E64.77458
G1 X70.966 Y121.346 E64.86326
G1 X66.63 Y121.346 E65.07904
G1 X67.458 Y119.697 E65.17087
G0 F2400 X69.329 Y119.897
G1 F1200 X69.329 Y121.147 E65.23307
G0 F2400 X81.987 Y119.704
G1 F1200 X88.375 Y119.708 E65.55098
G1 X87.956 Y120.725 E65.60572
G1 X82.408 Y120.725 E65.88181
G1 X81.987 Y119.704 E65.93677
G0 F2400 X85.328 Y119.906
G1 F1200 X85.328 Y120.526 E65.96763
G0 F2400 X97.603 Y121.346
G1 F1200 X98.422 Y119.712 E66.05859
G1 X102.644 Y119.715 E66.2687
G1 X101.971 Y121.346 E66.3565
G1 X97.603 Y121.346 E66.57388
G0 F2400 X101.327 Y121.147
G1 F1200 X101.327 Y119.914 E66.63524
G1 F1500 E65.63524
G0 F2400 X101.328 Y119.48
G0 X101.328 Y118.198
G0 X107.585 Y117.821
;TYPE:WALL-INNER
G1 F1500 E66.63524
G1 F1200 X63.051 Y117.799 E68.8515
G1 X63.051 Y99.813 E69.74658
G1 X63.061 Y99.813 E69.74708
G1 X63.07 Y76.942 E70.88526
G1 X63.243 Y75.504 E70.95734
G1 X63.599 Y73.763 E71.04578
