; generated by Slic3r 1.2.9 on 2017-02-26 at 15:24:45

; external perimeters extrusion width = 0.30mm
; perimeters extrusion width = 0.40mm
; infill extrusion width = 0.40mm
; solid infill extrusion width = 0.40mm
; top infill extrusion width = 0.40mm

M107
;M190 S65 ; set bed temperature
;M104 S230 ; set temperature
;G28 ; home all axes
G1 Z5 F5000 ; lift nozzle

;M109 S230 ; wait for temperature to be reached
G21 ; set units to millimeters
G90 ; use absolute coordinates
M82 ; use absolute distances for extrusion
G92 E0
G1 Z0.300 F2400.000
G1 E-2.00000 F2400.00000
G92 E0
G1 X85.004 Y85.787 F2400.000
G1 E2.00000 F2400.00000
G1 X86.753 Y84.328 E2.15217 F1800.000
G1 X90.000 Y83.464 E2.37660
G1 X110.000 Y83.464 E3.71271
G1 X112.243 Y83.861 E3.86488
G1 X114.213 Y85.004 E4.01705 F1800.000
G1 X115.672 Y86.753 E4.16922
G1 X116.536 Y90.000 E4.39365
G1 X116.536 Y110.000 E5.72976
G1 X116.139 Y112.243 E5.88193
G1 X114.996 Y114.213 E6.03410
G1 X113.247 Y115.672 E6.18627
G1 X110.000 Y116.536 E6.41070
G1 X90.000 Y116.536 E7.74681
G1 X87.757 Y116.139 E7.89898
G1 X85.787 Y114.996 E8.05115
G1 X84.328 Y113.247 E8.20332
G1 X83.464 Y110.000 E8.42775
G1 X83.464 Y90.000 E9.76386
G1 X83.861 Y87.757 E9.91603
G1 X84.981 Y85.825 E10.06520
G1 E8.06520 F2400.00000
G92 E0
G1 X108.629 Y108.629 F2400.000
G1 E2.00000 F2400.00000
G1 X91.371 Y108.629 E3.15290 F1800.000
G1 X91.371 Y91.371 E4.30579
G1 X108.629 Y91.371 E5.45869
G1 X108.629 Y108.584 E6.60858
G1 X109.164 Y109.164 F2400.000
G1 X90.836 Y109.164 E7.83304 F1800.000
G1 X90.836 Y90.836 E9.05750
G1 X109.164 Y90.836 E10.28196
G1 X109.164 Y109.119 E11.50341
G1 X109.700 Y109.700 F2400.000
G1 X90.300 Y109.700 E12.79944 F1800.000
G1 X90.300 Y90.300 E14.09546
G1 X109.700 Y90.300 E15.39149
G1 X109.700 Y109.655 E16.68451
G1 X109.440 Y109.550 F2400.000
G1 X108.307 Y91.960 F2400.000
G1 X108.040 Y91.693 E16.70985 F1800.000
G1 X107.280 Y91.693 E16.76083
G1 X108.307 Y92.720 E16.85828
G1 X108.307 Y93.481 E16.90927
G1 X106.519 Y91.693 E17.07882
G1 X105.759 Y91.693 E17.12980
G1 X108.307 Y94.241 E17.37146
G1 X108.307 Y95.001 E17.42244
G1 X104.999 Y91.693 E17.73620
G1 X104.238 Y91.693 E17.78718
G1 X108.307 Y95.762 E18.17304
G1 X108.307 Y96.522 E18.22403
G1 X103.478 Y91.693 E18.68199
G1 X102.718 Y91.693 E18.73298
G1 X108.307 Y97.282 E19.26304
G1 X108.307 Y98.043 E19.31403
G1 X101.957 Y91.693 E19.91620
G1 X101.197 Y91.693 E19.96718
G1 X108.307 Y98.803 E20.64146
G1 X108.307 Y99.563 E20.69244
G1 X100.437 Y91.693 E21.43882
G1 X99.676 Y91.693 E21.48981
G1 X108.307 Y100.324 E22.30829
G1 X108.307 Y101.084 E22.35927
G1 X98.916 Y91.693 E23.24986
G1 X98.156 Y91.693 E23.30084
G1 X108.307 Y101.844 E24.26353
G1 X108.307 Y102.605 E24.31451
G1 X97.395 Y91.693 E25.34930
G1 X96.635 Y91.693 E25.40029
G1 X108.307 Y103.365 E26.50718
G1 X108.307 Y104.125 E26.55817
G1 X95.875 Y91.693 E27.73717
G1 X95.114 Y91.693 E27.78815
G1 X108.307 Y104.886 E29.03925
G1 X108.307 Y105.646 E29.09024
G1 X94.354 Y91.693 E30.41344
G1 X93.594 Y91.693 E30.46443
G1 X108.307 Y106.406 E31.85974
G1 X108.307 Y107.167 E31.91072
G1 X92.833 Y91.693 E33.37813
G1 X92.073 Y91.693 E33.42912
G1 X108.307 Y107.927 E34.96863
G1 X107.927 Y108.307 E35.00469
G1 X91.693 Y92.073 E36.54420
G1 X91.693 Y92.833 E36.59518
G1 X107.167 Y108.307 E38.06259
G1 X106.406 Y108.307 E38.11358
G1 X91.693 Y93.594 E39.50888
G1 X91.693 Y94.354 E39.55987
G1 X105.646 Y108.307 E40.88307
G1 X104.886 Y108.307 E40.93405
G1 X91.693 Y95.114 E42.18515
G1 X91.693 Y95.875 E42.23614
G1 X104.125 Y108.307 E43.41513
G1 X103.365 Y108.307 E43.46612
G1 X91.693 Y96.635 E44.57301
G1 X91.693 Y97.395 E44.62400
G1 X102.605 Y108.307 E45.65878
G1 X101.844 Y108.307 E45.70977
G1 X91.693 Y98.156 E46.67245
G1 X91.693 Y98.916 E46.72344
G1 X101.084 Y108.307 E47.61402
G1 X100.324 Y108.307 E47.66500
G1 X91.693 Y99.676 E48.48348
G1 X91.693 Y100.437 E48.53447
G1 X99.563 Y108.307 E49.28084
G1 X98.803 Y108.307 E49.33183
G1 X91.693 Y101.197 E50.00610
G1 X91.693 Y101.957 E50.05708
G1 X98.043 Y108.307 E50.65925
G1 X97.282 Y108.307 E50.71024
G1 X91.693 Y102.718 E51.24030
G1 X91.693 Y103.478 E51.29129
G1 X96.522 Y108.307 E51.74925
G1 X95.762 Y108.307 E51.80023
G1 X91.693 Y104.238 E52.18609
G1 X91.693 Y104.999 E52.23707
G1 X95.001 Y108.307 E52.55083
G1 X94.241 Y108.307 E52.60181
G1 X91.693 Y105.759 E52.84346
G1 X91.693 Y106.519 E52.89445
G1 X93.481 Y108.307 E53.06399
G1 X92.720 Y108.307 E53.11498
G1 X91.693 Y107.280 E53.21242
G1 X91.693 Y108.040 E53.26341
G1 X91.960 Y108.307 E53.28875
M104 S220 ; set temperature
M140 S60 ; wait for bed temperature to be reached
G1 Z0.500 F2400.000
G1 X109.191 Y109.191 F2400.000
G1 X90.809 Y109.191 E53.82897 F2400.000
G1 X90.809 Y90.809 E54.36920
G1 X109.191 Y90.809 E54.90942
G1 X109.191 Y109.146 E55.44832
G1 X109.545 Y109.545 F2400.000
G1 X90.455 Y109.545 E56.00932 F2400.000
G1 X90.455 Y90.455 E56.57032
G1 X109.545 Y90.455 E57.13132
G1 X109.545 Y109.500 E57.69099
G1 X109.850 Y109.850 F2400.000
G1 X90.150 Y109.850 E58.11210 F1200.000
G1 X90.150 Y90.150 E58.53321
G1 X109.850 Y90.150 E58.95433
G1 X109.850 Y109.805 E59.37448
G1 X109.590 Y109.700 F2400.000
G1 X108.796 Y108.986 F2400.000
G1 X108.986 Y108.796 E59.38239 F1200.000
G1 X108.986 Y108.295 E59.39714
G1 X108.295 Y108.986 E59.42591
G1 X107.794 Y108.986 E59.44067
G1 X108.986 Y107.794 E59.49030
G1 X108.986 Y107.293 E59.50505
G1 X107.293 Y108.986 E59.57555
G1 X106.792 Y108.986 E59.59030
G1 X108.986 Y106.792 E59.68166
G1 X108.986 Y106.291 E59.69642
G1 X106.291 Y108.986 E59.80864
G1 X105.791 Y108.986 E59.82339
G1 X108.986 Y105.791 E59.95648
G1 X108.986 Y105.290 E59.97123
G1 X105.290 Y108.986 E60.12517
G1 X104.789 Y108.986 E60.13993
G1 X108.986 Y104.789 E60.31474
G1 X108.986 Y104.288 E60.32949
G1 X104.288 Y108.986 E60.52516
G1 X103.787 Y108.986 E60.53991
G1 X108.986 Y103.787 E60.75644
G1 X108.986 Y103.286 E60.77120
G1 X103.286 Y108.986 E61.00859
G1 X102.785 Y108.986 E61.02334
G1 X108.986 Y102.785 E61.28160
G1 X108.986 Y102.284 E61.29635
G1 X102.284 Y108.986 E61.57548
G1 X101.783 Y108.986 E61.59023
G1 X108.986 Y101.783 E61.89021
G1 X108.986 Y101.282 E61.90496
G1 X101.282 Y108.986 E62.22581
G1 X100.782 Y108.986 E62.24056
G1 X108.986 Y100.782 E62.58227
G1 X108.986 Y100.281 E62.59702
G1 X100.281 Y108.986 E62.95959
G1 X99.780 Y108.986 E62.97434
G1 X108.986 Y99.780 E63.35777
G1 X108.986 Y99.279 E63.37252
G1 X99.279 Y108.986 E63.77682
G1 X98.778 Y108.986 E63.79157
G1 X108.986 Y98.778 E64.21673
G1 X108.986 Y98.277 E64.23148
G1 X98.277 Y108.986 E64.67750
G1 X97.776 Y108.986 E64.69225
G1 X108.986 Y97.776 E65.15913
G1 X108.986 Y97.275 E65.17388
G1 X97.275 Y108.986 E65.66163
G1 X96.774 Y108.986 E65.67638
G1 X108.986 Y96.774 E66.18498
G1 X108.986 Y96.274 E66.19973
G1 X96.274 Y108.986 E66.72920
G1 X95.773 Y108.986 E66.74395
G1 X108.986 Y95.773 E67.29428
G1 X108.986 Y95.272 E67.30904
G1 X95.272 Y108.986 E67.88023
G1 X94.771 Y108.986 E67.89498
G1 X108.986 Y94.771 E68.48703
G1 X108.986 Y94.270 E68.50179
G1 X94.270 Y108.986 E69.11470
G1 X93.769 Y108.986 E69.12946
G1 X108.986 Y93.769 E69.76323
G1 X108.986 Y93.268 E69.77799
G1 X93.268 Y108.986 E70.43263
G1 X92.767 Y108.986 E70.44738
G1 X108.986 Y92.767 E71.12288
G1 X108.986 Y92.266 E71.13763
G1 X92.266 Y108.986 E71.83400
G1 X91.765 Y108.986 E71.84875
G1 X108.986 Y91.765 E72.56598
G1 X108.986 Y91.265 E72.58073
G1 X91.265 Y108.986 E73.31882
G1 X91.014 Y108.735 E73.32925
G1 X108.735 Y91.014 E74.06734
G1 X108.235 Y91.014 E74.08210
G1 X91.014 Y108.235 E74.79932
G1 X91.014 Y107.734 E74.81408
G1 X107.734 Y91.014 E75.51044
G1 X107.233 Y91.014 E75.52519
G1 X91.014 Y107.233 E76.20070
G1 X91.014 Y106.732 E76.21545
G1 X106.732 Y91.014 E76.87009
G1 X106.231 Y91.014 E76.88484
G1 X91.014 Y106.231 E77.51862
G1 X91.014 Y105.730 E77.53337
G1 X105.730 Y91.014 E78.14629
G1 X105.229 Y91.014 E78.16104
G1 X91.014 Y105.229 E78.75309
G1 X91.014 Y104.728 E78.76784
G1 X104.728 Y91.014 E79.33904
G1 X104.227 Y91.014 E79.35379
G1 X91.014 Y104.227 E79.90412
G1 X91.014 Y103.726 E79.91887
G1 X103.726 Y91.014 E80.44834
G1 X103.226 Y91.014 E80.46309
G1 X91.014 Y103.226 E80.97169
G1 X91.014 Y102.725 E80.98644
G1 X102.725 Y91.014 E81.47419
G1 X102.224 Y91.014 E81.48894
G1 X91.014 Y102.224 E81.95582
G1 X91.014 Y101.723 E81.97057
G1 X101.723 Y91.014 E82.41659
G1 X101.222 Y91.014 E82.43134
G1 X91.014 Y101.222 E82.85650
G1 X91.014 Y100.721 E82.87125
G1 X100.721 Y91.014 E83.27554
G1 X100.220 Y91.014 E83.29029
G1 X91.014 Y100.220 E83.67373
G1 X91.014 Y99.719 E83.68848
G1 X99.719 Y91.014 E84.05105
G1 X99.218 Y91.014 E84.06580
G1 X91.014 Y99.218 E84.40750
G1 X91.014 Y98.717 E84.42226
G1 X98.717 Y91.014 E84.74310
G1 X98.217 Y91.014 E84.75785
G1 X91.014 Y98.217 E85.05784
G1 X91.014 Y97.716 E85.07259
G1 X97.716 Y91.014 E85.35171
G1 X97.215 Y91.014 E85.36646
G1 X91.014 Y97.215 E85.62472
G1 X91.014 Y96.714 E85.63947
G1 X96.714 Y91.014 E85.87686
G1 X96.213 Y91.014 E85.89162
G1 X91.014 Y96.213 E86.10815
G1 X91.014 Y95.712 E86.12290
G1 X95.712 Y91.014 E86.31857
G1 X95.211 Y91.014 E86.33332
G1 X91.014 Y95.211 E86.50813
G1 X91.014 Y94.710 E86.52288
G1 X94.710 Y91.014 E86.67683
G1 X94.209 Y91.014 E86.69158
G1 X91.014 Y94.209 E86.82467
G1 X91.014 Y93.709 E86.83942
G1 X93.709 Y91.014 E86.95164
G1 X93.208 Y91.014 E86.96639
G1 X91.014 Y93.208 E87.05775
G1 X91.014 Y92.707 E87.07250
G1 X92.707 Y91.014 E87.14300
G1 X92.206 Y91.014 E87.15775
G1 X91.014 Y92.206 E87.20739
G1 X91.014 Y91.705 E87.22214
G1 X91.705 Y91.014 E87.25091
G1 X91.204 Y91.014 E87.26566
G1 X91.014 Y91.204 E87.27357
G1 Z0.700 F2400.000
G1 X109.191 Y109.191 F2400.000
G1 X90.809 Y109.191 E87.81380 F2400.000
G1 X90.809 Y90.809 E88.35402
G1 X109.191 Y90.809 E88.89425
G1 X109.191 Y109.146 E89.43315
G1 X109.545 Y109.545 F2400.000
G1 X90.455 Y109.545 E89.99415 F2400.000
G1 X90.455 Y90.455 E90.55514
G1 X109.545 Y90.455 E91.11614
G1 X109.545 Y109.500 E91.67582
G1 X109.850 Y109.850 F2400.000
G1 X90.150 Y109.850 E92.09693 F1200.000
G1 X90.150 Y90.150 E92.51804
G1 X109.850 Y90.150 E92.93915
G1 X109.850 Y109.805 E93.35930
G1 X109.590 Y109.700 F2400.000
G1 X108.986 Y91.204 F2400.000
G1 X108.796 Y91.014 E93.36722 F1200.000
G1 X108.295 Y91.014 E93.38197
G1 X108.986 Y91.705 E93.41074
G1 X108.986 Y92.206 E93.42549
G1 X107.794 Y91.014 E93.47513
G1 X107.293 Y91.014 E93.48988
G1 X108.986 Y92.707 E93.56038
G1 X108.986 Y93.208 E93.57513
G1 X106.792 Y91.014 E93.66649
G1 X106.291 Y91.014 E93.68124
G1 X108.986 Y93.709 E93.79346
G1 X108.986 Y94.209 E93.80822
G1 X105.791 Y91.014 E93.94130
G1 X105.290 Y91.014 E93.95605
G1 X108.986 Y94.710 E94.11000
G1 X108.986 Y95.211 E94.12475
G1 X104.789 Y91.014 E94.29956
G1 X104.288 Y91.014 E94.31431
G1 X108.986 Y95.712 E94.50999
G1 X108.986 Y96.213 E94.52474
G1 X103.787 Y91.014 E94.74127
G1 X103.286 Y91.014 E94.75602
G1 X108.986 Y96.714 E94.99342
G1 X108.986 Y97.215 E95.00817
G1 X102.785 Y91.014 E95.26643
G1 X102.284 Y91.014 E95.28118
G1 X108.986 Y97.716 E95.56030
G1 X108.986 Y98.217 E95.57505
G1 X101.783 Y91.014 E95.87504
G1 X101.282 Y91.014 E95.88979
G1 X108.986 Y98.718 E96.21063
G1 X108.986 Y99.218 E96.22539
G1 X100.782 Y91.014 E96.56709
G1 X100.281 Y91.014 E96.58184
G1 X108.986 Y99.719 E96.94441
G1 X108.986 Y100.220 E96.95917
G1 X99.780 Y91.014 E97.34260
G1 X99.279 Y91.014 E97.35735
G1 X108.986 Y100.721 E97.76164
G1 X108.986 Y101.222 E97.77640
G1 X98.778 Y91.014 E98.20155
G1 X98.277 Y91.014 E98.21630
G1 X108.986 Y101.723 E98.66232
G1 X108.986 Y102.224 E98.67708
G1 X97.776 Y91.014 E99.14396
G1 X97.275 Y91.014 E99.15871
G1 X108.986 Y102.725 E99.64645
G1 X108.986 Y103.226 E99.66120
G1 X96.774 Y91.014 E100.16981
G1 X96.274 Y91.014 E100.18456
G1 X108.986 Y103.726 E100.71403
G1 X108.986 Y104.227 E100.72878
G1 X95.773 Y91.014 E101.27911
G1 X95.272 Y91.014 E101.29386
G1 X108.986 Y104.728 E101.86505
G1 X108.986 Y105.229 E101.87981
G1 X94.771 Y91.014 E102.47186
G1 X94.270 Y91.014 E102.48661
G1 X108.986 Y105.730 E103.09953
G1 X108.986 Y106.231 E103.11428
G1 X93.769 Y91.014 E103.74806
G1 X93.268 Y91.014 E103.76281
G1 X108.986 Y106.732 E104.41745
G1 X108.986 Y107.233 E104.43221
G1 X92.767 Y91.014 E105.10771
G1 X92.266 Y91.014 E105.12246
G1 X108.986 Y107.734 E105.81883
G1 X108.986 Y108.235 E105.83358
G1 X91.765 Y91.014 E106.55081
G1 X91.265 Y91.014 E106.56556
G1 X108.986 Y108.735 E107.30365
G1 X108.735 Y108.986 E107.31408
G1 X91.014 Y91.265 E108.05217
G1 X91.014 Y91.765 E108.06692
G1 X108.235 Y108.986 E108.78415
G1 X107.734 Y108.986 E108.79890
G1 X91.014 Y92.266 E109.49527
G1 X91.014 Y92.767 E109.51002
G1 X107.233 Y108.986 E110.18552
G1 X106.732 Y108.986 E110.20027
G1 X91.014 Y93.268 E110.85491
G1 X91.014 Y93.769 E110.86967
G1 X106.231 Y108.986 E111.50344
G1 X105.730 Y108.986 E111.51820
G1 X91.014 Y94.270 E112.13111
G1 X91.014 Y94.771 E112.14586
G1 X105.229 Y108.986 E112.73792
G1 X104.728 Y108.986 E112.75267
G1 X91.014 Y95.272 E113.32386
G1 X91.014 Y95.773 E113.33861
G1 X104.227 Y108.986 E113.88894
G1 X103.726 Y108.986 E113.90369
G1 X91.014 Y96.274 E114.43316
G1 X91.014 Y96.774 E114.44791
G1 X103.226 Y108.986 E114.95652
G1 X102.725 Y108.986 E114.97127
G1 X91.014 Y97.275 E115.45901
G1 X91.014 Y97.776 E115.47376
G1 X102.224 Y108.986 E115.94064
G1 X101.723 Y108.986 E115.95540
G1 X91.014 Y98.277 E116.40141
G1 X91.014 Y98.778 E116.41617
G1 X101.222 Y108.986 E116.84132
G1 X100.721 Y108.986 E116.85607
G1 X91.014 Y99.279 E117.26037
G1 X91.014 Y99.780 E117.27512
G1 X100.220 Y108.986 E117.65855
G1 X99.719 Y108.986 E117.67330
G1 X91.014 Y100.281 E118.03587
G1 X91.014 Y100.782 E118.05062
G1 X99.218 Y108.986 E118.39233
G1 X98.717 Y108.986 E118.40708
G1 X91.014 Y101.283 E118.72793
G1 X91.014 Y101.783 E118.74268
G1 X98.217 Y108.986 E119.04266
G1 X97.716 Y108.986 E119.05741
G1 X91.014 Y102.284 E119.33653
G1 X91.014 Y102.785 E119.35128
G1 X97.215 Y108.986 E119.60954
G1 X96.714 Y108.986 E119.62429
G1 X91.014 Y103.286 E119.86169
G1 X91.014 Y103.787 E119.87644
G1 X96.213 Y108.986 E120.09297
G1 X95.712 Y108.986 E120.10772
G1 X91.014 Y104.288 E120.30340
G1 X91.014 Y104.789 E120.31815
G1 X95.211 Y108.986 E120.49296
G1 X94.710 Y108.986 E120.50771
G1 X91.014 Y105.290 E120.66165
G1 X91.014 Y105.791 E120.67641
G1 X94.209 Y108.986 E120.80949
G1 X93.709 Y108.986 E120.82424
G1 X91.014 Y106.291 E120.93646
G1 X91.014 Y106.792 E120.95122
G1 X93.208 Y108.986 E121.04258
G1 X92.707 Y108.986 E121.05733
G1 X91.014 Y107.293 E121.12782
G1 X91.014 Y107.794 E121.14258
G1 X92.206 Y108.986 E121.19221
G1 X91.705 Y108.986 E121.20696
G1 X91.014 Y108.295 E121.23574
G1 X91.014 Y108.796 E121.25049
G1 X91.204 Y108.986 E121.25840
M106 S226.95
G1 Z0.900 F2400.000
G1 X109.191 Y109.191 F2400.000
G1 X90.809 Y109.191 E121.79862 F2400.000
G1 X90.809 Y90.809 E122.33885
G1 X109.191 Y90.809 E122.87907
G1 X109.191 Y109.146 E123.41797
G1 X109.545 Y109.545 F2400.000
G1 X90.455 Y109.545 E123.97897 F2400.000
G1 X90.455 Y90.455 E124.53997
G1 X109.545 Y90.455 E125.10097
G1 X109.545 Y109.500 E125.66064
G1 X109.850 Y109.850 F2400.000
G1 X90.150 Y109.850 E126.08175 F1200.000
G1 X90.150 Y90.150 E126.50287
G1 X109.850 Y90.150 E126.92398
G1 X109.850 Y109.805 E127.34413
G1 X109.590 Y109.700 F2400.000
G1 X108.891 Y108.891 F2400.000
G1 X108.891 Y107.655 E127.38044 F2400.000
G1 X107.655 Y108.891 E127.43180
G1 X108.891 Y108.891 E127.46811
G1 X108.891 Y105.156 F2400.000
G1 X108.891 Y104.656 E127.48280 F2400.000
G1 X108.008 Y105.540 E127.51951
G1 X106.431 Y105.117 E127.56748
G1 X104.844 Y106.704 E127.63344
G1 X105.266 Y108.281 E127.68142
G1 X104.656 Y108.891 E127.70676
G1 X105.156 Y108.891 E127.72145
G1 X105.516 Y108.531 E127.73641
G1 X106.860 Y108.891 E127.77729
G1 X107.155 Y108.891 E127.78598
G1 X108.680 Y107.366 E127.84935
G1 X108.258 Y105.789 E127.89732
G1 X108.891 Y105.156 E127.92364
G1 X108.891 Y98.458 F2400.000
G1 X108.260 Y98.289 E127.94283 F2400.000
G1 X106.673 Y99.876 E128.00879
G1 X107.096 Y101.453 E128.05676
G1 X105.509 Y103.040 E128.12273
G1 X103.932 Y102.618 E128.17070
G1 X102.345 Y104.205 E128.23666
G1 X102.767 Y105.782 E128.28464
G1 X101.180 Y107.369 E128.35060
G1 X99.603 Y106.947 E128.39857
G1 X98.016 Y108.534 E128.46454
G1 X98.112 Y108.891 E128.47540
G1 X101.771 Y108.891 E128.58293
G1 X101.430 Y107.619 E128.62163
G1 X103.017 Y106.032 E128.68759
