;Generated from 1.0-spacer-wpads.stl 6872e6ce8d9f7f355deedfd79995fdfc22075f1f
;Generated with Cura_SteamEngine 15.04
M140 S55.0
M109 T0 S210.0
T0
M190 S55.0

;Basic settings: Layer height: 0.15 Walls: 1.2 Fill: 50
;Print time: ?print_time?
;Filament used: ?filament_amount?m ?filament_weight?g
;Filament cost: ?filament_cost?
;M190 S55 ;Uncomment to add your own bed temperature line
;M109 S210 ;Uncomment to add your own temperature line
G21        ;metric values
G90        ;absolute positioning
M82        ;set extruder to absolute mode
M107       ;start with the fan off
G28 X0 Y0  ;move X/Y to min endstops
G28 Z0     ;move Z to min endstops
G1 Z5.0 F9000 ;move the platform down 15mm
G92 E0                  ;zero the extruded length
G1 F200 E3              ;extrude 3mm of feed stock
G92 E0                  ;zero the extruded length again
G1 F9000
;Put printing message on LCD screen
M117 Printing...

;Layer count: 59
;LAYER:0
M107
G0 F9000 X85.990 Y93.275 Z0.300
G0 X85.487 Y93.789
;TYPE:SKIRT
G1 F1200 X85.990 Y93.275 E0.03588
G1 X87.700 Y92.404 E0.13162
G1 X87.700 Y92.405 E0.13167
G1 X88.319 Y92.085 E0.16644
G1 X90.179 Y91.791 E0.26038
G1 X90.889 Y91.674 E0.29628
G1 X92.749 Y91.970 E0.39025
G1 X93.463 Y92.077 E0.42627
G1 X95.158 Y92.944 E0.52125
G1 X95.624 Y93.175 E0.54720
G1 X96.593 Y92.680 E0.60149
G1 X97.481 Y92.232 E0.65111
G1 X99.014 Y91.985 E0.72857
G1 X100.004 Y91.831 E0.77856
G1 X101.545 Y92.075 E0.85640
G1 X102.526 Y92.234 E0.90598
G1 X103.913 Y92.938 E0.98358
G1 X104.381 Y93.177 E1.00980
G1 X105.899 Y92.404 E1.09478
G1 X105.899 Y92.405 E1.09483
G1 X106.518 Y92.084 E1.12962
G1 X108.379 Y91.791 E1.22361
G1 X109.089 Y91.674 E1.25951
G1 X110.948 Y91.970 E1.35343
G1 X111.662 Y92.077 E1.38944
G1 X113.357 Y92.944 E1.48443
G1 X113.980 Y93.253 E1.51912
G1 X115.308 Y94.584 E1.61293
G1 X115.825 Y95.090 E1.64902
G1 X116.696 Y96.800 E1.74476
G1 X116.695 Y96.800 E1.74481
G1 X117.015 Y97.419 E1.77957
G1 X117.309 Y99.279 E1.87352
G1 X117.426 Y99.989 E1.90942
G1 X117.125 Y101.879 E2.00490
G1 X117.023 Y102.562 E2.03936
G1 X116.150 Y104.268 E2.13497
G1 X115.847 Y104.880 E2.16904
G1 X114.516 Y106.208 E2.26284
G1 X114.010 Y106.725 E2.29893
G1 X112.300 Y107.596 E2.39467
G1 X112.300 Y107.595 E2.39472
G1 X111.681 Y107.915 E2.42949
G1 X109.821 Y108.209 E2.52343
G1 X109.111 Y108.326 E2.55933
G1 X107.251 Y108.030 E2.65330
G1 X106.537 Y107.923 E2.68932
G1 X104.831 Y107.050 E2.78493
G1 X104.376 Y106.825 E2.81025
G1 X103.407 Y107.320 E2.86454
G1 X102.519 Y107.768 E2.91416
G1 X100.986 Y108.015 E2.99162
G1 X99.996 Y108.169 E3.04161
G1 X98.455 Y107.925 E3.11945
G1 X97.474 Y107.766 E3.16903
G1 X96.087 Y107.062 E3.24663
G1 X95.619 Y106.823 E3.27285
G1 X94.101 Y107.596 E3.35783
G1 X94.101 Y107.595 E3.35788
G1 X93.482 Y107.916 E3.39267
G1 X91.621 Y108.209 E3.48666
G1 X90.911 Y108.326 E3.52256
G1 X89.052 Y108.030 E3.61648
G1 X88.338 Y107.923 E3.65250
G1 X86.632 Y107.050 E3.74810
G1 X86.020 Y106.747 E3.78217
G1 X84.692 Y105.416 E3.87598
G1 X84.175 Y104.910 E3.91207
G1 X83.304 Y103.200 E4.00781
G1 X83.305 Y103.200 E4.00786
G1 X82.985 Y102.581 E4.04263
G1 X82.687 Y100.694 E4.13793
G1 X82.574 Y100.011 E4.17247
G1 X82.875 Y98.121 E4.26795
G1 X82.977 Y97.438 E4.30241
G1 X83.850 Y95.732 E4.39802
G1 X84.153 Y95.120 E4.43209
G1 X85.487 Y93.789 E4.52610
G0 F9000 X85.770 Y94.071
G1 F1200 X86.230 Y93.602 E4.55888
G1 X87.865 Y92.770 E4.65040
G1 X87.865 Y92.769 E4.65045
G1 X88.445 Y92.470 E4.68300
G1 X90.269 Y92.182 E4.77513
G1 X90.890 Y92.079 E4.80654
G1 X92.717 Y92.370 E4.89884
G1 X93.339 Y92.463 E4.93021
G1 X94.952 Y93.288 E5.02060
G1 X95.544 Y93.582 E5.05358
G1 X95.598 Y93.637 E5.05742
G1 X96.774 Y93.036 E5.12331
G1 X97.605 Y92.617 E5.16974
G1 X99.076 Y92.381 E5.24407
G1 X100.004 Y92.236 E5.29093
G1 X101.482 Y92.470 E5.36558
G1 X102.401 Y92.619 E5.41203
G1 X103.731 Y93.294 E5.48644
G1 X104.397 Y93.635 E5.52377
G1 X104.429 Y93.602 E5.52606
G1 X106.064 Y92.770 E5.61759
G1 X106.064 Y92.769 E5.61764
G1 X106.644 Y92.470 E5.65019
G1 X108.469 Y92.182 E5.74237
G1 X109.090 Y92.079 E5.77378
G1 X110.916 Y92.370 E5.86602
G1 X111.538 Y92.463 E5.89740
G1 X113.151 Y93.288 E5.98779
G1 X113.743 Y93.582 E6.02077
G1 X115.029 Y94.870 E6.11157
G1 X115.498 Y95.330 E6.14435
G1 X116.330 Y96.965 E6.23587
G1 X116.331 Y96.965 E6.23592
G1 X116.630 Y97.545 E6.26847
G1 X116.914 Y99.345 E6.35939
G1 X117.021 Y99.990 E6.39201
G1 X116.730 Y101.816 E6.48426
G1 X116.637 Y102.438 E6.51563
G1 X115.812 Y104.051 E6.60602
G1 X115.518 Y104.643 E6.63900
G1 X114.230 Y105.929 E6.72980
G1 X113.770 Y106.398 E6.76258
G1 X112.135 Y107.230 E6.85410
G1 X112.135 Y107.231 E6.85415
G1 X111.555 Y107.530 E6.88671
G1 X109.731 Y107.818 E6.97883
G1 X109.110 Y107.921 E7.01024
G1 X107.283 Y107.630 E7.10254
G1 X106.661 Y107.537 E7.13391
G1 X105.048 Y106.712 E7.22430
G1 X104.456 Y106.418 E7.25728
G1 X104.402 Y106.363 E7.26112
G1 X103.226 Y106.964 E7.32701
G1 X102.395 Y107.383 E7.37344
G1 X100.924 Y107.619 E7.44777
G1 X99.996 Y107.764 E7.49463
G1 X98.518 Y107.530 E7.56929
G1 X97.599 Y107.381 E7.61573
G1 X96.269 Y106.706 E7.69014
G1 X95.603 Y106.365 E7.72747
G1 X95.571 Y106.398 E7.72977
G1 X93.936 Y107.230 E7.82129
G1 X93.936 Y107.231 E7.82134
G1 X93.356 Y107.530 E7.85390
G1 X91.531 Y107.818 E7.94607
G1 X90.910 Y107.921 E7.97748
G1 X89.084 Y107.630 E8.06973
G1 X88.462 Y107.537 E8.10110
G1 X86.849 Y106.712 E8.19149
G1 X86.257 Y106.418 E8.22447
G1 X84.971 Y105.130 E8.31527
G1 X84.502 Y104.670 E8.34805
G1 X83.670 Y103.035 E8.43957
G1 X83.669 Y103.035 E8.43962
G1 X83.370 Y102.455 E8.47218
G1 X83.082 Y100.631 E8.56430
G1 X82.979 Y100.010 E8.59571
G1 X83.270 Y98.184 E8.68796
G1 X83.363 Y97.562 E8.71933
G1 X84.188 Y95.949 E8.80972
G1 X84.482 Y95.357 E8.84270
G1 X85.770 Y94.071 E8.93350
G1 F2400 E4.43350
G0 F9000 X88.749 Y97.032
;TYPE:WALL-INNER
G1 F2400 E8.93350
G1 F1200 X89.769 Y96.513 E8.99060
G1 X90.901 Y96.334 E9.04778
G1 X92.037 Y96.514 E9.10516
G1 X93.059 Y97.037 E9.16244
G1 X93.869 Y97.849 E9.21966
G1 X94.399 Y98.890 E9.27794
G1 X94.515 Y99.409 E9.30447
G1 X94.659 Y99.984 E9.33404
G1 X94.404 Y101.103 E9.39130
G1 X93.864 Y102.158 E9.45043
G1 X93.052 Y102.968 E9.50765
G1 X92.033 Y103.487 E9.56470
G1 X90.899 Y103.666 E9.62198
G1 X89.764 Y103.486 E9.67931
G1 X88.741 Y102.962 E9.73665
G1 X87.932 Y102.151 E9.79380
G1 X87.413 Y101.131 E9.85090
G1 X87.234 Y99.999 E9.90808
G1 X87.414 Y98.864 E9.96541
G1 X87.937 Y97.842 E10.02269
G1 X88.749 Y97.032 E10.07991
G0 F9000 X95.096 Y99.901
G0 X95.984 Y99.882
G0 X98.000 Y97.246
G0 X100.000 Y96.596
G0 X102.000 Y97.246
G0 X103.237 Y98.949
G0 X103.340 Y99.655
G0 X105.341 Y100.016
G1 F1200 X105.596 Y98.897 E10.13716
G1 X106.136 Y97.842 E10.19629
G1 X106.948 Y97.032 E10.25351
G1 X107.967 Y96.513 E10.31057
G1 X109.101 Y96.334 E10.36784
G1 X110.236 Y96.514 E10.42517
G1 X111.258 Y97.037 E10.48245
G1 X112.068 Y97.849 E10.53967
G1 X112.587 Y98.869 E10.59677
G1 X112.766 Y100.000 E10.65390
G1 X112.586 Y101.136 E10.71128
G1 X112.063 Y102.158 E10.76856
G1 X111.251 Y102.968 E10.82578
G1 X110.231 Y103.487 E10.88287
G1 X109.099 Y103.666 E10.94005
G1 X107.963 Y103.486 E10.99743
G1 X106.940 Y102.962 E11.05478
G1 X106.131 Y102.151 E11.11193
G1 X105.601 Y101.110 E11.17020
G1 X105.485 Y100.591 E11.19674
G1 X105.341 Y100.016 E11.22631
G0 F9000 X104.938 Y100.054
G1 F1200 X103.980 Y100.075 E11.27412
G1 X103.794 Y100.984 E11.32041
G1 X103.740 Y101.180 E11.33055
G1 X103.168 Y102.303 E11.39342
G1 X102.302 Y103.169 E11.45453
G1 X101.508 Y103.574 E11.49899
G1 X101.208 Y103.725 E11.51575
G1 X100.329 Y103.867 E11.56017
G1 X100.001 Y103.917 E11.57672
G1 X99.118 Y103.777 E11.62133
G1 X98.793 Y103.725 E11.63775
G1 X97.993 Y103.319 E11.68251
G1 X97.698 Y103.169 E11.69902
G1 X96.831 Y102.302 E11.76019
G1 X96.424 Y101.505 E11.80484
G1 X96.258 Y101.175 E11.82327
G1 X96.205 Y100.986 E11.83306
G1 X96.022 Y100.072 E11.87956
G1 X95.052 Y100.059 E11.92796
G1 X94.783 Y101.240 E11.98839
G1 X94.210 Y102.359 E12.05111
G1 X94.192 Y102.395 E12.05312
G1 X93.318 Y103.268 E12.11475
G1 X93.292 Y103.294 E12.11658
G1 X92.193 Y103.854 E12.17812
G1 X92.158 Y103.872 E12.18008
G1 X90.937 Y104.065 E12.24176
G1 X90.900 Y104.071 E12.24363
G1 X89.679 Y103.877 E12.30531
G1 X89.639 Y103.871 E12.30732
G1 X88.541 Y103.309 E12.36886
G1 X88.505 Y103.291 E12.37087
G1 X87.632 Y102.417 E12.43250
G1 X87.606 Y102.391 E12.43434
G1 X87.046 Y101.292 E12.49587
G1 X87.028 Y101.257 E12.49784
G1 X86.835 Y100.037 E12.55946
G1 X86.829 Y100.000 E12.56133
G1 X87.023 Y98.779 E12.62301
G1 X87.029 Y98.739 E12.62503
G1 X87.591 Y97.641 E12.68656
G1 X87.609 Y97.605 E12.68857
G1 X88.483 Y96.732 E12.75020
G1 X88.509 Y96.706 E12.75204
G1 X89.608 Y96.146 E12.81357
G1 X89.643 Y96.128 E12.81554
G1 X90.863 Y95.935 E12.87716
G1 X90.900 Y95.929 E12.87903
G1 X92.122 Y96.123 E12.94076
G1 X92.162 Y96.129 E12.94278
G1 X93.260 Y96.691 E13.00432
G1 X93.296 Y96.709 E13.00632
G1 X94.169 Y97.583 E13.06795
G1 X94.195 Y97.609 E13.06979
G1 X94.755 Y98.708 E13.13133
G1 X94.782 Y98.760 E13.13425
G1 X94.905 Y99.317 E13.16271
G1 X95.062 Y99.946 E13.19505
G1 X96.020 Y99.925 E13.24286
G1 X96.206 Y99.016 E13.28915
G1 X96.260 Y98.820 E13.29929
G1 X96.832 Y97.697 E13.36217
G1 X97.698 Y96.831 E13.42327
G1 X98.492 Y96.426 E13.46774
G1 X98.792 Y96.275 E13.48449
G1 X99.671 Y96.133 E13.52891
G1 X99.999 Y96.083 E13.54547
G1 X100.882 Y96.223 E13.59007
G1 X101.207 Y96.275 E13.60649
G1 X102.007 Y96.681 E13.65125
G1 X102.302 Y96.831 E13.66776
G1 X103.169 Y97.698 E13.72893
G1 X103.574 Y98.492 E13.77340
G1 X103.742 Y98.825 E13.79201
G1 X103.795 Y99.014 E13.80180
G1 X103.978 Y99.928 E13.84830
G1 X104.948 Y99.941 E13.89670
G1 X105.217 Y98.760 E13.95713
G1 X105.790 Y97.641 E14.01985
G1 X105.808 Y97.605 E14.02186
G1 X106.682 Y96.732 E14.08349
G1 X106.708 Y96.706 E14.08533
G1 X107.807 Y96.146 E14.14686
G1 X107.842 Y96.128 E14.14883
G1 X109.063 Y95.935 E14.21050
G1 X109.100 Y95.929 E14.21237
G1 X110.321 Y96.123 E14.27405
G1 X110.361 Y96.129 E14.27607
G1 X111.459 Y96.691 E14.33760
G1 X111.495 Y96.709 E14.33961
G1 X112.368 Y97.583 E14.40124
G1 X112.394 Y97.609 E14.40308
G1 X112.954 Y98.708 E14.46461
G1 X112.972 Y98.743 E14.46658
G1 X113.165 Y99.963 E14.52820
G1 X113.171 Y100.000 E14.53007
G1 X112.977 Y101.221 E14.59175
G1 X112.971 Y101.261 E14.59377
G1 X112.409 Y102.359 E14.65531
G1 X112.391 Y102.395 E14.65731
G1 X111.517 Y103.268 E14.71895
G1 X111.491 Y103.294 E14.72078
G1 X110.392 Y103.854 E14.78232
G1 X110.357 Y103.872 E14.78428
G1 X109.137 Y104.065 E14.84590
G1 X109.100 Y104.071 E14.84777
G1 X107.878 Y103.877 E14.90950
G1 X107.838 Y103.871 E14.91152
G1 X106.740 Y103.309 E14.97306
G1 X106.704 Y103.291 E14.97507
G1 X105.831 Y102.417 E15.03670
G1 X105.805 Y102.391 E15.03853
G1 X105.245 Y101.292 E15.10007
G1 X105.218 Y101.240 E15.10299
G1 X105.095 Y100.683 E15.13145
G1 X104.938 Y100.054 E15.16379
G0 F9000 X103.406 Y100.000
G1 F1200 X103.240 Y98.947 E15.21698
G1 X102.757 Y97.998 E15.27010
G1 X102.002 Y97.243 E15.32337
G1 X101.053 Y96.760 E15.37650
G1 X100.000 Y96.594 E15.42968
G1 X98.947 Y96.760 E15.48286
G1 X97.998 Y97.243 E15.53599
G1 X97.243 Y97.998 E15.58926
G1 X96.760 Y98.947 E15.64238
G1 X96.594 Y100.000 E15.69557
G1 X96.760 Y101.053 E15.74875
G1 X97.243 Y102.002 E15.80187
G1 X97.998 Y102.757 E15.85514
G1 X98.947 Y103.240 E15.90827
G1 X100.000 Y103.406 E15.96145
G1 X101.053 Y103.240 E16.01463
G1 X102.002 Y102.757 E16.06776
G1 X102.757 Y102.002 E16.12103
G1 X103.240 Y101.053 E16.17415
G1 X103.406 Y100.000 E16.22734
G0 F9000 X103.001 Y100.000
;TYPE:WALL-OUTER
G1 F1200 X102.855 Y99.072 E16.27421
G1 X102.429 Y98.236 E16.32102
G1 X101.764 Y97.571 E16.36794
G1 X100.928 Y97.145 E16.41475
G1 X100.000 Y96.999 E16.46161
G1 X99.072 Y97.145 E16.50848
G1 X98.236 Y97.571 E16.55529
G1 X97.571 Y98.236 E16.60221
G1 X97.145 Y99.072 E16.64902
G1 X96.999 Y100.000 E16.69589
G1 X97.145 Y100.928 E16.74276
G1 X97.571 Y101.764 E16.78957
G1 X98.236 Y102.429 E16.83649
G1 X99.072 Y102.855 E16.88330
G1 X100.000 Y103.001 E16.93017
G1 X100.928 Y102.855 E16.97704
G1 X101.764 Y102.429 E17.02385
G1 X102.429 Y101.764 E17.07077
G1 X102.855 Y100.928 E17.11758
G1 X103.001 Y100.000 E17.16444
G0 F9000 X104.308 Y100.468
G1 F1200 X104.185 Y101.071 E17.19515
G1 X104.115 Y101.326 E17.20834
G1 X103.496 Y102.541 E17.27637
G1 X102.541 Y103.496 E17.34375
G1 X101.688 Y103.931 E17.39152
G1 X101.332 Y104.110 E17.41140
G1 X100.003 Y104.322 E17.47854
G1 X98.664 Y104.109 E17.54619
G1 X97.458 Y103.495 E17.61370
G1 X96.504 Y102.541 E17.68101
G1 X96.068 Y101.687 E17.72885
G1 X95.883 Y101.320 E17.74935
G1 X95.816 Y101.083 E17.76164
G1 X95.693 Y100.467 E17.79298
G1 X95.370 Y100.463 E17.80910
G1 X95.162 Y101.377 E17.85586
G1 X94.567 Y102.539 E17.92099
G1 X94.522 Y102.631 E17.92610
G1 X93.602 Y103.549 E17.99094
G1 X93.530 Y103.622 E17.99606
G1 X92.376 Y104.210 E18.06067
G1 X92.284 Y104.257 E18.06583
G1 X91.001 Y104.460 E18.13063
G1 X90.902 Y104.476 E18.13564
G1 X89.618 Y104.272 E18.20050
G1 X89.515 Y104.257 E18.20569
G1 X88.361 Y103.666 E18.27038
G1 X88.269 Y103.621 E18.27549
G1 X87.351 Y102.701 E18.34033
G1 X87.278 Y102.629 E18.34544
G1 X86.690 Y101.475 E18.41006
G1 X86.643 Y101.383 E18.41521
G1 X86.440 Y100.101 E18.47997
G1 X86.424 Y100.002 E18.48497
G1 X86.628 Y98.718 E18.54983
G1 X86.643 Y98.615 E18.55503
G1 X87.234 Y97.461 E18.61971
G1 X87.279 Y97.369 E18.62482
G1 X88.199 Y96.451 E18.68966
G1 X88.271 Y96.378 E18.69478
G1 X89.425 Y95.790 E18.75939
G1 X89.517 Y95.743 E18.76455
G1 X90.799 Y95.540 E18.82930
G1 X90.898 Y95.524 E18.83431
G1 X92.183 Y95.728 E18.89922
G1 X92.286 Y95.743 E18.90441
G1 X93.440 Y96.334 E18.96910
G1 X93.532 Y96.379 E18.97421
G1 X94.450 Y97.299 E19.03905
G1 X94.523 Y97.371 E19.04416
G1 X95.111 Y98.525 E19.10878
G1 X95.162 Y98.625 E19.11438
G1 X95.294 Y99.226 E19.14508
G1 X95.373 Y99.539 E19.16118
G1 X95.692 Y99.532 E19.17710
G1 X95.815 Y98.929 E19.20780
G1 X95.885 Y98.674 E19.22100
G1 X96.504 Y97.459 E19.28903
G1 X97.459 Y96.504 E19.35641
G1 X98.312 Y96.069 E19.40418
G1 X98.668 Y95.890 E19.42406
G1 X99.997 Y95.678 E19.49120
G1 X101.336 Y95.891 E19.55884
G1 X102.542 Y96.505 E19.62636
G1 X103.496 Y97.459 E19.69367
G1 X103.931 Y98.312 E19.74144
G1 X104.117 Y98.680 E19.76201
G1 X104.183 Y98.914 E19.77414
G1 X104.307 Y99.533 E19.80564
G1 X104.630 Y99.537 E19.82175
G1 X104.838 Y98.623 E19.86852
G1 X105.433 Y97.461 E19.93365
G1 X105.478 Y97.369 E19.93876
G1 X106.398 Y96.451 E20.00360
G1 X106.470 Y96.378 E20.00871
G1 X107.624 Y95.790 E20.07333
G1 X107.716 Y95.743 E20.07848
G1 X108.999 Y95.540 E20.14329
G1 X109.098 Y95.524 E20.14829
G1 X110.382 Y95.728 E20.21315
G1 X110.485 Y95.743 E20.21835
G1 X111.639 Y96.334 E20.28303
G1 X111.731 Y96.379 E20.28814
G1 X112.649 Y97.299 E20.35298
G1 X112.722 Y97.371 E20.35810
G1 X113.310 Y98.525 E20.42271
G1 X113.357 Y98.617 E20.42787
G1 X113.560 Y99.899 E20.49262
G1 X113.576 Y99.998 E20.49763
G1 X113.372 Y101.282 E20.56249
G1 X113.357 Y101.385 E20.56768
G1 X112.766 Y102.539 E20.63237
G1 X112.721 Y102.631 E20.63748
G1 X111.801 Y103.549 E20.70232
G1 X111.729 Y103.622 E20.70743
G1 X110.575 Y104.210 E20.77205
G1 X110.483 Y104.257 E20.77720
G1 X109.201 Y104.460 E20.84196
G1 X109.102 Y104.476 E20.84696
G1 X107.817 Y104.272 E20.91187
G1 X107.714 Y104.257 E20.91707
G1 X106.560 Y103.666 E20.98175
G1 X106.468 Y103.621 E20.98686
G1 X105.550 Y102.701 E21.05170
G1 X105.477 Y102.629 E21.05682
G1 X104.889 Y101.475 E21.12143
G1 X104.838 Y101.375 E21.12703
G1 X104.706 Y100.774 E21.15773
G1 X104.627 Y100.461 E21.17384
G1 X104.308 Y100.468 E21.18976
G0 F9000 X105.515 Y100.141
;TYPE:SKIN
G1 F1200 X108.859 Y103.485 E21.42569
G0 F9000 X109.413 Y103.473
G1 F1200 X105.571 Y99.631 E21.69677
G0 F9000 X105.675 Y99.170
G1 F1200 X109.902 Y103.396 E21.99497
G0 F9000 X110.343 Y103.272
G1 F1200 X105.824 Y98.753 E22.31381
G0 F9000 X106.016 Y98.379
G1 F1200 X110.718 Y103.081 E22.64556
G0 F9000 X111.092 Y102.890
G1 F1200 X106.208 Y98.005 E22.99019
G0 F9000 X106.472 Y97.704
G1 F1200 X111.394 Y102.625 E23.33743
G0 F9000 X111.677 Y102.343
G1 F1200 X106.755 Y97.421 E23.68470
G0 F9000 X107.041 Y97.141
G1 F1200 X111.957 Y102.058 E24.03159
G0 F9000 X112.149 Y101.684
G1 F1200 X107.415 Y96.950 E24.36560
G0 F9000 X107.790 Y96.759
