;Generated from 2.1-conncover-hotend.stl 69b84664e6309822ec7888443ead849f39b40acc
;Generated with Cura_SteamEngine 15.04
M140 S55.0
M109 T0 S210.0
T0
M190 S55.0

;Basic settings: Layer height: 0.15 Walls: 1.2 Fill: 50
;Print time: ?print_time?
;Filament used: ?filament_amount?m ?filament_weight?g
;Filament cost: ?filament_cost?
;M190 S55 ;Uncomment to add your own bed temperature line
;M109 S210 ;Uncomment to add your own temperature line
G21        ;metric values
G90        ;absolute positioning
M82        ;set extruder to absolute mode
M107       ;start with the fan off
G28 X0 Y0  ;move X/Y to min endstops
G28 Z0     ;move Z to min endstops
G1 Z5.0 F9000 ;move the platform down 15mm
G92 E0                  ;zero the extruded length
G1 F200 E3              ;extrude 3mm of feed stock
G92 E0                  ;zero the extruded length again
G1 F9000
;Put printing message on LCD screen
M117 Printing...

;Layer count: 24
;LAYER:0
M107
G0 F9000 X87.900 Y91.734 Z0.300
;TYPE:SKIRT
G1 F1200 X93.109 Y86.525 E0.36752
G1 X107.030 Y86.525 E1.06204
G1 X107.353 Y86.528 E1.07816
G1 X108.272 Y86.640 E1.12435
G1 X109.324 Y87.027 E1.18027
G1 X110.225 Y87.595 E1.23341
G1 X111.020 Y88.387 E1.28939
G1 X111.626 Y89.344 E1.34591
G1 X111.995 Y90.408 E1.40209
G1 X112.100 Y91.317 E1.44774
G1 X112.100 Y108.687 E2.31434
G1 X111.987 Y109.638 E2.36212
G1 X111.599 Y110.699 E2.41848
G1 X111.022 Y111.610 E2.47228
G1 X110.220 Y112.412 E2.52886
G1 X109.247 Y113.012 E2.58589
G1 X108.218 Y113.370 E2.64025
G1 X107.306 Y113.475 E2.68605
G1 X93.109 Y113.475 E3.39434
G1 X87.900 Y108.266 E3.76186
G1 X87.900 Y91.734 E4.58665
G0 F9000 X88.300 Y91.900
G1 F1200 X93.275 Y86.925 E4.93766
G1 X107.028 Y86.925 E5.62380
G1 X107.326 Y86.928 E5.63867
G1 X108.178 Y87.031 E5.68149
G1 X109.146 Y87.388 E5.73296
G1 X109.974 Y87.909 E5.78176
G1 X110.706 Y88.639 E5.83334
G1 X111.263 Y89.519 E5.88530
G1 X111.602 Y90.497 E5.93694
G1 X111.700 Y91.340 E5.97928
G1 X111.700 Y108.664 E6.84358
G1 X111.596 Y109.545 E6.88784
G1 X111.238 Y110.521 E6.93970
G1 X110.708 Y111.359 E6.98917
G1 X109.970 Y112.096 E7.04121
G1 X109.074 Y112.649 E7.09374
G1 X108.128 Y112.977 E7.14369
G1 X107.283 Y113.075 E7.18613
G1 X93.275 Y113.075 E7.88499
G1 X88.300 Y108.100 E8.23600
G1 X88.300 Y91.900 E9.04422
G1 F2400 E4.54422
G0 F9000 X105.199 Y92.189
;TYPE:FILL
G1 F2400 E9.04422
G1 F1200 X105.776 Y92.766 E9.08493
G0 F9000 X106.908 Y92.766
G1 F1200 X105.406 Y91.264 E9.19091
G0 F9000 X106.538 Y91.264
G1 F1200 X107.343 Y92.070 E9.24774
G0 F9000 X106.679 Y107.244
G1 F1200 X107.359 Y107.925 E9.29575
G0 F9000 X107.022 Y108.719
G1 F1200 X105.547 Y107.244 E9.39982
G0 F9000 X105.178 Y108.007
G1 F1200 X105.897 Y108.726 E9.45055
G0 F9000 X104.929 Y108.418
;TYPE:WALL-INNER
G1 F1200 X105.058 Y107.915 E9.47646
G1 X105.077 Y107.582 E9.49310
G1 X105.046 Y107.259 E9.50929
G1 X105.003 Y107.105 E9.51727
G1 X107.099 Y107.105 E9.62184
G1 X107.099 Y92.906 E10.33023
G1 X105.002 Y92.906 E10.43485
G1 X105.058 Y92.687 E10.44612
G1 X105.077 Y92.354 E10.46276
G1 X105.046 Y92.030 E10.47900
G1 X104.912 Y91.548 E10.50396
G1 X104.677 Y91.125 E10.52810
G1 X107.049 Y91.125 E10.64644
G1 X107.187 Y91.142 E10.65338
G1 X107.280 Y91.177 E10.65834
G1 X107.339 Y91.213 E10.66179
G1 X107.410 Y91.284 E10.66679
G1 X107.454 Y91.353 E10.67088
G1 X107.484 Y91.441 E10.67552
G1 X107.500 Y108.416 E11.52240
G1 X107.483 Y108.562 E11.52974
G1 X107.449 Y108.654 E11.53463
G1 X107.409 Y108.718 E11.53839
G1 X107.348 Y108.779 E11.54270
G1 X107.263 Y108.831 E11.54767
G1 X107.184 Y108.859 E11.55185
G1 X104.678 Y108.875 E11.67688
G1 X104.929 Y108.418 E11.70289
G1 F2400 E7.20289
G0 F9000 X103.308 Y105.470
G1 F2400 E11.70289
G1 F1200 X102.762 Y105.436 E11.73018
G1 X102.225 Y105.538 E11.75745
G1 X101.720 Y105.775 E11.78528
G1 X101.287 Y106.149 E11.81383
G1 X100.987 Y106.561 E11.83926
G1 X100.784 Y107.072 E11.86669
G1 X100.717 Y107.614 E11.89393
G1 X100.785 Y108.167 E11.92173
G1 X101.008 Y108.697 E11.95042
G1 X101.138 Y108.875 E11.96142
G1 X95.014 Y108.875 E12.26694
G1 X92.500 Y106.361 E12.44432
G1 X92.500 Y93.639 E13.07902
G1 X95.014 Y91.125 E13.25640
G1 X101.138 Y91.125 E13.56193
G1 X100.987 Y91.332 E13.57471
G1 X100.784 Y91.843 E13.60214
G1 X100.717 Y92.386 E13.62944
G1 X100.785 Y92.938 E13.65718
G1 X101.008 Y93.468 E13.68587
G1 X101.308 Y93.880 E13.71130
G1 X101.730 Y94.229 E13.73862
G1 X102.225 Y94.462 E13.76591
G1 X102.762 Y94.564 E13.79318
G1 X103.308 Y94.530 E13.82048
G1 X103.800 Y94.371 E13.84627
G1 X103.800 Y105.629 E14.40794
G1 X103.308 Y105.470 E14.43373
G0 F9000 X103.233 Y105.866
G1 F1200 X102.788 Y105.839 E14.45597
G1 X102.350 Y105.922 E14.47821
G1 X101.940 Y106.114 E14.50080
G1 X101.584 Y106.422 E14.52429
G1 X101.340 Y106.756 E14.54492
G1 X101.175 Y107.172 E14.56725
G1 X101.120 Y107.614 E14.58947
G1 X101.176 Y108.063 E14.61205
G1 X101.359 Y108.499 E14.63564
G1 X101.602 Y108.833 E14.65624
G1 X101.946 Y109.118 E14.67853
G1 X102.282 Y109.275 E14.69703
G1 X94.848 Y109.275 E15.06792
G1 X92.100 Y106.527 E15.26180
G1 X92.100 Y93.473 E15.91307
G1 X94.848 Y90.725 E16.10696
G1 X102.282 Y90.725 E16.47784
G1 X101.940 Y90.885 E16.49668
G1 X101.584 Y91.193 E16.52016
G1 X101.340 Y91.527 E16.54080
G1 X101.175 Y91.943 E16.56313
G1 X101.120 Y92.386 E16.58540
G1 X101.176 Y92.834 E16.60792
G1 X101.359 Y93.270 E16.63151
G1 X101.602 Y93.604 E16.65212
G1 X101.946 Y93.889 E16.67441
G1 X102.350 Y94.078 E16.69666
G1 X102.788 Y94.161 E16.71890
G1 X103.233 Y94.134 E16.74114
G1 X103.658 Y93.996 E16.76343
G1 X104.034 Y93.757 E16.78566
G1 X104.200 Y93.580 E16.79777
G1 X104.200 Y106.420 E17.43836
G1 X104.034 Y106.243 E17.45047
G1 X103.658 Y106.004 E17.47269
G1 X103.233 Y105.866 E17.49499
G0 F9000 X104.032 Y106.246
G0 X104.539 Y106.930
G1 F1200 X104.415 Y106.705 E17.50780
G1 X106.699 Y106.705 E17.62175
G1 X106.699 Y93.306 E18.29023
G1 X104.408 Y93.306 E18.40453
G1 X104.554 Y93.041 E18.41962
G1 X104.661 Y92.625 E18.44105
G1 X104.676 Y92.362 E18.45420
G1 X104.651 Y92.103 E18.46718
G1 X104.539 Y91.701 E18.48800
G1 X104.339 Y91.339 E18.50863
G1 X104.034 Y91.014 E18.53087
G1 X103.658 Y90.775 E18.55310
G1 X103.504 Y90.725 E18.56117
G1 X107.007 Y90.725 E18.73594
G1 X107.075 Y90.726 E18.73933
G1 X107.281 Y90.751 E18.74968
G1 X107.456 Y90.815 E18.75898
G1 X107.595 Y90.902 E18.76716
G1 X107.722 Y91.029 E18.77612
G1 X107.816 Y91.179 E18.78495
G1 X107.876 Y91.350 E18.79399
G1 X107.900 Y91.559 E18.80449
G1 X107.900 Y108.438 E19.64659
G1 X107.874 Y108.659 E19.65769
G1 X107.811 Y108.830 E19.66678
G1 X107.722 Y108.971 E19.67510
G1 X107.600 Y109.093 E19.68371
G1 X107.434 Y109.196 E19.69345
G1 X107.275 Y109.251 E19.70185
G1 X107.065 Y109.275 E19.71239
G1 X103.504 Y109.275 E19.89005
G1 X103.658 Y109.225 E19.89813
G1 X104.034 Y108.986 E19.92036
G1 X104.339 Y108.661 E19.94259
G1 X104.554 Y108.270 E19.96485
G1 X104.661 Y107.854 E19.98628
G1 X104.676 Y107.590 E19.99948
G1 X104.651 Y107.332 E20.01241
G1 X104.539 Y106.930 E20.03323
G0 F9000 X104.256 Y107.405
;TYPE:WALL-OUTER
G1 F1200 X104.166 Y107.083 E20.04991
G1 X104.013 Y106.805 E20.06574
G1 X103.777 Y106.554 E20.08293
G1 X103.486 Y106.369 E20.10013
G1 X103.158 Y106.262 E20.11734
G1 X102.813 Y106.241 E20.13459
G1 X102.474 Y106.305 E20.15180
G1 X102.160 Y106.453 E20.16912
G1 X101.880 Y106.695 E20.18758
G1 X101.693 Y106.951 E20.20340
G1 X101.566 Y107.272 E20.22062
G1 X101.523 Y107.614 E20.23782
G1 X101.566 Y107.959 E20.25516
G1 X101.710 Y108.301 E20.27368
G1 X101.896 Y108.557 E20.28946
G1 X102.162 Y108.777 E20.30669
G1 X102.474 Y108.924 E20.32389
G1 X102.813 Y108.988 E20.34110
G1 X103.158 Y108.967 E20.35835
G1 X103.486 Y108.860 E20.37556
G1 X103.777 Y108.675 E20.39276
G1 X104.013 Y108.424 E20.40995
G1 X104.179 Y108.121 E20.42719
G1 X104.264 Y107.793 E20.44409
G1 X104.275 Y107.597 E20.45389
G1 X104.256 Y107.405 E20.46351
G0 F9000 X104.600 Y106.305
G1 F1200 X106.299 Y106.305 E20.54828
G1 X106.299 Y93.706 E21.17684
G1 X104.600 Y93.706 E21.26161
G1 X104.600 Y106.305 E21.89017
G0 F9000 X104.300 Y106.305
G0 X104.259 Y106.646
G0 X107.069 Y109.375
G0 X107.085 Y109.675
G1 F1200 X94.682 Y109.675 E22.50896
G1 X91.700 Y106.693 E22.71936
G1 X91.700 Y93.307 E23.38719
G1 X94.682 Y90.325 E23.59758
G1 X107.011 Y90.325 E24.21268
G1 X107.100 Y90.326 E24.21712
G1 X107.374 Y90.359 E24.23089
G1 X107.637 Y90.456 E24.24488
G1 X107.842 Y90.585 E24.25696
G1 X108.037 Y90.779 E24.27068
G1 X108.179 Y91.004 E24.28396
G1 X108.267 Y91.258 E24.29737
G1 X108.300 Y91.539 E24.31148
G1 X108.300 Y108.459 E25.15562
G1 X108.266 Y108.750 E25.17024
G1 X108.170 Y109.011 E25.18412
G1 X108.035 Y109.224 E25.19670
G1 X107.849 Y109.410 E25.20982
G1 X107.608 Y109.559 E25.22396
G1 X107.367 Y109.642 E25.23667
G1 X107.085 Y109.675 E25.25084
G0 F9000 X107.069 Y109.375
G0 X104.259 Y106.646
G0 X103.248 Y94.024
G0 X103.158 Y93.738
G1 F1200 X103.486 Y93.631 E25.26805
G1 X103.777 Y93.446 E25.28525
G1 X104.013 Y93.195 E25.30244
G1 X104.179 Y92.892 E25.31968
G1 X104.264 Y92.564 E25.33658
G1 X104.275 Y92.369 E25.34633
G1 X104.256 Y92.176 E25.35600
G1 X104.166 Y91.854 E25.37268
G1 X104.013 Y91.576 E25.38851
G1 X103.777 Y91.325 E25.40570
G1 X103.486 Y91.140 E25.42291
G1 X103.158 Y91.033 E25.44012
G1 X102.813 Y91.012 E25.45736
G1 X102.474 Y91.076 E25.47457
G1 X102.160 Y91.224 E25.49189
G1 X101.880 Y91.466 E25.51036
G1 X101.693 Y91.722 E25.52617
G1 X101.566 Y92.043 E25.54340
G1 X101.523 Y92.386 E25.56064
G1 X101.566 Y92.730 E25.57794
G1 X101.710 Y93.072 E25.59645
G1 X101.896 Y93.328 E25.61224
G1 X102.162 Y93.548 E25.62946
G1 X102.474 Y93.695 E25.64667
G1 X102.813 Y93.759 E25.66388
G1 X103.158 Y93.738 E25.68112
G0 F9000 X103.411 Y94.643
;TYPE:SKIN
G1 F1200 X103.659 Y94.891 E25.69862
G0 F9000 X103.659 Y95.457
G1 F1200 X102.898 Y94.695 E25.75235
G0 F9000 X102.245 Y94.608
G1 F1200 X103.659 Y96.022 E25.85211
G0 F9000 X103.659 Y96.588
G1 F1200 X98.335 Y91.264 E26.22775
G0 F9000 X97.770 Y91.264
G1 F1200 X103.659 Y97.154 E26.64329
G0 F9000 X103.659 Y97.720
G1 F1200 X97.204 Y91.264 E27.09876
G0 F9000 X96.638 Y91.264
G1 F1200 X103.659 Y98.285 E27.59413
G0 F9000 X103.659 Y98.851
G1 F1200 X96.073 Y91.264 E28.12939
G0 F9000 X95.507 Y91.264
G1 F1200 X103.659 Y99.417 E28.70460
G0 F9000 X103.659 Y99.982
G1 F1200 X95.006 Y91.329 E29.31511
G0 F9000 X94.723 Y91.612
G1 F1200 X103.660 Y100.549 E29.94567
G0 F9000 X103.660 Y101.114
G1 F1200 X94.440 Y91.894 E30.59619
G0 F9000 X94.157 Y92.177
G1 F1200 X103.660 Y101.680 E31.26668
G0 F9000 X103.660 Y102.246
G1 F1200 X93.874 Y92.460 E31.95713
G0 F9000 X93.591 Y92.743
G1 F1200 X103.660 Y102.811 E32.66752
G0 F9000 X103.660 Y103.377
G1 F1200 X93.309 Y93.026 E33.39784
G0 F9000 X93.026 Y93.309
G1 F1200 X103.660 Y103.943 E34.14812
G0 F9000 X103.660 Y104.508
G1 F1200 X92.743 Y93.591 E34.91838
G0 F9000 X92.640 Y94.054
G1 F1200 X103.660 Y105.074 E35.69590
G0 F9000 X103.358 Y105.338
G1 F1200 X92.640 Y94.620 E36.45211
G0 F9000 X92.640 Y95.185
G1 F1200 X102.748 Y105.294 E37.16532
G0 F9000 X102.273 Y105.385
G1 F1200 X92.640 Y95.751 E37.84501
G0 F9000 X92.640 Y96.317
G1 F1200 X101.871 Y105.548 E38.49631
G0 F9000 X101.519 Y105.761
G1 F1200 X92.640 Y96.882 E39.12277
G0 F9000 X92.640 Y97.448
G1 F1200 X101.215 Y106.024 E39.72782
G0 F9000 X100.970 Y106.344
G1 F1200 X92.640 Y98.014 E40.31555
G0 F9000 X92.640 Y98.579
G1 F1200 X100.775 Y106.715 E40.88955
G0 F9000 X100.635 Y107.140
G1 F1200 X92.640 Y99.145 E41.45364
G0 F9000 X92.640 Y99.711
G1 F1200 X100.580 Y107.652 E42.01389
G0 F9000 X100.708 Y108.345
G1 F1200 X92.640 Y100.276 E42.58316
G0 F9000 X92.640 Y100.842
G1 F1200 X100.531 Y108.733 E43.13992
G0 F9000 X103.232 Y109.361
G0 X104.964 Y108.641
G1 F1200 X105.087 Y108.481 E43.14626
G1 X105.617 Y108.728 E43.17543
G0 F9000 X106.179 Y108.724
G1 F1200 X105.207 Y107.753 E43.24398
G0 F9000 X105.264 Y107.244
G1 F1200 X106.740 Y108.720 E43.34812
G0 F9000 X107.256 Y108.670
G1 F1200 X105.830 Y107.244 E43.44873
G0 F9000 X106.396 Y107.244
G1 F1200 X107.360 Y108.208 E43.51674
G0 F9000 X107.359 Y107.642
G1 F1200 X106.961 Y107.244 E43.54482
G0 F9000 X103.232 Y109.361
G0 X101.947 Y109.115
G0 X99.965 Y108.733
G1 F1200 X92.640 Y101.408 E44.06164
G0 F9000 X92.640 Y101.973
G1 F1200 X99.400 Y108.733 E44.53860
G0 F9000 X98.834 Y108.733
G1 F1200 X92.640 Y102.539 E44.97562
G0 F9000 X92.640 Y103.105
G1 F1200 X98.268 Y108.733 E45.37270
G0 F9000 X97.703 Y108.733
G1 F1200 X92.640 Y103.671 E45.72989
G0 F9000 X92.640 Y104.236
G1 F1200 X97.137 Y108.733 E46.04718
G0 F9000 X96.571 Y108.733
G1 F1200 X92.640 Y104.802 E46.32453
G0 F9000 X92.640 Y105.368
G1 F1200 X96.006 Y108.733 E46.56198
G0 F9000 X95.440 Y108.733
G1 F1200 X92.640 Y105.933 E46.75954
G0 F9000 X100.672 Y93.036
G1 F1200 X98.901 Y91.264 E46.88453
G0 F9000 X99.467 Y91.264
G1 F1200 X100.576 Y92.374 E46.96281
G0 F9000 X100.639 Y91.871
G1 F1200 X100.032 Y91.264 E47.00564
G0 F9000 X100.598 Y91.264
G1 F1200 X100.787 Y91.453 E47.01897
G0 F9000 X102.789 Y90.612
G0 X104.032 Y91.017
G0 X105.124 Y91.264
G1 F1200 X106.625 Y92.766 E47.12491
G0 F9000 X106.059 Y92.766
G1 F1200 X105.137 Y91.843 E47.19000
G0 F9000 X105.209 Y92.481
G1 F1200 X105.493 Y92.766 E47.21007
G0 F9000 X105.689 Y91.264
G1 F1200 X107.191 Y92.766 E47.31605
G0 F9000 X107.343 Y92.353
G1 F1200 X106.255 Y91.264 E47.39284
G0 F9000 X106.821 Y91.264
G1 F1200 X107.343 Y91.787 E47.42971
;LAYER:1
M106 S127
G0 F9000 X107.235 Y91.320 Z0.450
;TYPE:FILL
G1 F1500 X105.789 Y92.766 E47.48072
G0 F9000 X105.204 Y92.219
G1 F1500 X106.159 Y91.264 E47.51441
G0 F9000 X105.027 Y91.264
G1 F1500 X104.955 Y91.337 E47.51697
G0 F9000 X106.920 Y92.766
G1 F1500 X107.343 Y92.343 E47.53189
G0 F9000 X107.150 Y107.244
G1 F1500 X105.666 Y108.728 E47.58424
G0 F9000 X105.151 Y108.112
G1 F1500 X106.019 Y107.244 E47.61487
G0 F9000 X107.359 Y108.166
G1 F1500 X106.805 Y108.720 E47.63441
G0 F9000 X107.500 Y108.411
;TYPE:WALL-INNER
G1 F1500 X107.480 Y108.573 E47.63848
G1 X107.456 Y108.641 E47.64028
G1 X107.400 Y108.728 E47.64286
G1 X107.348 Y108.779 E47.64468
G1 X107.258 Y108.834 E47.64731
G1 X107.184 Y108.859 E47.64926
G1 X104.678 Y108.875 E47.71177
G1 X104.929 Y108.418 E47.72478
G1 X105.057 Y107.918 E47.73765
G1 X105.076 Y107.614 E47.74525
G1 X105.057 Y107.311 E47.75282
G1 X105.004 Y107.105 E47.75813
G1 X107.099 Y107.105 E47.81039
G1 X107.099 Y92.906 E48.16458
G1 X105.001 Y92.906 E48.21692
G1 X105.057 Y92.689 E48.22251
G1 X105.076 Y92.386 E48.23008
G1 X105.057 Y92.082 E48.23768
G1 X104.929 Y91.582 E48.25056
G1 X104.678 Y91.125 E48.26356
G1 X106.944 Y91.125 E48.32009
G1 X107.061 Y91.126 E48.32301
G1 X107.197 Y91.144 E48.32643
G1 X107.247 Y91.161 E48.32775
G1 X107.357 Y91.231 E48.33100
G1 X107.404 Y91.278 E48.33266
G1 X107.460 Y91.370 E48.33534
G1 X107.484 Y91.439 E48.33717
G1 X107.500 Y108.411 E48.76053
G0 F9000 X104.259 Y106.646
G0 X103.308 Y105.470
G1 F1500 X102.762 Y105.436 E48.77418
G1 X102.225 Y105.538 E48.78782
G1 X101.730 Y105.771 E48.80146
G1 X101.308 Y106.120 E48.81512
G1 X100.987 Y106.562 E48.82875
G1 X100.784 Y107.072 E48.84244
G1 X100.717 Y107.614 E48.85607
G1 X100.784 Y108.157 E48.86971
G1 X100.987 Y108.667 E48.88341
G1 X101.138 Y108.875 E48.88982
G1 X95.014 Y108.875 E49.04258
G1 X92.500 Y106.361 E49.13127
G1 X92.500 Y93.639 E49.44862
G1 X95.014 Y91.125 E49.53731
G1 X101.138 Y91.125 E49.69007
G1 X100.987 Y91.333 E49.69648
G1 X100.784 Y91.843 E49.71018
G1 X100.717 Y92.386 E49.72383
G1 X100.784 Y92.928 E49.73745
G1 X100.987 Y93.438 E49.75114
G1 X101.308 Y93.880 E49.76477
G1 X101.730 Y94.229 E49.77843
G1 X102.225 Y94.462 E49.79208
G1 X102.762 Y94.564 E49.80571
G1 X103.308 Y94.530 E49.81936
G1 X103.800 Y94.371 E49.83226
G1 X103.800 Y105.629 E50.11309
G1 X103.308 Y105.470 E50.12599
G0 F9000 X103.233 Y105.866
G1 F1500 X102.788 Y105.839 E50.13711
G1 X102.350 Y105.922 E50.14823
G1 X101.946 Y106.111 E50.15935
G1 X101.602 Y106.396 E50.17050
G1 X101.340 Y106.756 E50.18160
G1 X101.175 Y107.172 E50.19277
G1 X101.120 Y107.614 E50.20388
G1 X101.175 Y108.057 E50.21501
G1 X101.340 Y108.473 E50.22618
G1 X101.602 Y108.833 E50.23728
G1 X101.946 Y109.118 E50.24843
G1 X102.282 Y109.275 E50.25768
G1 X94.848 Y109.275 E50.44312
G1 X92.100 Y106.527 E50.54006
G1 X92.100 Y93.473 E50.86570
G1 X94.848 Y90.725 E50.96264
G1 X102.282 Y90.725 E51.14808
