;Generated from 2.1-LH-decorationcover.stl 2bf303df004b2eaba86507c9fcf458507baf0231
;Generated with Cura_SteamEngine 15.04
M140 S55.0
M109 T0 S210.0
T0
M190 S55.0

;Basic settings: Layer height: 0.15 Walls: 1.2 Fill: 50
;Print time: ?print_time?
;Filament used: ?filament_amount?m ?filament_weight?g
;Filament cost: ?filament_cost?
;M190 S55 ;Uncomment to add your own bed temperature line
;M109 S210 ;Uncomment to add your own temperature line
G21        ;metric values
G90        ;absolute positioning
M82        ;set extruder to absolute mode
M107       ;start with the fan off
G28 X0 Y0  ;move X/Y to min endstops
G28 Z0     ;move Z to min endstops
G1 Z5.0 F9000 ;move the platform down 15mm
G92 E0                  ;zero the extruded length
G1 F200 E3              ;extrude 3mm of feed stock
G92 E0                  ;zero the extruded length again
G1 F9000
;Put printing message on LCD screen
M117 Printing...

;Layer count: 34
;LAYER:0
M107
G0 F9000 X77.425 Y69.920 Z0.300
G0 X76.330 Y71.823
;TYPE:SKIRT
G1 F1200 X77.425 Y69.920 E0.10954
G1 X93.958 Y69.919 E0.93437
G1 X95.297 Y69.920 E1.00117
G1 X97.310 Y69.957 E1.10162
G1 X99.053 Y70.052 E1.18871
G1 X99.507 Y70.079 E1.21140
G1 X101.541 Y70.271 E1.31333
G1 X103.642 Y70.547 E1.41905
G1 X105.723 Y70.901 E1.52436
G1 X105.853 Y70.927 E1.53097
G1 X107.810 Y71.338 E1.63074
G1 X109.868 Y71.851 E1.73655
G1 X111.904 Y72.441 E1.84231
G1 X113.918 Y73.107 E1.94814
G1 X115.905 Y73.849 E2.05396
G1 X117.863 Y74.666 E2.15981
G1 X119.788 Y75.557 E2.26563
G1 X121.679 Y76.520 E2.37150
G1 X123.524 Y77.548 E2.47688
G1 X123.624 Y77.608 E2.48269
G1 X124.089 Y77.888 E2.50977
G1 X125.358 Y78.659 E2.58385
G1 X125.594 Y78.865 E2.59948
G1 X125.988 Y79.202 E2.62535
G1 X126.399 Y79.752 E2.65960
G1 X126.679 Y80.230 E2.68724
G1 X127.000 Y81.103 E2.73365
G1 X127.093 Y81.931 E2.77521
G1 X127.093 Y91.137 E3.23450
G1 X126.935 Y92.135 E3.28491
G1 X126.362 Y93.256 E3.34772
G1 X125.475 Y94.148 E3.41048
G1 X124.334 Y94.728 E3.47434
G1 X123.343 Y94.883 E3.52438
G1 X119.250 Y94.883 E3.72858
G1 X118.957 Y95.177 E3.74929
G1 X118.866 Y95.875 E3.78441
G1 X118.791 Y96.155 E3.79887
G1 X118.791 Y97.923 E3.88708
G1 X118.716 Y98.776 E3.92980
G1 X118.458 Y99.739 E3.97954
G1 X118.037 Y100.640 E4.02915
G1 X117.467 Y101.455 E4.07877
G1 X116.751 Y102.170 E4.12925
G1 X115.911 Y102.749 E4.18015
G1 X115.028 Y103.156 E4.22866
G1 X114.079 Y103.410 E4.27767
G1 X113.227 Y103.483 E4.32033
G1 X112.111 Y103.483 E4.37601
G1 X111.329 Y103.427 E4.41512
G1 X110.467 Y103.206 E4.45952
G1 X109.679 Y102.856 E4.50254
G1 X108.925 Y102.360 E4.54756
G1 X108.032 Y101.490 E4.60976
G1 X107.785 Y101.291 E4.62559
G1 X107.305 Y100.969 E4.65443
G1 X106.948 Y100.788 E4.67439
G1 X106.550 Y100.637 E4.69563
G1 X106.138 Y100.528 E4.71689
G1 X105.712 Y100.460 E4.73842
G1 X105.260 Y100.438 E4.76099
G1 X104.871 Y100.459 E4.78043
G1 X104.434 Y100.528 E4.80250
G1 X104.032 Y100.635 E4.82326
G1 X103.634 Y100.789 E4.84455
G1 X103.249 Y100.984 E4.86608
G1 X102.884 Y101.221 E4.88779
G1 X102.566 Y101.477 E4.90816
G1 X102.253 Y101.789 E4.93020
G1 X101.985 Y102.118 E4.95138
G1 X101.755 Y102.469 E4.97231
G1 X101.557 Y102.856 E4.99400
G1 X101.403 Y103.252 E5.01520
G1 X101.284 Y103.688 E5.03774
G1 X101.223 Y104.073 E5.05719
G1 X101.196 Y104.543 E5.08068
G1 X101.217 Y104.959 E5.10146
G1 X101.285 Y105.381 E5.12279
G1 X101.394 Y105.791 E5.14395
G1 X101.546 Y106.187 E5.16511
G1 X101.741 Y106.572 E5.18664
G1 X101.975 Y106.935 E5.20819
G1 X102.242 Y107.266 E5.22941
G1 X102.539 Y107.566 E5.25047
G1 X102.869 Y107.835 E5.27171
G1 X103.234 Y108.073 E5.29345
G1 X103.606 Y108.265 E5.31433
G1 X104.004 Y108.420 E5.33564
G1 X104.440 Y108.539 E5.35819
G1 X104.831 Y108.601 E5.37794
G1 X105.295 Y108.628 E5.40113
G1 X105.688 Y108.609 E5.42076
G1 X106.113 Y108.544 E5.44221
G1 X106.526 Y108.436 E5.46351
G1 X106.929 Y108.285 E5.48498
G1 X107.308 Y108.096 E5.50611
G1 X107.665 Y107.868 E5.52724
G1 X108.000 Y107.602 E5.54858
G1 X108.453 Y107.156 E5.58030
G1 X108.952 Y106.689 E5.61439
G1 X109.679 Y106.210 E5.65783
G1 X110.467 Y105.860 E5.70085
G1 X111.313 Y105.643 E5.74442
G1 X112.047 Y105.583 E5.78116
G1 X113.227 Y105.583 E5.84003
G1 X114.080 Y105.656 E5.88274
G1 X115.045 Y105.915 E5.93259
G1 X115.949 Y106.336 E5.98234
G1 X116.763 Y106.908 E6.03198
G1 X117.467 Y107.611 E6.08161
G1 X118.037 Y108.426 E6.13123
G1 X118.458 Y109.327 E6.18085
G1 X118.716 Y110.290 E6.23059
G1 X118.791 Y111.143 E6.27331
G1 X118.791 Y128.382 E7.13336
G1 X116.169 Y129.565 E7.27687
G1 X114.696 Y130.156 E7.35606
G1 X113.287 Y130.630 E7.43022
G1 X111.738 Y131.055 E7.51036
G1 X110.344 Y131.352 E7.58147
G1 X108.713 Y131.612 E7.66386
G1 X107.211 Y131.758 E7.73915
G1 X105.681 Y131.823 E7.81555
G1 X105.493 Y131.828 E7.82494
G1 X104.108 Y131.801 E7.89405
G1 X102.522 Y131.687 E7.97338
G1 X101.028 Y131.491 E8.04855
G1 X99.463 Y131.198 E8.12799
G1 X98.000 Y130.835 E8.20319
G1 X96.580 Y130.398 E8.27731
G1 X95.148 Y129.871 E8.35344
G1 X94.997 Y129.813 E8.36151
G1 X93.697 Y129.241 E8.43237
G1 X92.256 Y128.513 E8.51291
G1 X90.961 Y127.763 E8.58757
G1 X89.716 Y126.945 E8.66189
G1 X88.412 Y125.983 E8.74274
G1 X87.262 Y125.024 E8.81744
G1 X86.076 Y123.918 E8.89835
G1 X85.048 Y122.841 E8.97263
G1 X84.054 Y121.684 E9.04873
G1 X83.739 Y121.215 E9.07692
G1 X83.476 Y120.638 E9.10855
G1 X83.348 Y120.153 E9.13358
G1 X83.244 Y119.517 E9.16573
G1 X83.299 Y118.767 E9.20325
G1 X82.687 Y117.772 E9.26153
G1 X82.602 Y117.634 E9.26961
G1 X81.905 Y116.345 E9.34272
G1 X81.458 Y115.397 E9.39501
G1 X81.209 Y114.849 E9.42504
G1 X80.710 Y113.598 E9.49223
G1 X80.271 Y112.300 E9.56059
G1 X80.222 Y112.152 E9.56837
G1 X79.985 Y111.284 E9.61326
G1 X79.588 Y110.993 E9.63782
G1 X78.998 Y110.347 E9.68147
G1 X78.540 Y109.527 E9.72833
G1 X78.329 Y108.784 E9.76686
G1 X78.216 Y107.995 E9.80663
G1 X78.078 Y106.615 E9.87582
G1 X78.004 Y105.085 E9.95224
G1 X77.998 Y104.926 E9.96018
G1 X78.015 Y103.620 E10.02534
G1 X78.017 Y103.424 E10.03512
G1 X78.113 Y102.052 E10.10374
G1 X78.169 Y101.477 E10.13256
G1 X78.182 Y101.364 E10.13823
G1 X78.178 Y101.306 E10.14113
G1 X78.165 Y101.246 E10.14420
G1 X78.157 Y101.222 E10.14546
G1 X78.104 Y101.117 E10.15133
G1 X78.091 Y101.098 E10.15247
G1 X78.064 Y101.067 E10.15453
G1 X77.354 Y100.854 E10.19151
G1 X76.481 Y100.449 E10.23952
G1 X75.658 Y99.918 E10.28838
G1 X75.138 Y99.463 E10.32286
G1 X74.930 Y99.296 E10.33616
G1 X74.340 Y98.599 E10.38172
G1 X74.191 Y98.400 E10.39413
G1 X73.738 Y97.671 E10.43695
G1 X73.346 Y96.786 E10.48524
G1 X73.079 Y95.846 E10.53399
G1 X72.978 Y95.091 E10.57199
G1 X72.941 Y94.823 E10.58549
G1 X72.955 Y94.212 E10.61598
G1 X72.940 Y93.970 E10.62808
G1 X73.086 Y93.071 E10.67351
G1 X73.163 Y92.651 E10.69482
G1 X73.195 Y92.359 E10.70947
G1 X73.209 Y92.003 E10.72725
G1 X73.208 Y91.403 E10.75718
G1 X73.209 Y78.898 E11.38106
G1 X73.207 Y78.479 E11.40196
G1 X73.275 Y77.732 E11.43938
G1 X73.513 Y76.823 E11.48626
G1 X73.900 Y76.028 E11.53038
G1 X76.329 Y71.823 E11.77265
G1 X76.330 Y71.823 E11.77270
G1 F2400 E7.27270
G0 F9000 X79.853 Y74.120
;TYPE:WALL-INNER
G1 F2400 E11.77270
G1 F1200 X95.249 Y74.120 E12.54081
G1 X97.147 Y74.154 E12.63552
G1 X98.817 Y74.246 E12.71896
G1 X101.088 Y74.447 E12.83270
G1 X103.001 Y74.699 E12.92897
G1 X104.955 Y75.030 E13.02784
G1 X106.883 Y75.435 E13.12613
G1 X108.782 Y75.908 E13.22377
G1 X110.656 Y76.452 E13.32112
G1 X112.505 Y77.063 E13.41827
G1 X114.365 Y77.758 E13.51733
G1 X116.164 Y78.508 E13.61457
G1 X117.963 Y79.341 E13.71348
G1 X119.712 Y80.231 E13.81139
G1 X121.434 Y81.191 E13.90975
G1 X121.461 Y81.207 E13.91131
G1 X121.917 Y81.483 E13.93790
G1 X122.867 Y82.059 E13.99333
G1 X122.883 Y82.077 E13.99453
G1 X122.893 Y90.683 E14.42389
G1 X118.703 Y90.683 E14.63293
G1 X118.165 Y90.737 E14.65990
G1 X117.587 Y90.914 E14.69006
G1 X117.120 Y91.166 E14.71654
G1 X117.021 Y91.234 E14.72253
G1 X116.665 Y91.529 E14.74560
G1 X114.679 Y93.516 E14.88575
G1 X114.754 Y94.115 E14.91587
G1 X114.632 Y93.618 E14.94140
G1 X114.409 Y93.139 E14.96776
G1 X114.056 Y92.673 E14.99693
G1 X113.609 Y92.293 E15.02620
G1 X113.092 Y92.019 E15.05539
G1 X112.528 Y91.863 E15.08459
G1 X111.944 Y91.832 E15.11376
G1 X111.366 Y91.926 E15.14298
G1 X110.822 Y92.144 E15.17222
G1 X110.339 Y92.471 E15.20132
G1 X109.936 Y92.897 E15.23057
G1 X109.635 Y93.397 E15.25969
G1 X109.448 Y93.950 E15.28881
G1 X109.384 Y94.533 E15.31807
G1 X109.448 Y95.116 E15.34733
G1 X109.635 Y95.670 E15.37651
G1 X109.936 Y96.170 E15.40562
G1 X110.339 Y96.596 E15.43488
G1 X110.822 Y96.923 E15.46398
G1 X111.366 Y97.141 E15.49322
G1 X111.944 Y97.235 E15.52243
G1 X112.528 Y97.204 E15.55161
G1 X113.092 Y97.048 E15.58080
G1 X113.609 Y96.774 E15.61000
G1 X114.065 Y96.387 E15.63983
G1 X114.432 Y95.879 E15.67110
G1 X114.632 Y95.447 E15.69485
G1 X114.591 Y95.601 E15.70280
G1 X114.591 Y97.742 E15.80962
G1 X114.565 Y98.042 E15.82464
G1 X114.496 Y98.296 E15.83777
G1 X114.388 Y98.530 E15.85063
G1 X114.236 Y98.746 E15.86381
G1 X114.051 Y98.931 E15.87686
G1 X113.829 Y99.084 E15.89031
G1 X113.595 Y99.192 E15.90317
G1 X113.349 Y99.258 E15.91587
G1 X113.053 Y99.283 E15.93069
G1 X112.254 Y99.283 E15.97056
G1 X112.011 Y99.266 E15.98271
G1 X111.850 Y99.224 E15.99101
G1 X111.698 Y99.157 E15.99930
G1 X111.570 Y99.072 E16.00696
G1 X110.820 Y98.342 E16.05918
G1 X110.269 Y97.900 E16.09442
G1 X109.430 Y97.338 E16.14480
G1 X108.650 Y96.942 E16.18844
G1 X107.840 Y96.634 E16.23168
G1 X107.005 Y96.412 E16.27478
G1 X106.149 Y96.277 E16.31802
G1 X105.325 Y96.236 E16.35918
G1 X105.235 Y96.233 E16.36367
G1 X104.421 Y96.277 E16.40434
G1 X103.567 Y96.412 E16.44748
G1 X102.729 Y96.637 E16.49076
G1 X101.922 Y96.947 E16.53389
G1 X101.150 Y97.339 E16.57709
G1 X100.424 Y97.810 E16.62027
G1 X99.749 Y98.354 E16.66352
G1 X99.137 Y98.964 E16.70663
G1 X98.591 Y99.635 E16.74978
G1 X98.116 Y100.360 E16.79303
G1 X97.721 Y101.131 E16.83625
G1 X97.409 Y101.937 E16.87937
G1 X97.194 Y102.725 E16.92012
G1 X97.171 Y102.811 E16.92456
G1 X97.042 Y103.628 E16.96582
G1 X96.995 Y104.440 E17.00640
G1 X96.990 Y104.532 E17.01100
G1 X97.034 Y105.397 E17.05421
G1 X97.171 Y106.252 E17.09741
G1 X97.393 Y107.088 E17.14056
G1 X97.703 Y107.896 E17.18374
G1 X98.094 Y108.668 E17.22691
G1 X98.563 Y109.394 E17.27003
G1 X99.107 Y110.070 E17.31332
G1 X99.717 Y110.683 E17.35647
G1 X100.389 Y111.231 E17.39973
G1 X101.112 Y111.704 E17.44283
G1 X101.881 Y112.101 E17.48601
G1 X102.688 Y112.415 E17.52921
G1 X103.487 Y112.632 E17.57052
G1 X104.380 Y112.782 E17.61569
G1 X105.206 Y112.830 E17.65697
G1 X105.297 Y112.833 E17.66151
G1 X106.107 Y112.793 E17.70197
G1 X106.962 Y112.663 E17.74512
G1 X107.799 Y112.445 E17.78827
G1 X108.608 Y112.141 E17.83139
G1 X109.383 Y111.754 E17.87461
G1 X110.113 Y111.288 E17.91781
G1 X110.790 Y110.749 E17.96099
G1 X111.353 Y110.195 E18.00039
G1 X111.564 Y109.997 E18.01483
G1 X111.698 Y109.909 E18.02283
G1 X111.850 Y109.842 E18.03112
G1 X112.012 Y109.800 E18.03946
G1 X113.053 Y109.783 E18.09141
G1 X113.349 Y109.808 E18.10623
G1 X113.606 Y109.877 E18.11950
G1 X113.837 Y109.985 E18.13223
G1 X114.051 Y110.135 E18.14526
G1 X114.236 Y110.320 E18.15832
G1 X114.388 Y110.536 E18.17149
G1 X114.496 Y110.770 E18.18435
G1 X114.565 Y111.024 E18.19748
G1 X114.591 Y111.324 E18.21251
G1 X114.591 Y113.329 E18.31254
G1 X114.409 Y112.938 E18.33405
G1 X114.056 Y112.472 E18.36322
G1 X113.609 Y112.092 E18.39249
G1 X113.092 Y111.818 E18.42168
G1 X112.528 Y111.662 E18.45087
G1 X111.944 Y111.631 E18.48005
G1 X111.366 Y111.725 E18.50927
G1 X110.822 Y111.943 E18.53851
G1 X110.339 Y112.270 E18.56761
G1 X109.936 Y112.696 E18.59686
G1 X109.635 Y113.196 E18.62598
G1 X109.448 Y113.750 E18.65515
G1 X109.384 Y114.333 E18.68441
G1 X109.448 Y114.916 E18.71367
G1 X109.635 Y115.469 E18.74280
G1 X109.936 Y115.969 E18.77191
G1 X110.339 Y116.395 E18.80117
G1 X110.822 Y116.722 E18.83027
G1 X111.366 Y116.940 E18.85951
G1 X111.944 Y117.034 E18.88872
G1 X112.528 Y117.003 E18.91790
G1 X113.092 Y116.847 E18.94709
G1 X113.609 Y116.573 E18.97629
G1 X114.065 Y116.186 E19.00612
G1 X114.432 Y115.678 E19.03739
G1 X114.591 Y115.335 E19.05625
G1 X114.591 Y125.669 E19.57182
G1 X113.251 Y126.211 E19.64393
G1 X112.052 Y126.614 E19.70704
G1 X110.745 Y126.973 E19.77466
G1 X109.569 Y127.223 E19.83464
G1 X108.181 Y127.445 E19.90477
G1 X106.921 Y127.567 E19.96792
G1 X105.555 Y127.625 E20.03614
G1 X105.485 Y127.627 E20.03963
G1 X104.287 Y127.603 E20.09941
G1 X102.961 Y127.508 E20.16573
G1 X101.681 Y127.341 E20.23014
G1 X100.362 Y127.094 E20.29708
G1 X99.125 Y126.787 E20.36067
G1 X97.907 Y126.411 E20.42427
G1 X96.623 Y125.939 E20.49252
G1 X95.502 Y125.446 E20.55361
G1 X94.244 Y124.812 E20.62389
G1 X93.177 Y124.193 E20.68544
G1 X92.122 Y123.500 E20.74841
G1 X90.996 Y122.669 E20.81823
G1 X90.041 Y121.873 E20.88025
G1 X89.035 Y120.935 E20.94888
G1 X88.158 Y120.016 E21.01225
G1 X87.617 Y119.386 E21.05368
G1 X88.510 Y118.824 E21.10632
G1 X87.534 Y117.516 E21.18774
G1 X86.906 Y116.613 E21.24262
G1 X86.263 Y115.568 E21.30383
G1 X85.657 Y114.454 E21.36710
G1 X85.267 Y113.626 E21.41276
G1 X84.650 Y112.140 E21.49304
G1 X84.254 Y110.969 E21.55471
G1 X83.934 Y109.800 E21.61518
G1 X83.651 Y108.576 E21.67785
G1 X82.443 Y107.879 E21.74743
G1 X82.268 Y106.307 E21.82634
G1 X82.200 Y104.907 E21.89627
G1 X82.199 Y104.894 E21.89692
G1 X82.215 Y103.673 E21.95784
G1 X82.216 Y103.596 E21.96169
G1 X82.300 Y102.389 E22.02205
G1 X82.384 Y101.588 E22.06223
G1 X82.389 Y101.314 E22.07590
G1 X82.348 Y100.740 E22.10461
G1 X82.231 Y100.154 E22.13442
G1 X82.035 Y99.581 E22.16464
G1 X81.738 Y98.999 E22.19724
G1 X81.447 Y98.556 E22.22368
G1 X81.054 Y98.104 E22.25356
G1 X80.606 Y97.704 E22.28353
G1 X80.083 Y97.353 E22.31495
G1 X79.587 Y97.098 E22.34277
G1 X79.229 Y97.032 E22.36094
G1 X78.848 Y96.917 E22.38079
G1 X78.512 Y96.761 E22.39927
G1 X78.195 Y96.557 E22.41808
G1 X77.884 Y96.284 E22.43872
G1 X77.646 Y96.003 E22.45710
G1 X77.463 Y95.709 E22.47437
G1 X77.305 Y95.351 E22.49390
G1 X77.201 Y94.986 E22.51283
G1 X77.148 Y94.585 E22.53301
G1 X77.156 Y94.208 E22.55182
G1 X77.323 Y93.252 E22.60024
G1 X77.385 Y92.678 E22.62904
G1 X77.409 Y92.073 E22.65925
G1 X77.408 Y91.401 E22.69278
G1 X77.409 Y78.896 E23.31666
G1 X77.408 Y78.661 E23.32838
G1 X77.427 Y78.454 E23.33875
G1 X77.469 Y78.291 E23.34715
G1 X79.853 Y74.120 E23.58683
G0 F9000 X80.984 Y79.319
G1 F1200 X80.456 Y79.475 E23.61430
G1 X79.950 Y79.741 E23.64282
G1 X79.543 Y80.062 E23.66868
G1 X79.184 Y80.474 E23.69594
G1 X78.911 Y80.948 E23.72323
G1 X78.730 Y81.467 E23.75066
G1 X78.654 Y82.008 E23.77791
G1 X78.678 Y82.557 E23.80533
G1 X78.809 Y83.083 E23.83237
G1 X79.046 Y83.600 E23.86075
G1 X79.352 Y84.031 E23.88712
G1 X79.749 Y84.409 E23.91447
G1 X80.210 Y84.706 E23.94182
G1 X80.718 Y84.909 E23.96912
G1 X81.233 Y85.009 E23.99529
G1 X81.428 Y85.017 E24.00503
G1 X81.813 Y85.012 E24.02424
G1 X82.344 Y84.908 E24.05123
G1 X82.849 Y84.705 E24.07839
G1 X83.310 Y84.411 E24.10566
G1 X83.708 Y84.031 E24.13312
G1 X84.023 Y83.587 E24.16028
G1 X84.252 Y83.090 E24.18758
G1 X84.382 Y82.554 E24.21510
G1 X84.406 Y82.008 E24.24236
G1 X84.329 Y81.465 E24.26972
G1 X84.145 Y80.941 E24.29743
G1 X83.852 Y80.448 E24.32604
G1 X83.518 Y80.063 E24.35147
G1 X83.088 Y79.723 E24.37882
G1 X82.601 Y79.472 E24.40615
G1 X82.076 Y79.319 E24.43343
G1 X81.530 Y79.266 E24.46080
G1 X80.984 Y79.319 E24.48817
G0 F9000 X116.336 Y83.649
G1 F1200 X116.330 Y83.855 E24.49845
G1 X116.366 Y84.260 E24.51874
G1 X116.533 Y84.773 E24.54565
G1 X116.835 Y85.250 E24.57382
G1 X117.270 Y85.640 E24.60297
G1 X117.718 Y85.886 E24.62847
G1 X118.251 Y86.024 E24.65593
G1 X118.785 Y86.025 E24.68258
G1 X119.339 Y85.888 E24.71105
G1 X119.829 Y85.619 E24.73894
G1 X120.232 Y85.240 E24.76654
G1 X120.528 Y84.773 E24.79412
G1 X120.699 Y84.247 E24.82171
G1 X120.734 Y83.695 E24.84931
G1 X120.631 Y83.152 E24.87688
G1 X120.395 Y82.651 E24.90451
G1 X120.042 Y82.225 E24.93211
G1 X119.595 Y81.899 E24.95971
G1 X119.079 Y81.694 E24.98742
G1 X118.530 Y81.626 E25.01501
G1 X117.982 Y81.694 E25.04256
G1 X117.466 Y81.899 E25.07026
G1 X117.019 Y82.225 E25.09787
G1 X116.666 Y82.651 E25.12547
G1 X116.430 Y83.152 E25.15310
G1 X116.336 Y83.649 E25.17833
G0 F9000 X114.771 Y94.245
G1 F1200 X114.783 Y94.696 E25.20084
