;Generated from 2.1-LH-bearingholder.stl 890b6ade13c18f85c79b2456daf3707de1ca3360
;Generated with Cura_SteamEngine 15.04
M140 S55.0
M109 T0 S210.0
T0
M190 S55.0

;Basic settings: Layer height: 0.15 Walls: 1.2 Fill: 50
;Print time: ?print_time?
;Filament used: ?filament_amount?m ?filament_weight?g
;Filament cost: ?filament_cost?
;M190 S55 ;Uncomment to add your own bed temperature line
;M109 S210 ;Uncomment to add your own temperature line
G21        ;metric values
G90        ;absolute positioning
M82        ;set extruder to absolute mode
M107       ;start with the fan off
G28 X0 Y0  ;move X/Y to min endstops
G28 Z0     ;move Z to min endstops
G1 Z5.0 F9000 ;move the platform down 15mm
G92 E0                  ;zero the extruded length
G1 F200 E3              ;extrude 3mm of feed stock
G92 E0                  ;zero the extruded length again
G1 F9000
;Put printing message on LCD screen
M117 Printing...

;Layer count: 45
;LAYER:0
M107
G0 F9000 X87.421 Y87.119 Z0.300
;TYPE:SKIRT
G1 F1200 X91.343 Y83.197 E0.27672
G1 X91.982 Y82.670 E0.31804
G1 X92.868 Y82.199 E0.36810
G1 X93.824 Y81.907 E0.41797
G1 X94.648 Y81.825 E0.45928
G1 X113.949 Y81.825 E1.42222
G1 X113.949 Y112.232 E2.93923
G1 X113.870 Y113.137 E2.98455
G1 X113.594 Y114.166 E3.03770
G1 X113.144 Y115.132 E3.09087
G1 X112.688 Y115.782 E3.13048
G1 X112.490 Y116.046 E3.14694
G1 X111.778 Y116.758 E3.19718
G1 X111.228 Y117.144 E3.23070
G1 X110.959 Y117.345 E3.24746
G1 X109.940 Y117.820 E3.30355
G1 X108.911 Y118.096 E3.35670
G1 X108.006 Y118.175 E3.40202
G1 X101.507 Y118.175 E3.72626
G1 X100.550 Y118.046 E3.77443
G1 X99.441 Y117.590 E3.83426
G1 X98.476 Y116.853 E3.89483
G1 X97.733 Y115.885 E3.95571
G1 X97.277 Y114.772 E4.01572
G1 X97.196 Y114.170 E4.04603
G1 X96.431 Y114.001 E4.08511
G1 X95.266 Y113.635 E4.14604
G1 X94.139 Y113.168 E4.20690
G1 X93.058 Y112.606 E4.26768
G1 X92.143 Y112.025 E4.32176
G1 X91.982 Y111.919 E4.33137
G1 X91.058 Y111.209 E4.38951
G1 X90.160 Y110.388 E4.45021
G1 X89.335 Y109.488 E4.51112
G1 X88.595 Y108.527 E4.57164
G1 X87.936 Y107.499 E4.63256
G1 X87.371 Y106.416 E4.69350
G1 X86.903 Y105.294 E4.75415
G1 X86.532 Y104.130 E4.81510
G1 X86.267 Y102.940 E4.87592
G1 X86.104 Y101.732 E4.93674
G1 X86.052 Y100.587 E4.99392
G1 X86.050 Y90.430 E5.50066
G1 X86.129 Y89.606 E5.54195
G1 X86.423 Y88.644 E5.59214
G1 X86.894 Y87.758 E5.64220
G1 X87.421 Y87.119 E5.68352
G0 F9000 X87.717 Y87.388
G1 F1200 X91.612 Y83.493 E5.95834
G1 X92.206 Y83.004 E5.99672
G1 X93.021 Y82.570 E6.04279
G1 X93.903 Y82.301 E6.08879
G1 X94.667 Y82.225 E6.12710
G1 X113.549 Y82.225 E7.06912
G1 X113.549 Y112.215 E8.56533
G1 X113.474 Y113.068 E8.60805
G1 X113.216 Y114.029 E8.65769
G1 X112.796 Y114.931 E8.70733
G1 X112.364 Y115.548 E8.74491
G1 X112.188 Y115.783 E8.75956
G1 X111.520 Y116.450 E8.80665
G1 X110.987 Y116.824 E8.83914
G1 X110.752 Y117.000 E8.85379
G1 X109.803 Y117.442 E8.90602
G1 X108.842 Y117.700 E8.95566
G1 X107.989 Y117.775 E8.99838
G1 X101.534 Y117.775 E9.32042
G1 X100.654 Y117.656 E9.36472
G1 X99.642 Y117.240 E9.41931
G1 X98.761 Y116.567 E9.47462
G1 X98.083 Y115.684 E9.53016
G1 X97.667 Y114.667 E9.58498
G1 X97.555 Y113.840 E9.62662
G1 X96.534 Y113.614 E9.67879
G1 X95.403 Y113.258 E9.73794
G1 X94.309 Y112.805 E9.79702
G1 X93.258 Y112.259 E9.85611
G1 X92.360 Y111.689 E9.90917
G1 X92.214 Y111.593 E9.91789
G1 X91.316 Y110.902 E9.97442
G1 X90.443 Y110.105 E10.03339
G1 X89.642 Y109.231 E10.09254
G1 X88.923 Y108.297 E10.15134
G1 X88.282 Y107.299 E10.21052
G1 X87.733 Y106.246 E10.26977
G1 X87.279 Y105.156 E10.32867
G1 X86.919 Y104.026 E10.38784
G1 X86.661 Y102.870 E10.44693
G1 X86.503 Y101.696 E10.50603
G1 X86.452 Y100.578 E10.56187
G1 X86.450 Y90.449 E11.06721
G1 X86.523 Y89.684 E11.10555
G1 X86.794 Y88.797 E11.15182
G1 X87.228 Y87.982 E11.19788
G1 X87.717 Y87.388 E11.23627
G1 F2400 E6.73627
G0 F9000 X90.833 Y90.212
;TYPE:WALL-INNER
G1 F2400 E11.23627
G1 F1200 X94.436 Y86.609 E11.49048
G1 X94.551 Y86.514 E11.49792
G1 X94.635 Y86.469 E11.50268
G1 X94.734 Y86.439 E11.50784
G1 X109.349 Y86.425 E12.23698
G1 X109.349 Y89.990 E12.41484
G1 X109.337 Y89.889 E12.41992
G1 X109.142 Y89.350 E12.44851
G1 X108.835 Y88.868 E12.47702
G1 X108.428 Y88.467 E12.50553
G1 X107.945 Y88.168 E12.53387
G1 X107.418 Y87.983 E12.56173
G1 X106.847 Y87.918 E12.59040
G1 X106.263 Y87.987 E12.61974
G1 X105.723 Y88.182 E12.64839
G1 X105.241 Y88.489 E12.67690
G1 X104.840 Y88.896 E12.70540
G1 X104.541 Y89.379 E12.73374
G1 X104.356 Y89.907 E12.76165
G1 X104.293 Y90.477 E12.79027
G1 X104.360 Y91.060 E12.81954
G1 X104.555 Y91.601 E12.84823
G1 X104.862 Y92.083 E12.87674
G1 X105.269 Y92.484 E12.90525
G1 X105.752 Y92.783 E12.93359
G1 X106.279 Y92.968 E12.96145
G1 X106.852 Y93.033 E12.99022
G1 X107.435 Y92.964 E13.01951
G1 X107.974 Y92.769 E13.04811
G1 X108.456 Y92.462 E13.07662
G1 X108.857 Y92.055 E13.10513
G1 X109.156 Y91.572 E13.13347
G1 X109.341 Y91.045 E13.16133
G1 X109.349 Y90.974 E13.16490
G1 X109.349 Y109.791 E14.10368
G1 X109.337 Y109.689 E14.10880
G1 X109.142 Y109.149 E14.13745
G1 X108.835 Y108.667 E14.16596
G1 X108.428 Y108.266 E14.19446
G1 X107.945 Y107.967 E14.22280
G1 X107.417 Y107.782 E14.25072
G1 X106.847 Y107.719 E14.27933
G1 X106.264 Y107.786 E14.30860
G1 X105.723 Y107.981 E14.33729
G1 X105.241 Y108.288 E14.36580
G1 X104.840 Y108.695 E14.39431
G1 X104.541 Y109.178 E14.42265
G1 X104.356 Y109.706 E14.45056
G1 X104.293 Y110.278 E14.47927
G1 X104.360 Y110.859 E14.50845
G1 X104.555 Y111.400 E14.53714
G1 X104.862 Y111.882 E14.56565
G1 X105.269 Y112.283 E14.59416
G1 X105.752 Y112.582 E14.62250
G1 X106.279 Y112.767 E14.65036
G1 X106.852 Y112.832 E14.67913
G1 X107.435 Y112.763 E14.70842
G1 X107.974 Y112.568 E14.73702
G1 X108.456 Y112.261 E14.76553
G1 X108.857 Y111.854 E14.79403
G1 X109.156 Y111.371 E14.82237
G1 X109.341 Y110.844 E14.85024
G1 X109.349 Y110.774 E14.85375
G1 X109.349 Y112.034 E14.91662
G1 X109.323 Y112.333 E14.93159
G1 X109.254 Y112.590 E14.94487
G1 X109.147 Y112.820 E14.95752
G1 X108.996 Y113.035 E14.97063
G1 X108.811 Y113.220 E14.98368
G1 X108.591 Y113.374 E14.99708
G1 X108.364 Y113.480 E15.00958
G1 X108.107 Y113.549 E15.02285
G1 X107.808 Y113.575 E15.03783
G1 X101.816 Y113.575 E15.33677
G1 X101.756 Y113.567 E15.33979
G1 X101.748 Y112.567 E15.38968
G1 X101.702 Y112.094 E15.41339
G1 X101.558 Y111.598 E15.43916
G1 X101.329 Y111.142 E15.46462
G1 X101.007 Y110.723 E15.49098
G1 X100.623 Y110.377 E15.51677
G1 X100.181 Y110.107 E15.54261
G1 X99.683 Y109.918 E15.56918
G1 X98.422 Y109.731 E15.63278
G1 X97.624 Y109.554 E15.67356
G1 X96.837 Y109.307 E15.71471
G1 X96.081 Y108.994 E15.75554
G1 X95.358 Y108.618 E15.79619
G1 X94.652 Y108.169 E15.83793
G1 X94.008 Y107.673 E15.87849
G1 X93.418 Y107.135 E15.91832
G1 X92.857 Y106.523 E15.95974
G1 X92.365 Y105.883 E16.00002
G1 X91.921 Y105.191 E16.04104
G1 X91.538 Y104.458 E16.08230
G1 X91.227 Y103.711 E16.12267
G1 X90.977 Y102.926 E16.16377
G1 X90.799 Y102.131 E16.20441
G1 X90.690 Y101.319 E16.24529
G1 X90.652 Y100.475 E16.28744
G1 X90.650 Y90.645 E16.77786
G1 X90.663 Y90.511 E16.78458
G1 X90.693 Y90.411 E16.78978
G1 X90.738 Y90.327 E16.79454
G1 X90.833 Y90.212 E16.80198
G0 F9000 X96.047 Y95.804
G1 F1200 X95.504 Y96.331 E16.83973
G1 X95.029 Y96.921 E16.87752
G1 X94.629 Y97.565 E16.91534
G1 X94.313 Y98.253 E16.95311
G1 X94.083 Y98.975 E16.99092
G1 X93.945 Y99.720 E17.02872
G1 X93.897 Y100.475 E17.06646
G1 X93.945 Y101.230 E17.10421
G1 X94.083 Y101.975 E17.14201
G1 X94.313 Y102.697 E17.17981
G1 X94.629 Y103.385 E17.21758
G1 X95.029 Y104.029 E17.25540
G1 X95.504 Y104.619 E17.29319
G1 X96.047 Y105.146 E17.33095
G1 X96.651 Y105.603 E17.36873
G1 X97.308 Y105.982 E17.40657
G1 X98.006 Y106.277 E17.44438
G1 X98.733 Y106.484 E17.48209
G1 X99.481 Y106.601 E17.51986
G1 X100.238 Y106.623 E17.55765
G1 X100.991 Y106.554 E17.59537
G1 X101.733 Y106.392 E17.63326
G1 X102.446 Y106.140 E17.67099
G1 X103.125 Y105.803 E17.70881
G1 X103.756 Y105.383 E17.74662
G1 X104.331 Y104.891 E17.78438
G1 X104.842 Y104.331 E17.82220
G1 X105.279 Y103.713 E17.85996
G1 X105.637 Y103.046 E17.89773
G1 X105.911 Y102.340 E17.93551
G1 X106.096 Y101.605 E17.97332
G1 X106.189 Y100.854 E18.01108
G1 X106.189 Y100.096 E18.04889
G1 X106.096 Y99.345 E18.08665
G1 X105.911 Y98.610 E18.12446
G1 X105.637 Y97.904 E18.16224
G1 X105.279 Y97.237 E18.20001
G1 X104.842 Y96.619 E18.23777
G1 X104.331 Y96.059 E18.27559
G1 X103.756 Y95.567 E18.31335
G1 X103.125 Y95.147 E18.35117
G1 X102.446 Y94.810 E18.38898
G1 X101.733 Y94.558 E18.42671
G1 X100.991 Y94.396 E18.46460
G1 X100.238 Y94.327 E18.50233
G1 X99.481 Y94.349 E18.54011
G1 X98.733 Y94.466 E18.57788
G1 X98.006 Y94.673 E18.61559
G1 X97.308 Y94.968 E18.65340
G1 X96.651 Y95.347 E18.69124
G1 X96.047 Y95.804 E18.72903
G0 F9000 X96.308 Y96.109
G1 F1200 X95.800 Y96.601 E18.76431
G1 X95.356 Y97.152 E18.79961
G1 X94.982 Y97.755 E18.83501
G1 X94.686 Y98.398 E18.87033
G1 X94.472 Y99.073 E18.90566
G1 X94.342 Y99.769 E18.94098
G1 X94.298 Y100.475 E18.97627
G1 X94.342 Y101.181 E19.01156
G1 X94.472 Y101.877 E19.04689
G1 X94.686 Y102.552 E19.08221
G1 X94.982 Y103.195 E19.11753
G1 X95.356 Y103.798 E19.15293
G1 X95.800 Y104.349 E19.18823
G1 X96.308 Y104.841 E19.22352
G1 X96.873 Y105.269 E19.25888
G1 X97.486 Y105.623 E19.29419
G1 X98.139 Y105.899 E19.32956
G1 X98.819 Y106.092 E19.36483
G1 X99.518 Y106.202 E19.40013
G1 X100.226 Y106.223 E19.43547
G1 X100.930 Y106.158 E19.47074
G1 X101.623 Y106.006 E19.50614
G1 X102.290 Y105.771 E19.54142
G1 X102.925 Y105.456 E19.57678
G1 X103.514 Y105.064 E19.61208
G1 X104.052 Y104.604 E19.64740
G1 X104.529 Y104.080 E19.68275
G1 X104.938 Y103.502 E19.71807
G1 X105.273 Y102.878 E19.75341
G1 X105.529 Y102.218 E19.78873
G1 X105.702 Y101.532 E19.82402
G1 X105.789 Y100.829 E19.85936
G1 X105.789 Y100.121 E19.89468
G1 X105.702 Y99.418 E19.93002
G1 X105.529 Y98.732 E19.96532
G1 X105.273 Y98.072 E20.00064
G1 X104.938 Y97.448 E20.03597
G1 X104.529 Y96.870 E20.07130
G1 X104.052 Y96.346 E20.10665
G1 X103.514 Y95.886 E20.14196
G1 X102.925 Y95.494 E20.17726
G1 X102.290 Y95.179 E20.21263
G1 X101.623 Y94.944 E20.24791
G1 X100.930 Y94.792 E20.28330
G1 X100.226 Y94.727 E20.31858
G1 X99.518 Y94.748 E20.35391
G1 X98.819 Y94.858 E20.38922
G1 X98.139 Y95.051 E20.42448
G1 X97.486 Y95.327 E20.45985
G1 X96.873 Y95.681 E20.49517
G1 X96.308 Y96.109 E20.53053
G0 F9000 X90.252 Y100.505
G1 F1200 X90.250 Y90.628 E21.02329
G1 X90.269 Y90.429 E21.03327
G1 X90.321 Y90.260 E21.04209
G1 X90.405 Y90.101 E21.05106
G1 X90.533 Y89.946 E21.06109
G1 X94.170 Y86.309 E21.31770
G1 X94.325 Y86.181 E21.32773
G1 X94.484 Y86.097 E21.33670
G1 X94.653 Y86.045 E21.34552
G1 X109.749 Y86.025 E22.09867
G1 X109.749 Y112.046 E23.39686
G1 X109.717 Y112.408 E23.41499
G1 X109.633 Y112.722 E23.43121
G1 X109.491 Y113.026 E23.44795
G1 X109.305 Y113.292 E23.46414
G1 X109.068 Y113.529 E23.48086
G1 X108.795 Y113.720 E23.49748
G1 X108.496 Y113.859 E23.51393
G1 X108.182 Y113.943 E23.53015
G1 X107.820 Y113.975 E23.54828
G1 X101.792 Y113.975 E23.84902
G1 X101.645 Y113.955 E23.85642
G1 X101.550 Y113.916 E23.86154
G1 X101.468 Y113.853 E23.86670
G1 X101.406 Y113.773 E23.87175
G1 X101.368 Y113.680 E23.87676
G1 X101.348 Y113.531 E23.88426
G1 X101.348 Y112.586 E23.93141
G1 X101.308 Y112.170 E23.95226
G1 X101.184 Y111.745 E23.97435
G1 X100.989 Y111.356 E23.99606
G1 X100.712 Y110.995 E24.01876
G1 X100.383 Y110.699 E24.04084
G1 X100.004 Y110.468 E24.06298
G1 X99.582 Y110.307 E24.08551
G1 X98.360 Y110.126 E24.14715
G1 X97.512 Y109.939 E24.19047
G1 X96.700 Y109.683 E24.23295
G1 X95.918 Y109.360 E24.27516
G1 X95.156 Y108.964 E24.31800
G1 X94.422 Y108.497 E24.36140
G1 X93.758 Y107.986 E24.40320
G1 X93.124 Y107.407 E24.44604
G1 X92.555 Y106.785 E24.48810
G1 X92.035 Y106.111 E24.53057
G1 X91.574 Y105.392 E24.57318
G1 X91.178 Y104.633 E24.61589
G1 X90.850 Y103.846 E24.65843
G1 X90.592 Y103.035 E24.70089
G1 X90.405 Y102.200 E24.74358
G1 X90.290 Y101.347 E24.78652
G1 X90.252 Y100.505 E24.82857
G0 F9000 X97.486 Y95.327
G0 X104.916 Y91.423
G1 F1200 X105.175 Y91.830 E24.85264
G1 X105.518 Y92.168 E24.87666
G1 X105.926 Y92.420 E24.90059
G1 X106.369 Y92.576 E24.92402
G1 X106.851 Y92.630 E24.94821
G1 X107.342 Y92.572 E24.97288
G1 X107.796 Y92.408 E24.99696
G1 X108.203 Y92.149 E25.02103
G1 X108.541 Y91.806 E25.04506
G1 X108.793 Y91.398 E25.06898
G1 X108.949 Y90.955 E25.09241
G1 X109.003 Y90.473 E25.11661
G1 X108.945 Y89.982 E25.14128
G1 X108.781 Y89.528 E25.16536
G1 X108.522 Y89.121 E25.18943
G1 X108.179 Y88.783 E25.21345
G1 X107.771 Y88.531 E25.23738
G1 X107.328 Y88.375 E25.26081
G1 X106.848 Y88.321 E25.28491
G1 X106.355 Y88.379 E25.30967
G1 X105.901 Y88.543 E25.33376
G1 X105.494 Y88.802 E25.35782
G1 X105.156 Y89.145 E25.38185
G1 X104.904 Y89.553 E25.40577
G1 X104.748 Y89.997 E25.42925
G1 X104.695 Y90.476 E25.45330
G1 X104.752 Y90.968 E25.47801
G1 X104.916 Y91.423 E25.50214
G0 F9000 X106.848 Y108.121
G1 F1200 X106.356 Y108.178 E25.52685
G1 X105.901 Y108.342 E25.55097
G1 X105.494 Y108.601 E25.57504
G1 X105.156 Y108.944 E25.59907
G1 X104.904 Y109.352 E25.62299
G1 X104.748 Y109.796 E25.64647
G1 X104.695 Y110.277 E25.67061
G1 X104.752 Y110.767 E25.69522
G1 X104.916 Y111.222 E25.71935
G1 X105.175 Y111.629 E25.74342
G1 X105.518 Y111.967 E25.76745
G1 X105.926 Y112.219 E25.79137
G1 X106.369 Y112.375 E25.81480
G1 X106.851 Y112.429 E25.83900
G1 X107.342 Y112.371 E25.86367
G1 X107.796 Y112.207 E25.88775
G1 X108.203 Y111.948 E25.91182
G1 X108.541 Y111.605 E25.93584
G1 X108.793 Y111.197 E25.95977
G1 X108.949 Y110.754 E25.98320
G1 X109.003 Y110.274 E26.00730
G1 X108.945 Y109.781 E26.03206
G1 X108.781 Y109.327 E26.05615
G1 X108.522 Y108.920 E26.08021
G1 X108.179 Y108.582 E26.10424
G1 X107.771 Y108.330 E26.12816
G1 X107.327 Y108.174 E26.15164
G1 X106.848 Y108.121 E26.17569
G0 F9000 X106.849 Y108.524
;TYPE:WALL-OUTER
G1 F1200 X106.448 Y108.570 E26.19582
G1 X106.078 Y108.703 E26.21544
G1 X105.747 Y108.914 E26.23502
G1 X105.473 Y109.193 E26.25453
G1 X105.267 Y109.525 E26.27402
G1 X105.141 Y109.885 E26.29305
G1 X105.098 Y110.276 E26.31268
G1 X105.144 Y110.675 E26.33272
G1 X105.277 Y111.045 E26.35233
G1 X105.488 Y111.376 E26.37192
G1 X105.767 Y111.650 E26.39142
G1 X106.099 Y111.856 E26.41092
G1 X106.459 Y111.982 E26.42995
G1 X106.850 Y112.026 E26.44958
G1 X107.249 Y111.979 E26.46962
G1 X107.619 Y111.846 E26.48924
G1 X107.950 Y111.635 E26.50882
G1 X108.224 Y111.356 E26.52833
G1 X108.430 Y111.024 E26.54782
G1 X108.556 Y110.664 E26.56685
G1 X108.600 Y110.275 E26.58638
G1 X108.553 Y109.874 E26.60652
G1 X108.420 Y109.504 E26.62614
G1 X108.209 Y109.173 E26.64572
G1 X107.930 Y108.899 E26.66523
G1 X107.598 Y108.693 E26.68473
G1 X107.238 Y108.567 E26.70376
G1 X106.849 Y108.524 E26.72328
G0 F9000 X106.880 Y108.226
G0 X108.178 Y108.583
G0 X108.943 Y109.781
G0 X109.850 Y112.064
G0 X110.149 Y112.075
G1 F1200 X110.114 Y112.473 E26.74321
G1 X110.009 Y112.863 E26.76336
G1 X109.842 Y113.221 E26.78307
G1 X109.613 Y113.549 E26.80303
G1 X109.330 Y113.833 E26.82303
G1 X108.995 Y114.068 E26.84345
G1 X108.637 Y114.235 E26.86316
G1 X108.247 Y114.340 E26.88331
G1 X107.843 Y114.375 E26.90354
G1 X101.761 Y114.375 E27.20697
G1 X101.543 Y114.345 E27.21795
G1 X101.349 Y114.266 E27.22840
G1 X101.185 Y114.141 E27.23869
G1 X101.056 Y113.973 E27.24925
G1 X100.978 Y113.780 E27.25964
G1 X100.948 Y113.561 E27.27067
G1 X100.948 Y112.605 E27.31836
G1 X100.913 Y112.246 E27.33636
G1 X100.810 Y111.892 E27.35475
G1 X100.648 Y111.569 E27.37278
G1 X100.417 Y111.268 E27.39171
G1 X100.143 Y111.021 E27.41011
G1 X99.827 Y110.829 E27.42856
G1 X99.480 Y110.696 E27.44710
G1 X98.273 Y110.517 E27.50798
G1 X97.418 Y110.328 E27.55166
G1 X96.563 Y110.059 E27.59638
G1 X95.740 Y109.718 E27.64082
G1 X94.962 Y109.314 E27.68456
G1 X94.201 Y108.830 E27.72955
G1 X94.190 Y108.823 E27.73020
G1 X93.502 Y108.294 E27.77350
G1 X92.841 Y107.690 E27.81817
G1 X92.247 Y107.042 E27.86203
G1 X91.706 Y106.339 E27.90629
G1 X91.227 Y105.593 E27.95052
G1 X90.818 Y104.808 E27.99468
G1 X90.475 Y103.985 E28.03916
G1 X90.202 Y103.129 E28.08399
G1 X90.011 Y102.271 E28.12784
G1 X89.893 Y101.395 E28.17194
G1 X89.852 Y100.505 E28.21639
G1 X89.850 Y90.611 E28.71000
G1 X89.875 Y90.348 E28.72318
G1 X89.948 Y90.109 E28.73565
