;Generated from 2.1-idlertensioner.stl 1ba09873ee48680a28b56b62d801b8f309414f1c
;Generated with Cura_SteamEngine 15.04
M140 S55.0
M109 T0 S210.0
T0
M190 S55.0

;Basic settings: Layer height: 0.15 Walls: 1.2 Fill: 50
;Print time: ?print_time?
;Filament used: ?filament_amount?m ?filament_weight?g
;Filament cost: ?filament_cost?
;M190 S55 ;Uncomment to add your own bed temperature line
;M109 S210 ;Uncomment to add your own temperature line
G21        ;metric values
G90        ;absolute positioning
M82        ;set extruder to absolute mode
M107       ;start with the fan off
G28 X0 Y0  ;move X/Y to min endstops
G28 Z0     ;move Z to min endstops
G1 Z5.0 F9000 ;move the platform down 15mm
G92 E0                  ;zero the extruded length
G1 F200 E3              ;extrude 3mm of feed stock
G92 E0                  ;zero the extruded length again
G1 F9000
;Put printing message on LCD screen
M117 Printing...

;Layer count: 106
;LAYER:0
M107
G0 F9000 X95.741 Y86.119 Z0.300
;TYPE:SKIRT
G1 F1200 X97.258 Y84.425 E0.11345
G1 X106.269 Y84.425 E0.56301
G1 X106.545 Y84.426 E0.57678
G1 X111.096 Y84.421 E0.80383
G1 X111.096 Y91.672 E1.16558
G1 X111.079 Y92.483 E1.20605
G1 X110.913 Y93.358 E1.25049
G1 X110.674 Y94.065 E1.28772
G1 X110.155 Y95.020 E1.34195
G1 X109.385 Y95.858 E1.39872
G1 X108.722 Y96.324 E1.43915
G1 X108.018 Y96.666 E1.47820
G1 X107.265 Y96.867 E1.51708
G1 X106.673 Y96.926 E1.54676
G1 X105.324 Y96.925 E1.61407
G1 X104.527 Y96.925 E1.65383
G1 X104.527 Y103.575 E1.98560
G1 X106.687 Y103.575 E2.09336
G1 X107.317 Y103.642 E2.12497
G1 X108.036 Y103.843 E2.16222
G1 X108.722 Y104.176 E2.20026
G1 X109.408 Y104.658 E2.24209
G1 X110.096 Y105.430 E2.29368
G1 X110.514 Y106.091 E2.33270
G1 X110.895 Y107.049 E2.38413
G1 X111.086 Y108.061 E2.43551
G1 X111.096 Y111.987 E2.63138
G1 X111.096 Y116.024 E2.83279
G1 X99.847 Y116.024 E3.39400
G1 X98.126 Y116.027 E3.47987
G1 X97.053 Y115.311 E3.54422
G1 X96.340 Y114.727 E3.59020
G1 X95.653 Y113.991 E3.64043
G1 X95.037 Y113.099 E3.69451
G1 X94.586 Y112.127 E3.74797
G1 X94.346 Y111.383 E3.78698
G1 X94.142 Y110.475 E3.83341
G1 X93.898 Y109.295 E3.89352
G1 X93.724 Y109.183 E3.90384
G1 X93.060 Y108.685 E3.94525
G1 X92.496 Y108.193 E3.98259
G1 X92.015 Y107.722 E4.01618
G1 X91.497 Y107.133 E4.05531
G1 X91.022 Y106.510 E4.09440
G1 X90.593 Y105.852 E4.13359
G1 X90.213 Y105.167 E4.17267
G1 X89.884 Y104.459 E4.21162
G1 X89.612 Y103.748 E4.24960
G1 X89.380 Y102.973 E4.28996
G1 X89.209 Y102.202 E4.32936
G1 X89.097 Y101.433 E4.36813
G1 X89.043 Y100.746 E4.40251
G1 X89.034 Y100.333 E4.42312
G1 X89.062 Y99.468 E4.46629
G1 X89.172 Y98.510 E4.51440
G1 X89.362 Y97.588 E4.56137
G1 X89.604 Y96.779 E4.60350
G1 X89.881 Y96.048 E4.64250
G1 X90.211 Y95.333 E4.68178
G1 X90.595 Y94.646 E4.72105
G1 X91.022 Y93.990 E4.76010
G1 X91.497 Y93.368 E4.79915
G1 X92.009 Y92.784 E4.83789
G1 X92.578 Y92.225 E4.87769
G1 X93.191 Y91.710 E4.91763
G1 X93.830 Y91.244 E4.95709
G1 X93.897 Y91.202 E4.96103
G1 X94.112 Y90.171 E5.01358
G1 X94.280 Y89.426 E5.05168
G1 X94.457 Y88.671 E5.09037
G1 X94.747 Y87.800 E5.13617
G1 X95.205 Y86.887 E5.18713
G1 X95.741 Y86.119 E5.23385
G0 F9000 X96.055 Y86.368
G1 F1200 X97.437 Y84.825 E5.33719
G1 X106.268 Y84.825 E5.77777
G1 X106.545 Y84.826 E5.79159
G1 X110.696 Y84.822 E5.99869
G1 X110.696 Y91.668 E6.34024
G1 X110.680 Y92.441 E6.37881
G1 X110.526 Y93.256 E6.42019
G1 X110.306 Y93.904 E6.45433
G1 X109.827 Y94.786 E6.50440
G1 X109.119 Y95.555 E6.55655
G1 X108.519 Y95.978 E6.59318
G1 X107.878 Y96.289 E6.62872
G1 X107.193 Y96.473 E6.66411
G1 X106.653 Y96.526 E6.69118
G1 X105.324 Y96.525 E6.75748
G1 X104.127 Y96.525 E6.81720
G1 X104.127 Y103.975 E7.18889
G1 X106.666 Y103.975 E7.31556
G1 X107.241 Y104.036 E7.34440
G1 X107.893 Y104.219 E7.37819
G1 X108.519 Y104.522 E7.41289
G1 X109.140 Y104.959 E7.45077
G1 X109.775 Y105.671 E7.49837
G1 X110.156 Y106.273 E7.53391
G1 X110.509 Y107.161 E7.58159
G1 X110.686 Y108.099 E7.62921
G1 X110.696 Y111.988 E7.82323
G1 X110.696 Y115.624 E8.00463
G1 X99.846 Y115.624 E8.54594
G1 X98.246 Y115.627 E8.62577
G1 X97.291 Y114.990 E8.68304
G1 X96.615 Y114.435 E8.72667
G1 X95.965 Y113.740 E8.77415
G1 X95.386 Y112.900 E8.82505
G1 X94.959 Y111.981 E8.87560
G1 X94.732 Y111.277 E8.91251
G1 X94.533 Y110.391 E8.95781
G1 X94.260 Y109.066 E9.02531
G1 X94.257 Y109.050 E9.02612
G1 X93.952 Y108.854 E9.04420
G1 X93.312 Y108.373 E9.08415
G1 X92.767 Y107.899 E9.12018
G1 X92.306 Y107.446 E9.15243
G1 X91.807 Y106.879 E9.19011
G1 X91.349 Y106.279 E9.22777
G1 X90.936 Y105.645 E9.26552
G1 X90.569 Y104.986 E9.30315
G1 X90.252 Y104.303 E9.34072
G1 X89.991 Y103.619 E9.37724
G1 X89.768 Y102.872 E9.41613
G1 X89.602 Y102.130 E9.45407
G1 X89.495 Y101.389 E9.49142
G1 X89.443 Y100.726 E9.52460
G1 X89.434 Y100.335 E9.54411
G1 X89.461 Y99.497 E9.58594
G1 X89.567 Y98.573 E9.63234
G1 X89.750 Y97.686 E9.67753
G1 X89.983 Y96.907 E9.71809
G1 X90.250 Y96.203 E9.75566
G1 X90.568 Y95.514 E9.79351
G1 X90.937 Y94.853 E9.83128
G1 X91.349 Y94.221 E9.86892
G1 X91.806 Y93.622 E9.90651
G1 X92.300 Y93.059 E9.94388
G1 X92.848 Y92.522 E9.98216
G1 X93.438 Y92.025 E10.02064
G1 X94.053 Y91.576 E10.05863
G1 X94.256 Y91.450 E10.07055
G1 X94.277 Y91.337 E10.07629
G1 X94.503 Y90.256 E10.13138
G1 X94.669 Y89.515 E10.16927
G1 X94.842 Y88.780 E10.20694
G1 X95.118 Y87.954 E10.25039
G1 X95.549 Y87.092 E10.29847
G1 X96.055 Y86.368 E10.34254
G1 F2400 E5.84254
G0 F9000 X99.166 Y89.249
;TYPE:WALL-INNER
G1 F2400 E10.34254
G1 F1200 X99.323 Y89.025 E10.35619
G1 X106.258 Y89.025 E10.70217
G1 X106.496 Y89.026 E10.71405
G1 X106.496 Y91.613 E10.84311
G1 X106.488 Y92.002 E10.86253
G1 X106.444 Y92.215 E10.87338
G1 X106.383 Y92.326 E10.87970
G1 X102.265 Y92.325 E11.08514
G1 X99.927 Y92.327 E11.20179
G1 X99.926 Y108.174 E11.99240
G1 X106.380 Y108.175 E12.31439
G1 X106.403 Y108.200 E12.31608
G1 X106.457 Y108.336 E12.32338
G1 X106.487 Y108.498 E12.33160
G1 X106.495 Y111.424 E12.47758
G1 X99.567 Y111.424 E12.82322
G1 X99.497 Y111.367 E12.82773
G1 X99.244 Y111.097 E12.84619
G1 X99.045 Y110.808 E12.86369
G1 X98.878 Y110.448 E12.88349
G1 X98.788 Y110.169 E12.89812
G1 X98.637 Y109.498 E12.93243
G1 X98.378 Y108.243 E12.99636
G1 X98.241 Y107.519 E13.03312
G1 X98.172 Y107.182 E13.05028
G1 X98.066 Y106.848 E13.06777
G1 X97.806 Y106.434 E13.09216
G1 X97.475 Y106.091 E13.11594
G1 X97.133 Y105.866 E13.13636
G1 X96.660 Y105.601 E13.16341
G1 X96.355 Y105.405 E13.18150
G1 X95.950 Y105.101 E13.20676
G1 X95.357 Y104.556 E13.24694
G1 X95.062 Y104.221 E13.26921
G1 X94.534 Y103.474 E13.31485
G1 X94.314 Y103.078 E13.33745
G1 X93.971 Y102.268 E13.38134
G1 X93.833 Y101.808 E13.40530
G1 X93.671 Y100.920 E13.45033
G1 X93.639 Y100.516 E13.47055
G1 X93.635 Y100.340 E13.47933
G1 X93.653 Y99.806 E13.50599
G1 X93.718 Y99.239 E13.53446
G1 X93.825 Y98.719 E13.56095
G1 X93.965 Y98.251 E13.58532
G1 X94.319 Y97.412 E13.63075
G1 X94.782 Y96.646 E13.67541
G1 X95.061 Y96.280 E13.69837
G1 X95.354 Y95.947 E13.72049
G1 X95.674 Y95.632 E13.74290
G1 X96.031 Y95.332 E13.76616
G1 X96.397 Y95.065 E13.78876
G1 X97.203 Y94.586 E13.83554
G1 X97.468 Y94.415 E13.85127
G1 X97.812 Y94.068 E13.87565
G1 X98.070 Y93.642 E13.90050
G1 X98.198 Y93.228 E13.92212
G1 X98.396 Y92.160 E13.97631
G1 X98.606 Y91.154 E14.02758
G1 X98.762 Y90.462 E14.06297
G1 X98.888 Y89.924 E14.09054
G1 X99.008 Y89.565 E14.10942
G1 X99.166 Y89.249 E14.12705
G0 F9000 X98.821 Y89.046
G1 F1200 X99.042 Y88.729 E14.14633
G1 X99.135 Y88.625 E14.15329
G1 X106.260 Y88.625 E14.50876
G1 X106.896 Y88.626 E14.54049
G1 X106.896 Y91.621 E14.68991
G1 X106.887 Y92.043 E14.71097
G1 X106.811 Y92.379 E14.72815
G1 X106.714 Y92.558 E14.73831
G1 X106.599 Y92.683 E14.74678
G1 X106.545 Y92.712 E14.74984
G1 X106.467 Y92.726 E14.75379
G1 X100.327 Y92.725 E15.06012
G1 X100.326 Y107.774 E15.81092
G1 X106.461 Y107.775 E16.11699
G1 X106.542 Y107.787 E16.12108
G1 X106.596 Y107.815 E16.12411
G1 X106.731 Y107.967 E16.13426
G1 X106.757 Y108.009 E16.13672
G1 X106.842 Y108.221 E16.14812
G1 X106.887 Y108.461 E16.16030
G1 X106.896 Y111.824 E16.32808
G1 X99.425 Y111.825 E16.70081
G1 X99.217 Y111.654 E16.71424
G1 X98.935 Y111.352 E16.73486
G1 X98.696 Y111.006 E16.75584
G1 X98.503 Y110.591 E16.77867
G1 X98.401 Y110.273 E16.79533
G1 X98.248 Y109.596 E16.82996
G1 X97.987 Y108.324 E16.89474
G1 X97.849 Y107.597 E16.93166
G1 X97.700 Y107.018 E16.96149
G1 X97.488 Y106.679 E16.98144
G1 X97.219 Y106.401 E17.00074
G1 X96.925 Y106.208 E17.01828
G1 X96.447 Y105.940 E17.04562
G1 X96.123 Y105.732 E17.06483
G1 X95.708 Y105.420 E17.09073
G1 X95.072 Y104.837 E17.13378
G1 X94.747 Y104.468 E17.15831
G1 X94.459 Y104.091 E17.18198
G1 X94.181 Y103.664 E17.20740
G1 X93.961 Y103.268 E17.23000
G1 X93.591 Y102.391 E17.27749
G1 X93.447 Y101.913 E17.30239
G1 X93.343 Y101.443 E17.32641
G1 X93.273 Y100.962 E17.35066
G1 X93.240 Y100.538 E17.37188
G1 X93.235 Y100.354 E17.38106
G1 X93.254 Y99.772 E17.41011
G1 X93.323 Y99.179 E17.43990
G1 X93.439 Y98.614 E17.46867
G1 X93.585 Y98.125 E17.49413
G1 X93.754 Y97.680 E17.51788
G1 X93.961 Y97.233 E17.54246
G1 X94.459 Y96.409 E17.59049
G1 X95.068 Y95.666 E17.63842
G1 X95.405 Y95.336 E17.66195
G1 X95.782 Y95.018 E17.68656
G1 X96.175 Y94.732 E17.71081
G1 X96.995 Y94.244 E17.75841
G1 X97.215 Y94.102 E17.77148
G1 X97.494 Y93.820 E17.79127
G1 X97.702 Y93.477 E17.81128
G1 X97.809 Y93.133 E17.82925
G1 X98.007 Y92.066 E17.88340
G1 X98.215 Y91.066 E17.93435
G1 X98.372 Y90.370 E17.96995
G1 X98.502 Y89.818 E17.99824
G1 X98.637 Y89.412 E18.01959
G1 X98.821 Y89.046 E18.04003
G0 F9000 X98.479 Y88.836
;TYPE:WALL-OUTER
G1 F1200 X98.728 Y88.480 E18.06170
G1 X98.956 Y88.225 E18.07877
G1 X107.296 Y88.225 E18.49485
G1 X107.296 Y91.630 E18.66473
G1 X107.286 Y92.085 E18.68743
G1 X107.227 Y92.396 E18.70322
G1 X107.180 Y92.535 E18.71054
G1 X107.039 Y92.795 E18.72530
G1 X106.867 Y92.983 E18.73801
G1 X106.685 Y93.089 E18.74852
G1 X106.582 Y93.117 E18.75385
G1 X100.727 Y93.126 E19.04595
G1 X100.726 Y107.374 E19.75679
G1 X106.484 Y107.375 E20.04406
G1 X106.597 Y107.387 E20.04973
G1 X106.686 Y107.412 E20.05434
G1 X106.785 Y107.460 E20.05983
G1 X106.865 Y107.516 E20.06470
G1 X107.051 Y107.724 E20.07862
G1 X107.114 Y107.824 E20.08452
G1 X107.228 Y108.112 E20.09997
G1 X107.287 Y108.423 E20.11576
G1 X107.296 Y112.224 E20.30540
G1 X99.282 Y112.225 E20.70522
G1 X98.944 Y111.948 E20.72702
G1 X98.623 Y111.604 E20.75049
G1 X98.345 Y111.201 E20.77492
G1 X98.130 Y110.738 E20.80039
G1 X98.016 Y110.384 E20.81894
G1 X97.856 Y109.673 E20.85530
G1 X97.595 Y108.405 E20.91989
G1 X97.456 Y107.674 E20.95701
G1 X97.334 Y107.187 E20.98206
G1 X97.170 Y106.925 E20.99748
G1 X96.963 Y106.712 E21.01230
G1 X96.241 Y106.283 E21.05419
G1 X95.897 Y106.063 E21.07457
G1 X95.451 Y105.728 E21.10240
G1 X95.078 Y105.404 E21.12704
G1 X94.439 Y104.723 E21.17363
G1 X94.132 Y104.322 E21.19883
G1 X93.846 Y103.883 E21.22497
G1 X93.598 Y103.436 E21.25047
G1 X93.389 Y102.986 E21.27523
G1 X93.214 Y102.527 E21.29973
G1 X93.058 Y102.007 E21.32682
G1 X92.950 Y101.521 E21.35166
G1 X92.875 Y101.005 E21.37767
G1 X92.840 Y100.558 E21.40004
G1 X92.835 Y100.355 E21.41017
G1 X92.854 Y99.755 E21.44012
G1 X92.928 Y99.109 E21.47256
G1 X93.048 Y98.526 E21.50226
G1 X93.208 Y97.991 E21.53012
G1 X93.384 Y97.527 E21.55487
G1 X93.604 Y97.051 E21.58104
G1 X94.133 Y96.177 E21.63200
G1 X94.439 Y95.777 E21.65713
G1 X94.767 Y95.402 E21.68199
G1 X95.137 Y95.039 E21.70785
G1 X95.531 Y94.707 E21.73355
G1 X95.959 Y94.395 E21.75998
G1 X96.392 Y94.127 E21.78538
G1 X96.788 Y93.902 E21.80810
G1 X96.961 Y93.790 E21.81839
G1 X97.177 Y93.572 E21.83370
G1 X97.335 Y93.312 E21.84887
G1 X97.420 Y93.037 E21.86324
G1 X97.613 Y91.997 E21.91601
G1 X97.825 Y90.978 E21.96793
G1 X97.983 Y90.279 E22.00369
G1 X98.117 Y89.707 E22.03300
G1 X98.266 Y89.261 E22.05646
G1 X98.479 Y88.836 E22.08017
G0 F9000 X99.262 Y89.363
;TYPE:SKIN
G1 F1200 X102.085 Y92.186 E22.27935
G0 F9000 X101.520 Y92.186
G1 F1200 X99.089 Y89.755 E22.45087
G0 F9000 X98.966 Y90.198
G1 F1200 X100.954 Y92.186 E22.59114
G0 F9000 X100.388 Y92.186
G1 F1200 X98.861 Y90.658 E22.69891
G0 F9000 X98.755 Y91.119
G1 F1200 X99.822 Y92.186 E22.77419
G0 F9000 X99.786 Y92.715
G1 F1200 X98.656 Y91.585 E22.85392
G0 F9000 X98.559 Y92.053
G1 F1200 X99.786 Y93.281 E22.94053
G0 F9000 X99.786 Y93.847
G1 F1200 X98.468 Y92.529 E23.03352
G0 F9000 X98.380 Y93.006
G1 F1200 X99.786 Y94.412 E23.13272
G0 F9000 X99.786 Y94.978
G1 F1200 X98.271 Y93.463 E23.23961
G0 F9000 X98.101 Y93.859
G1 F1200 X99.786 Y95.544 E23.35850
G0 F9000 X99.786 Y96.109
G1 F1200 X97.877 Y94.200 E23.49319
G0 F9000 X97.594 Y94.483
G1 F1200 X99.786 Y96.675 E23.64784
G0 F9000 X99.786 Y97.241
G1 F1200 X97.260 Y94.714 E23.82610
G0 F9000 X96.905 Y94.925
G1 F1200 X99.786 Y97.807 E24.02941
G0 F9000 X99.786 Y98.372
G1 F1200 X96.551 Y95.136 E24.25769
G0 F9000 X96.218 Y95.369
G1 F1200 X99.786 Y98.938 E24.50947
G0 F9000 X99.786 Y99.504
G1 F1200 X95.904 Y95.622 E24.78336
G0 F9000 X95.609 Y95.892
G1 F1200 X99.786 Y100.069 E25.07807
G0 F9000 X99.786 Y100.634
G1 F1200 X95.332 Y96.181 E25.39229
G0 F9000 X95.076 Y96.490
G1 F1200 X99.786 Y101.200 E25.72461
G0 F9000 X99.786 Y101.766
G1 F1200 X94.839 Y96.819 E26.07364
G0 F9000 X94.626 Y97.172
G1 F1200 X99.786 Y102.331 E26.43768
G0 F9000 X99.786 Y102.897
G1 F1200 X94.419 Y97.531 E26.81631
G0 F9000 X94.251 Y97.928
G1 F1200 X99.786 Y103.463 E27.20683
G0 F9000 X99.786 Y104.028
G1 F1200 X94.086 Y98.329 E27.60897
G0 F9000 X93.958 Y98.766
G1 F1200 X99.786 Y104.594 E28.02016
G0 F9000 X99.786 Y105.160
G1 F1200 X93.860 Y99.234 E28.43827
G0 F9000 X93.801 Y99.740
G1 F1200 X99.786 Y105.725 E28.86055
G0 F9000 X99.786 Y106.291
G1 F1200 X93.776 Y100.281 E29.28459
G0 F9000 X93.806 Y100.877
G1 F1200 X99.786 Y106.857 E29.70651
G0 F9000 X99.786 Y107.422
G1 F1200 X93.932 Y101.568 E30.11954
G0 F9000 X94.164 Y102.367
G1 F1200 X99.786 Y107.988 E30.51617
G0 F9000 X98.573 Y108.473
G1 F1200 X101.383 Y111.283 E30.71443
G0 F9000 X100.817 Y111.283
G1 F1200 X98.715 Y109.180 E30.86277
G0 F9000 X98.870 Y109.901
G1 F1200 X100.252 Y111.283 E30.96028
G0 F9000 X101.949 Y111.283
G1 F1200 X98.431 Y107.765 E31.20849
G0 F9000 X98.275 Y107.043
G1 F1200 X102.514 Y111.283 E31.50761
G0 F9000 X103.080 Y111.283
G1 F1200 X100.111 Y108.313 E31.71712
G0 F9000 X100.677 Y108.313
G1 F1200 X103.646 Y111.283 E31.92664
G0 F9000 X104.211 Y111.283
G1 F1200 X101.242 Y108.313 E32.13615
G0 F9000 X101.808 Y108.313
G1 F1200 X104.777 Y111.283 E32.34567
G0 F9000 X105.343 Y111.283
G1 F1200 X102.374 Y108.313 E32.55518
G0 F9000 X102.939 Y108.313
G1 F1200 X105.909 Y111.283 E32.76473
G0 F9000 X106.353 Y111.162
G1 F1200 X103.505 Y108.313 E32.96571
G0 F9000 X104.071 Y108.313
G1 F1200 X106.352 Y110.595 E33.12668
G0 F9000 X106.350 Y110.027
G1 F1200 X104.636 Y108.313 E33.24761
G0 F9000 X105.202 Y108.313
G1 F1200 X106.349 Y109.460 E33.32854
G0 F9000 X106.348 Y108.893
G1 F1200 X105.768 Y108.313 E33.36946
G0 F9000 X99.686 Y111.283
G1 F1200 X99.223 Y110.819 E33.40216
G0 F9000 X97.487 Y106.680
G0 X96.676 Y105.444
G1 F1200 X94.702 Y103.470 E33.54144
G0 F9000 X100.386 Y92.785
G0 X102.651 Y92.186
G1 F1200 X99.630 Y89.165 E33.75459
G0 F9000 X100.196 Y89.165
G1 F1200 X103.216 Y92.185 E33.96766
G0 F9000 X103.782 Y92.185
G1 F1200 X100.762 Y89.165 E34.18074
G0 F9000 X101.327 Y89.165
G1 F1200 X104.347 Y92.185 E34.39382
G0 F9000 X104.913 Y92.185
G1 F1200 X101.893 Y89.165 E34.60690
G0 F9000 X102.459 Y89.165
G1 F1200 X105.479 Y92.185 E34.81997
G0 F9000 X106.044 Y92.185
G1 F1200 X103.024 Y89.165 E35.03305
G0 F9000 X103.590 Y89.165
G1 F1200 X106.348 Y91.923 E35.22764
G0 F9000 X106.355 Y91.364
G1 F1200 X104.156 Y89.165 E35.38279
G0 F9000 X104.721 Y89.165
G1 F1200 X106.355 Y90.798 E35.49805
G0 F9000 X106.355 Y90.233
G1 F1200 X105.287 Y89.165 E35.57340
G0 F9000 X105.853 Y89.165
G1 F1200 X106.355 Y89.667 E35.60882
;LAYER:1
M106 S127
G0 F9000 X105.818 Y88.875 Z0.450
;TYPE:WALL-INNER
G1 F1500 X106.496 Y88.876 E35.62573
G1 X106.496 Y91.593 E35.69351
G1 X106.475 Y92.242 E35.70971
G1 X106.419 Y92.427 E35.71453
G1 X106.383 Y92.476 E35.71604
G1 X101.310 Y92.475 E35.84259
G1 X100.077 Y92.480 E35.87335
G1 X100.077 Y108.023 E36.26107
G1 X106.384 Y108.025 E36.41840
G1 X106.453 Y108.167 E36.42234
G1 X106.488 Y108.354 E36.42708
