;Generated from 2.1-idler-wpad.stl 7c8d41c1f84695d32187fca480a6b6e4c96ebff1
;Generated with Cura_SteamEngine 15.04
M140 S55.0
M109 T0 S210.0
T0
M190 S55.0

;Basic settings: Layer height: 0.15 Walls: 1.2 Fill: 50
;Print time: ?print_time?
;Filament used: ?filament_amount?m ?filament_weight?g
;Filament cost: ?filament_cost?
;M190 S55 ;Uncomment to add your own bed temperature line
;M109 S210 ;Uncomment to add your own temperature line
G21        ;metric values
G90        ;absolute positioning
M82        ;set extruder to absolute mode
M107       ;start with the fan off
G28 X0 Y0  ;move X/Y to min endstops
G28 Z0     ;move Z to min endstops
G1 Z5.0 F9000 ;move the platform down 15mm
G92 E0                  ;zero the extruded length
G1 F200 E3              ;extrude 3mm of feed stock
G92 E0                  ;zero the extruded length again
G1 F9000
;Put printing message on LCD screen
M117 Printing...

;Layer count: 109
;LAYER:0
M107
G0 F9000 X87.037 Y86.365 Z0.300
;TYPE:SKIRT
G1 F1200 X87.986 Y85.756 E0.05626
G1 X89.018 Y85.393 E0.11084
G1 X89.895 Y85.292 E0.15488
G1 X111.904 Y85.292 E1.25291
G1 X112.878 Y85.432 E1.30200
G1 X113.974 Y85.887 E1.36121
G1 X114.939 Y86.638 E1.42221
G1 X115.664 Y87.590 E1.48191
G1 X116.120 Y88.698 E1.54169
G1 X116.246 Y89.656 E1.58990
G1 X116.246 Y93.801 E1.79669
G1 X117.336 Y94.892 E1.87363
G1 X122.050 Y94.892 E2.10882
G1 X122.050 Y109.092 E2.81726
G1 X117.336 Y109.092 E3.05244
G1 X116.246 Y110.183 E3.12938
G1 X116.246 Y113.641 E3.30190
G1 X116.113 Y114.620 E3.35119
G1 X115.636 Y115.737 E3.41179
G1 X114.908 Y116.676 E3.47106
G1 X113.957 Y117.406 E3.53088
G1 X112.839 Y117.865 E3.59117
G1 X111.881 Y117.991 E3.63938
G1 X89.771 Y117.991 E4.74245
G1 X88.846 Y117.881 E4.78892
G1 X87.751 Y117.474 E4.84720
G1 X86.765 Y116.789 E4.90710
G1 X85.968 Y115.853 E4.96843
G1 X85.435 Y114.693 E5.03212
G1 X85.280 Y113.674 E5.08355
G1 X85.279 Y112.450 E5.14461
G1 X85.279 Y110.784 E5.22773
G1 X85.042 Y110.762 E5.23960
G1 X84.016 Y110.611 E5.29134
G1 X83.314 Y110.467 E5.32710
G1 X82.330 Y110.206 E5.37789
G1 X81.864 Y110.054 E5.40234
G1 X81.083 Y109.765 E5.44389
G1 X80.287 Y109.406 E5.48745
G1 X79.594 Y109.041 E5.52653
G1 X78.831 Y108.562 E5.57147
G1 X78.151 Y108.058 E5.61370
G1 X77.535 Y107.519 E5.65454
G1 X76.979 Y106.935 E5.69477
G1 X76.507 Y106.359 E5.73192
G1 X76.376 Y106.162 E5.74372
G1 X76.019 Y105.610 E5.77652
G1 X75.621 Y104.832 E5.82012
G1 X75.278 Y103.867 E5.87121
G1 X75.097 Y102.985 E5.91613
G1 X75.045 Y102.487 E5.94111
G1 X75.026 Y101.974 E5.96672
G1 X75.038 Y101.690 E5.98090
G1 X75.044 Y101.452 E5.99278
G1 X75.178 Y100.543 E6.03862
G1 X75.340 Y99.917 E6.07088
G1 X75.780 Y98.805 E6.13055
G1 X76.282 Y97.948 E6.18010
G1 X76.814 Y97.235 E6.22448
G1 X77.418 Y96.580 E6.26893
G1 X78.039 Y96.016 E6.31078
G1 X78.735 Y95.487 E6.35440
G1 X79.462 Y95.021 E6.39748
G1 X80.217 Y94.612 E6.44032
G1 X80.934 Y94.281 E6.47972
G1 X81.864 Y93.927 E6.52936
G1 X82.740 Y93.663 E6.57501
G1 X83.453 Y93.486 E6.61166
G1 X84.491 Y93.295 E6.66432
G1 X85.278 Y93.201 E6.70386
G1 X85.279 Y92.095 E6.75904
G1 X85.280 Y91.438 E6.79181
G1 X85.294 Y90.856 E6.82086
G1 X85.337 Y90.286 E6.84938
G1 X85.444 Y89.200 E6.90382
G1 X85.676 Y88.238 E6.95319
G1 X86.258 Y87.195 E7.01278
G1 X87.037 Y86.365 E7.06957
G0 F9000 X87.295 Y86.675
G1 F1200 X88.163 Y86.118 E7.12102
G1 X89.109 Y85.785 E7.17106
G1 X89.918 Y85.692 E7.21169
G1 X111.875 Y85.692 E8.30712
G1 X112.771 Y85.821 E8.35229
G1 X113.771 Y86.236 E8.40630
G1 X114.652 Y86.922 E8.46201
G1 X115.314 Y87.791 E8.51651
G1 X115.730 Y88.802 E8.57105
G1 X115.846 Y89.682 E8.61534
G1 X115.846 Y93.967 E8.82912
G1 X117.170 Y95.292 E8.92257
G1 X121.650 Y95.292 E9.14607
G1 X121.650 Y108.692 E9.81460
G1 X117.170 Y108.692 E10.03811
G1 X115.846 Y110.017 E10.13156
G1 X115.846 Y113.614 E10.31102
G1 X115.724 Y114.513 E10.35628
G1 X115.289 Y115.533 E10.41160
G1 X114.624 Y116.390 E10.46572
G1 X113.756 Y117.056 E10.52030
G1 X112.735 Y117.475 E10.57536
G1 X111.855 Y117.591 E10.61965
G1 X89.794 Y117.591 E11.72027
G1 X88.940 Y117.489 E11.76318
G1 X87.938 Y117.116 E11.81652
G1 X87.036 Y116.490 E11.87130
G1 X86.309 Y115.635 E11.92729
G1 X85.822 Y114.577 E11.98540
G1 X85.680 Y113.643 E12.03253
G1 X85.679 Y112.450 E12.09205
G1 X85.679 Y110.419 E12.19338
G1 X85.089 Y110.365 E12.22294
G1 X84.085 Y110.217 E12.27357
G1 X83.405 Y110.078 E12.30820
G1 X82.443 Y109.822 E12.35786
G1 X81.995 Y109.677 E12.38135
G1 X81.235 Y109.394 E12.42181
G1 X80.462 Y109.046 E12.46411
G1 X79.794 Y108.695 E12.50175
G1 X79.056 Y108.231 E12.54524
G1 X78.402 Y107.746 E12.58587
G1 X77.812 Y107.230 E12.62497
G1 X77.279 Y106.670 E12.66354
G1 X76.829 Y106.120 E12.69899
G1 X76.710 Y105.942 E12.70968
G1 X76.366 Y105.410 E12.74128
G1 X75.989 Y104.673 E12.78258
G1 X75.664 Y103.759 E12.83098
G1 X75.493 Y102.924 E12.87350
G1 X75.444 Y102.459 E12.89683
G1 X75.427 Y101.975 E12.92099
G1 X75.436 Y101.750 E12.93223
G1 X75.443 Y101.486 E12.94540
G1 X75.570 Y100.623 E12.98892
G1 X75.721 Y100.041 E13.01892
G1 X76.141 Y98.981 E13.07580
G1 X76.615 Y98.169 E13.12271
G1 X77.122 Y97.491 E13.16495
G1 X77.700 Y96.864 E13.20749
G1 X78.295 Y96.324 E13.24758
G1 X78.964 Y95.815 E13.28952
G1 X79.666 Y95.366 E13.33109
G1 X80.396 Y94.970 E13.37252
G1 X81.089 Y94.650 E13.41061
G1 X81.993 Y94.306 E13.45886
G1 X82.845 Y94.049 E13.50326
G1 X83.538 Y93.877 E13.53888
G1 X84.551 Y93.690 E13.59028
G1 X85.478 Y93.580 E13.63685
G1 X85.678 Y93.566 E13.64685
G1 X85.679 Y92.095 E13.72024
G1 X85.680 Y91.443 E13.75277
G1 X85.694 Y90.876 E13.78106
G1 X85.736 Y90.321 E13.80883
G1 X85.839 Y89.267 E13.86167
G1 X86.052 Y88.385 E13.90694
G1 X86.583 Y87.433 E13.96132
G1 X87.295 Y86.675 E14.01320
G1 F2400 E9.51320
G0 F9000 X84.895 Y105.826
;TYPE:FILL
G1 F2400 E14.01320
G1 F1200 X85.035 Y105.965 E14.02305
G0 F9000 X87.346 Y106.014
G1 F1200 X87.410 Y106.078 E14.02756
G0 F9000 X87.353 Y106.257
;TYPE:WALL-INNER
G1 F1200 X86.837 Y106.266 E14.05331
G1 X86.052 Y106.235 E14.09250
G1 X84.825 Y106.081 E14.15420
G1 X83.631 Y105.792 E14.21549
G1 X82.841 Y105.511 E14.25732
G1 X82.303 Y105.269 E14.28675
G1 X81.893 Y105.053 E14.30987
G1 X81.413 Y104.751 E14.33816
G1 X80.723 Y104.197 E14.38231
G1 X80.213 Y103.624 E14.42058
G1 X80.005 Y103.302 E14.43971
G1 X79.855 Y103.008 E14.45617
G1 X79.721 Y102.632 E14.47609
G1 X79.635 Y102.147 E14.50066
G1 X79.629 Y101.989 E14.50855
G1 X79.635 Y101.847 E14.51564
G1 X79.721 Y101.347 E14.54095
G1 X79.928 Y100.824 E14.56901
G1 X80.123 Y100.491 E14.58827
G1 X80.355 Y100.180 E14.60762
G1 X80.660 Y99.850 E14.63004
G1 X80.984 Y99.555 E14.65190
G1 X81.368 Y99.264 E14.67594
G1 X81.811 Y98.980 E14.70219
G1 X82.274 Y98.729 E14.72847
G1 X82.725 Y98.520 E14.75327
G1 X83.336 Y98.288 E14.78587
G1 X83.970 Y98.097 E14.81891
G1 X85.173 Y97.846 E14.88022
G1 X85.864 Y97.764 E14.91494
G1 X86.765 Y97.718 E14.95994
G1 X87.552 Y97.736 E14.99922
G1 X87.988 Y97.767 E15.02103
G1 X88.784 Y97.869 E15.06106
G1 X89.962 Y98.130 E15.12126
G1 X90.448 Y98.283 E15.14668
G1 X91.372 Y98.596 E15.19535
G1 X91.657 Y98.266 E15.21710
G1 X91.539 Y98.645 E15.23691
G1 X92.634 Y99.404 E15.30338
G1 X92.962 Y99.674 E15.32457
G1 X93.272 Y99.975 E15.34613
G1 X93.538 Y100.285 E15.36651
G1 X93.729 Y100.556 E15.38305
G1 X93.936 Y100.938 E15.40473
G1 X94.050 Y101.223 E15.42004
G1 X94.131 Y101.534 E15.43607
G1 X94.177 Y101.994 E15.45914
G1 X94.175 Y102.093 E15.46408
G1 X94.137 Y102.430 E15.48100
G1 X94.084 Y102.649 E15.49224
G1 X93.951 Y103.010 E15.51143
G1 X93.706 Y103.459 E15.53695
G1 X93.428 Y103.833 E15.56020
G1 X93.147 Y104.136 E15.58082
G1 X92.813 Y104.438 E15.60328
G1 X92.431 Y104.729 E15.62724
G1 X91.541 Y105.320 E15.68054
G1 X91.665 Y105.731 E15.70196
G1 X91.373 Y105.397 E15.72409
G1 X89.994 Y105.846 E15.79645
G1 X89.265 Y106.025 E15.83390
G1 X88.584 Y106.144 E15.86839
G1 X87.353 Y106.257 E15.93006
G0 F9000 X91.235 Y105.898
G0 X91.728 Y106.462
G0 X91.383 Y108.108
G1 F1200 X91.798 Y107.314 E15.97476
G1 X92.074 Y106.742 E16.00644
G1 X95.268 Y106.742 E16.16579
G1 X96.260 Y105.747 E16.23589
G1 X96.280 Y105.727 E16.23730
G1 X96.280 Y113.391 E16.61966
G1 X90.043 Y113.391 E16.93082
G1 X89.934 Y113.378 E16.93630
G1 X89.885 Y113.356 E16.93898
G1 X89.879 Y112.448 E16.98428
G1 X89.879 Y110.588 E17.07708
G1 X89.892 Y110.506 E17.08122
G1 X90.283 Y109.929 E17.11599
G1 X90.886 Y108.971 E17.17247
G1 X91.383 Y108.108 E17.22215
G0 F9000 X91.728 Y106.462
G0 X92.081 Y97.242
G1 F1200 X91.435 Y95.969 E17.29337
G1 X90.960 Y95.139 E17.34108
G1 X90.414 Y94.261 E17.39266
G1 X89.901 Y93.492 E17.43878
G1 X89.891 Y93.472 E17.43990
G1 X89.878 Y93.394 E17.44384
G1 X89.880 Y91.509 E17.53789
G1 X89.891 Y91.076 E17.55950
G1 X89.990 Y89.970 E17.61490
G1 X90.000 Y89.931 E17.61690
G1 X90.021 Y89.916 E17.61819
G1 X90.058 Y89.903 E17.62015
G1 X96.281 Y89.892 E17.93061
G1 X96.280 Y98.257 E18.34795
G1 X95.267 Y97.242 E18.41949
G1 X92.081 Y97.242 E18.57844
G0 F9000 X91.774 Y97.521
G1 F1200 X91.082 Y96.159 E18.65466
G1 X90.616 Y95.344 E18.70150
G1 X90.077 Y94.478 E18.75239
G1 X89.556 Y93.696 E18.79927
G1 X89.505 Y93.594 E18.80496
G1 X89.478 Y93.427 E18.81339
G1 X89.480 Y91.500 E18.90953
G1 X89.491 Y91.050 E18.93199
G1 X89.595 Y89.902 E18.98950
G1 X89.624 Y89.783 E18.99561
G1 X89.674 Y89.693 E19.00075
G1 X89.743 Y89.619 E19.00579
G1 X89.843 Y89.555 E19.01172
G1 X89.967 Y89.511 E19.01828
G1 X90.134 Y89.492 E19.02667
G1 X96.681 Y89.492 E19.35330
G1 X96.680 Y98.892 E19.82227
G1 X96.351 Y98.892 E19.83868
G1 X95.100 Y97.642 E19.92691
G1 X92.272 Y97.642 E20.06800
G1 X92.009 Y98.484 E20.11201
G1 X92.873 Y99.083 E20.16446
G1 X93.225 Y99.372 E20.18718
G1 X93.567 Y99.704 E20.21096
G1 X93.853 Y100.038 E20.23290
G1 X94.070 Y100.346 E20.25170
G1 X94.297 Y100.767 E20.27556
G1 X94.431 Y101.099 E20.29342
G1 X94.526 Y101.463 E20.31219
G1 X94.578 Y101.980 E20.33811
G1 X94.574 Y102.129 E20.34555
G1 X94.528 Y102.513 E20.36484
G1 X94.467 Y102.768 E20.37792
G1 X94.319 Y103.170 E20.39930
G1 X94.043 Y103.674 E20.42796
G1 X93.734 Y104.091 E20.45386
G1 X93.427 Y104.423 E20.47642
G1 X93.073 Y104.742 E20.50019
G1 X92.662 Y105.055 E20.52596
G1 X92.010 Y105.489 E20.56504
G1 X92.267 Y106.342 E20.60949
G1 X95.102 Y106.342 E20.75093
G1 X95.978 Y105.464 E20.81280
G1 X96.351 Y105.092 E20.83908
G1 X96.680 Y105.092 E20.85550
G1 X96.680 Y113.791 E21.28949
G1 X90.021 Y113.791 E21.62171
G1 X89.838 Y113.769 E21.63091
G1 X89.713 Y113.723 E21.63755
G1 X89.610 Y113.651 E21.64382
G1 X89.542 Y113.572 E21.64902
G1 X89.498 Y113.475 E21.65434
G1 X89.480 Y113.356 E21.66034
G1 X89.479 Y110.558 E21.79993
G1 X89.507 Y110.383 E21.80878
G1 X89.545 Y110.305 E21.81310
G1 X89.948 Y109.710 E21.84896
G1 X90.543 Y108.765 E21.90467
G1 X91.032 Y107.916 E21.95355
G1 X91.440 Y107.134 E21.99756
G1 X91.768 Y106.456 E22.03513
G1 X91.246 Y105.859 E22.07470
G1 X90.104 Y106.230 E22.13460
G1 X89.343 Y106.418 E22.17371
G1 X88.641 Y106.540 E22.20926
G1 X87.370 Y106.657 E22.27294
G1 X86.834 Y106.666 E22.29968
G1 X86.038 Y106.635 E22.33942
G1 X85.537 Y106.589 E22.36452
G1 X84.740 Y106.472 E22.40471
G1 X83.527 Y106.178 E22.46698
G1 X82.680 Y105.878 E22.51181
G1 X82.130 Y105.630 E22.54191
G1 X81.201 Y105.091 E22.59549
G1 X80.792 Y104.788 E22.62089
G1 X80.441 Y104.481 E22.64415
G1 X79.889 Y103.859 E22.68564
G1 X79.659 Y103.503 E22.70679
G1 X79.486 Y103.165 E22.72573
G1 X79.333 Y102.734 E22.74855
G1 X79.237 Y102.193 E22.77596
G1 X79.230 Y101.977 E22.78674
G1 X79.236 Y101.815 E22.79483
G1 X79.340 Y101.222 E22.82487
G1 X79.567 Y100.649 E22.85562
G1 X79.788 Y100.273 E22.87738
G1 X80.050 Y99.921 E22.89927
G1 X80.379 Y99.565 E22.92345
G1 X80.727 Y99.248 E22.94694
G1 X81.145 Y98.931 E22.97311
G1 X81.594 Y98.644 E22.99970
G1 X82.101 Y98.369 E23.02847
G1 X82.564 Y98.155 E23.05392
G1 X83.217 Y97.906 E23.08878
G1 X83.866 Y97.711 E23.12259
G1 X84.339 Y97.593 E23.14691
G1 X85.116 Y97.450 E23.18633
G1 X85.829 Y97.365 E23.22215
G1 X86.755 Y97.318 E23.26841
G1 X87.564 Y97.336 E23.30878
G1 X88.033 Y97.369 E23.33224
G1 X88.851 Y97.474 E23.37338
G1 X90.085 Y97.749 E23.43646
G1 X91.245 Y98.131 E23.49739
G1 X91.774 Y97.521 E23.53767
G0 F9000 X91.295 Y97.462
;TYPE:WALL-OUTER
G1 F1200 X90.730 Y96.349 E23.59994
G1 X90.273 Y95.549 E23.64591
G1 X89.741 Y94.695 E23.69611
G1 X89.208 Y93.896 E23.74402
G1 X89.120 Y93.718 E23.75393
G1 X89.078 Y93.461 E23.76692
G1 X89.080 Y91.490 E23.86526
G1 X89.091 Y91.040 E23.88771
G1 X89.200 Y89.833 E23.94818
G1 X89.247 Y89.637 E23.95823
G1 X89.348 Y89.455 E23.96862
G1 X89.487 Y89.308 E23.97871
G1 X89.665 Y89.194 E23.98926
G1 X89.876 Y89.120 E24.00041
G1 X90.115 Y89.092 E24.01242
G1 X97.081 Y89.092 E24.35995
G1 X97.080 Y99.292 E24.86883
G1 X96.185 Y99.292 E24.91348
G1 X94.935 Y98.042 E25.00168
G1 X92.566 Y98.042 E25.11987
G1 X92.478 Y98.323 E25.13456
G1 X93.112 Y98.761 E25.17300
G1 X93.493 Y99.075 E25.19763
G1 X93.856 Y99.427 E25.22286
G1 X94.174 Y99.798 E25.24724
G1 X94.410 Y100.133 E25.26768
G1 X94.659 Y100.595 E25.29387
G1 X94.812 Y100.974 E25.31426
G1 X94.921 Y101.393 E25.33586
G1 X94.979 Y101.968 E25.36469
G1 X94.974 Y102.142 E25.37337
G1 X94.933 Y102.514 E25.39205
G1 X94.920 Y102.597 E25.39624
G1 X94.852 Y102.877 E25.41061
G1 X94.684 Y103.336 E25.43500
G1 X94.381 Y103.891 E25.46654
G1 X94.045 Y104.344 E25.49468
G1 X93.707 Y104.709 E25.51950
G1 X93.327 Y105.052 E25.54504
G1 X92.897 Y105.379 E25.57199
G1 X92.479 Y105.658 E25.59706
G1 X92.564 Y105.942 E25.61185
G1 X94.936 Y105.942 E25.73019
G1 X96.185 Y104.692 E25.81835
G1 X97.080 Y104.692 E25.86300
G1 X97.080 Y114.191 E26.33691
G1 X90.000 Y114.191 E26.69013
G1 X89.742 Y114.160 E26.70310
G1 X89.525 Y114.080 E26.71464
G1 X89.339 Y113.950 E26.72596
G1 X89.203 Y113.791 E26.73640
G1 X89.112 Y113.591 E26.74736
G1 X89.080 Y113.383 E26.75786
G1 X89.079 Y110.526 E26.90039
G1 X89.120 Y110.268 E26.91343
G1 X89.204 Y110.096 E26.92298
G1 X89.613 Y109.491 E26.95941
G1 X90.200 Y108.558 E27.01441
G1 X90.681 Y107.723 E27.06248
G1 X91.083 Y106.955 E27.10573
G1 X91.293 Y106.520 E27.12983
G1 X91.119 Y106.321 E27.14302
G1 X90.217 Y106.615 E27.19035
G1 X89.432 Y106.808 E27.23068
G1 X88.700 Y106.936 E27.26775
G1 X88.206 Y106.999 E27.29260
G1 X87.383 Y107.057 E27.33376
G1 X86.831 Y107.066 E27.36130
G1 X86.539 Y107.059 E27.37587
G1 X86.527 Y107.060 E27.37647
G1 X85.994 Y107.033 E27.40310
G1 X85.497 Y106.988 E27.42800
G1 X84.673 Y106.867 E27.46955
G1 X84.177 Y106.765 E27.49481
G1 X83.410 Y106.562 E27.53439
G1 X82.525 Y106.247 E27.58126
G1 X81.958 Y105.992 E27.61228
G1 X81.486 Y105.743 E27.63890
G1 X80.982 Y105.426 E27.66860
G1 X80.540 Y105.099 E27.69603
G1 X80.165 Y104.770 E27.72092
G1 X79.560 Y104.088 E27.76641
G1 X79.313 Y103.705 E27.78914
G1 X79.117 Y103.321 E27.81065
G1 X78.948 Y102.846 E27.83581
G1 X78.857 Y102.404 E27.85832
G1 X78.837 Y102.213 E27.86790
G1 X78.829 Y101.981 E27.87948
G1 X78.837 Y101.779 E27.88957
G1 X78.907 Y101.301 E27.91367
G1 X78.960 Y101.096 E27.92423
G1 X79.206 Y100.475 E27.95756
G1 X79.456 Y100.048 E27.98224
G1 X79.740 Y99.668 E28.00591
G1 X80.098 Y99.280 E28.03225
G1 X80.477 Y98.935 E28.05782
G1 X80.918 Y98.601 E28.08542
G1 X81.392 Y98.297 E28.11351
G1 X81.915 Y98.014 E28.14318
G1 X82.415 Y97.783 E28.17066
G1 X83.082 Y97.529 E28.20627
G1 X83.751 Y97.328 E28.24112
G1 X84.251 Y97.203 E28.26683
G1 X85.057 Y97.055 E28.30771
G1 X85.795 Y96.967 E28.34479
G1 X86.302 Y96.932 E28.37015
G1 X86.745 Y96.918 E28.39226
G1 X87.018 Y96.920 E28.40588
G1 X87.576 Y96.936 E28.43373
G1 X88.077 Y96.971 E28.45879
G1 X88.904 Y97.078 E28.50039
G1 X89.422 Y97.173 E28.52666
G1 X90.178 Y97.359 E28.56551
G1 X90.689 Y97.520 E28.59224
G1 X91.119 Y97.666 E28.61489
G1 X91.295 Y97.462 E28.62833
G0 F9000 X92.037 Y96.845
;TYPE:SKIN
G1 F1200 X92.292 Y97.101 E28.64636
G0 F9000 X92.858 Y97.101
G1 F1200 X91.423 Y95.665 E28.74764
G0 F9000 X90.570 Y94.247
G1 F1200 X93.424 Y97.101 E28.94901
G0 F9000 X93.990 Y97.101
G1 F1200 X90.017 Y93.128 E29.22932
G0 F9000 X90.018 Y92.563
G1 F1200 X94.555 Y97.101 E29.54947
G0 F9000 X95.121 Y97.101
G1 F1200 X90.018 Y91.998 E29.90951
G0 F9000 X90.021 Y91.435
G1 F1200 X96.140 Y97.554 E30.34124
G0 F9000 X96.140 Y96.988
G1 F1200 X90.047 Y90.895 E30.77114
G0 F9000 X90.093 Y90.376
G1 F1200 X96.140 Y96.423 E31.19778
G0 F9000 X96.140 Y95.857
G1 F1200 X90.325 Y90.042 E31.60806
