;Generated from 2.1-LH-decoration-spacer.stl f6f39c12e56dc309e0f2fde4697efc62b2b18c5f
;Generated with Cura_SteamEngine 15.04
M140 S55.0
M109 T0 S210.0
T0
M190 S55.0

;Basic settings: Layer height: 0.15 Walls: 1.2 Fill: 50
;Print time: ?print_time?
;Filament used: ?filament_amount?m ?filament_weight?g
;Filament cost: ?filament_cost?
;M190 S55 ;Uncomment to add your own bed temperature line
;M109 S210 ;Uncomment to add your own temperature line
G21        ;metric values
G90        ;absolute positioning
M82        ;set extruder to absolute mode
M107       ;start with the fan off
G28 X0 Y0  ;move X/Y to min endstops
G28 Z0     ;move Z to min endstops
G1 Z5.0 F9000 ;move the platform down 15mm
G92 E0                  ;zero the extruded length
G1 F200 E3              ;extrude 3mm of feed stock
G92 E0                  ;zero the extruded length again
G1 F9000
;Put printing message on LCD screen
M117 Printing...

;Layer count: 20
;LAYER:0
M107
G0 F9000 X90.379 Y85.948 Z0.300
;TYPE:SKIRT
G1 F1200 X91.542 Y84.827 E0.08059
G1 X92.686 Y83.850 E0.15564
G1 X93.955 Y82.879 E0.23536
G1 X95.200 Y82.038 E0.31032
G1 X96.572 Y81.215 E0.39014
G1 X97.903 Y80.520 E0.46505
G1 X99.359 Y79.857 E0.54487
G1 X100.760 Y79.315 E0.61981
G1 X102.282 Y78.821 E0.69964
G1 X103.733 Y78.441 E0.77448
G1 X105.198 Y78.140 E0.84909
G1 X106.779 Y77.906 E0.92883
G1 X108.276 Y77.772 E1.00381
G1 X109.876 Y77.717 E1.08368
G1 X111.377 Y77.753 E1.15859
G1 X112.970 Y77.879 E1.23831
G1 X114.457 Y78.083 E1.31319
G1 X116.028 Y78.387 E1.39303
G1 X117.483 Y78.756 E1.46791
G1 X119.012 Y79.237 E1.54788
G1 X120.407 Y79.765 E1.62230
G1 X123.496 Y81.116 E1.79050
G1 X123.496 Y98.609 E2.66323
G1 X123.421 Y99.462 E2.70595
G1 X123.163 Y100.425 E2.75569
G1 X122.742 Y101.326 E2.80531
G1 X122.172 Y102.141 E2.85493
G1 X121.468 Y102.844 E2.90456
G1 X120.654 Y103.416 E2.95420
G1 X119.750 Y103.837 E3.00395
G1 X118.785 Y104.096 E3.05380
G1 X117.932 Y104.169 E3.09651
G1 X116.752 Y104.169 E3.15538
G1 X116.018 Y104.109 E3.19212
G1 X115.172 Y103.892 E3.23569
G1 X114.384 Y103.542 E3.27871
G1 X113.630 Y103.046 E3.32374
G1 X112.738 Y102.176 E3.38590
G1 X112.389 Y101.896 E3.40822
G1 X112.031 Y101.665 E3.42948
G1 X111.649 Y101.473 E3.45081
G1 X111.256 Y101.323 E3.47180
G1 X110.834 Y101.211 E3.49358
G1 X110.406 Y101.144 E3.51519
G1 X109.985 Y101.124 E3.53622
G1 X109.556 Y101.147 E3.55765
G1 X109.136 Y101.215 E3.57888
G1 X108.729 Y101.324 E3.59990
G1 X108.327 Y101.480 E3.62141
G1 X107.942 Y101.677 E3.64299
G1 X107.580 Y101.913 E3.66455
G1 X107.255 Y102.177 E3.68544
G1 X106.947 Y102.485 E3.70717
G1 X106.681 Y102.815 E3.72832
G1 X106.450 Y103.172 E3.74953
G1 X106.255 Y103.556 E3.77102
G1 X106.099 Y103.963 E3.79276
G1 X105.990 Y104.367 E3.81364
G1 X105.923 Y104.788 E3.83491
G1 X105.901 Y105.219 E3.85644
G1 X105.923 Y105.650 E3.87797
G1 X105.990 Y106.071 E3.89924
G1 X106.099 Y106.475 E3.92011
G1 X106.255 Y106.882 E3.94186
G1 X106.450 Y107.266 E3.96334
G1 X106.681 Y107.623 E3.98456
G1 X106.947 Y107.953 E4.00570
G1 X107.255 Y108.261 E4.02744
G1 X107.580 Y108.525 E4.04833
G1 X107.942 Y108.761 E4.06988
G1 X108.327 Y108.958 E4.09146
G1 X108.729 Y109.114 E4.11297
G1 X109.136 Y109.223 E4.13400
G1 X109.556 Y109.291 E4.15522
G1 X109.985 Y109.314 E4.17666
G1 X110.406 Y109.294 E4.19768
G1 X110.834 Y109.227 E4.21930
G1 X111.256 Y109.115 E4.24108
G1 X111.649 Y108.965 E4.26207
G1 X112.031 Y108.773 E4.28339
G1 X112.389 Y108.542 E4.30465
G1 X112.726 Y108.271 E4.32623
G1 X113.182 Y107.817 E4.35833
G1 X113.662 Y107.372 E4.39098
G1 X114.384 Y106.896 E4.43413
G1 X115.172 Y106.546 E4.47715
G1 X116.018 Y106.329 E4.52072
G1 X116.752 Y106.269 E4.55746
G1 X117.932 Y106.269 E4.61633
G1 X118.785 Y106.342 E4.65904
G1 X119.750 Y106.601 E4.70889
G1 X120.654 Y107.022 E4.75864
G1 X121.468 Y107.594 E4.80828
G1 X122.172 Y108.297 E4.85791
G1 X122.742 Y109.112 E4.90753
G1 X123.163 Y110.013 E4.95715
G1 X123.421 Y110.976 E5.00689
G1 X123.496 Y111.829 E5.04961
G1 X123.496 Y122.277 E5.57086
G1 X84.371 Y122.278 E7.52281
G1 X83.536 Y122.220 E7.56457
G1 X82.659 Y122.042 E7.60922
G1 X81.783 Y121.738 E7.65548
G1 X80.998 Y121.352 E7.69912
G1 X80.421 Y120.971 E7.73362
G1 X80.212 Y120.822 E7.74642
G1 X79.552 Y120.247 E7.79009
G1 X79.002 Y119.628 E7.83140
G1 X78.472 Y118.860 E7.87796
G1 X78.051 Y118.025 E7.92461
G1 X77.690 Y117.003 E7.97869
G1 X77.669 Y116.770 E7.99036
G1 X77.564 Y116.260 E8.01634
G1 X77.507 Y115.541 E8.05232
G1 X77.501 Y115.272 E8.06574
G1 X77.551 Y114.426 E8.10803
G1 X77.718 Y113.551 E8.15247
G1 X78.012 Y112.663 E8.19913
G1 X78.401 Y111.857 E8.24378
G1 X78.915 Y111.078 E8.29035
G1 X79.499 Y110.399 E8.33503
G1 X80.185 Y109.792 E8.38073
G1 X80.866 Y109.315 E8.42221
G1 X81.669 Y108.903 E8.46724
G1 X82.429 Y108.612 E8.50784
G1 X82.454 Y108.602 E8.50918
G1 X82.505 Y108.573 E8.51211
G1 X82.575 Y108.518 E8.51655
G1 X82.597 Y108.494 E8.51817
G1 X82.613 Y108.469 E8.51965
G1 X82.628 Y108.436 E8.52146
G1 X82.643 Y108.381 E8.52431
G1 X82.652 Y108.297 E8.52852
G1 X82.643 Y108.034 E8.54165
G1 X82.558 Y107.050 E8.59092
G1 X82.500 Y105.621 E8.66228
G1 X82.497 Y105.358 E8.67540
G1 X82.518 Y104.100 E8.73817
G1 X82.616 Y102.636 E8.81137
G1 X82.796 Y101.121 E8.88749
G1 X83.028 Y100.342 E8.92804
G1 X83.462 Y99.556 E8.97283
G1 X84.053 Y98.900 E9.01688
G1 X84.618 Y98.484 E9.05189
G1 X84.689 Y98.443 E9.05598
G1 X85.087 Y97.095 E9.12610
G1 X85.575 Y95.728 E9.19852
G1 X86.138 Y94.391 E9.27089
G1 X86.775 Y93.085 E9.34338
G1 X87.483 Y91.818 E9.41580
G1 X87.878 Y91.194 E9.45264
G1 X87.831 Y91.052 E9.46010
G1 X87.780 Y90.304 E9.49751
G1 X87.783 Y90.278 E9.49881
G1 X87.782 Y90.268 E9.49931
G1 X87.821 Y89.711 E9.52717
G1 X88.033 Y88.868 E9.57054
G1 X88.499 Y88.057 E9.61720
G1 X89.179 Y87.256 E9.66962
G1 X90.379 Y85.948 E9.75818
G1 F2400 E5.25818
G0 F9000 X119.051 Y117.354
;TYPE:FILL
G1 F2400 E9.75818
G1 F1200 X119.155 Y117.458 E9.76552
G0 F9000 X118.853 Y117.373
;TYPE:WALL-INNER
G1 F1200 X119.234 Y116.930 E9.79467
G1 X119.296 Y116.823 E9.80084
G1 X119.296 Y118.077 E9.86340
G1 X117.592 Y118.077 E9.94841
G1 X117.905 Y117.985 E9.96469
G1 X118.409 Y117.724 E9.99301
G1 X118.853 Y117.373 E10.02124
G0 F9000 X115.687 Y117.985
G1 F1200 X115.999 Y118.077 E10.03747
G1 X84.524 Y118.078 E11.60777
G1 X84.100 Y118.048 E11.62897
G1 X83.769 Y117.981 E11.64582
G1 X83.399 Y117.853 E11.66535
G1 X83.096 Y117.704 E11.68220
G1 X82.812 Y117.516 E11.69919
G1 X82.515 Y117.258 E11.71882
G1 X82.310 Y117.026 E11.73427
G1 X82.093 Y116.713 E11.75327
G1 X81.923 Y116.376 E11.77210
G1 X81.810 Y116.056 E11.78903
G1 X81.730 Y115.671 E11.80865
G1 X81.704 Y115.340 E11.82521
G1 X81.727 Y114.946 E11.84490
G1 X81.792 Y114.607 E11.86212
G1 X81.912 Y114.243 E11.88124
G1 X82.060 Y113.937 E11.89820
G1 X82.274 Y113.613 E11.91757
G1 X82.498 Y113.353 E11.93470
G1 X82.783 Y113.100 E11.95371
G1 X83.038 Y112.922 E11.96922
G1 X83.388 Y112.743 E11.98884
G1 X83.960 Y112.523 E12.01941
G1 X84.276 Y112.398 E12.03637
G1 X84.847 Y112.071 E12.06919
G1 X85.406 Y111.638 E12.10447
G1 X85.849 Y111.167 E12.13673
G1 X86.020 Y110.939 E12.15095
G1 X86.323 Y110.463 E12.17910
G1 X86.594 Y109.852 E12.21245
G1 X86.780 Y109.175 E12.24747
G1 X86.861 Y108.450 E12.28387
G1 X86.836 Y107.786 E12.31702
G1 X86.750 Y106.787 E12.36704
G1 X86.699 Y105.521 E12.43026
G1 X86.697 Y105.383 E12.43714
G1 X86.716 Y104.278 E12.49228
G1 X86.800 Y103.019 E12.55523
G1 X86.920 Y102.005 E12.60617
G1 X88.353 Y101.178 E12.68871
G1 X88.736 Y99.565 E12.77143
G1 X89.081 Y98.399 E12.83209
G1 X89.493 Y97.248 E12.89308
G1 X89.967 Y96.122 E12.95403
G1 X90.498 Y95.033 E13.01448
G1 X91.093 Y93.968 E13.07534
G1 X91.747 Y92.935 E13.13634
G1 X92.457 Y91.943 E13.19720
G1 X93.234 Y90.905 E13.26189
G1 X92.141 Y90.257 E13.32528
G1 X92.316 Y90.050 E13.33880
G1 X93.388 Y88.881 E13.41793
G1 X94.364 Y87.941 E13.48554
G1 X95.329 Y87.117 E13.54885
G1 X96.404 Y86.294 E13.61639
G1 X97.461 Y85.580 E13.68003
G1 X98.634 Y84.876 E13.74828
G1 X99.746 Y84.295 E13.81087
G1 X100.977 Y83.735 E13.87834
G1 X102.175 Y83.271 E13.94244
G1 X103.466 Y82.852 E14.01016
G1 X104.677 Y82.535 E14.07261
G1 X105.937 Y82.277 E14.13677
G1 X107.273 Y82.079 E14.20416
G1 X108.542 Y81.965 E14.26772
G1 X109.886 Y81.918 E14.33481
G1 X111.163 Y81.949 E14.39854
G1 X112.517 Y82.057 E14.46631
G1 X113.773 Y82.228 E14.52955
G1 X115.119 Y82.489 E14.59795
G1 X116.330 Y82.797 E14.66029
G1 X117.643 Y83.209 E14.72895
G1 X118.819 Y83.654 E14.79168
G1 X119.296 Y83.863 E14.81766
G1 X119.296 Y93.816 E15.31422
G1 X119.045 Y93.465 E15.33575
G1 X118.619 Y93.064 E15.36493
G1 X118.114 Y92.750 E15.39460
G1 X117.572 Y92.548 E15.42346
G1 X117.103 Y92.458 E15.44728
G1 X116.793 Y92.443 E15.46277
G1 X116.488 Y92.459 E15.47801
G1 X115.958 Y92.559 E15.50491
G1 X115.428 Y92.771 E15.53339
G1 X115.103 Y92.982 E15.55272
G1 X115.006 Y93.026 E15.55804
G1 X114.538 Y93.475 E15.59040
G1 X114.214 Y93.929 E15.61822
G1 X113.978 Y94.445 E15.64653
G1 X113.846 Y94.996 E15.67480
G1 X113.819 Y95.563 E15.70312
G1 X113.900 Y96.122 E15.73130
G1 X114.084 Y96.656 E15.75948
G1 X114.368 Y97.150 E15.78790
G1 X114.744 Y97.580 E15.81640
G1 X115.207 Y97.939 E15.84563
G1 X115.687 Y98.186 E15.87256
G1 X116.232 Y98.347 E15.90091
G1 X116.796 Y98.399 E15.92917
G1 X117.360 Y98.347 E15.95743
G1 X117.905 Y98.186 E15.98578
G1 X118.409 Y97.925 E16.01410
G1 X118.853 Y97.574 E16.04233
G1 X119.234 Y97.131 E16.07149
G1 X119.296 Y97.024 E16.07765
G1 X119.296 Y98.425 E16.14755
G1 X119.270 Y98.728 E16.16272
G1 X119.201 Y98.982 E16.17585
G1 X119.093 Y99.216 E16.18871
G1 X118.941 Y99.432 E16.20189
G1 X118.756 Y99.617 E16.21494
G1 X118.542 Y99.767 E16.22798
G1 X118.311 Y99.875 E16.24070
G1 X118.054 Y99.944 E16.25398
G1 X117.758 Y99.969 E16.26880
G1 X116.926 Y99.969 E16.31031
G1 X116.717 Y99.952 E16.32077
G1 X116.555 Y99.910 E16.32912
G1 X116.403 Y99.843 E16.33741
G1 X116.275 Y99.759 E16.34504
G1 X115.524 Y99.026 E16.39740
G1 X114.851 Y98.486 E16.44045
G1 X114.122 Y98.016 E16.48372
G1 X113.347 Y97.625 E16.52703
G1 X112.536 Y97.317 E16.57031
G1 X111.699 Y97.095 E16.61351
G1 X110.841 Y96.961 E16.65684
G1 X109.975 Y96.919 E16.70009
G1 X109.110 Y96.965 E16.74331
G1 X108.253 Y97.103 E16.78661
G1 X107.414 Y97.329 E16.82996
G1 X106.605 Y97.642 E16.87324
G1 X105.834 Y98.038 E16.91648
G1 X105.108 Y98.510 E16.95968
G1 X104.433 Y99.058 E17.00306
G1 X103.821 Y99.672 E17.04631
G1 X103.275 Y100.347 E17.08963
G1 X102.803 Y101.075 E17.13291
G1 X102.411 Y101.849 E17.17620
G1 X102.100 Y102.658 E17.21944
G1 X101.877 Y103.496 E17.26270
G1 X101.740 Y104.353 E17.30600
G1 X101.695 Y105.219 E17.34926
G1 X101.740 Y106.085 E17.39253
G1 X101.877 Y106.942 E17.43582
G1 X102.100 Y107.780 E17.47909
G1 X102.411 Y108.589 E17.52233
G1 X102.803 Y109.363 E17.56561
G1 X103.275 Y110.091 E17.60890
G1 X103.821 Y110.766 E17.65221
G1 X104.433 Y111.380 E17.69546
G1 X105.108 Y111.928 E17.73884
G1 X105.834 Y112.400 E17.78204
G1 X106.605 Y112.796 E17.82528
G1 X107.414 Y113.109 E17.86856
G1 X108.253 Y113.335 E17.91191
G1 X109.110 Y113.473 E17.95522
G1 X109.975 Y113.519 E17.99843
G1 X110.841 Y113.477 E18.04169
G1 X111.699 Y113.343 E18.08501
G1 X112.536 Y113.121 E18.12822
G1 X113.347 Y112.813 E18.17150
G1 X114.122 Y112.422 E18.21480
G1 X114.851 Y111.952 E18.25808
G1 X115.528 Y111.408 E18.30141
G1 X116.096 Y110.843 E18.34138
G1 X116.264 Y110.686 E18.35285
G1 X116.403 Y110.595 E18.36114
G1 X116.555 Y110.528 E18.36942
G1 X116.717 Y110.486 E18.37777
G1 X117.758 Y110.469 E18.42972
G1 X118.054 Y110.494 E18.44454
G1 X118.311 Y110.563 E18.45781
G1 X118.542 Y110.671 E18.47053
G1 X118.756 Y110.821 E18.48357
G1 X118.941 Y111.006 E18.49662
G1 X119.093 Y111.222 E18.50980
G1 X119.201 Y111.456 E18.52266
G1 X119.270 Y111.710 E18.53579
G1 X119.296 Y112.010 E18.55081
G1 X119.296 Y113.615 E18.63089
G1 X119.044 Y113.264 E18.65244
G1 X118.619 Y112.863 E18.68160
G1 X118.114 Y112.549 E18.71126
G1 X117.572 Y112.347 E18.74012
G1 X117.100 Y112.256 E18.76410
G1 X116.796 Y112.243 E18.77928
G1 X116.490 Y112.256 E18.79456
G1 X115.957 Y112.359 E18.82165
G1 X115.428 Y112.570 E18.85006
G1 X115.103 Y112.781 E18.86939
G1 X115.006 Y112.825 E18.87471
G1 X114.539 Y113.274 E18.90703
G1 X114.214 Y113.727 E18.93484
G1 X113.978 Y114.244 E18.96320
G1 X113.846 Y114.795 E18.99146
G1 X113.819 Y115.362 E19.01978
G1 X113.900 Y115.921 E19.04796
G1 X114.084 Y116.455 E19.07614
G1 X114.368 Y116.949 E19.10457
G1 X114.744 Y117.379 E19.13307
G1 X115.207 Y117.738 E19.16230
G1 X115.687 Y117.985 E19.18923
G0 F9000 X114.450 Y116.287
G0 X105.344 Y111.603
G0 X103.151 Y109.162
G0 X102.140 Y106.042
G0 X102.482 Y102.782
G0 X104.120 Y99.940
G0 X103.367 Y95.953
G1 F1200 X103.811 Y95.601 E19.21750
G1 X104.191 Y95.159 E19.24658
G1 X104.464 Y94.685 E19.27387
G1 X104.649 Y94.150 E19.30211
G1 X104.729 Y93.591 E19.33028
G1 X104.704 Y93.024 E19.35860
G1 X104.569 Y92.472 E19.38695
G1 X104.334 Y91.956 E19.41524
G1 X104.003 Y91.493 E19.44363
G1 X103.576 Y91.091 E19.47289
G1 X103.070 Y90.778 E19.50257
G1 X102.529 Y90.576 E19.53138
G1 X102.060 Y90.486 E19.55521
G1 X101.750 Y90.471 E19.57069
G1 X101.446 Y90.487 E19.58588
G1 X100.915 Y90.587 E19.61284
G1 X100.386 Y90.799 E19.64127
G1 X100.057 Y91.012 E19.66082
G1 X99.962 Y91.055 E19.66603
G1 X99.496 Y91.504 E19.69831
G1 X99.172 Y91.956 E19.72606
G1 X98.936 Y92.473 E19.75441
G1 X98.804 Y93.024 E19.78268
G1 X98.777 Y93.589 E19.81090
G1 X98.857 Y94.150 E19.83917
G1 X99.042 Y94.685 E19.86741
G1 X99.326 Y95.178 E19.89580
G1 X99.702 Y95.608 E19.92429
G1 X100.165 Y95.967 E19.95352
G1 X100.645 Y96.214 E19.98046
G1 X101.191 Y96.375 E20.00885
G1 X101.753 Y96.426 E20.03701
G1 X102.316 Y96.375 E20.06521
G1 X102.863 Y96.214 E20.09366
G1 X103.367 Y95.953 E20.12198
G0 F9000 X103.149 Y95.615
G1 F1200 X103.533 Y95.312 E20.14638
G1 X103.863 Y94.927 E20.17168
G1 X104.098 Y94.518 E20.19521
G1 X104.259 Y94.055 E20.21967
G1 X104.328 Y93.571 E20.24406
G1 X104.306 Y93.081 E20.26853
G1 X104.189 Y92.604 E20.29303
G1 X103.986 Y92.157 E20.31752
G1 X103.700 Y91.758 E20.34202
G1 X103.331 Y91.410 E20.36732
G1 X102.893 Y91.139 E20.39302
G1 X102.421 Y90.962 E20.41817
G1 X102.012 Y90.884 E20.43894
G1 X101.751 Y90.871 E20.45198
G1 X101.494 Y90.885 E20.46482
G1 X101.027 Y90.973 E20.48853
G1 X100.571 Y91.156 E20.51304
G1 X100.254 Y91.361 E20.53187
G1 X100.190 Y91.390 E20.53538
G1 X99.800 Y91.766 E20.56241
G1 X99.520 Y92.157 E20.58640
G1 X99.316 Y92.604 E20.61091
G1 X99.201 Y93.081 E20.63539
G1 X99.178 Y93.570 E20.65982
G1 X99.247 Y94.055 E20.68426
G1 X99.408 Y94.518 E20.70871
G1 X99.653 Y94.944 E20.73323
G1 X99.977 Y95.316 E20.75784
G1 X100.381 Y95.628 E20.78331
G1 X100.795 Y95.841 E20.80654
G1 X101.266 Y95.980 E20.83104
G1 X101.753 Y96.024 E20.85543
G1 X102.241 Y95.980 E20.87988
G1 X102.713 Y95.841 E20.90442
G1 X103.149 Y95.615 E20.92893
G0 F9000 X105.343 Y98.834
G1 F1200 X104.701 Y99.355 E20.97018
G1 X104.119 Y99.940 E21.01134
G1 X103.600 Y100.582 E21.05253
G1 X103.150 Y101.275 E21.09375
G1 X102.777 Y102.011 E21.13492
G1 X102.481 Y102.782 E21.17612
G1 X102.268 Y103.579 E21.21728
G1 X102.138 Y104.395 E21.25850
G1 X102.095 Y105.219 E21.29967
G1 X102.138 Y106.043 E21.34084
G1 X102.268 Y106.859 E21.38206
G1 X102.481 Y107.656 E21.42322
G1 X102.777 Y108.427 E21.46442
G1 X103.150 Y109.163 E21.50559
G1 X103.600 Y109.856 E21.54681
G1 X104.119 Y110.498 E21.58800
G1 X104.701 Y111.083 E21.62916
G1 X105.343 Y111.604 E21.67041
G1 X106.035 Y112.054 E21.71160
G1 X106.769 Y112.430 E21.75274
G1 X107.539 Y112.728 E21.79393
G1 X108.337 Y112.943 E21.83516
G1 X109.152 Y113.074 E21.87635
G1 X109.976 Y113.119 E21.91752
G1 X110.800 Y113.079 E21.95868
G1 X111.616 Y112.951 E21.99988
G1 X112.414 Y112.740 E22.04106
G1 X113.186 Y112.447 E22.08226
G1 X113.923 Y112.074 E22.12347
G1 X114.616 Y111.627 E22.16461
G1 X115.261 Y111.110 E22.20585
G1 X115.810 Y110.563 E22.24452
G1 X116.017 Y110.370 E22.25864
G1 X116.212 Y110.242 E22.27027
G1 X116.425 Y110.147 E22.28191
G1 X116.649 Y110.090 E22.29344
G1 X117.768 Y110.069 E22.34928
G1 X118.129 Y110.100 E22.36736
G1 X118.443 Y110.184 E22.38357
G1 X118.744 Y110.324 E22.40013
G1 X119.017 Y110.516 E22.41678
G1 X119.250 Y110.749 E22.43322
G1 X119.437 Y111.016 E22.44949
G1 X119.581 Y111.323 E22.46640
G1 X119.664 Y111.635 E22.48251
G1 X119.696 Y111.998 E22.50069
