;Generated from 2.1-LH-smallgearcover.stl 5ab5898daf25041080b65965546b7f7400c0d899
;Generated with Cura_SteamEngine 15.04
M140 S55.0
M109 T0 S210.0
T0
M190 S55.0

;Basic settings: Layer height: 0.15 Walls: 1.2 Fill: 50
;Print time: ?print_time?
;Filament used: ?filament_amount?m ?filament_weight?g
;Filament cost: ?filament_cost?
;M190 S55 ;Uncomment to add your own bed temperature line
;M109 S210 ;Uncomment to add your own temperature line
G21        ;metric values
G90        ;absolute positioning
M82        ;set extruder to absolute mode
M107       ;start with the fan off
G28 X0 Y0  ;move X/Y to min endstops
G28 Z0     ;move Z to min endstops
G1 Z5.0 F9000 ;move the platform down 15mm
G92 E0                  ;zero the extruded length
G1 F200 E3              ;extrude 3mm of feed stock
G92 E0                  ;zero the extruded length again
G1 F9000
;Put printing message on LCD screen
M117 Printing...

;Layer count: 69
;LAYER:0
M107
G0 F9000 X90.741 Y78.234 Z0.300
G0 X92.261 Y77.683
;TYPE:SKIRT
G1 F1200 X93.121 Y77.476 E0.04413
G1 X93.769 Y77.401 E0.07668
G1 X94.320 Y77.390 E0.10417
G1 X100.815 Y77.391 E0.42821
G1 X101.473 Y77.390 E0.46104
G1 X102.361 Y77.450 E0.50544
G1 X103.343 Y77.645 E0.55539
G1 X104.295 Y77.967 E0.60553
G1 X105.246 Y78.436 E0.65843
G1 X106.086 Y79.008 E0.70913
G1 X106.689 Y79.542 E0.74931
G1 X106.901 Y79.739 E0.76375
G1 X107.536 Y80.485 E0.81263
G1 X108.006 Y81.210 E0.85573
G1 X108.149 Y81.458 E0.87002
G1 X108.531 Y82.277 E0.91510
G1 X108.825 Y83.198 E0.96334
G1 X109.016 Y84.229 E1.01565
G1 X109.055 Y85.091 E1.05870
G1 X109.055 Y85.378 E1.07302
G1 X108.971 Y86.273 E1.11786
G1 X108.807 Y87.060 E1.15797
G1 X108.805 Y87.102 E1.16007
G1 X108.811 Y87.160 E1.16298
G1 X108.829 Y87.234 E1.16678
G1 X108.842 Y87.264 E1.16841
G1 X108.853 Y87.285 E1.16959
G1 X109.352 Y87.918 E1.20980
G1 X110.055 Y88.896 E1.26989
G1 X110.676 Y89.950 E1.33093
G1 X111.169 Y90.979 E1.38785
G1 X111.561 Y91.995 E1.44218
G1 X111.895 Y93.115 E1.50049
G1 X112.136 Y94.259 E1.55882
G1 X112.280 Y95.415 E1.61694
G1 X112.324 Y96.461 E1.66917
G1 X112.330 Y96.706 E1.68139
G1 X112.281 Y97.699 E1.73100
G1 X112.132 Y98.946 E1.79365
G1 X111.892 Y100.071 E1.85104
G1 X111.550 Y101.225 E1.91109
G1 X111.128 Y102.289 E1.96819
G1 X110.602 Y103.363 E2.02786
G1 X110.014 Y104.343 E2.08488
G1 X109.318 Y105.315 E2.14452
G1 X108.765 Y105.968 E2.18721
G1 X108.604 Y106.171 E2.20014
G1 X108.548 Y106.262 E2.20547
G1 X108.507 Y106.349 E2.21027
G1 X108.477 Y106.443 E2.21519
G1 X108.452 Y106.578 E2.22204
G1 X108.446 Y107.489 E2.26749
G1 X108.446 Y114.107 E2.59766
G1 X108.442 Y114.263 E2.60545
G1 X108.393 Y115.062 E2.64538
G1 X108.223 Y116.040 E2.69491
G1 X107.935 Y116.995 E2.74467
G1 X107.522 Y117.957 E2.79690
G1 X107.077 Y118.719 E2.84093
G1 X106.933 Y118.941 E2.85413
G1 X106.372 Y119.676 E2.90026
G1 X105.679 Y120.394 E2.95004
G1 X104.908 Y121.025 E2.99975
G1 X104.022 Y121.592 E3.05223
G1 X103.113 Y122.027 E3.10250
G1 X102.263 Y122.319 E3.14734
G1 X101.953 Y122.404 E3.16338
G1 X101.104 Y122.576 E3.20660
G1 X100.267 Y122.640 E3.24848
G1 X99.986 Y122.654 E3.26251
G1 X99.002 Y122.598 E3.31169
G1 X97.996 Y122.410 E3.36274
G1 X97.026 Y122.098 E3.41358
G1 X96.052 Y121.642 E3.46723
G1 X95.181 Y121.084 E3.51884
G1 X94.352 Y120.388 E3.57284
G1 X93.658 Y119.622 E3.62441
G1 X93.196 Y118.965 E3.66448
G1 X93.027 Y118.721 E3.67929
G1 X92.638 Y117.968 E3.72157
G1 X92.519 Y117.716 E3.73548
G1 X92.289 Y117.078 E3.76931
G1 X92.191 Y116.810 E3.78355
G1 X91.970 Y115.804 E3.83494
G1 X91.895 Y114.997 E3.87537
G1 X91.822 Y114.097 E3.92042
G1 X92.631 Y112.074 E4.02912
G1 X93.027 Y110.925 E4.08975
G1 X93.398 Y109.638 E4.15658
G1 X93.680 Y108.427 E4.21861
G1 X93.897 Y107.230 E4.27930
G1 X94.073 Y105.889 E4.34678
G1 X94.171 Y104.626 E4.40998
G1 X94.207 Y103.273 E4.47750
G1 X94.176 Y102.072 E4.53744
G1 X94.080 Y100.801 E4.60103
G1 X93.918 Y99.518 E4.66555
G1 X93.695 Y98.266 E4.72900
G1 X93.412 Y97.042 E4.79167
G1 X93.059 Y95.806 E4.85580
G1 X92.643 Y94.590 E4.91992
G1 X92.175 Y93.413 E4.98311
G1 X91.637 Y92.240 E5.04750
G1 X91.050 Y91.116 E5.11076
G1 X90.403 Y90.017 E5.17438
G1 X90.377 Y89.975 E5.17685
G1 X89.694 Y88.942 E5.23863
G1 X88.919 Y87.879 E5.30426
G1 X88.429 Y87.098 E5.35026
G1 X88.026 Y86.172 E5.40064
G1 X87.771 Y85.255 E5.44813
G1 X87.678 Y84.412 E5.49044
G1 X87.574 Y83.113 E5.55546
G1 X90.741 Y78.234 E5.84566
G1 X92.261 Y77.683 E5.92632
G0 F9000 X92.376 Y78.067
G1 F1200 X93.191 Y77.870 E5.96815
G1 X93.796 Y77.801 E5.99853
G1 X94.324 Y77.790 E6.02488
G1 X100.816 Y77.791 E6.34876
G1 X101.460 Y77.790 E6.38089
G1 X102.308 Y77.847 E6.42330
G1 X103.239 Y78.032 E6.47065
G1 X104.142 Y78.338 E6.51822
G1 X105.044 Y78.783 E6.56840
G1 X105.840 Y79.324 E6.61641
G1 X106.420 Y79.838 E6.65508
G1 X106.611 Y80.016 E6.66810
G1 X107.215 Y80.725 E6.71457
G1 X107.665 Y81.419 E6.75584
G1 X107.793 Y81.643 E6.76871
G1 X108.158 Y82.423 E6.81167
G1 X108.437 Y83.296 E6.85740
G1 X108.618 Y84.274 E6.90702
G1 X108.655 Y85.100 E6.94827
G1 X108.655 Y85.359 E6.96119
G1 X108.575 Y86.213 E7.00398
G1 X108.412 Y86.993 E7.04374
G1 X108.410 Y87.005 E7.04434
G1 X108.405 Y87.119 E7.05004
G1 X108.416 Y87.225 E7.05535
G1 X108.450 Y87.364 E7.06249
G1 X108.482 Y87.442 E7.06670
G1 X108.520 Y87.508 E7.07050
G1 X109.032 Y88.158 E7.11178
G1 X109.720 Y89.115 E7.17058
G1 X110.322 Y90.138 E7.22980
G1 X110.802 Y91.138 E7.28514
G1 X111.183 Y92.124 E7.33788
G1 X111.507 Y93.213 E7.39456
G1 X111.741 Y94.325 E7.45125
G1 X111.881 Y95.448 E7.50772
G1 X111.924 Y96.475 E7.55900
G1 X111.930 Y96.702 E7.57033
G1 X111.883 Y97.665 E7.61843
G1 X111.737 Y98.881 E7.67953
G1 X111.504 Y99.972 E7.73519
G1 X111.171 Y101.094 E7.79358
G1 X110.762 Y102.127 E7.84901
G1 X110.250 Y103.172 E7.90706
G1 X109.679 Y104.124 E7.96245
G1 X109.002 Y105.069 E8.02044
G1 X108.462 Y105.707 E8.06214
G1 X108.276 Y105.940 E8.07702
G1 X108.196 Y106.070 E8.08463
G1 X108.132 Y106.208 E8.09222
G1 X108.089 Y106.346 E8.09943
G1 X108.055 Y106.528 E8.10867
G1 X108.052 Y106.559 E8.11023
G1 X108.046 Y107.486 E8.15647
G1 X108.046 Y114.102 E8.48655
G1 X108.043 Y114.246 E8.49373
G1 X107.995 Y115.016 E8.53222
G1 X107.833 Y115.948 E8.57942
G1 X107.559 Y116.858 E8.62683
G1 X107.164 Y117.777 E8.67674
G1 X106.736 Y118.509 E8.71904
G1 X106.605 Y118.711 E8.73105
G1 X106.068 Y119.415 E8.77523
G1 X105.407 Y120.099 E8.82268
G1 X104.673 Y120.700 E8.87001
G1 X103.827 Y121.242 E8.92014
G1 X102.961 Y121.656 E8.96803
G1 X102.145 Y121.937 E9.01108
G1 X101.860 Y122.015 E9.02582
G1 X101.048 Y122.180 E9.06716
G1 X100.242 Y122.241 E9.10749
G1 X99.988 Y122.253 E9.12018
G1 X99.050 Y122.200 E9.16705
G1 X98.094 Y122.021 E9.21557
G1 X97.172 Y121.725 E9.26388
G1 X96.245 Y121.291 E9.31495
G1 X95.419 Y120.761 E9.36391
G1 X94.630 Y120.099 E9.41529
G1 X93.971 Y119.372 E9.46425
G1 X93.524 Y118.737 E9.50299
G1 X93.370 Y118.515 E9.51647
G1 X92.996 Y117.790 E9.55717
G1 X92.889 Y117.562 E9.56973
G1 X92.659 Y116.924 E9.60357
G1 X92.576 Y116.698 E9.61558
G1 X92.366 Y115.743 E9.66436
G1 X92.294 Y114.962 E9.70349
G1 X92.229 Y114.159 E9.74369
G1 X92.999 Y112.232 E9.84722
G1 X93.408 Y111.045 E9.90985
G1 X93.789 Y109.724 E9.97844
G1 X94.068 Y108.530 E10.03962
G1 X94.292 Y107.291 E10.10243
G1 X94.473 Y105.915 E10.17167
G1 X94.571 Y104.649 E10.23502
G1 X94.608 Y103.273 E10.30370
G1 X94.576 Y102.051 E10.36468
G1 X94.478 Y100.761 E10.42923
G1 X94.314 Y99.457 E10.49480
G1 X94.090 Y98.203 E10.55835
G1 X93.793 Y96.920 E10.62405
G1 X93.442 Y95.688 E10.68796
G1 X93.021 Y94.458 E10.75282
G1 X92.539 Y93.247 E10.81785
G1 X92.005 Y92.083 E10.88174
G1 X91.399 Y90.922 E10.94708
G1 X90.725 Y89.777 E11.01337
G1 X90.707 Y89.748 E11.01507
G1 X90.028 Y88.721 E11.07649
G1 X89.251 Y87.654 E11.14234
G1 X88.784 Y86.911 E11.18613
G1 X88.404 Y86.038 E11.23363
G1 X88.165 Y85.179 E11.27811
G1 X88.076 Y84.374 E11.31852
G1 X87.983 Y83.216 E11.37648
G1 X91.004 Y78.564 E11.65321
G1 X92.376 Y78.067 E11.72601
G1 F2400 E7.22601
G0 F9000 X93.928 Y82.013
;TYPE:WALL-INNER
G1 F2400 E11.72601
G1 F1200 X94.072 Y81.996 E11.73325
G1 X94.376 Y81.990 E11.74842
G1 X100.822 Y81.991 E12.07001
G1 X101.318 Y81.990 E12.09475
G1 X101.756 Y82.020 E12.11666
G1 X102.154 Y82.099 E12.13690
G1 X102.532 Y82.227 E12.15681
G1 X102.925 Y82.420 E12.17865
G1 X103.252 Y82.643 E12.19840
G1 X103.577 Y82.931 E12.22006
G1 X103.843 Y83.243 E12.24052
G1 X104.066 Y83.587 E12.26097
G1 X104.238 Y83.954 E12.28119
G1 X104.356 Y84.326 E12.30066
G1 X104.435 Y84.751 E12.32223
G1 X104.454 Y85.171 E12.34321
G1 X104.415 Y85.586 E12.36400
G1 X104.277 Y86.246 E12.39764
G1 X104.221 Y86.621 E12.41656
G1 X104.197 Y87.247 E12.44781
G1 X104.265 Y87.934 E12.48225
G1 X104.441 Y88.655 E12.51928
G1 X104.704 Y89.301 E12.55408
G1 X105.040 Y89.878 E12.58739
G1 X105.677 Y90.686 E12.63872
G1 X106.192 Y91.402 E12.68272
G1 X106.612 Y92.116 E12.72405
G1 X106.946 Y92.811 E12.76252
G1 X107.206 Y93.486 E12.79861
G1 X107.431 Y94.239 E12.83782
G1 X107.596 Y95.027 E12.87798
G1 X107.692 Y95.793 E12.91650
G1 X107.726 Y96.608 E12.95719
G1 X107.727 Y96.652 E12.95939
G1 X107.695 Y97.313 E12.99241
G1 X107.589 Y98.195 E13.03673
G1 X107.433 Y98.928 E13.07411
G1 X107.197 Y99.723 E13.11549
G1 X106.917 Y100.429 E13.15338
G1 X106.558 Y101.162 E13.19410
G1 X106.163 Y101.820 E13.23239
G1 X105.686 Y102.486 E13.27326
G1 X105.212 Y103.045 E13.30982
G1 X104.832 Y103.522 E13.34025
G1 X104.487 Y104.083 E13.37311
G1 X104.210 Y104.685 E13.40617
G1 X104.007 Y105.321 E13.43947
G1 X103.887 Y105.969 E13.47235
G1 X103.853 Y106.367 E13.49228
G1 X103.846 Y107.462 E13.54691
G1 X103.846 Y114.043 E13.87524
G1 X103.817 Y114.526 E13.89938
G1 X103.739 Y114.974 E13.92207
G1 X103.605 Y115.420 E13.94530
G1 X103.406 Y115.883 E13.97044
G1 X103.164 Y116.298 E13.99441
G1 X102.879 Y116.671 E14.01783
G1 X102.557 Y117.005 E14.04098
G1 X102.201 Y117.296 E14.06392
G1 X101.782 Y117.564 E14.08873
G1 X101.369 Y117.762 E14.11158
G1 X100.896 Y117.925 E14.13654
G1 X100.467 Y118.012 E14.15838
G1 X99.999 Y118.048 E14.18180
G1 X99.561 Y118.023 E14.20368
G1 X99.127 Y117.941 E14.22572
G1 X98.710 Y117.807 E14.24757
G1 X98.275 Y117.604 E14.27152
G1 X97.917 Y117.374 E14.29275
G1 X97.550 Y117.067 E14.31662
G1 X97.254 Y116.740 E14.33863
G1 X96.981 Y116.352 E14.36229
G1 X96.767 Y115.937 E14.38559
G1 X96.618 Y115.524 E14.40749
G1 X96.524 Y115.095 E14.42941
G1 X96.497 Y114.798 E14.44428
G1 X96.940 Y113.690 E14.50382
G1 X97.416 Y112.305 E14.57688
G1 X97.851 Y110.797 E14.65518
G1 X98.184 Y109.372 E14.72819
G1 X98.443 Y107.936 E14.80099
G1 X98.650 Y106.364 E14.88010
G1 X98.767 Y104.857 E14.95551
G1 X98.807 Y103.366 E15.02992
G1 X98.808 Y103.233 E15.03655
G1 X98.772 Y101.838 E15.10617
G1 X98.658 Y100.334 E15.18142
G1 X98.469 Y98.836 E15.25675
G1 X98.204 Y97.350 E15.33206
G1 X97.864 Y95.879 E15.40738
G1 X97.450 Y94.428 E15.48266
G1 X96.961 Y92.999 E15.55801
G1 X96.404 Y91.598 E15.63323
G1 X95.773 Y90.225 E15.70862
G1 X95.075 Y88.887 E15.78391
G1 X94.316 Y87.597 E15.85858
G1 X93.480 Y86.326 E15.93448
G1 X92.733 Y85.302 E15.99771
G1 X92.508 Y84.944 E16.01881
G1 X92.370 Y84.627 E16.03606
G1 X92.302 Y84.381 E16.04879
G1 X92.293 Y84.293 E16.05321
G1 X93.744 Y82.057 E16.18619
G1 X93.928 Y82.013 E16.19563
G0 F9000 X99.420 Y84.030
G1 F1200 X99.218 Y84.544 E16.22318
G1 X99.148 Y85.092 E16.25074
G1 X99.218 Y85.641 E16.27835
G1 X99.423 Y86.162 E16.30629
G1 X99.770 Y86.625 E16.33515
G1 X100.172 Y86.957 E16.36116
G1 X100.673 Y87.193 E16.38879
G1 X101.218 Y87.296 E16.41647
G1 X101.778 Y87.260 E16.44446
G1 X102.334 Y87.069 E16.47379
G1 X102.786 Y86.768 E16.50088
G1 X103.141 Y86.391 E16.52672
G1 X103.409 Y85.904 E16.55445
G1 X103.537 Y85.398 E16.58049
G1 X103.558 Y85.061 E16.59734
G1 X103.527 Y84.744 E16.61323
G1 X103.409 Y84.281 E16.63707
G1 X103.141 Y83.794 E16.66480
G1 X102.762 Y83.391 E16.69240
G1 X102.295 Y83.095 E16.71998
G1 X101.769 Y82.924 E16.74758
G1 X101.218 Y82.889 E16.77512
G1 X100.663 Y82.994 E16.80330
G1 X100.145 Y83.250 E16.83213
G1 X99.745 Y83.581 E16.85803
G1 X99.420 Y84.030 E16.88568
G0 F9000 X100.267 Y111.911
G1 F1200 X99.714 Y112.016 E16.91377
G1 X99.196 Y112.272 E16.94259
G1 X98.797 Y112.602 E16.96843
G1 X98.471 Y113.050 E16.99607
G1 X98.267 Y113.565 E17.02370
G1 X98.197 Y114.115 E17.05136
G1 X98.267 Y114.664 E17.07898
G1 X98.475 Y115.188 E17.10710
G1 X98.823 Y115.649 E17.13592
G1 X99.223 Y115.979 E17.16179
G1 X99.724 Y116.215 E17.18942
G1 X100.267 Y116.318 E17.21699
G1 X100.827 Y116.282 E17.24499
G1 X101.383 Y116.091 E17.27432
G1 X101.835 Y115.790 E17.30141
G1 X102.190 Y115.413 E17.32725
G1 X102.457 Y114.927 E17.35491
G1 X102.587 Y114.422 E17.38093
G1 X102.608 Y114.085 E17.39777
G1 X102.577 Y113.765 E17.41381
G1 X102.457 Y113.301 E17.43772
G1 X102.190 Y112.816 E17.46535
G1 X101.811 Y112.413 E17.49295
G1 X101.344 Y112.117 E17.52053
G1 X100.818 Y111.946 E17.54812
G1 X100.267 Y111.911 E17.57567
G0 F9000 X100.292 Y112.313
G1 F1200 X99.842 Y112.399 E17.59853
G1 X99.415 Y112.610 E17.62229
G1 X99.091 Y112.879 E17.64330
G1 X98.824 Y113.244 E17.66586
G1 X98.657 Y113.665 E17.68846
G1 X98.600 Y114.115 E17.71109
G1 X98.657 Y114.564 E17.73367
G1 X98.826 Y114.990 E17.75653
G1 X99.114 Y115.370 E17.78032
G1 X99.439 Y115.639 E17.80137
G1 X99.848 Y115.831 E17.82391
G1 X100.292 Y115.916 E17.84646
G1 X100.748 Y115.887 E17.86926
G1 X101.204 Y115.729 E17.89333
G1 X101.576 Y115.483 E17.91558
G1 X101.864 Y115.176 E17.93659
G1 X102.082 Y114.779 E17.95918
G1 X102.190 Y114.359 E17.98082
G1 X102.207 Y114.092 E17.99416
G1 X102.182 Y113.835 E18.00705
G1 X102.082 Y113.450 E18.02689
G1 X101.864 Y113.053 E18.04949
G1 X101.554 Y112.724 E18.07204
G1 X101.172 Y112.482 E18.09460
G1 X100.743 Y112.342 E18.11711
G1 X100.292 Y112.313 E18.13966
G0 F9000 X97.464 Y110.696
G1 F1200 X97.792 Y109.291 E18.21164
G1 X98.048 Y107.875 E18.28343
G1 X98.252 Y106.322 E18.36158
G1 X98.367 Y104.836 E18.43594
G1 X98.407 Y103.359 E18.50965
G1 X98.408 Y103.236 E18.51579
G1 X98.372 Y101.859 E18.58451
G1 X98.260 Y100.374 E18.65881
G1 X98.073 Y98.897 E18.73308
G1 X97.812 Y97.431 E18.80737
G1 X97.476 Y95.979 E18.88173
G1 X97.068 Y94.548 E18.95596
G1 X96.586 Y93.138 E19.03031
G1 X96.036 Y91.756 E19.10451
G1 X95.414 Y90.401 E19.17890
G1 X94.725 Y89.081 E19.25318
G1 X93.973 Y87.804 E19.32712
G1 X93.151 Y86.554 E19.40176
G1 X92.399 Y85.522 E19.46546
G1 X92.153 Y85.131 E19.48851
G1 X91.994 Y84.766 E19.50837
G1 X91.907 Y84.454 E19.52453
G1 X91.879 Y84.194 E19.53758
G1 X93.494 Y81.706 E19.68556
G1 X93.855 Y81.619 E19.70409
G1 X94.051 Y81.596 E19.71394
G1 X94.368 Y81.590 E19.72975
G1 X100.822 Y81.591 E20.05175
G1 X101.330 Y81.590 E20.07709
G1 X101.807 Y81.622 E20.10094
G1 X102.263 Y81.713 E20.12414
G1 X102.685 Y81.856 E20.14637
G1 X103.127 Y82.074 E20.17096
G1 X103.499 Y82.327 E20.19340
G1 X103.861 Y82.648 E20.21754
G1 X104.160 Y82.999 E20.24054
G1 X104.419 Y83.399 E20.26432
G1 X104.611 Y83.810 E20.28695
G1 X104.745 Y84.228 E20.30885
G1 X104.834 Y84.710 E20.33330
G1 X104.855 Y85.186 E20.35707
G1 X104.812 Y85.644 E20.38002
G1 X104.671 Y86.317 E20.41433
G1 X104.620 Y86.659 E20.43158
G1 X104.598 Y87.235 E20.46034
G1 X104.660 Y87.866 E20.49197
G1 X104.823 Y88.531 E20.52613
G1 X105.064 Y89.124 E20.55806
G1 X105.372 Y89.652 E20.58856
G1 X105.994 Y90.441 E20.63868
G1 X106.530 Y91.187 E20.68451
G1 X106.966 Y91.928 E20.72741
G1 X107.311 Y92.647 E20.76719
G1 X107.585 Y93.357 E20.80516
G1 X107.821 Y94.148 E20.84634
G1 X107.991 Y94.955 E20.88749
G1 X108.091 Y95.764 E20.92816
G1 X108.127 Y96.598 E20.96980
G1 X108.128 Y96.662 E20.97300
G1 X108.094 Y97.338 E21.00677
G1 X107.984 Y98.258 E21.05299
G1 X107.818 Y99.037 E21.09273
G1 X107.577 Y99.848 E21.13494
G1 X107.284 Y100.589 E21.17469
G1 X106.908 Y101.356 E21.21731
G1 X106.499 Y102.038 E21.25698
G1 X106.005 Y102.728 E21.29932
G1 X105.521 Y103.299 E21.33666
G1 X105.160 Y103.753 E21.36560
G1 X104.840 Y104.272 E21.39602
G1 X104.584 Y104.830 E21.42665
G1 X104.396 Y105.419 E21.45750
G1 X104.284 Y106.023 E21.48814
G1 X104.253 Y106.385 E21.50627
G1 X104.246 Y107.463 E21.56005
G1 X104.246 Y114.073 E21.88983
G1 X104.215 Y114.573 E21.91482
G1 X104.129 Y115.067 E21.93984
G1 X103.980 Y115.562 E21.96563
G1 X103.766 Y116.059 E21.99262
G1 X103.498 Y116.518 E22.01914
G1 X103.180 Y116.936 E22.04534
