;Generated from 2.1-30mmfanmount.stl 48aa6a40011d05eefe0f43ef91c8394a37abc50e
;Generated with Cura_SteamEngine 15.04
M140 S55.0
M109 T0 S210.0
T0
M190 S55.0

;Basic settings: Layer height: 0.15 Walls: 1.2 Fill: 50
;Print time: ?print_time?
;Filament used: ?filament_amount?m ?filament_weight?g
;Filament cost: ?filament_cost?
;M190 S55 ;Uncomment to add your own bed temperature line
;M109 S210 ;Uncomment to add your own temperature line
G21        ;metric values
G90        ;absolute positioning
M82        ;set extruder to absolute mode
M107       ;start with the fan off
G28 X0 Y0  ;move X/Y to min endstops
G28 Z0     ;move Z to min endstops
G1 Z5.0 F9000 ;move the platform down 15mm
G92 E0                  ;zero the extruded length
G1 F200 E3              ;extrude 3mm of feed stock
G92 E0                  ;zero the extruded length again
G1 F9000
;Put printing message on LCD screen
M117 Printing...

;Layer count: 97
;LAYER:0
M107
G0 F9000 X81.257 Y80.901 Z0.300
G0 X83.816 Y80.901
;TYPE:SKIRT
G1 F1200 X83.881 Y80.836 E0.00459
G1 X85.040 Y79.676 E0.08640
G1 X85.706 Y79.164 E0.12831
G1 X86.681 Y78.760 E0.18096
G1 X87.514 Y78.651 E0.22287
G1 X102.375 Y78.651 E0.96429
G1 X103.354 Y77.672 E1.03336
G1 X104.021 Y77.162 E1.07525
G1 X104.992 Y76.760 E1.12768
G1 X105.825 Y76.651 E1.16960
G1 X108.360 Y76.651 E1.29607
G1 X109.193 Y76.760 E1.33798
G1 X110.196 Y77.175 E1.39214
G1 X110.883 Y77.724 E1.43601
G1 X111.810 Y78.651 E1.50142
G1 X113.883 Y78.651 E1.60484
G1 X114.680 Y78.755 E1.64494
G1 X115.617 Y79.146 E1.69559
G1 X116.245 Y79.630 E1.73515
G1 X116.534 Y79.916 E1.75543
G1 X118.743 Y82.126 E1.91132
G1 X118.743 Y113.575 E3.48032
G1 X116.242 Y116.076 E3.65678
G1 X115.609 Y116.559 E3.69650
G1 X114.679 Y116.946 E3.74676
G1 X113.880 Y117.050 E3.78696
G1 X111.810 Y117.050 E3.89023
G1 X110.831 Y118.029 E3.95930
G1 X110.164 Y118.539 E4.00119
G1 X109.193 Y118.941 E4.05362
G1 X108.360 Y119.050 E4.09554
G1 X105.825 Y119.050 E4.22201
G1 X104.992 Y118.941 E4.26392
G1 X103.989 Y118.526 E4.31808
G1 X103.302 Y117.977 E4.36195
G1 X102.873 Y117.548 E4.39222
G1 X97.775 Y121.604 E4.71724
G1 X97.037 Y122.123 E4.76225
G1 X96.155 Y122.594 E4.81213
G1 X95.205 Y122.963 E4.86298
G1 X94.235 Y123.208 E4.91289
G1 X93.250 Y123.335 E4.96244
G1 X92.230 Y123.345 E5.01333
G1 X91.231 Y123.228 E5.06351
G1 X90.241 Y122.990 E5.11431
G1 X89.545 Y122.728 E5.15141
G1 X89.311 Y122.645 E5.16380
G1 X88.397 Y122.166 E5.21528
G1 X87.574 Y121.601 E5.26509
G1 X86.895 Y121.000 E5.31032
G1 X82.666 Y116.774 E5.60860
G1 X82.121 Y116.108 E5.65153
G1 X81.642 Y115.212 E5.70222
G1 X81.342 Y114.237 E5.75311
G1 X81.257 Y113.377 E5.79623
G1 X81.257 Y80.901 E7.41646
G1 X83.816 Y80.901 E7.54413
G1 F2400 E3.04413
G0 F9000 X87.807 Y83.262
;TYPE:WALL-INNER
G1 F2400 E7.54413
G1 F1200 X87.288 Y83.373 E7.57061
G1 X87.805 Y82.851 E7.60726
G1 X104.115 Y82.851 E8.42097
G1 X106.115 Y80.851 E8.56208
G1 X108.068 Y80.851 E8.65952
G1 X110.070 Y82.851 E8.80070
G1 X113.528 Y82.851 E8.97322
G1 X113.570 Y82.893 E8.97618
G1 X114.543 Y83.865 E9.04480
G1 X114.543 Y85.005 E9.10167
G1 X114.474 Y84.792 E9.11284
G1 X114.201 Y84.319 E9.14009
G1 X113.836 Y83.914 E9.16729
G1 X113.396 Y83.594 E9.19443
G1 X112.899 Y83.373 E9.22157
G1 X112.363 Y83.258 E9.24892
G1 X111.806 Y83.262 E9.27671
G1 X111.287 Y83.373 E9.30319
G1 X110.789 Y83.594 E9.33037
G1 X110.348 Y83.915 E9.35758
G1 X109.985 Y84.319 E9.38468
G1 X109.711 Y84.791 E9.41191
G1 X109.543 Y85.311 E9.43917
G1 X109.487 Y85.857 E9.46656
G1 X109.551 Y86.416 E9.49463
G1 X109.587 Y86.525 E9.50035
G1 X109.043 Y86.105 E9.53464
G1 X108.534 Y85.749 E9.56563
G1 X108.010 Y85.414 E9.59666
G1 X107.541 Y85.142 E9.62371
G1 X106.976 Y84.841 E9.65565
G1 X106.394 Y84.563 E9.68782
G1 X105.795 Y84.309 E9.72028
G1 X105.213 Y84.088 E9.75134
G1 X104.621 Y83.896 E9.78239
G1 X104.027 Y83.728 E9.81319
G1 X103.017 Y83.508 E9.86476
G1 X102.008 Y83.352 E9.91570
G1 X101.182 Y83.282 E9.95705
G1 X100.349 Y83.251 E9.99864
G1 X99.576 Y83.279 E10.03723
G1 X98.813 Y83.339 E10.07542
G1 X98.050 Y83.441 E10.11382
G1 X97.294 Y83.581 E10.15218
G1 X96.546 Y83.761 E10.19056
G1 X96.016 Y83.919 E10.21815
G1 X95.224 Y84.186 E10.25985
G1 X94.465 Y84.492 E10.30068
G1 X93.717 Y84.844 E10.34192
G1 X93.135 Y85.158 E10.37492
G1 X92.352 Y85.630 E10.42053
G1 X91.715 Y86.068 E10.45910
G1 X91.105 Y86.537 E10.49749
G1 X90.520 Y87.037 E10.53588
G1 X90.258 Y87.286 E10.55391
G1 X90.475 Y86.910 E10.57557
G1 X90.643 Y86.394 E10.60264
G1 X90.700 Y85.845 E10.63018
G1 X90.635 Y85.286 E10.65826
G1 X90.475 Y84.792 E10.68416
G1 X90.202 Y84.319 E10.71141
G1 X89.837 Y83.914 E10.73861
G1 X89.397 Y83.594 E10.76575
G1 X88.900 Y83.373 E10.79289
G1 X88.364 Y83.258 E10.82024
G1 X87.807 Y83.262 E10.84803
G0 F9000 X85.555 Y85.101
G1 F1200 X85.639 Y85.017 E10.85396
G1 X85.544 Y85.311 E10.86937
G1 X85.488 Y85.857 E10.89675
G1 X85.552 Y86.416 E10.92482
G1 X85.713 Y86.911 E10.95079
G1 X85.985 Y87.382 E10.97793
G1 X86.348 Y87.787 E11.00506
G1 X86.792 Y88.110 E11.03245
G1 X87.289 Y88.329 E11.05955
G1 X87.823 Y88.444 E11.08680
G1 X88.380 Y88.440 E11.11459
G1 X88.899 Y88.329 E11.14107
G1 X89.396 Y88.109 E11.16819
G1 X89.562 Y87.988 E11.17844
G1 X88.934 Y88.710 E11.22618
G1 X88.466 Y89.322 E11.26461
G1 X88.031 Y89.959 E11.30310
G1 X87.633 Y90.616 E11.34142
G1 X87.268 Y91.294 E11.37983
G1 X86.940 Y91.990 E11.41822
G1 X86.650 Y92.703 E11.45662
G1 X86.397 Y93.428 E11.49493
G1 X86.181 Y94.167 E11.53334
G1 X86.006 Y94.917 E11.57177
G1 X85.871 Y95.674 E11.61013
G1 X85.775 Y96.437 E11.64850
G1 X85.736 Y96.986 E11.67595
G1 X85.707 Y97.968 E11.72497
G1 X85.735 Y98.742 E11.76361
G1 X85.802 Y99.510 E11.80207
G1 X85.909 Y100.272 E11.84046
G1 X86.057 Y101.025 E11.87874
G1 X86.243 Y101.772 E11.91715
G1 X86.469 Y102.507 E11.95551
G1 X86.735 Y103.231 E11.99400
G1 X87.039 Y103.938 E12.03239
G1 X87.379 Y104.628 E12.07077
G1 X87.756 Y105.300 E12.10921
G1 X88.168 Y105.950 E12.14760
G1 X88.612 Y106.577 E12.18593
G1 X89.089 Y107.181 E12.22433
G1 X89.544 Y107.700 E12.25876
G1 X89.397 Y107.593 E12.26784
G1 X88.900 Y107.372 E12.29497
G1 X88.364 Y107.257 E12.32232
G1 X87.807 Y107.261 E12.35011
G1 X87.288 Y107.372 E12.37659
G1 X86.790 Y107.593 E12.40377
G1 X86.349 Y107.914 E12.43098
G1 X85.986 Y108.318 E12.45808
G1 X85.712 Y108.790 E12.48531
G1 X85.544 Y109.310 E12.51257
G1 X85.488 Y109.856 E12.53996
G1 X85.552 Y110.415 E12.56803
G1 X85.713 Y110.910 E12.59400
G1 X85.985 Y111.381 E12.62113
G1 X86.348 Y111.786 E12.64826
G1 X86.792 Y112.109 E12.67566
G1 X87.289 Y112.328 E12.70275
G1 X87.823 Y112.443 E12.73001
G1 X88.380 Y112.439 E12.75779
G1 X88.899 Y112.328 E12.78427
G1 X89.396 Y112.108 E12.81139
G1 X89.838 Y111.787 E12.83864
G1 X90.203 Y111.381 E12.86588
G1 X90.475 Y110.909 E12.89306
G1 X90.643 Y110.393 E12.92013
G1 X90.700 Y109.844 E12.94767
G1 X90.635 Y109.285 E12.97575
G1 X90.475 Y108.791 E13.00165
G1 X90.258 Y108.415 E13.02331
G1 X91.197 Y109.237 E13.08557
G1 X91.847 Y109.727 E13.12618
G1 X92.524 Y110.181 E13.16685
G1 X93.089 Y110.515 E13.19959
G1 X93.894 Y110.946 E13.24515
G1 X94.597 Y111.268 E13.28373
G1 X95.310 Y111.552 E13.32202
G1 X96.041 Y111.799 E13.36051
G1 X96.783 Y112.005 E13.39893
G1 X97.534 Y112.173 E13.43732
G1 X98.293 Y112.301 E13.47573
G1 X99.058 Y112.386 E13.51413
G1 X99.824 Y112.435 E13.55242
G1 X100.595 Y112.441 E13.59089
G1 X101.364 Y112.408 E13.62929
G1 X101.945 Y112.352 E13.65841
G1 X102.737 Y112.245 E13.69828
G1 X103.463 Y112.111 E13.73511
G1 X104.027 Y111.976 E13.76405
G1 X104.581 Y111.819 E13.79277
G1 X105.191 Y111.622 E13.82475
G1 X105.793 Y111.398 E13.85680
G1 X106.365 Y111.158 E13.88775
G1 X106.929 Y110.894 E13.91881
G1 X107.479 Y110.606 E13.94979
G1 X108.019 Y110.295 E13.98088
G1 X108.544 Y109.959 E14.01198
G1 X109.053 Y109.600 E14.04305
G1 X109.545 Y109.222 E14.07400
G1 X109.581 Y109.191 E14.07637
G1 X109.543 Y109.310 E14.08261
G1 X109.487 Y109.856 E14.10999
G1 X109.551 Y110.415 E14.13806
G1 X109.712 Y110.910 E14.16403
G1 X109.984 Y111.381 E14.19116
G1 X110.347 Y111.786 E14.21830
G1 X110.791 Y112.109 E14.24569
G1 X111.288 Y112.328 E14.27279
G1 X111.822 Y112.443 E14.30004
G1 X112.379 Y112.439 E14.32783
G1 X112.898 Y112.328 E14.35431
G1 X113.395 Y112.108 E14.38142
G1 X113.837 Y111.787 E14.40868
G1 X114.202 Y111.381 E14.43591
G1 X114.474 Y110.909 E14.46309
G1 X114.543 Y110.697 E14.47422
G1 X114.543 Y111.836 E14.53104
G1 X113.529 Y112.850 E14.60258
G1 X110.070 Y112.850 E14.77515
G1 X108.070 Y114.850 E14.91626
G1 X106.117 Y114.850 E15.01370
G1 X104.115 Y112.850 E15.15488
G1 X102.032 Y112.850 E15.25880
G1 X95.254 Y118.241 E15.69088
G1 X94.827 Y118.542 E15.71694
G1 X94.399 Y118.771 E15.74116
G1 X93.923 Y118.956 E15.76664
G1 X93.455 Y119.074 E15.79072
G1 X92.961 Y119.138 E15.81557
G1 X92.452 Y119.142 E15.84096
G1 X91.969 Y119.086 E15.86522
G1 X91.478 Y118.968 E15.89041
G1 X91.000 Y118.788 E15.91590
G1 X90.564 Y118.560 E15.94044
G1 X90.168 Y118.287 E15.96444
G1 X89.768 Y117.934 E15.99106
G1 X85.784 Y113.952 E16.27208
G1 X85.629 Y113.762 E16.28431
G1 X85.538 Y113.592 E16.29393
G1 X85.480 Y113.404 E16.30375
G1 X85.457 Y113.172 E16.31538
G1 X85.457 Y85.101 E17.71585
G1 X85.555 Y85.101 E17.72073
G0 F9000 X87.412 Y83.757
G0 X89.195 Y83.944
G0 X90.241 Y85.372
G0 X100.349 Y83.652
G0 X105.080 Y84.467
G0 X108.807 Y86.428
G0 X111.488 Y88.372
G1 F1200 X111.822 Y88.444 E17.73778
G1 X112.379 Y88.440 E17.76557
G1 X112.898 Y88.329 E17.79205
G1 X113.395 Y88.109 E17.81917
G1 X113.837 Y87.788 E17.84642
G1 X114.202 Y87.382 E17.87366
G1 X114.474 Y86.910 E17.90083
G1 X114.543 Y86.698 E17.91196
G1 X114.543 Y94.230 E18.28773
G1 X114.357 Y93.566 E18.32213
G1 X114.161 Y92.977 E18.35310
G1 X113.941 Y92.398 E18.38400
G1 X113.697 Y91.827 E18.41498
G1 X113.427 Y91.267 E18.44600
G1 X113.136 Y90.720 E18.47691
G1 X112.821 Y90.185 E18.50788
G1 X112.482 Y89.663 E18.53894
G1 X112.121 Y89.157 E18.56995
G1 X111.739 Y88.668 E18.60091
G1 X111.488 Y88.372 E18.62027
G0 F9000 X114.140 Y94.265
G0 X114.595 Y98.455
G0 X114.533 Y101.544
G1 F1200 X114.543 Y101.503 E18.62237
G1 X114.543 Y109.004 E18.99660
G1 X114.474 Y108.791 E19.00777
G1 X114.201 Y108.318 E19.03502
G1 X113.836 Y107.913 E19.06222
G1 X113.396 Y107.593 E19.08936
G1 X112.899 Y107.372 E19.11650
G1 X112.363 Y107.257 E19.14385
G1 X111.806 Y107.261 E19.17164
G1 X111.482 Y107.330 E19.18816
G1 X112.115 Y106.540 E19.23867
G1 X112.474 Y106.035 E19.26958
G1 X112.812 Y105.515 E19.30052
G1 X113.128 Y104.982 E19.33143
G1 X113.421 Y104.436 E19.36235
G1 X113.693 Y103.878 E19.39332
G1 X113.940 Y103.307 E19.42436
G1 X114.162 Y102.728 E19.45529
G1 X114.360 Y102.141 E19.48620
G1 X114.533 Y101.544 E19.51721
G0 F9000 X111.424 Y106.779
G0 X108.321 Y109.626
G0 X104.465 Y111.436
G0 X99.839 Y112.034
G0 X95.330 Y113.684
G1 F1200 X95.024 Y113.208 E19.54544
G1 X94.632 Y112.797 E19.57378
G1 X94.172 Y112.471 E19.60191
G1 X93.657 Y112.234 E19.63019
G1 X93.104 Y112.100 E19.65858
G1 X92.536 Y112.075 E19.68694
G1 X91.971 Y112.155 E19.71541
G1 X91.405 Y112.362 E19.74548
G1 X90.953 Y112.622 E19.77149
G1 X90.524 Y112.994 E19.79982
G1 X90.174 Y113.439 E19.82807
G1 X89.915 Y113.943 E19.85634
G1 X89.754 Y114.486 E19.88460
G1 X89.701 Y115.054 E19.91306
G1 X89.761 Y115.641 E19.94249
G1 X89.933 Y116.193 E19.97134
G1 X90.174 Y116.662 E19.99765
G1 X90.525 Y117.107 E20.02592
G1 X90.952 Y117.477 E20.05411
G1 X91.442 Y117.761 E20.08237
G1 X91.979 Y117.946 E20.11070
G1 X92.542 Y118.027 E20.13908
G1 X93.119 Y117.997 E20.16791
G1 X93.657 Y117.866 E20.19553
G1 X94.172 Y117.631 E20.22377
G1 X94.633 Y117.302 E20.25203
G1 X95.024 Y116.892 E20.28029
G1 X95.330 Y116.415 E20.30857
G1 X95.540 Y115.889 E20.33682
G1 X95.643 Y115.352 E20.36410
G1 X95.648 Y115.133 E20.37503
G1 X95.645 Y114.750 E20.39414
G1 X95.530 Y114.182 E20.42305
G1 X95.330 Y113.684 E20.44983
G0 F9000 X94.973 Y113.869
G1 F1200 X94.708 Y113.457 E20.47427
G1 X94.369 Y113.101 E20.49879
G1 X93.971 Y112.818 E20.52316
G1 X93.526 Y112.613 E20.54760
G1 X93.048 Y112.498 E20.57213
G1 X92.555 Y112.476 E20.59675
G1 X92.068 Y112.545 E20.62129
G1 X91.575 Y112.725 E20.64747
G1 X91.186 Y112.950 E20.66989
G1 X90.815 Y113.271 E20.69437
G1 X90.512 Y113.656 E20.71881
G1 X90.288 Y114.092 E20.74326
G1 X90.149 Y114.562 E20.76772
G1 X90.103 Y115.053 E20.79232
G1 X90.155 Y115.561 E20.81780
G1 X90.304 Y116.041 E20.84287
G1 X90.512 Y116.445 E20.86554
G1 X90.815 Y116.829 E20.88995
G1 X91.185 Y117.150 E20.91438
G1 X91.609 Y117.395 E20.93881
G1 X92.073 Y117.556 E20.96332
G1 X92.560 Y117.625 E20.98786
G1 X93.061 Y117.599 E21.01289
G1 X93.525 Y117.486 E21.03671
G1 X93.971 Y117.283 E21.06116
G1 X94.370 Y116.998 E21.08562
G1 X94.708 Y116.643 E21.11008
G1 X94.973 Y116.231 E21.13452
G1 X95.155 Y115.776 E21.15896
G1 X95.244 Y115.309 E21.18268
G1 X95.248 Y115.129 E21.19166
G1 X95.246 Y114.791 E21.20853
G1 X95.145 Y114.298 E21.23363
G1 X94.973 Y113.869 E21.25669
G0 F9000 X96.158 Y111.417
G1 F1200 X96.880 Y111.617 E21.29407
G1 X97.611 Y111.780 E21.33144
G1 X98.349 Y111.904 E21.36877
G1 X99.093 Y111.988 E21.40613
G1 X99.839 Y112.035 E21.44342
G1 X100.588 Y112.041 E21.48079
G1 X101.336 Y112.009 E21.51814
G1 X101.899 Y111.954 E21.54636
G1 X102.674 Y111.850 E21.58537
G1 X103.380 Y111.719 E21.62120
G1 X103.926 Y111.589 E21.64920
G1 X104.465 Y111.436 E21.67715
G1 X105.060 Y111.244 E21.70834
G1 X105.646 Y111.026 E21.73954
G1 X106.203 Y110.793 E21.76966
G1 X106.752 Y110.536 E21.79990
G1 X107.286 Y110.256 E21.82998
G1 X107.811 Y109.953 E21.86022
G1 X108.321 Y109.626 E21.89045
G1 X108.816 Y109.278 E21.92064
G1 X109.294 Y108.910 E21.95073
G1 X109.755 Y108.521 E21.98083
G1 X110.200 Y108.113 E22.01095
G1 X110.627 Y107.685 E22.04111
G1 X111.034 Y107.241 E22.07116
G1 X111.425 Y106.779 E22.10135
G1 X111.794 Y106.301 E22.13148
G1 X112.143 Y105.810 E22.16153
G1 X112.472 Y105.304 E22.19165
G1 X112.780 Y104.785 E22.22175
G1 X113.065 Y104.253 E22.25186
G1 X113.329 Y103.711 E22.28194
G1 X113.570 Y103.156 E22.31213
G1 X113.786 Y102.592 E22.34226
G1 X113.978 Y102.021 E22.37231
G1 X114.146 Y101.441 E22.40244
G1 X114.288 Y100.853 E22.43262
G1 X114.404 Y100.259 E22.46281
G1 X114.494 Y99.663 E22.49289
G1 X114.559 Y99.060 E22.52314
G1 X114.596 Y98.456 E22.55333
G1 X114.607 Y97.852 E22.58347
G1 X114.594 Y97.248 E22.61361
G1 X114.555 Y96.644 E22.64381
G1 X114.488 Y96.043 E22.67398
G1 X114.397 Y95.446 E22.70411
G1 X114.281 Y94.853 E22.73425
G1 X114.140 Y94.264 E22.76447
G1 X113.974 Y93.684 E22.79457
G1 X113.784 Y93.112 E22.82464
G1 X113.570 Y92.547 E22.85478
G1 X113.332 Y91.992 E22.88491
G1 X113.070 Y91.448 E22.91503
G1 X112.787 Y90.916 E22.94509
G1 X112.480 Y90.395 E22.97526
G1 X112.151 Y89.888 E23.00542
G1 X111.800 Y89.396 E23.03557
G1 X111.428 Y88.920 E23.06571
G1 X111.037 Y88.459 E23.09587
G1 X110.626 Y88.015 E23.12605
G1 X110.196 Y87.591 E23.15618
G1 X109.750 Y87.183 E23.18634
G1 X109.286 Y86.796 E23.21648
G1 X108.807 Y86.428 E23.24662
G1 X108.312 Y86.081 E23.27678
G1 X107.802 Y85.755 E23.30697
G1 X107.346 Y85.491 E23.33326
G1 X106.795 Y85.198 E23.36440
G1 X106.230 Y84.928 E23.39564
G1 X105.646 Y84.680 E23.42729
G1 X105.080 Y84.466 E23.45748
G1 X104.505 Y84.279 E23.48765
G1 X103.925 Y84.115 E23.51772
G1 X103.471 Y84.005 E23.54102
G1 X102.944 Y83.901 E23.56782
G1 X101.962 Y83.750 E23.61739
G1 X101.158 Y83.681 E23.65765
G1 X100.349 Y83.652 E23.69804
G1 X99.599 Y83.679 E23.73548
G1 X98.855 Y83.737 E23.77271
G1 X98.113 Y83.836 E23.81006
G1 X97.377 Y83.972 E23.84740
G1 X96.650 Y84.147 E23.88470
G1 X95.933 Y84.361 E23.92203
G1 X95.365 Y84.560 E23.95206
G1 X94.625 Y84.859 E23.99188
G1 X93.898 Y85.201 E24.03196
G1 X93.333 Y85.506 E24.06399
G1 X92.569 Y85.966 E24.10849
G1 X91.950 Y86.392 E24.14597
G1 X91.357 Y86.848 E24.18329
G1 X90.788 Y87.334 E24.22063
G1 X90.246 Y87.850 E24.25796
G1 X89.731 Y88.392 E24.29526
G1 X89.245 Y88.962 E24.33263
G1 X88.790 Y89.556 E24.36996
G1 X88.367 Y90.175 E24.40737
G1 X87.980 Y90.814 E24.44464
G1 X87.625 Y91.474 E24.48203
G1 X87.306 Y92.151 E24.51936
G1 X87.024 Y92.844 E24.55669
G1 X86.778 Y93.550 E24.59399
G1 X86.568 Y94.269 E24.63136
G1 X86.398 Y94.998 E24.66871
G1 X86.267 Y95.734 E24.70600
G1 X86.174 Y96.476 E24.74331
G1 X86.136 Y97.006 E24.76982
G1 X86.108 Y97.967 E24.81779
G1 X86.134 Y98.718 E24.85528
G1 X86.200 Y99.464 E24.89264
