;FLAVOR:Marlin
;TIME:7371
;Filament used: 7.2392m
;Layer height: 0.2
;Generated with Cura_SteamEngine 2.7.0
M190 S60
M104 S220
M109 S220
G21 ;metric values
G90 ;absolute positioning
M82 ;set extruder to absolute mode
M107 ;start with the fan off
G92 E0 ;zero the extruded length
G1 F200 E3 ;extrude 3mm of feed stock
G92 E0 ;zero the extruded length again
G1 F9000
M301 P26.92 I2.54 D71.46 ;set PID tuning for E0
M117 Printing...
;LAYER_COUNT:116
;LAYER:0
M107
M204 S5000
G0 F2400 X54.601 Y74.802 Z0.3
M204 S200
;TYPE:SKIRT
G1 F1200 X55.401 Y74.214 E0.04941
G1 X55.936 Y73.872 E0.08101
G1 X56.87 Y73.36 E0.13402
G1 X57.566 Y73.048 E0.17197
G1 X58.942 Y72.558 E0.24466
G1 X59.538 Y72.388 E0.27551
G1 X59.843 Y72.333 E0.29093
G1 X61.411 Y72.099 E0.36983
G1 X62.179 Y72.046 E0.40814
G1 X63.136 Y72.058 E0.45577
G1 X63.739 Y72.104 E0.48586
G1 X64.764 Y72.247 E0.53737
G1 X65.269 Y72.346 E0.56298
G1 X71.989 Y74.034 E0.90779
G1 X74.593 Y74.563 E1.04002
G1 X79.921 Y75.414 E1.30854
G1 X85.276 Y75.961 E1.57642
G1 X90.65 Y76.206 E1.84413
G1 X96.044 Y76.144 E2.11259
G1 X101.413 Y75.779 E2.38039
G1 X106.751 Y75.111 E2.64811
G1 X112.091 Y74.134 E2.91827
G1 X114.659 Y73.551 E3.04932
G1 X119.322 Y72.308 E3.28948
G1 X119.717 Y72.22 E3.30962
G1 X120.716 Y72.042 E3.36012
G1 X121.324 Y71.974 E3.39057
G1 X122.33 Y71.925 E3.44069
G1 X122.924 Y71.933 E3.47025
G1 X123.905 Y72.007 E3.51921
G1 X124.516 Y72.092 E3.54991
G1 X125.531 Y72.302 E3.60149
G1 X126.273 Y72.52 E3.63998
G1 X127.7 Y73.066 E3.71602
G1 X128.406 Y73.405 E3.75499
G1 X129.34 Y73.951 E3.80883
G1 X129.854 Y74.297 E3.83967
G1 X130.6 Y74.874 E3.8866
G1 X131.051 Y75.27 E3.91647
G1 X131.804 Y76.02 E3.96936
G1 X132.217 Y76.489 E4.00046
G1 X132.834 Y77.289 E4.05074
G1 X133.256 Y77.939 E4.0893
G1 X133.993 Y79.304 E4.1665
G1 X134.351 Y80.154 E4.2124
G1 X134.8 Y81.592 E4.28737
G1 X134.969 Y82.336 E4.32534
G1 X135.121 Y83.389 E4.37829
G1 X135.17 Y84.074 E4.41246
G1 X135.17 Y107.83 E5.59469
G1 X135.13 Y108.448 E5.62551
G1 X135.011 Y109.055 E5.65629
G1 X134.814 Y109.642 E5.68711
G1 X134.544 Y110.199 E5.71791
G1 X134.201 Y110.72 E5.74895
G1 X133.908 Y111.108 E5.77315
G1 X133.504 Y111.577 E5.80396
G1 X133.043 Y111.99 E5.83476
G1 X132.532 Y112.34 E5.86558
G1 X131.749 Y112.714 E5.90876
G1 X131.59 Y112.773 E5.9172
G1 X130.997 Y112.951 E5.94802
G1 X130.386 Y113.05 E5.97882
G1 X129.922 Y113.073 E6.00194
G1 X115.281 Y113.074 E6.73056
G1 X114.664 Y113.034 E6.76132
G1 X114.248 Y112.961 E6.78234
G1 X112.325 Y112.537 E6.88034
G1 X106.963 Y111.557 E7.1516
G1 X101.622 Y110.89 E7.41947
G1 X96.255 Y110.527 E7.68717
G1 X90.86 Y110.466 E7.95567
G1 X85.486 Y110.711 E8.22339
G1 X80.134 Y111.259 E8.49112
G1 X74.797 Y112.112 E8.76009
G1 X70.663 Y112.976 E8.97027
G1 X70.05 Y113.063 E9.00108
G1 X69.683 Y113.077 E9.01936
G1 X55.149 Y113.08 E9.74265
G1 X54.531 Y113.04 E9.77347
G1 X53.924 Y112.921 E9.80425
G1 X53.337 Y112.725 E9.83505
G1 X52.943 Y112.543 E9.85665
G1 X52.547 Y112.338 E9.87884
G1 X52.017 Y112.019 E9.90962
G1 X51.532 Y111.633 E9.94047
G1 X51.101 Y111.189 E9.97127
G1 X50.731 Y110.693 E10.00206
G1 X50.473 Y110.245 E10.02779
G1 X50.348 Y109.998 E10.04156
G1 X50.104 Y109.428 E10.07242
G1 X49.937 Y108.832 E10.10322
G1 X49.847 Y108.22 E10.13401
G1 X49.831 Y107.835 E10.15318
G1 X49.815 Y84.435 E11.3177
G1 X49.861 Y83.768 E11.35097
G1 X50.085 Y82.165 E11.43152
G1 X50.264 Y81.379 E11.47164
G1 X50.566 Y80.427 E11.52134
G1 X50.785 Y79.861 E11.55154
G1 X51.221 Y78.92 E11.60315
G1 X51.517 Y78.376 E11.63397
G1 X52.037 Y77.552 E11.68246
G1 X52.392 Y77.062 E11.71257
G1 X53.044 Y76.271 E11.76359
G1 X53.458 Y75.828 E11.79376
G1 X54.154 Y75.173 E11.84133
G1 X54.601 Y74.802 E11.87023
M204 S5000
G0 F2400 X54.837 Y75.123
M204 S200
G1 F1200 X55.637 Y74.535 E11.91964
G1 X56.127 Y74.222 E11.94858
G1 X57.061 Y73.71 E12.00159
G1 X57.7 Y73.424 E12.03643
G1 X59.076 Y72.934 E12.10912
G1 X59.902 Y72.727 E12.15149
G1 X61.47 Y72.493 E12.23039
G1 X62.174 Y72.445 E12.26551
G1 X63.131 Y72.457 E12.31314
G1 X63.684 Y72.499 E12.34073
G1 X64.709 Y72.642 E12.39224
G1 X65.172 Y72.732 E12.41571
G1 X71.92 Y74.427 E12.76196
G1 X74.524 Y74.956 E12.8942
G1 X79.871 Y75.81 E13.16367
G1 X85.252 Y76.36 E13.43285
G1 X90.636 Y76.605 E13.70106
G1 X96.058 Y76.543 E13.97091
G1 X101.453 Y76.176 E14.24001
G1 X106.821 Y75.505 E14.50923
G1 X112.16 Y74.528 E14.77934
G1 X114.742 Y73.942 E14.91111
G1 X119.425 Y72.693 E15.15231
G1 X119.787 Y72.613 E15.17075
G1 X120.786 Y72.435 E15.22125
G1 X121.343 Y72.372 E15.24915
G1 X122.349 Y72.323 E15.29927
G1 X122.894 Y72.33 E15.3264
G1 X123.875 Y72.404 E15.37536
G1 X124.435 Y72.483 E15.4035
G1 X125.45 Y72.693 E15.45508
G1 X126.13 Y72.892 E15.49034
G1 X127.557 Y73.438 E15.56638
G1 X128.205 Y73.749 E15.60215
G1 X129.139 Y74.295 E15.65599
G1 X129.61 Y74.613 E15.68427
G1 X130.356 Y75.19 E15.7312
G1 X130.769 Y75.553 E15.75857
G1 X131.522 Y76.303 E15.81146
G1 X131.901 Y76.733 E15.83998
G1 X132.518 Y77.533 E15.89026
G1 X132.905 Y78.129 E15.92563
G1 X133.642 Y79.494 E16.00282
G1 X133.97 Y80.272 E16.04484
G1 X134.419 Y81.71 E16.11981
G1 X134.574 Y82.393 E16.15467
G1 X134.726 Y83.446 E16.20761
G1 X134.771 Y84.074 E16.23895
G1 X134.771 Y107.83 E17.42117
G1 X134.731 Y108.421 E17.45065
G1 X134.612 Y109.002 E17.48017
G1 X134.416 Y109.561 E17.50965
G1 X134.146 Y110.089 E17.53916
G1 X133.883 Y110.48 E17.56261
G1 X133.59 Y110.868 E17.5868
G1 X133.202 Y111.316 E17.6163
G1 X132.757 Y111.707 E17.64578
G1 X132.263 Y112.035 E17.67529
G1 X131.611 Y112.34 E17.71111
G1 X131.452 Y112.399 E17.71955
G1 X130.883 Y112.568 E17.74909
G1 X130.297 Y112.658 E17.77859
G1 X129.922 Y112.674 E17.79727
G1 X115.281 Y112.675 E18.52589
G1 X114.69 Y112.635 E18.55537
G1 X114.334 Y112.572 E18.57336
G1 X112.378 Y112.141 E18.67304
G1 X107.03 Y111.163 E18.9436
G1 X101.662 Y110.493 E19.21281
G1 X96.269 Y110.128 E19.48181
G1 X90.847 Y110.067 E19.75165
G1 X85.464 Y110.312 E20.01982
G1 X80.082 Y110.863 E20.28906
G1 X74.715 Y111.721 E20.55954
G1 X70.581 Y112.585 E20.76972
G1 X69.994 Y112.667 E20.79921
G1 X69.683 Y112.678 E20.8147
G1 X55.149 Y112.681 E21.53799
G1 X54.557 Y112.641 E21.56752
G1 X53.977 Y112.522 E21.59698
G1 X53.417 Y112.326 E21.62651
G1 X53.127 Y112.189 E21.64247
G1 X52.731 Y111.984 E21.66466
G1 X52.224 Y111.676 E21.69418
G1 X51.763 Y111.304 E21.72366
G1 X51.356 Y110.872 E21.7532
G1 X51.011 Y110.39 E21.7827
G1 X50.829 Y110.064 E21.80128
G1 X50.704 Y109.817 E21.81506
G1 X50.472 Y109.272 E21.84453
G1 X50.316 Y108.7 E21.87404
G1 X50.23 Y107.835 E21.9173
G1 X50.214 Y84.435 E23.08181
G1 X50.256 Y83.823 E23.11234
G1 X50.48 Y82.22 E23.19289
G1 X50.644 Y81.499 E23.22969
G1 X50.946 Y80.547 E23.27939
G1 X51.147 Y80.028 E23.30709
G1 X51.583 Y79.087 E23.3587
G1 X51.855 Y78.589 E23.38694
G1 X52.375 Y77.765 E23.43543
G1 X52.7 Y77.315 E23.46305
G1 X53.352 Y76.524 E23.51406
G1 X53.732 Y76.119 E23.5417
G1 X54.428 Y75.464 E23.58927
G1 X54.837 Y75.123 E23.61577
M204 S5000
G0 F2400 X55.073 Y75.445
M204 S200
G1 F1200 X55.873 Y74.857 E23.66517
G1 X56.319 Y74.572 E23.69151
G1 X57.253 Y74.06 E23.74452
G1 X57.834 Y73.8 E23.7762
G1 X59.21 Y73.31 E23.84889
G1 X59.961 Y73.122 E23.88742
G1 X61.529 Y72.888 E23.96631
G1 X62.169 Y72.844 E23.99824
G1 X63.126 Y72.856 E24.04587
G1 X63.628 Y72.894 E24.07092
G1 X64.653 Y73.037 E24.12242
G1 X65.075 Y73.119 E24.14382
G1 X71.834 Y74.817 E24.49063
G1 X74.451 Y75.349 E24.62353
G1 X79.821 Y76.206 E24.89416
G1 X85.21 Y76.757 E25.16374
G1 X90.64 Y77.004 E25.43425
G1 X96.073 Y76.942 E25.70464
G1 X101.494 Y76.573 E25.97504
G1 X106.868 Y75.901 E26.24457
G1 X112.251 Y74.916 E26.5169
G1 X114.855 Y74.325 E26.64979
G1 X119.528 Y73.079 E26.89046
G1 X119.857 Y73.006 E26.90724
G1 X120.856 Y72.828 E26.95773
G1 X121.362 Y72.771 E26.98308
G1 X122.368 Y72.722 E27.0332
G1 X122.864 Y72.728 E27.05788
G1 X123.845 Y72.802 E27.10684
G1 X124.354 Y72.874 E27.13243
G1 X125.369 Y73.084 E27.18401
G1 X125.988 Y73.265 E27.2161
G1 X127.415 Y73.811 E27.29214
G1 X128.004 Y74.093 E27.32464
G1 X128.938 Y74.639 E27.37848
G1 X129.366 Y74.929 E27.40421
G1 X130.112 Y75.506 E27.45114
G1 X130.487 Y75.835 E27.47597
G1 X131.24 Y76.585 E27.52886
G1 X131.585 Y76.976 E27.55481
G1 X132.202 Y77.776 E27.60508
G1 X132.554 Y78.319 E27.63729
G1 X133.291 Y79.684 E27.71449
G1 X133.589 Y80.391 E27.75267
G1 X134.038 Y81.829 E27.82764
G1 X134.179 Y82.45 E27.85933
G1 X134.331 Y83.503 E27.91228
G1 X134.372 Y84.074 E27.94076
G1 X134.372 Y107.83 E29.12299
G1 X134.332 Y108.394 E29.15113
G1 X134.213 Y108.946 E29.17923
G1 X134.017 Y109.476 E29.20735
G1 X133.749 Y109.974 E29.2355
G1 X133.564 Y110.239 E29.25158
G1 X133.271 Y110.627 E29.27578
G1 X132.9 Y111.053 E29.30389
G1 X132.472 Y111.422 E29.33201
G1 X131.996 Y111.727 E29.36015
G1 X131.472 Y111.966 E29.38881
G1 X131.313 Y112.025 E29.39725
G1 X130.77 Y112.184 E29.42541
G1 X130.211 Y112.265 E29.45352
G1 X129.922 Y112.275 E29.46791
G1 X115.281 Y112.276 E30.19652
G1 X114.717 Y112.236 E30.22466
G1 X114.42 Y112.182 E30.23968
G1 X112.479 Y111.754 E30.3386
G1 X107.08 Y110.767 E30.61174
G1 X101.704 Y110.096 E30.88135
G1 X96.283 Y109.729 E31.15175
G1 X90.851 Y109.668 E31.42209
G1 X85.422 Y109.915 E31.69255
G1 X80.032 Y110.467 E31.96219
G1 X74.636 Y111.33 E32.23413
G1 X70.5 Y112.194 E32.44441
G1 X69.683 Y112.279 E32.48528
G1 X55.149 Y112.282 E33.20857
G1 X54.585 Y112.242 E33.23671
G1 X54.033 Y112.123 E33.26481
G1 X53.31 Y111.834 E33.30356
G1 X52.914 Y111.629 E33.32575
G1 X52.432 Y111.335 E33.35385
G1 X51.996 Y110.975 E33.38199
G1 X51.615 Y110.557 E33.41014
G1 X51.185 Y109.884 E33.44988
G1 X51.06 Y109.637 E33.46366
G1 X50.841 Y109.116 E33.49178
G1 X50.698 Y108.569 E33.51992
G1 X50.629 Y107.835 E33.55661
G1 X50.613 Y84.435 E34.72112
G1 X50.651 Y83.879 E34.74885
G1 X50.875 Y82.276 E34.8294
G1 X51.024 Y81.62 E34.86288
G1 X51.326 Y80.668 E34.91259
G1 X51.509 Y80.196 E34.93778
G1 X51.945 Y79.255 E34.98939
G1 X52.192 Y78.802 E35.01507
G1 X52.712 Y77.978 E35.06356
G1 X53.008 Y77.569 E35.08868
G1 X53.66 Y76.778 E35.1397
G1 X54.005 Y76.41 E35.1648
G1 X54.701 Y75.755 E35.21236
G1 X55.073 Y75.445 E35.23646
M204 S5000
G0 F2400 X55.31 Y75.766
M204 S200
G1 F1200 X56.11 Y75.178 E35.28587
G1 X56.511 Y74.922 E35.30954
G1 X57.445 Y74.41 E35.36255
G1 X57.968 Y74.176 E35.39107
G1 X59.344 Y73.686 E35.46375
G1 X60.02 Y73.516 E35.49844
G1 X61.588 Y73.282 E35.57734
G1 X62.164 Y73.243 E35.60607
G1 X63.121 Y73.255 E35.6537
G1 X63.573 Y73.29 E35.67626
G1 X64.598 Y73.433 E35.72777
G1 X64.978 Y73.506 E35.74702
G1 X71.744 Y75.206 E36.0942
G1 X74.382 Y75.742 E36.22816
G1 X79.769 Y76.602 E36.49965
G1 X85.187 Y77.156 E36.77068
G1 X90.627 Y77.403 E37.04168
G1 X96.087 Y77.341 E37.31342
G1 X101.534 Y76.97 E37.58512
G1 X106.938 Y76.294 E37.85615
G1 X112.314 Y75.311 E38.12813
G1 X114.968 Y74.709 E38.26356
G1 X119.631 Y73.465 E38.50373
G1 X119.927 Y73.399 E38.51882
G1 X120.926 Y73.221 E38.56932
G1 X121.382 Y73.169 E38.59216
G1 X122.388 Y73.12 E38.64229
G1 X122.834 Y73.126 E38.66448
G1 X123.815 Y73.2 E38.71344
G1 X124.273 Y73.265 E38.73646
G1 X125.288 Y73.475 E38.78804
G1 X125.845 Y73.638 E38.81693
G1 X127.272 Y74.184 E38.89296
G1 X127.802 Y74.438 E38.92221
G1 X128.736 Y74.984 E38.97605
G1 X129.122 Y75.244 E38.99921
G1 X129.868 Y75.821 E39.04615
G1 X130.206 Y76.118 E39.06854
G1 X130.959 Y76.868 E39.12143
G1 X131.269 Y77.22 E39.14477
G1 X131.886 Y78.02 E39.19505
G1 X132.203 Y78.508 E39.22401
G1 X132.94 Y79.873 E39.30121
G1 X133.208 Y80.51 E39.3356
G1 X133.657 Y81.948 E39.41057
G1 X133.784 Y82.507 E39.4391
G1 X133.936 Y83.56 E39.49204
G1 X133.973 Y84.074 E39.51769
G1 X133.973 Y107.83 E40.69992
G1 X133.933 Y108.365 E40.72661
G1 X133.814 Y108.888 E40.75331
G1 X133.619 Y109.387 E40.77997
G1 X133.246 Y109.999 E40.81564
G1 X132.953 Y110.387 E40.83983
G1 X132.599 Y110.79 E40.86653
G1 X132.189 Y111.135 E40.89319
G1 X131.732 Y111.416 E40.91989
G1 X131.333 Y111.592 E40.94159
G1 X131.174 Y111.651 E40.95003
G1 X130.659 Y111.8 E40.97671
G1 X129.922 Y111.876 E41.01359
G1 X115.281 Y111.877 E41.7422
G1 X114.506 Y111.793 E41.781
G1 X112.526 Y111.356 E41.8819
G1 X107.15 Y110.374 E42.15387
G1 X101.744 Y109.699 E42.42499
G1 X96.296 Y109.33 E42.69673
G1 X90.837 Y109.269 E42.96842
G1 X85.398 Y109.516 E43.23937
G1 X79.982 Y110.071 E43.51032
G1 X74.574 Y110.936 E43.78287
G1 X70.418 Y111.804 E43.99416
G1 X69.683 Y111.88 E44.03093
G1 X55.149 Y111.883 E44.75422
G1 X54.614 Y111.843 E44.78092
G1 X54.091 Y111.724 E44.80761
G1 X53.493 Y111.48 E44.83975
G1 X53.097 Y111.275 E44.86194
G1 X52.641 Y110.994 E44.8886
G1 X52.231 Y110.648 E44.9153
G1 X51.878 Y110.245 E44.94196
G1 X51.541 Y109.704 E44.97368
G1 X51.416 Y109.457 E44.98746
G1 X51.21 Y108.962 E45.01414
G1 X51.08 Y108.442 E45.04081
G1 X51.028 Y107.834 E45.07118
G1 X51.012 Y84.434 E46.23569
G1 X51.047 Y83.934 E46.26064
G1 X51.271 Y82.331 E46.34119
G1 X51.404 Y81.741 E46.37128
G1 X51.706 Y80.789 E46.42099
G1 X51.871 Y80.364 E46.44368
G1 X52.307 Y79.423 E46.49529
G1 X52.529 Y79.015 E46.5184
G1 X53.049 Y78.191 E46.56689
G1 X53.316 Y77.823 E46.58952
G1 X53.968 Y77.032 E46.64053
G1 X54.278 Y76.7 E46.66314
G1 X54.974 Y76.045 E46.7107
G1 X55.31 Y75.766 E46.73243
M204 S5000
G0 F2400 X55.546 Y76.088
M204 S200
G1 F1200 X56.346 Y75.5 E46.78184
G1 X56.703 Y75.272 E46.80292
G1 X57.637 Y74.76 E46.85593
G1 X58.101 Y74.551 E46.88126
G1 X59.477 Y74.061 E46.95395
G1 X60.079 Y73.911 E46.98482
G1 X61.647 Y73.677 E47.06372
G1 X62.159 Y73.642 E47.08926
G1 X63.116 Y73.654 E47.13689
G1 X63.518 Y73.685 E47.15695
G1 X64.543 Y73.828 E47.20845
G1 X64.881 Y73.893 E47.22558
G1 X71.659 Y75.596 E47.57338
G1 X74.305 Y76.133 E47.70774
G1 X79.722 Y76.998 E47.98074
G1 X85.146 Y77.553 E48.25207
G1 X90.63 Y77.802 E48.52527
G1 X96.1 Y77.74 E48.7975
G1 X101.577 Y77.367 E49.0707
G1 X106.989 Y76.69 E49.34213
G1 X112.406 Y75.699 E49.61618
G1 X115.044 Y75.101 E49.7508
G1 X119.733 Y73.85 E49.99231
G1 X119.997 Y73.792 E50.00576
G1 X120.996 Y73.614 E50.05626
G1 X121.401 Y73.568 E50.07654
G1 X122.407 Y73.519 E50.12667
G1 X122.804 Y73.524 E50.14643
G1 X123.785 Y73.598 E50.19538
G1 X124.192 Y73.655 E50.21584
G1 X125.207 Y73.865 E50.26742
G1 X125.703 Y74.01 E50.29313
G1 X127.13 Y74.556 E50.36917
G1 X127.601 Y74.782 E50.39517
G1 X128.535 Y75.328 E50.44901
G1 X128.878 Y75.56 E50.46962
G1 X129.624 Y76.137 E50.51655
G1 X129.924 Y76.401 E50.53644
G1 X130.677 Y77.151 E50.58933
G1 X130.953 Y77.464 E50.6101
G1 X131.57 Y78.264 E50.66037
G1 X131.852 Y78.698 E50.68613
G1 X132.589 Y80.063 E50.76333
G1 X132.828 Y80.629 E50.7939
G1 X133.277 Y82.067 E50.86887
G1 X133.389 Y82.564 E50.89423
G1 X133.541 Y83.617 E50.94717
G1 X133.574 Y84.074 E50.96998
G1 X133.574 Y107.83 E52.15221
G1 X133.534 Y108.334 E52.17737
G1 X133.415 Y108.825 E52.20251
G1 X133.221 Y109.292 E52.22767
G1 X132.928 Y109.758 E52.25507
G1 X132.635 Y110.146 E52.27926
G1 X132.299 Y110.525 E52.30447
G1 X131.908 Y110.845 E52.32961
G1 X131.472 Y111.1 E52.35475
G1 X131.194 Y111.218 E52.36978
G1 X131.035 Y111.277 E52.37822
G1 X130.549 Y111.415 E52.40336
G1 X129.922 Y111.477 E52.43472
G1 X115.281 Y111.478 E53.16333
G1 X114.592 Y111.403 E53.19782
G1 X112.627 Y110.97 E53.29796
G1 X107.2 Y109.978 E53.57251
G1 X101.787 Y109.302 E53.84399
G1 X96.31 Y108.931 E54.11718
G1 X90.84 Y108.87 E54.38941
G1 X85.359 Y109.119 E54.66246
G1 X79.931 Y109.675 E54.934
G1 X74.495 Y110.544 E55.20796
G1 X70.337 Y111.413 E55.41935
G1 X69.683 Y111.481 E55.45207
G1 X55.149 Y111.484 E56.17536
G1 X54.645 Y111.444 E56.20053
G1 X54.153 Y111.325 E56.22572
G1 X53.677 Y111.126 E56.25139
G1 X53.281 Y110.921 E56.27358
G1 X52.852 Y110.654 E56.29873
G1 X52.47 Y110.322 E56.32392
G1 X52.145 Y109.935 E56.34907
G1 X51.897 Y109.524 E56.37295
G1 X51.772 Y109.277 E56.38673
G1 X51.58 Y108.809 E56.41191
G1 X51.464 Y108.317 E56.43706
G1 X51.427 Y107.834 E56.46117
G1 X51.411 Y84.434 E57.62568
G1 X51.442 Y83.989 E57.64788
G1 X51.666 Y82.386 E57.72843
G1 X51.785 Y81.861 E57.75522
G1 X52.087 Y80.909 E57.80492
G1 X52.234 Y80.532 E57.82506
G1 X52.67 Y79.591 E57.87667
G1 X52.867 Y79.228 E57.89722
G1 X53.387 Y78.404 E57.94571
G1 X53.624 Y78.077 E57.96581
G1 X54.276 Y77.286 E58.01683
G1 X54.552 Y76.991 E58.03693
G1 X55.248 Y76.336 E58.08449
G1 X55.546 Y76.088 E58.10379
M204 S5000
G1 F1500 E56.10379
G0 F2400 X57.013 Y78.143
G0 X57.059 Y78.208
