; G-Code generated by Simplify3D(R) Version 3.0.2
; Mar 9, 2018 at 1:51:44 PM
; Settings Summary
;   processName,Process1
;   applyToModels,Cable Box Wall Bracket
;   profileName,steve
;   profileVersion,2015-05-01 08:00:00
;   baseProfile,Default (modified)
;   printMaterial,PLA
;   printQuality,High
;   printExtruders,
;   extruderName,Primary Extruder
;   extruderToolheadNumber,0
;   extruderDiameter,0.4
;   extruderAutoWidth,0
;   extruderWidth,0.4
;   extrusionMultiplier,0.9
;   extruderUseRetract,1
;   extruderRetractionDistance,1
;   extruderExtraRestartDistance,0
;   extruderRetractionZLift,0
;   extruderRetractionSpeed,1800
;   extruderUseCoasting,0
;   extruderCoastingDistance,0.2
;   extruderUseWipe,0
;   extruderWipeDistance,5
;   primaryExtruder,0
;   layerHeight,0.15
;   topSolidLayers,4
;   bottomSolidLayers,4
;   perimeterOutlines,2
;   printPerimetersInsideOut,1
;   startPointOption,1
;   startPointOriginX,0
;   startPointOriginY,0
;   startPointOriginZ,300
;   sequentialIslands,0
;   spiralVaseMode,0
;   firstLayerHeightPercentage,90
;   firstLayerWidthPercentage,100
;   firstLayerUnderspeed,0.5
;   useRaft,0
;   raftExtruder,0
;   raftLayers,3
;   raftOffset,3
;   raftSeparationDistance,0.14
;   raftInfill,85
;   disableRaftBaseLayers,0
;   useSkirt,1
;   skirtExtruder,0
;   skirtLayers,2
;   skirtOutlines,2
;   skirtOffset,4
;   usePrimePillar,0
;   primePillarExtruder,999
;   primePillarWidth,12
;   primePillarLocation,7
;   primePillarSpeedMultiplier,1
;   useOozeShield,0
;   oozeShieldExtruder,999
;   oozeShieldOffset,2
;   oozeShieldOutlines,1
;   oozeShieldSidewallShape,1
;   oozeShieldSidewallAngle,30
;   oozeShieldSpeedMultiplier,1
;   infillExtruder,0
;   internalInfillPattern,Rectilinear
;   externalInfillPattern,Rectilinear
;   infillPercentage,30
;   outlineOverlapPercentage,15
;   infillExtrusionWidthPercentage,100
;   minInfillLength,5
;   infillLayerInterval,1
;   infillAngles,45,-45
;   overlapInfillAngles,0
;   generateSupport,1
;   supportExtruder,0
;   supportInfillPercentage,40
;   supportExtraInflation,0
;   denseSupportLayers,0
;   denseSupportInfillPercentage,70
;   supportLayerInterval,1
;   supportHorizontalPartOffset,0.3
;   supportUpperSeparationLayers,1
;   supportLowerSeparationLayers,1
;   supportType,0
;   supportGridSpacing,4
;   maxOverhangAngle,45
;   supportAngles,0
;   temperatureName,Primary Extruder,Heated Bed
;   temperatureNumber,0,1
;   temperatureSetpointCount,1,1
;   temperatureSetpointLayers,1,1
;   temperatureSetpointTemperatures,220,60
;   temperatureStabilizeAtStartup,1,1
;   temperatureHeatedBed,0,1
;   temperatureRelayBetweenLayers,0,0
;   temperatureRelayBetweenLoops,0,0
;   fanLayers,1,2
;   fanSpeeds,0,100
;   blipFanToFullPower,0
;   adjustSpeedForCooling,1
;   minSpeedLayerTime,15
;   minCoolingSpeedSlowdown,20
;   increaseFanForCooling,0
;   minFanLayerTime,45
;   maxCoolingFanSpeed,100
;   increaseFanForBridging,0
;   bridgingFanSpeed,100
;   use5D,1
;   relativeEdistances,0
;   allowEaxisZeroing,1
;   independentExtruderAxes,0
;   includeM10123,0
;   stickySupport,1
;   applyToolheadOffsets,0
;   gcodeXoffset,0
;   gcodeYoffset,0
;   gcodeZoffset,0
;   overrideMachineDefinition,0
;   machineTypeOverride,0
;   strokeXoverride,105
;   strokeYoverride,105
;   strokeZoverride,105
;   originOffsetXoverride,0
;   originOffsetYoverride,0
;   originOffsetZoverride,0
;   homeXdirOverride,-1
;   homeYdirOverride,-1
;   homeZdirOverride,-1
;   flipXoverride,1
;   flipYoverride,-1
;   flipZoverride,1
;   toolheadOffsets,0,0|0,0|0,0|0,0|0,0|0,0
;   overrideFirmwareConfiguration,1
;   firmwareTypeOverride,RepRap (Marlin/Repetier/Sprinter)
;   GPXconfigOverride,r2
;   baudRateOverride,115200
;   overridePrinterModels,0
;   printerModelsOverride
;   startingGcode,G28 ; home all axes
;   layerChangeGcode,
;   retractionGcode,
;   toolChangeGcode,
;   endingGcode,M104 S0 ; turn off extruder,M140 S0 ; turn off bed,M84 ; disable motors
;   createX3G,0
;   celebration,0
;   celebrationSong,Random Song
;   createMB5G,0
;   postProcessing,
;   defaultSpeed,3600
;   outlineUnderspeed,0.5
;   solidInfillUnderspeed,0.8
;   supportUnderspeed,0.8
;   rapidXYspeed,4800
;   rapidZspeed,1000
;   minBridgingArea,50
;   bridgingExtraInflation,0
;   bridgingExtrusionMultiplier,1
;   bridgingSpeedMultiplier,1
;   filamentDiameter,1.75
;   filamentPricePerKg,46
;   filamentDensity,1.25
;   useMinPrintHeight,0
;   minPrintHeight,0
;   useMaxPrintHeight,0
;   maxPrintHeight,0
;   useDiaphragm,0
;   diaphragmLayerInterval,20
;   robustSlicing,1
;   mergeAllIntoSolid,0
;   onlyRetractWhenCrossingOutline,1
;   retractBetweenLayers,1
;   useRetractionMinTravel,0
;   retractionMinTravel,3
;   retractWhileWiping,0
;   onlyWipeOutlines,1
;   avoidCrossingOutline,0
;   maxMovementDetourFactor,3
;   toolChangeRetractionDistance,12
;   toolChangeExtraRestartDistance,-0.5
;   toolChangeRetractionSpeed,600
;   allowThinWallGapFill,1
;   thinWallAllowedOverlapPercentage,10
;   horizontalSizeCompensation,0
G90
M82
M106 S0
M140 S60
M190 S60
M104 S220 T0
M109 S220 T0
G28 ; home all axes
G92 E0
G1 E-1.0000 F1800
G1 Z0.135 F1000
; layer 1, Z = 0.135
T0
; tool H0.150 W0.400
; skirt
G1 X46.812 Y24.552 F4800
G1 E0.0000 F540
G92 E0
G1 X46.874 Y24.442 E0.0028 F1800
G1 X48.262 Y22.863 E0.0500
G1 X48.365 Y22.787 E0.0529
G1 X50.053 Y22.024 E0.0945
G1 X50.178 Y21.997 E0.0974
G1 X58.922 Y21.997 E0.2937
G1 X59.129 Y22.076 E0.2986
G1 X61.573 Y24.266 E0.3723
G1 X61.674 Y24.463 E0.3773
G1 X62.398 Y31.042 E0.5259
G1 X62.398 Y31.045 E0.5259
G1 X62.401 Y31.077 E0.5267
G1 X62.401 Y31.079 E0.5267
G1 X62.854 Y35.855 E0.6344
G1 X62.854 Y35.858 E0.6345
G1 X62.857 Y35.889 E0.6352
G1 X62.857 Y35.892 E0.6352
G1 X63.239 Y40.673 E0.7429
G1 X63.239 Y40.676 E0.7430
G1 X63.241 Y40.707 E0.7437
G1 X63.241 Y40.710 E0.7438
G1 X63.552 Y45.497 E0.8515
G1 X63.552 Y45.499 E0.8515
G1 X63.554 Y45.531 E0.8522
G1 X63.554 Y45.533 E0.8523
G1 X63.794 Y50.324 E0.9600
G1 X63.794 Y50.326 E0.9600
G1 X63.796 Y50.358 E0.9607
G1 X63.796 Y50.360 E0.9608
G1 X63.965 Y55.154 E1.0685
G1 X63.965 Y55.157 E1.0685
G1 X63.966 Y55.188 E1.0692
G1 X63.966 Y55.191 E1.0693
G1 X64.065 Y59.987 E1.1770
G1 X64.065 Y59.989 E1.1770
G1 X64.065 Y60.021 E1.1778
G1 X64.065 Y60.023 E1.1778
G1 X64.093 Y64.820 E1.2855
G1 X64.093 Y64.822 E1.2856
G1 X64.093 Y64.854 E1.2863
G1 X64.093 Y64.856 E1.2863
G1 X64.049 Y69.655 E1.3941
G1 X64.049 Y69.657 E1.3941
G1 X64.049 Y69.693 E1.3949
G1 X64.049 Y69.695 E1.3950
G1 X63.903 Y75.405 E1.5232
G1 X63.903 Y75.408 E1.5232
G1 X63.902 Y75.438 E1.5239
G1 X63.902 Y75.440 E1.5240
G1 X63.748 Y79.318 E1.6111
G1 X63.748 Y79.320 E1.6112
G1 X63.747 Y79.350 E1.6118
G1 X63.746 Y79.352 E1.6119
G1 X63.491 Y84.141 E1.7195
G1 X63.490 Y84.144 E1.7196
G1 X63.489 Y84.175 E1.7203
G1 X63.488 Y84.177 E1.7204
G1 X63.162 Y88.964 E1.8281
G1 X63.162 Y88.966 E1.8281
G1 X63.159 Y88.997 E1.8288
G1 X153.771 Y88.997 E3.8631
G1 X153.991 Y89.088 E3.8684
G1 X156.503 Y91.600 E3.9482
G1 X156.595 Y91.821 E3.9536
G1 X156.595 Y168.766 E5.6810
G1 X156.503 Y168.987 E5.6864
G1 X153.991 Y171.499 E5.7662
G1 X153.771 Y171.590 E5.7715
G1 X143.022 Y171.590 E6.0128
G1 X142.801 Y171.499 E6.0182
G1 X140.289 Y168.987 E6.0980
G1 X140.198 Y168.766 E6.1033
G1 X140.198 Y104.590 E7.5441
G1 X48.982 Y104.590 E9.5920
G1 X48.747 Y104.485 E9.5977
G1 X46.189 Y101.604 E9.6842
G1 X46.112 Y101.358 E9.6900
G1 X46.901 Y94.745 E9.8395
G1 X47.362 Y90.266 E9.9406
G1 X47.752 Y85.782 E10.0417
G1 X48.071 Y81.291 E10.1427
G1 X48.319 Y76.795 E10.2438
G1 X48.497 Y72.297 E10.3449
G1 X48.603 Y67.796 E10.4460
G1 X48.639 Y63.293 E10.5471
G1 X48.603 Y58.791 E10.6481
G1 X48.497 Y54.290 E10.7492
G1 X48.319 Y49.792 E10.8503
G1 X48.071 Y45.296 E10.9514
G1 X47.752 Y40.805 E11.0525
G1 X47.362 Y36.320 E11.1535
G1 X46.901 Y31.842 E11.2546
G1 X46.257 Y26.426 E11.3770
G1 X46.269 Y26.300 E11.3799
G1 X46.812 Y24.552 E11.4210
G1 X47.182 Y24.711 F4800
G92 E0
G1 X47.202 Y24.674 E0.0009 F1800
G1 X48.534 Y23.160 E0.0462
G1 X48.569 Y23.134 E0.0472
G1 X50.179 Y22.406 E0.0869
G1 X50.221 Y22.397 E0.0878
G1 X58.848 Y22.397 E0.2815
G1 X58.917 Y22.423 E0.2832
G1 X61.251 Y24.514 E0.3535
G1 X61.285 Y24.580 E0.3552
G1 X62.000 Y31.085 E0.5021
G1 X62.000 Y31.086 E0.5021
G1 X62.003 Y31.117 E0.5028
G1 X62.003 Y31.118 E0.5028
G1 X62.455 Y35.892 E0.6105
G1 X62.456 Y35.893 E0.6105
G1 X62.458 Y35.923 E0.6112
G1 X62.458 Y35.924 E0.6112
G1 X62.840 Y40.705 E0.7189
G1 X62.840 Y40.705 E0.7189
G1 X62.842 Y40.736 E0.7196
G1 X62.842 Y40.736 E0.7196
G1 X63.153 Y45.522 E0.8273
G1 X63.153 Y45.523 E0.8273
G1 X63.155 Y45.553 E0.8280
G1 X63.155 Y45.554 E0.8280
G1 X63.395 Y50.343 E0.9356
G1 X63.395 Y50.344 E0.9357
G1 X63.396 Y50.374 E0.9363
G1 X63.396 Y50.375 E0.9364
G1 X63.565 Y55.168 E1.0440
G1 X63.565 Y55.168 E1.0440
G1 X63.566 Y55.199 E1.0447
G1 X63.566 Y55.199 E1.0447
G1 X63.665 Y59.994 E1.1524
G1 X63.665 Y59.995 E1.1524
G1 X63.665 Y60.025 E1.1531
G1 X63.665 Y60.026 E1.1531
G1 X63.693 Y64.821 E1.2608
G1 X63.693 Y64.822 E1.2608
G1 X63.693 Y64.853 E1.2615
G1 X63.693 Y64.853 E1.2615
G1 X63.649 Y69.651 E1.3692
G1 X63.649 Y69.651 E1.3692
G1 X63.649 Y69.685 E1.3700
G1 X63.649 Y69.686 E1.3700
G1 X63.503 Y75.395 E1.4982
G1 X63.503 Y75.395 E1.4982
G1 X63.502 Y75.424 E1.4989
G1 X63.502 Y75.425 E1.4989
G1 X63.348 Y79.302 E1.5860
G1 X63.348 Y79.302 E1.5860
G1 X63.347 Y79.331 E1.5866
G1 X63.347 Y79.331 E1.5867
G1 X63.091 Y84.119 E1.6943
G1 X63.091 Y84.120 E1.6943
G1 X63.089 Y84.150 E1.6950
G1 X63.089 Y84.151 E1.6950
G1 X62.763 Y88.936 E1.8027
G1 X62.763 Y88.936 E1.8027
G1 X62.760 Y88.967 E1.8034
G1 X62.760 Y88.968 E1.8034
G1 X62.725 Y89.397 E1.8131
G1 X153.691 Y89.397 E3.8553
G1 X153.765 Y89.427 E3.8571
G1 X156.164 Y91.827 E3.9333
G1 X156.195 Y91.900 E3.9351
G1 X156.195 Y168.687 E5.6590
G1 X156.164 Y168.760 E5.6608
G1 X153.765 Y171.160 E5.7370
G1 X153.691 Y171.190 E5.7387
G1 X143.101 Y171.190 E5.9765
G1 X143.028 Y171.160 E5.9783
G1 X140.628 Y168.760 E6.0545
G1 X140.598 Y168.687 E6.0562
G1 X140.598 Y104.190 E7.5042
G1 X49.068 Y104.190 E9.5591
G1 X48.989 Y104.155 E9.5611
G1 X46.545 Y101.402 E9.6437
G1 X46.520 Y101.321 E9.6456
G1 X47.298 Y94.789 E9.7933
G1 X47.760 Y90.305 E9.8945
G1 X48.150 Y85.813 E9.9957
G1 X48.470 Y81.316 E10.0969
G1 X48.719 Y76.813 E10.1982
G1 X48.897 Y72.309 E10.2994
G1 X49.003 Y67.802 E10.4006
G1 X49.039 Y63.293 E10.5018
G1 X49.003 Y58.785 E10.6031
G1 X48.897 Y54.278 E10.7043
G1 X48.719 Y49.774 E10.8055
G1 X48.470 Y45.271 E10.9067
G1 X48.150 Y40.774 E11.0079
G1 X47.760 Y36.282 E11.1091
G1 X47.298 Y31.797 E11.2104
G1 X46.659 Y26.420 E11.3319
G1 X46.663 Y26.378 E11.3329
G1 X47.182 Y24.711 E11.3721
G92 E0
G1 E-1.0000 F1800
; inner perimeter
G1 X56.617 Y27.339 F4800
G1 E0.0000 F1800
G92 E0
G1 X57.086 Y31.612 E0.0965 F1350
G1 X57.536 Y36.369 E0.2038
G1 X57.915 Y41.131 E0.3110
G1 X58.224 Y45.899 E0.4183
G1 X58.462 Y50.671 E0.5256
G1 X58.629 Y55.446 E0.6328
G1 X58.725 Y60.223 E0.7401
G1 X58.750 Y65.000 E0.8473
G1 X58.704 Y69.778 E0.9546
G1 X58.579 Y74.805 E1.0675
G1 X58.400 Y79.328 E1.1691
G1 X58.141 Y84.099 E1.2764
G1 X57.812 Y88.865 E1.3836
G1 X57.352 Y94.339 E1.5070
G1 X151.395 Y94.339 E3.6183
G1 X151.395 Y166.248 E5.2327
G1 X145.540 Y166.248 E5.3641
G1 X145.540 Y99.248 E6.8683
G1 X51.746 Y99.248 E8.9741
G1 X52.213 Y95.317 E9.0629
G1 X52.682 Y90.757 E9.1658
G1 X53.079 Y86.191 E9.2688
G1 X53.404 Y81.618 E9.3717
G1 X53.656 Y77.041 E9.4746
G1 X53.837 Y72.460 E9.5775
G1 X53.945 Y67.877 E9.6804
G1 X53.982 Y63.293 E9.7833
G1 X53.945 Y58.710 E9.8862
G1 X53.837 Y54.127 E9.9892
G1 X53.656 Y49.546 E10.0921
G1 X53.404 Y44.969 E10.1950
G1 X53.079 Y40.396 E10.2979
G1 X52.682 Y35.830 E10.4008
G1 X52.213 Y31.269 E10.5037
G1 X51.746 Y27.339 E10.5926
G1 X56.617 Y27.339 E10.7019
; outer perimeter
G1 X56.975 Y26.939 F4800
G92 E0
G1 X57.484 Y31.572 E0.1046 F900
G1 X57.934 Y36.334 E0.2120
G1 X58.314 Y41.103 E0.3194
G1 X58.623 Y45.876 E0.4268
G1 X58.861 Y50.654 E0.5342
G1 X59.029 Y55.435 E0.6416
G1 X59.125 Y60.217 E0.7490
G1 X59.150 Y65.001 E0.8564
G1 X59.104 Y69.784 E0.9638
G1 X58.979 Y74.819 E1.0768
G1 X58.799 Y79.346 E1.1786
G1 X58.541 Y84.124 E1.2860
G1 X58.211 Y88.895 E1.3934
G1 X57.787 Y93.939 E1.5070
G1 X151.795 Y93.939 E3.6175
G1 X151.795 Y166.648 E5.2499
G1 X145.140 Y166.648 E5.3993
G1 X145.140 Y99.648 E6.9035
G1 X51.295 Y99.648 E9.0103
G1 X51.815 Y95.273 E9.1092
G1 X52.284 Y90.719 E9.2120
G1 X52.680 Y86.159 E9.3148
G1 X53.004 Y81.593 E9.4176
G1 X53.257 Y77.022 E9.5203
G1 X53.437 Y72.448 E9.6231
G1 X53.545 Y67.871 E9.7259
G1 X53.582 Y63.293 E9.8287
G1 X53.545 Y58.716 E9.9314
G1 X53.437 Y54.139 E10.0342
G1 X53.257 Y49.565 E10.1370
G1 X53.004 Y44.994 E10.2398
G1 X52.680 Y40.428 E10.3425
G1 X52.284 Y35.867 E10.4453
G1 X51.815 Y31.314 E10.5481
G1 X51.296 Y26.939 E10.6470
G1 X56.975 Y26.939 E10.7745
; solid layer
G1 X52.169 Y28.020 F4800
G92 E0
G1 X52.510 Y27.679 E0.0108 F1440
G1 X53.076 Y27.679 E0.0235
G1 X52.229 Y28.526 E0.0504
G1 X52.289 Y29.031 E0.0618
G1 X53.642 Y27.679 E0.1048
G1 X54.207 Y27.679 E0.1175
G1 X52.349 Y29.537 E0.1764
G1 X52.410 Y30.043 E0.1879
G1 X54.773 Y27.679 E0.2629
G1 X55.339 Y27.679 E0.2756
G1 X52.470 Y30.548 E0.3667
G1 X52.530 Y31.054 E0.3781
G1 X55.904 Y27.679 E0.4853
G1 X56.312 Y27.679 E0.4944
G1 X56.328 Y27.822 E0.4977
G1 X52.585 Y31.564 E0.6165
G1 X52.638 Y32.077 E0.6281
G1 X56.383 Y28.332 E0.7470
G1 X56.439 Y28.841 E0.7585
G1 X52.690 Y32.590 E0.8775
G1 X52.743 Y33.103 E0.8891
G1 X56.495 Y29.351 E1.0082
G1 X56.551 Y29.861 E1.0197
G1 X52.796 Y33.616 E1.1390
G1 X52.849 Y34.129 E1.1506
G1 X56.607 Y30.371 E1.2699
G1 X56.663 Y30.880 E1.2814
G1 X52.901 Y34.642 E1.4008
G1 X52.954 Y35.155 E1.4124
G1 X56.719 Y31.390 E1.5319
G1 X56.747 Y31.647 E1.5377
G1 X56.772 Y31.903 E1.5435
G1 X53.007 Y35.668 E1.6631
G1 X53.020 Y35.797 E1.6660
G1 X53.054 Y36.186 E1.6747
G1 X56.820 Y32.420 E1.7943
G1 X56.869 Y32.937 E1.8060
G1 X53.099 Y36.707 E1.9257
G1 X53.145 Y37.227 E1.9374
G1 X56.918 Y33.454 E2.0572
G1 X56.967 Y33.970 E2.0689
G1 X53.190 Y37.748 E2.1888
G1 X53.235 Y38.268 E2.2005
G1 X57.016 Y34.487 E2.3206
G1 X57.065 Y35.004 E2.3322
G1 X53.280 Y38.789 E2.4524
G1 X53.325 Y39.309 E2.4641
G1 X57.114 Y35.521 E2.5844
G1 X57.163 Y36.037 E2.5961
G1 X53.371 Y39.830 E2.7165
G1 X53.416 Y40.350 E2.7282
G1 X57.210 Y36.556 E2.8486
G1 X57.251 Y37.080 E2.8604
G1 X53.454 Y40.878 E2.9810
G1 X53.491 Y41.406 E2.9929
G1 X57.293 Y37.604 E3.1136
G1 X57.335 Y38.128 E3.1254
G1 X53.529 Y41.934 E3.2463
G1 X53.566 Y42.462 E3.2581
G1 X57.377 Y38.652 E3.3791
G1 X57.418 Y39.176 E3.3909
G1 X53.604 Y42.990 E3.5120
G1 X53.641 Y43.519 E3.5239
G1 X57.460 Y39.700 E3.6451
G1 X57.502 Y40.224 E3.6569
G1 X53.679 Y44.047 E3.7783
G1 X53.716 Y44.575 E3.7902
G1 X57.544 Y40.748 E3.9117
G1 X57.576 Y41.156 E3.9209
G1 X57.584 Y41.273 E3.9236
G1 X53.752 Y45.105 E4.0452
G1 X53.781 Y45.642 E4.0573
G1 X57.618 Y41.805 E4.1791
G1 X57.653 Y42.336 E4.1910
G1 X53.811 Y46.178 E4.3130
G1 X53.840 Y46.714 E4.3251
G1 X57.687 Y42.867 E4.4472
G1 X57.721 Y43.399 E4.4592
G1 X53.870 Y47.250 E4.5814
G1 X53.900 Y47.786 E4.5935
G1 X57.756 Y43.930 E4.7159
G1 X57.790 Y44.461 E4.7279
G1 X53.929 Y48.322 E4.8504
G1 X53.959 Y48.858 E4.8625
G1 X57.825 Y44.992 E4.9852
G1 X57.859 Y45.524 E4.9972
G1 X53.989 Y49.394 E5.1201
G1 X53.996 Y49.531 E5.1231
G1 X54.012 Y49.936 E5.1322
G1 X57.891 Y46.057 E5.2554
G1 X57.918 Y46.596 E5.2675
G1 X54.034 Y50.480 E5.3909
G1 X54.055 Y51.025 E5.4031
G1 X57.945 Y47.135 E5.5266
G1 X57.972 Y47.673 E5.5387
G1 X54.076 Y51.569 E5.6624
G1 X54.098 Y52.113 E5.6746
G1 X57.999 Y48.212 E5.7985
G1 X58.026 Y48.751 E5.8106
G1 X54.119 Y52.657 E5.9346
G1 X54.141 Y53.202 E5.9468
G1 X58.053 Y49.290 E6.0710
G1 X58.079 Y49.829 E6.0832
G1 X54.162 Y53.746 E6.2075
G1 X54.177 Y54.116 E6.2158
G1 X54.181 Y54.293 E6.2198
G1 X58.106 Y50.367 E6.3444
G1 X58.122 Y50.684 E6.3516
G1 X58.130 Y50.910 E6.3566
G1 X54.194 Y54.845 E6.4816
G1 X54.207 Y55.398 E6.4940
G1 X58.149 Y51.456 E6.6191
G1 X58.168 Y52.003 E6.6314
G1 X54.220 Y55.951 E6.7568
G1 X54.233 Y56.503 E6.7692
G1 X58.187 Y52.549 E6.8947
G1 X58.206 Y53.096 E6.9070
G1 X54.246 Y57.056 E7.0327
G1 X54.259 Y57.608 E7.0451
G1 X58.226 Y53.642 E7.1711
G1 X58.245 Y54.189 E7.1833
