; G-Code generated by Simplify3D(R) Version 3.0.2
; Mar 9, 2018 at 2:42:40 PM
; Settings Summary
;   processName,Process1
;   applyToModels,Cable Box Wall Bracket
;   profileName,steve
;   profileVersion,2015-05-01 08:00:00
;   baseProfile,Default (modified)
;   printMaterial,PLA
;   printQuality,High
;   printExtruders,
;   extruderName,Primary Extruder
;   extruderToolheadNumber,0
;   extruderDiameter,0.4
;   extruderAutoWidth,0
;   extruderWidth,0.4
;   extrusionMultiplier,0.9
;   extruderUseRetract,1
;   extruderRetractionDistance,1
;   extruderExtraRestartDistance,0
;   extruderRetractionZLift,0
;   extruderRetractionSpeed,1800
;   extruderUseCoasting,0
;   extruderCoastingDistance,0.2
;   extruderUseWipe,0
;   extruderWipeDistance,5
;   primaryExtruder,0
;   layerHeight,0.15
;   topSolidLayers,4
;   bottomSolidLayers,4
;   perimeterOutlines,2
;   printPerimetersInsideOut,1
;   startPointOption,1
;   startPointOriginX,0
;   startPointOriginY,0
;   startPointOriginZ,300
;   sequentialIslands,0
;   spiralVaseMode,0
;   firstLayerHeightPercentage,90
;   firstLayerWidthPercentage,100
;   firstLayerUnderspeed,0.5
;   useRaft,0
;   raftExtruder,0
;   raftLayers,3
;   raftOffset,3
;   raftSeparationDistance,0.14
;   raftInfill,85
;   disableRaftBaseLayers,0
;   useSkirt,1
;   skirtExtruder,0
;   skirtLayers,2
;   skirtOutlines,2
;   skirtOffset,4
;   usePrimePillar,0
;   primePillarExtruder,999
;   primePillarWidth,12
;   primePillarLocation,7
;   primePillarSpeedMultiplier,1
;   useOozeShield,0
;   oozeShieldExtruder,999
;   oozeShieldOffset,2
;   oozeShieldOutlines,1
;   oozeShieldSidewallShape,1
;   oozeShieldSidewallAngle,30
;   oozeShieldSpeedMultiplier,1
;   infillExtruder,0
;   internalInfillPattern,Rectilinear
;   externalInfillPattern,Rectilinear
;   infillPercentage,30
;   outlineOverlapPercentage,15
;   infillExtrusionWidthPercentage,100
;   minInfillLength,5
;   infillLayerInterval,1
;   infillAngles,45,-45
;   overlapInfillAngles,0
;   generateSupport,1
;   supportExtruder,0
;   supportInfillPercentage,40
;   supportExtraInflation,0
;   denseSupportLayers,0
;   denseSupportInfillPercentage,70
;   supportLayerInterval,1
;   supportHorizontalPartOffset,0.3
;   supportUpperSeparationLayers,1
;   supportLowerSeparationLayers,1
;   supportType,0
;   supportGridSpacing,4
;   maxOverhangAngle,45
;   supportAngles,0
;   temperatureName,Primary Extruder,Heated Bed
;   temperatureNumber,0,1
;   temperatureSetpointCount,1,1
;   temperatureSetpointLayers,1,1
;   temperatureSetpointTemperatures,220,60
;   temperatureStabilizeAtStartup,1,1
;   temperatureHeatedBed,0,1
;   temperatureRelayBetweenLayers,0,0
;   temperatureRelayBetweenLoops,0,0
;   fanLayers,1,2
;   fanSpeeds,0,100
;   blipFanToFullPower,0
;   adjustSpeedForCooling,1
;   minSpeedLayerTime,15
;   minCoolingSpeedSlowdown,20
;   increaseFanForCooling,0
;   minFanLayerTime,45
;   maxCoolingFanSpeed,100
;   increaseFanForBridging,0
;   bridgingFanSpeed,100
;   use5D,1
;   relativeEdistances,0
;   allowEaxisZeroing,1
;   independentExtruderAxes,0
;   includeM10123,0
;   stickySupport,1
;   applyToolheadOffsets,0
;   gcodeXoffset,0
;   gcodeYoffset,0
;   gcodeZoffset,0
;   overrideMachineDefinition,0
;   machineTypeOverride,0
;   strokeXoverride,105
;   strokeYoverride,105
;   strokeZoverride,105
;   originOffsetXoverride,0
;   originOffsetYoverride,0
;   originOffsetZoverride,0
;   homeXdirOverride,-1
;   homeYdirOverride,-1
;   homeZdirOverride,-1
;   flipXoverride,1
;   flipYoverride,-1
;   flipZoverride,1
;   toolheadOffsets,0,0|0,0|0,0|0,0|0,0|0,0
;   overrideFirmwareConfiguration,1
;   firmwareTypeOverride,RepRap (Marlin/Repetier/Sprinter)
;   GPXconfigOverride,r2
;   baudRateOverride,115200
;   overridePrinterModels,0
;   printerModelsOverride
;   startingGcode,G28 ; home all axes
;   layerChangeGcode,
;   retractionGcode,
;   toolChangeGcode,
;   endingGcode,M104 S0 ; turn off extruder,M140 S0 ; turn off bed,M84 ; disable motors
;   createX3G,0
;   celebration,0
;   celebrationSong,Random Song
;   createMB5G,0
;   postProcessing,
;   defaultSpeed,3600
;   outlineUnderspeed,0.5
;   solidInfillUnderspeed,0.8
;   supportUnderspeed,0.8
;   rapidXYspeed,4800
;   rapidZspeed,1000
;   minBridgingArea,50
;   bridgingExtraInflation,0
;   bridgingExtrusionMultiplier,1
;   bridgingSpeedMultiplier,1
;   filamentDiameter,1.75
;   filamentPricePerKg,46
;   filamentDensity,1.25
;   useMinPrintHeight,0
;   minPrintHeight,0
;   useMaxPrintHeight,0
;   maxPrintHeight,0
;   useDiaphragm,0
;   diaphragmLayerInterval,20
;   robustSlicing,1
;   mergeAllIntoSolid,0
;   onlyRetractWhenCrossingOutline,1
;   retractBetweenLayers,1
;   useRetractionMinTravel,0
;   retractionMinTravel,3
;   retractWhileWiping,0
;   onlyWipeOutlines,1
;   avoidCrossingOutline,0
;   maxMovementDetourFactor,3
;   toolChangeRetractionDistance,12
;   toolChangeExtraRestartDistance,-0.5
;   toolChangeRetractionSpeed,600
;   allowThinWallGapFill,1
;   thinWallAllowedOverlapPercentage,10
;   horizontalSizeCompensation,0
G90
M82
M106 S0
M140 S60
M190 S60
M104 S220 T0
M109 S220 T0
G28 ; home all axes
G92 E0
G1 E-1.0000 F1800
G1 Z0.135 F1000
; layer 1, Z = 0.135
T0
; tool H0.150 W0.400
; skirt
G1 X43.563 Y88.281 F4800
G1 E0.0000 F540
G92 E0
G1 X43.784 Y88.190 E0.0054 F1800
G1 X129.381 Y88.190 E1.9271
G1 X129.381 Y88.182 E1.9273
G1 X129.380 Y88.180 E1.9273
G1 X129.378 Y88.150 E1.9280
G1 X129.378 Y88.148 E1.9280
G1 X129.114 Y84.339 E2.0137
G1 X129.113 Y84.337 E2.0138
G1 X129.112 Y84.307 E2.0145
G1 X129.111 Y84.304 E2.0145
G1 X128.794 Y78.541 E2.1441
G1 X128.794 Y78.539 E2.1442
G1 X128.792 Y78.504 E2.1449
G1 X128.792 Y78.501 E2.1450
G1 X128.607 Y73.708 E2.2527
G1 X128.607 Y73.705 E2.2527
G1 X128.606 Y73.674 E2.2535
G1 X128.606 Y73.671 E2.2535
G1 X128.492 Y68.878 E2.3612
G1 X128.492 Y68.876 E2.3612
G1 X128.492 Y68.844 E2.3619
G1 X128.492 Y68.842 E2.3620
G1 X128.449 Y64.047 E2.4696
G1 X128.449 Y64.045 E2.4697
G1 X128.449 Y64.015 E2.4703
G1 X128.449 Y64.013 E2.4704
G1 X128.468 Y60.195 E2.5561
G1 X128.468 Y60.193 E2.5561
G1 X128.468 Y60.164 E2.5568
G1 X128.468 Y60.162 E2.5568
G1 X128.575 Y54.392 E2.6864
G1 X128.575 Y54.389 E2.6865
G1 X128.576 Y54.353 E2.6873
G1 X128.576 Y54.351 E2.6873
G1 X128.746 Y49.556 E2.7950
G1 X128.746 Y49.554 E2.7951
G1 X128.747 Y49.523 E2.7958
G1 X128.748 Y49.520 E2.7958
G1 X128.988 Y44.731 E2.9035
G1 X128.988 Y44.729 E2.9035
G1 X128.990 Y44.697 E2.9043
G1 X128.990 Y44.695 E2.9043
G1 X129.301 Y39.910 E3.0120
G1 X129.301 Y39.908 E3.0120
G1 X129.303 Y39.876 E3.0127
G1 X129.303 Y39.874 E3.0128
G1 X129.685 Y35.094 E3.1204
G1 X129.685 Y35.092 E3.1205
G1 X129.688 Y35.060 E3.1212
G1 X129.688 Y35.058 E3.1212
G1 X130.140 Y30.284 E3.2289
G1 X130.140 Y30.281 E3.2290
G1 X130.144 Y30.249 E3.2297
G1 X130.144 Y30.247 E3.2297
G1 X130.869 Y23.656 E3.3786
G1 X130.970 Y23.459 E3.3836
G1 X133.414 Y21.269 E3.4572
G1 X133.621 Y21.190 E3.4622
G1 X142.378 Y21.190 E3.6588
G1 X142.503 Y21.217 E3.6617
G1 X144.192 Y21.981 E3.7033
G1 X144.295 Y22.057 E3.7062
G1 X145.694 Y23.649 E3.7538
G1 X145.756 Y23.759 E3.7566
G1 X146.299 Y25.508 E3.7977
G1 X146.311 Y25.634 E3.8006
G1 X145.696 Y30.784 E3.9170
G1 X145.257 Y34.999 E4.0121
G1 X144.880 Y39.220 E4.1073
G1 X144.566 Y43.446 E4.2024
G1 X144.314 Y47.676 E4.2976
G1 X144.126 Y51.908 E4.3927
G1 X144.000 Y56.145 E4.4878
G1 X143.937 Y60.381 E4.5829
G1 X143.937 Y64.619 E4.6781
G1 X144.000 Y68.855 E4.7732
G1 X144.126 Y73.092 E4.8684
G1 X144.314 Y77.324 E4.9635
G1 X144.566 Y81.554 E5.0586
G1 X144.880 Y85.780 E5.1537
G1 X145.257 Y90.001 E5.2489
G1 X145.696 Y94.215 E5.3440
G1 X146.458 Y100.576 E5.4878
G1 X146.381 Y100.822 E5.4936
G1 X143.823 Y103.704 E5.5801
G1 X143.588 Y103.810 E5.5859
G1 X57.370 Y103.810 E7.5216
G1 X57.370 Y167.986 E8.9624
G1 X57.278 Y168.207 E8.9677
G1 X54.767 Y170.719 E9.0475
G1 X54.546 Y170.810 E9.0528
G1 X43.784 Y170.810 E9.2945
G1 X43.563 Y170.719 E9.2998
G1 X41.051 Y168.207 E9.3796
G1 X40.960 Y167.986 E9.3849
G1 X40.960 Y91.014 E11.1130
G1 X41.051 Y90.793 E11.1184
G1 X43.563 Y88.281 E11.1981
G1 X43.790 Y88.621 F4800
G92 E0
G1 X43.863 Y88.590 E0.0018 F1800
G1 X129.816 Y88.590 E1.9315
G1 X129.779 Y88.149 E1.9414
G1 X129.779 Y88.149 E1.9414
G1 X129.777 Y88.121 E1.9420
G1 X129.777 Y88.120 E1.9421
G1 X129.513 Y84.312 E2.0277
G1 X129.513 Y84.312 E2.0278
G1 X129.511 Y84.282 E2.0284
G1 X129.511 Y84.282 E2.0284
G1 X129.194 Y78.520 E2.1580
G1 X129.194 Y78.519 E2.1580
G1 X129.192 Y78.486 E2.1588
G1 X129.192 Y78.485 E2.1588
G1 X129.007 Y73.693 E2.2664
G1 X129.007 Y73.692 E2.2665
G1 X129.006 Y73.662 E2.2671
G1 X129.006 Y73.661 E2.2672
G1 X128.892 Y68.869 E2.3748
G1 X128.892 Y68.868 E2.3748
G1 X128.892 Y68.838 E2.3755
G1 X128.892 Y68.837 E2.3755
G1 X128.849 Y64.044 E2.4831
G1 X128.849 Y64.044 E2.4831
G1 X128.849 Y64.015 E2.4838
G1 X128.849 Y64.014 E2.4838
G1 X128.868 Y60.198 E2.5694
G1 X128.868 Y60.197 E2.5695
G1 X128.868 Y60.170 E2.5701
G1 X128.868 Y60.169 E2.5701
G1 X128.975 Y54.400 E2.6996
G1 X128.975 Y54.399 E2.6997
G1 X128.976 Y54.365 E2.7004
G1 X128.976 Y54.364 E2.7004
G1 X129.146 Y49.571 E2.8081
G1 X129.146 Y49.571 E2.8081
G1 X129.147 Y49.540 E2.8088
G1 X129.147 Y49.540 E2.8088
G1 X129.387 Y44.752 E2.9164
G1 X129.387 Y44.751 E2.9165
G1 X129.389 Y44.721 E2.9171
G1 X129.389 Y44.720 E2.9172
G1 X129.700 Y39.937 E3.0248
G1 X129.700 Y39.936 E3.0248
G1 X129.702 Y39.906 E3.0255
G1 X129.702 Y39.905 E3.0255
G1 X130.083 Y35.126 E3.1331
G1 X130.084 Y35.126 E3.1331
G1 X130.086 Y35.096 E3.1338
G1 X130.086 Y35.095 E3.1338
G1 X130.538 Y30.322 E3.2415
G1 X130.538 Y30.321 E3.2415
G1 X130.541 Y30.290 E3.2422
G1 X130.542 Y30.290 E3.2422
G1 X131.258 Y23.773 E3.3894
G1 X131.292 Y23.708 E3.3910
G1 X133.626 Y21.616 E3.4614
G1 X133.695 Y21.590 E3.4630
G1 X142.336 Y21.590 E3.6570
G1 X142.377 Y21.599 E3.6580
G1 X143.988 Y22.327 E3.6977
G1 X144.022 Y22.353 E3.6986
G1 X145.366 Y23.881 E3.7443
G1 X145.387 Y23.918 E3.7453
G1 X145.905 Y25.586 E3.7845
G1 X145.909 Y25.628 E3.7854
G1 X145.299 Y30.740 E3.9010
G1 X144.859 Y34.960 E3.9963
G1 X144.481 Y39.187 E4.0916
G1 X144.166 Y43.419 E4.1868
G1 X143.915 Y47.655 E4.2821
G1 X143.726 Y51.894 E4.3773
G1 X143.600 Y56.135 E4.4726
G1 X143.537 Y60.379 E4.5679
G1 X143.537 Y64.621 E4.6631
G1 X143.600 Y68.865 E4.7584
G1 X143.726 Y73.106 E4.8537
G1 X143.915 Y77.344 E4.9489
G1 X144.167 Y81.581 E5.0442
G1 X144.481 Y85.813 E5.1395
G1 X144.859 Y90.039 E5.2347
G1 X145.299 Y94.259 E5.3300
G1 X146.051 Y100.539 E5.4720
G1 X146.025 Y100.621 E5.4739
G1 X143.581 Y103.375 E5.5566
G1 X143.503 Y103.410 E5.5585
G1 X56.970 Y103.410 E7.5012
G1 X56.970 Y167.907 E8.9492
G1 X56.939 Y167.980 E8.9510
G1 X54.540 Y170.379 E9.0272
G1 X54.466 Y170.410 E9.0289
G1 X43.863 Y170.410 E9.2670
G1 X43.790 Y170.379 E9.2688
G1 X41.390 Y167.980 E9.3450
G1 X41.360 Y167.907 E9.3467
G1 X41.360 Y91.093 E11.0712
G1 X41.390 Y91.020 E11.0730
G1 X43.790 Y88.621 E11.1492
G92 E0
G1 E-1.0000 F1800
; inner perimeter
G1 X138.978 Y47.406 F4800
G1 E0.0000 F1800
G92 E0
G1 X138.786 Y51.716 E0.0969 F1350
G1 X138.658 Y56.029 E0.1937
G1 X138.594 Y60.343 E0.2906
G1 X138.594 Y64.657 E0.3874
G1 X138.658 Y68.971 E0.4843
G1 X138.786 Y73.284 E0.5812
G1 X138.978 Y77.594 E0.6780
G1 X139.234 Y81.901 E0.7749
G1 X139.554 Y86.203 E0.8717
G1 X139.938 Y90.501 E0.9686
G1 X140.385 Y94.792 E1.0655
G1 X140.824 Y98.467 E1.1486
G1 X52.027 Y98.468 E3.1421
G1 X52.027 Y165.467 E4.6463
G1 X46.160 Y165.467 E4.7780
G1 X46.160 Y93.533 E6.3930
G1 X135.188 Y93.533 E8.3917
G1 X134.727 Y88.046 E8.5154
G1 X134.418 Y83.594 E8.6156
G1 X134.141 Y78.512 E8.7298
G1 X133.953 Y73.740 E8.8370
G1 X133.837 Y68.967 E8.9442
G1 X133.791 Y64.190 E9.0515
G1 X133.814 Y59.728 E9.1516
G1 X133.913 Y54.639 E9.2659
G1 X134.080 Y49.868 E9.3731
G1 X134.318 Y45.097 E9.4803
G1 X134.627 Y40.332 E9.5875
G1 X135.006 Y35.571 E9.6948
G1 X135.456 Y30.816 E9.8020
G1 X135.926 Y26.532 E9.8987
G1 X140.823 Y26.532 E10.0087
G1 X140.385 Y30.207 E10.0918
G1 X139.938 Y34.499 E10.1886
G1 X139.554 Y38.797 E10.2855
G1 X139.234 Y43.099 E10.3824
G1 X138.978 Y47.406 E10.4792
; outer perimeter
G1 X139.378 Y47.427 F4800
G92 E0
G1 X139.186 Y51.731 E0.0967 F900
G1 X139.058 Y56.038 E0.1935
G1 X138.994 Y60.346 E0.2902
G1 X138.994 Y64.654 E0.3869
G1 X139.058 Y68.962 E0.4836
G1 X139.186 Y73.269 E0.5804
G1 X139.378 Y77.573 E0.6771
G1 X139.633 Y81.874 E0.7738
G1 X139.953 Y86.171 E0.8706
G1 X140.336 Y90.462 E0.9673
G1 X140.782 Y94.747 E1.0640
G1 X141.274 Y98.867 E1.1572
G1 X52.427 Y98.868 E3.1518
G1 X52.427 Y165.867 E4.6560
G1 X45.760 Y165.867 E4.8057
G1 X45.760 Y93.133 E6.4386
G1 X134.753 Y93.133 E8.4366
G1 X134.329 Y88.076 E8.5505
G1 X134.019 Y83.618 E8.6508
G1 X133.741 Y78.531 E8.7652
G1 X133.553 Y73.753 E8.8726
G1 X133.437 Y68.973 E8.9799
G1 X133.391 Y64.192 E9.0873
G1 X133.414 Y59.723 E9.1876
G1 X133.513 Y54.629 E9.3020
G1 X133.680 Y49.850 E9.4093
G1 X133.918 Y45.075 E9.5167
G1 X134.228 Y40.303 E9.6240
G1 X134.608 Y35.536 E9.7314
G1 X135.058 Y30.776 E9.8387
G1 X135.568 Y26.132 E9.9436
G1 X141.274 Y26.132 E10.0717
G1 X140.782 Y30.252 E10.1649
G1 X140.336 Y34.538 E10.2616
G1 X139.953 Y38.829 E10.3583
G1 X139.633 Y43.126 E10.4551
G1 X139.378 Y47.427 E10.5518
; solid layer
G1 X136.193 Y27.216 F4800
G92 E0
G1 X136.536 Y26.872 E0.0109 F1440
G1 X137.102 Y26.872 E0.0236
G1 X136.123 Y27.851 E0.0547
G1 X136.054 Y28.487 E0.0690
G1 X137.668 Y26.872 E0.1203
G1 X138.234 Y26.872 E0.1330
G1 X135.984 Y29.122 E0.2044
G1 X135.914 Y29.757 E0.2187
G1 X138.799 Y26.872 E0.3103
G1 X139.365 Y26.872 E0.3230
G1 X135.844 Y30.393 E0.4348
G1 X135.794 Y30.851 E0.4452
G1 X135.778 Y31.025 E0.4491
G1 X139.931 Y26.872 E0.5810
G1 X140.440 Y26.872 E0.5924
G1 X140.433 Y26.936 E0.5938
G1 X135.719 Y31.650 E0.7435
G1 X135.659 Y32.275 E0.7576
G1 X140.356 Y27.578 E0.9067
G1 X140.279 Y28.221 E0.9212
G1 X135.600 Y32.900 E1.0698
G1 X135.541 Y33.525 E1.0839
G1 X140.203 Y28.863 E1.2319
G1 X140.126 Y29.505 E1.2464
G1 X135.482 Y34.149 E1.3939
G1 X135.423 Y34.774 E1.4080
G1 X140.050 Y30.147 E1.5549
G1 X140.047 Y30.170 E1.5554
G1 X139.983 Y30.779 E1.5691
G1 X135.364 Y35.399 E1.7158
G1 X135.345 Y35.600 E1.7203
G1 X135.312 Y36.017 E1.7297
G1 X139.918 Y31.411 E1.8760
G1 X139.852 Y32.042 E1.8902
G1 X135.263 Y36.632 E2.0359
G1 X135.214 Y37.246 E2.0498
G1 X139.786 Y32.674 E2.1949
G1 X139.720 Y33.305 E2.2092
G1 X135.165 Y37.861 E2.3538
G1 X135.116 Y38.476 E2.3677
G1 X139.654 Y33.937 E2.5118
G1 X139.599 Y34.466 E2.5237
G1 X139.590 Y34.567 E2.5260
G1 X135.067 Y39.090 E2.6696
G1 X135.018 Y39.705 E2.6835
G1 X139.535 Y35.188 E2.8269
G1 X139.479 Y35.809 E2.8409
G1 X134.969 Y40.320 E2.9841
G1 X134.966 Y40.357 E2.9849
G1 X134.929 Y40.925 E2.9977
G1 X139.424 Y36.430 E3.1404
G1 X139.368 Y37.051 E3.1544
G1 X134.890 Y41.530 E3.2966
G1 X134.850 Y42.135 E3.3103
G1 X139.313 Y37.672 E3.4519
G1 X139.258 Y38.294 E3.4659
G1 X134.811 Y42.740 E3.6071
G1 X134.772 Y43.345 E3.6207
G1 X139.204 Y38.912 E3.7614
G1 X139.159 Y39.523 E3.7752
G1 X134.733 Y43.950 E3.9157
G1 X134.694 Y44.554 E3.9293
G1 X139.114 Y40.134 E4.0697
G1 X139.068 Y40.746 E4.0834
G1 X134.655 Y45.159 E4.2235
G1 X134.625 Y45.754 E4.2369
G1 X139.023 Y41.357 E4.3765
G1 X138.977 Y41.968 E4.3903
G1 X134.596 Y46.349 E4.5294
G1 X134.566 Y46.945 E4.5428
G1 X138.932 Y42.579 E4.6814
G1 X138.895 Y43.076 E4.6926
G1 X138.888 Y43.188 E4.6951
G1 X134.536 Y47.540 E4.8333
G1 X134.507 Y48.135 E4.8467
G1 X138.853 Y43.790 E4.9847
G1 X138.817 Y44.391 E4.9982
G1 X134.477 Y48.731 E5.1360
G1 X134.447 Y49.326 E5.1493
G1 X138.781 Y44.992 E5.2869
G1 X138.745 Y45.594 E5.3005
G1 X134.418 Y49.921 E5.4379
G1 X134.398 Y50.507 E5.4510
G1 X138.710 Y46.195 E5.5879
G1 X138.674 Y46.797 E5.6015
G1 X134.377 Y51.093 E5.7379
G1 X134.357 Y51.680 E5.7510
G1 X138.638 Y47.398 E5.8870
G1 X138.612 Y47.990 E5.9003
G1 X134.336 Y52.266 E6.0360
G1 X134.316 Y52.852 E6.0492
G1 X138.586 Y48.582 E6.1848
G1 X138.559 Y49.174 E6.1981
G1 X134.295 Y53.438 E6.3335
G1 X134.275 Y54.024 E6.3466
G1 X138.533 Y49.766 E6.4818
G1 X138.506 Y50.358 E6.4951
G1 X134.254 Y54.611 E6.6301
G1 X134.253 Y54.650 E6.6310
G1 X134.242 Y55.188 E6.6431
G1 X138.480 Y50.950 E6.7777
G1 X138.454 Y51.542 E6.7910
G1 X134.231 Y55.765 E6.9250
G1 X134.220 Y56.342 E6.9380
