; G-Code generated by Simplify3D(R) Version 3.1.0
; 3 2, 2017 at 4:06:23 ODP.
; Settings Summary
;   processName,wing2per
;   applyToModels,cessna_152_wing_L7,cessna_152_wing_R7
;   profileName,Default (modified)
;   profileVersion,2016-04-14 15:44:02
;   baseProfile,Default
;   printMaterial,
;   printQuality,
;   printExtruders,
;   extruderName,Primary Extruder
;   extruderToolheadNumber,0
;   extruderDiameter,0.4
;   extruderAutoWidth,0
;   extruderWidth,0.42
;   extrusionMultiplier,1.02
;   extruderUseRetract,1
;   extruderRetractionDistance,0.8
;   extruderExtraRestartDistance,0.12
;   extruderRetractionZLift,0
;   extruderRetractionSpeed,1800
;   extruderUseCoasting,1
;   extruderCoastingDistance,0.2
;   extruderUseWipe,1
;   extruderWipeDistance,2
;   primaryExtruder,0
;   layerHeight,0.25
;   topSolidLayers,0
;   bottomSolidLayers,0
;   perimeterOutlines,2
;   printPerimetersInsideOut,1
;   startPointOption,3
;   startPointOriginX,200
;   startPointOriginY,0
;   startPointOriginZ,-300
;   sequentialIslands,0
;   spiralVaseMode,0
;   firstLayerHeightPercentage,90
;   firstLayerWidthPercentage,110
;   firstLayerUnderspeed,0.5
;   useRaft,0
;   raftExtruder,0
;   raftLayers,3
;   raftOffset,3
;   raftSeparationDistance,0.14
;   raftInfill,85
;   disableRaftBaseLayers,0
;   useSkirt,1
;   skirtExtruder,0
;   skirtLayers,1
;   skirtOutlines,1
;   skirtOffset,1.4
;   usePrimePillar,0
;   primePillarExtruder,999
;   primePillarWidth,12
;   primePillarLocation,7
;   primePillarSpeedMultiplier,1
;   useOozeShield,0
;   oozeShieldExtruder,999
;   oozeShieldOffset,2
;   oozeShieldOutlines,1
;   oozeShieldSidewallShape,1
;   oozeShieldSidewallAngle,30
;   oozeShieldSpeedMultiplier,1
;   infillExtruder,0
;   internalInfillPattern,Rectilinear
;   externalInfillPattern,Rectilinear
;   infillPercentage,0
;   outlineOverlapPercentage,15
;   infillExtrusionWidthPercentage,100
;   minInfillLength,5
;   infillLayerInterval,1
;   infillAngles,45,-45
;   overlapInfillAngles,0
;   generateSupport,0
;   supportExtruder,0
;   supportInfillPercentage,30
;   supportExtraInflation,0
;   denseSupportLayers,0
;   denseSupportInfillPercentage,70
;   supportLayerInterval,1
;   supportHorizontalPartOffset,0.3
;   supportUpperSeparationLayers,1
;   supportLowerSeparationLayers,1
;   supportType,0
;   supportGridSpacing,4
;   maxOverhangAngle,45
;   supportAngles,0
;   temperatureName,Primary Extruder,Heated Bed
;   temperatureNumber,0,1
;   temperatureSetpointCount,1,1
;   temperatureSetpointLayers,1,1
;   temperatureSetpointTemperatures,230,56
;   temperatureStabilizeAtStartup,1,1
;   temperatureHeatedBed,0,1
;   temperatureRelayBetweenLayers,0,0
;   temperatureRelayBetweenLoops,0,0
;   fanLayers,1
;   fanSpeeds,0
;   blipFanToFullPower,1
;   adjustSpeedForCooling,1
;   minSpeedLayerTime,15
;   minCoolingSpeedSlowdown,30
;   increaseFanForCooling,0
;   minFanLayerTime,45
;   maxCoolingFanSpeed,100
;   increaseFanForBridging,0
;   bridgingFanSpeed,100
;   use5D,1
;   relativeEdistances,0
;   allowEaxisZeroing,1
;   independentExtruderAxes,0
;   includeM10123,0
;   stickySupport,1
;   applyToolheadOffsets,0
;   gcodeXoffset,0
;   gcodeYoffset,0
;   gcodeZoffset,0
;   overrideMachineDefinition,1
;   machineTypeOverride,0
;   strokeXoverride,195
;   strokeYoverride,195
;   strokeZoverride,150
;   originOffsetXoverride,0
;   originOffsetYoverride,0
;   originOffsetZoverride,0
;   homeXdirOverride,-1
;   homeYdirOverride,-1
;   homeZdirOverride,-1
;   flipXoverride,1
;   flipYoverride,-1
;   flipZoverride,1
;   toolheadOffsets,0,0|0,0|0,0|0,0|0,0|0,0
;   overrideFirmwareConfiguration,1
;   firmwareTypeOverride,RepRap (Marlin/Repetier/Sprinter)
;   GPXconfigOverride,r2
;   baudRateOverride,115200
;   overridePrinterModels,0
;   printerModelsOverride
;   startingGcode,G28,
;   layerChangeGcode,
;   retractionGcode,
;   toolChangeGcode,
;   endingGcode,M104 S0 ; turn off extruder,M140 S0 ; turn off bed,G28 X0 ; home X axis,M84 ; disable motors,M107 ; turn off fan
;   exportFileFormat,gcode
;   celebration,0
;   celebrationSong,Random Song
;   postProcessing,
;   defaultSpeed,3600
;   outlineUnderspeed,0.7
;   solidInfillUnderspeed,0.8
;   supportUnderspeed,0.8
;   rapidXYspeed,7800
;   rapidZspeed,1002
;   minBridgingArea,5
;   bridgingExtraInflation,0
;   bridgingExtrusionMultiplier,1
;   bridgingSpeedMultiplier,0.3
;   filamentDiameter,1.75
;   filamentPricePerKg,1000
;   filamentDensity,1.25
;   useMinPrintHeight,1
;   minPrintHeight,0
;   useMaxPrintHeight,1
;   maxPrintHeight,1
;   useDiaphragm,0
;   diaphragmLayerInterval,20
;   robustSlicing,1
;   mergeAllIntoSolid,0
;   onlyRetractWhenCrossingOutline,0
;   retractBetweenLayers,0
;   useRetractionMinTravel,0
;   retractionMinTravel,3
;   retractWhileWiping,0
;   onlyWipeOutlines,1
;   avoidCrossingOutline,0
;   maxMovementDetourFactor,3
;   toolChangeRetractionDistance,0
;   toolChangeExtraRestartDistance,0
;   toolChangeRetractionSpeed,360
;   allowThinWallGapFill,1
;   thinWallAllowedOverlapPercentage,10
;   horizontalSizeCompensation,0
G90
M82
M106 S0
M140 S56
M190 S56
M104 S230 T0
M109 S230 T0
G28
G92 E0
G1 E-0.8000 F1800
G1 Z0.225 F1002
; layer 1, Z = 0.225
T0
; tool H0.250 W0.462
; skirt
G1 X74.631 Y80.046 F7800
G1 E0.1200 F540
G92 E0
G1 X78.944 Y76.107 E0.2860 F1800
G1 X78.949 Y76.103 E0.2864
G1 X84.133 Y71.447 E0.6276
G1 X84.137 Y71.443 E0.6279
G1 X87.649 Y68.338 E0.8575
G1 X87.655 Y68.333 E0.8578
G1 X93.041 Y63.657 E1.2072
G1 X93.047 Y63.651 E1.2075
G1 X103.850 Y54.457 E1.9023
G1 X103.856 Y54.452 E1.9027
G1 X111.150 Y48.359 E2.3682
G1 X111.157 Y48.353 E2.3686
G1 X118.074 Y42.697 E2.8062
G1 X123.962 Y37.752 E3.1828
G1 X123.965 Y37.750 E3.1830
G1 X137.741 Y26.273 E4.0612
G1 X150.204 Y15.776 E4.8593
G1 X150.274 Y15.751 E4.8630
G1 X151.384 Y15.760 E4.9173
G1 X151.454 Y15.786 E4.9210
G1 X152.936 Y17.075 E5.0172
G1 X152.974 Y17.149 E5.0212
G1 X153.067 Y18.377 E5.0816
G1 X153.042 Y18.456 E5.0856
G1 X142.781 Y30.576 E5.8634
G1 X137.139 Y37.407 E6.2974
G1 X132.859 Y42.731 E6.6319
G1 X124.990 Y52.724 E7.2550
G1 X124.985 Y52.730 E7.2553
G1 X103.103 Y79.992 E8.9675
G1 X103.101 Y79.994 E8.9676
G1 X98.718 Y85.412 E9.3090
G1 X98.715 Y85.417 E9.3092
G1 X89.904 Y96.155 E9.9895
G1 X89.899 Y96.161 E9.9899
G1 X85.335 Y101.610 E10.3380
G1 X85.332 Y101.614 E10.3383
G1 X77.729 Y110.566 E10.9135
G1 X77.726 Y110.569 E10.9137
G1 X73.940 Y114.987 E11.1986
G1 X73.936 Y114.992 E11.1989
G1 X70.934 Y118.437 E11.4227
G1 X70.928 Y118.444 E11.4232
G1 X67.930 Y121.804 E11.6437
G1 X67.923 Y121.812 E11.6442
G1 X64.868 Y125.150 E11.8658
G1 X64.863 Y125.155 E11.8661
G1 X57.650 Y132.899 E12.3844
G1 X57.648 Y132.901 E12.3845
G1 X54.364 Y136.405 E12.6198
G1 X54.356 Y136.413 E12.6203
G1 X51.157 Y139.734 E12.8461
G1 X51.146 Y139.745 E12.8468
G1 X47.971 Y142.913 E13.0664
G1 X47.960 Y142.923 E13.0671
G1 X45.503 Y145.284 E13.2340
G1 X45.495 Y145.293 E13.2345
G1 X43.805 Y146.870 E13.3477
G1 X43.792 Y146.881 E13.3485
G1 X40.333 Y149.974 E13.5757
G1 X40.317 Y149.987 E13.5766
G1 X38.552 Y151.485 E13.6899
G1 X38.539 Y151.497 E13.6908
G1 X35.960 Y153.591 E13.8534
G1 X35.944 Y153.603 E13.8543
G1 X34.256 Y154.908 E13.9588
G1 X34.240 Y154.920 E13.9597
G1 X32.763 Y156.005 E14.0494
G1 X32.761 Y156.006 E14.0495
G1 X32.740 Y156.022 E14.0508
G1 X32.738 Y156.023 E14.0509
G1 X30.814 Y157.335 E14.1650
G1 X30.812 Y157.336 E14.1651
G1 X30.786 Y157.353 E14.1666
G1 X30.784 Y157.354 E14.1667
G1 X29.658 Y158.055 E14.2317
G1 X29.657 Y158.056 E14.2318
G1 X29.628 Y158.073 E14.2334
G1 X29.626 Y158.075 E14.2335
G1 X28.198 Y158.879 E14.3138
G1 X28.195 Y158.881 E14.3139
G1 X28.155 Y158.901 E14.3161
G1 X28.152 Y158.903 E14.3163
G1 X26.879 Y159.523 E14.3857
G1 X26.876 Y159.524 E14.3858
G1 X26.834 Y159.543 E14.3881
G1 X26.831 Y159.545 E14.3882
G1 X26.054 Y159.865 E14.4294
G1 X26.051 Y159.867 E14.4296
G1 X26.004 Y159.884 E14.4321
G1 X26.001 Y159.886 E14.4322
G1 X24.942 Y160.242 E14.4869
G1 X24.938 Y160.243 E14.4872
G1 X24.876 Y160.261 E14.4903
G1 X24.872 Y160.262 E14.4905
G1 X23.901 Y160.500 E14.5395
G1 X23.897 Y160.501 E14.5397
G1 X23.836 Y160.513 E14.5427
G1 X23.832 Y160.514 E14.5429
G1 X23.230 Y160.610 E14.5728
G1 X23.226 Y160.610 E14.5730
G1 X23.165 Y160.617 E14.5760
G1 X23.161 Y160.618 E14.5762
G1 X22.592 Y160.662 E14.6041
G1 X22.586 Y160.662 E14.6044
G1 X22.505 Y160.664 E14.6084
G1 X22.499 Y160.664 E14.6087
G1 X22.012 Y160.649 E14.6326
G1 X22.006 Y160.648 E14.6329
G1 X21.918 Y160.641 E14.6371
G1 X21.912 Y160.640 E14.6374
G1 X21.481 Y160.576 E14.6588
G1 X21.472 Y160.574 E14.6592
G1 X21.352 Y160.546 E14.6653
G1 X21.344 Y160.544 E14.6657
G1 X20.664 Y160.325 E14.7007
G1 X20.654 Y160.321 E14.7012
G1 X20.513 Y160.259 E14.7088
G1 X20.503 Y160.255 E14.7093
G1 X19.770 Y159.839 E14.7506
G1 X19.762 Y159.834 E14.7510
G1 X19.646 Y159.753 E14.7580
G1 X19.638 Y159.747 E14.7584
G1 X19.228 Y159.399 E14.7848
G1 X19.220 Y159.392 E14.7853
G1 X19.108 Y159.274 E14.7933
G1 X19.101 Y159.266 E14.7938
G1 X18.637 Y158.658 E14.8313
G1 X18.631 Y158.650 E14.8318
G1 X18.553 Y158.524 E14.8390
G1 X18.548 Y158.514 E14.8395
G1 X18.150 Y157.703 E14.8838
G1 X18.146 Y157.694 E14.8843
G1 X18.095 Y157.559 E14.8913
G1 X18.092 Y157.550 E14.8918
G1 X17.828 Y156.573 E14.9414
G1 X17.826 Y156.567 E14.9417
G1 X17.809 Y156.484 E14.9459
G1 X17.808 Y156.478 E14.9461
G1 X17.710 Y155.842 E14.9777
G1 X17.710 Y155.838 E14.9779
G1 X17.703 Y155.779 E14.9808
G1 X17.703 Y155.775 E14.9810
G1 X17.626 Y154.729 E15.0323
G1 X17.626 Y154.724 E15.0326
G1 X17.624 Y154.658 E15.0358
G1 X17.624 Y154.654 E15.0360
G1 X17.641 Y153.480 E15.0935
G1 X17.641 Y153.475 E15.0938
G1 X17.645 Y153.408 E15.0970
G1 X17.645 Y153.403 E15.0973
G1 X17.780 Y152.114 E15.1608
G1 X17.780 Y152.110 E15.1610
G1 X17.790 Y152.047 E15.1641
G1 X17.790 Y152.043 E15.1643
G1 X18.066 Y150.590 E15.2367
G1 X18.067 Y150.587 E15.2369
G1 X18.076 Y150.543 E15.2391
G1 X18.077 Y150.540 E15.2392
G1 X18.354 Y149.439 E15.2948
G1 X18.355 Y149.437 E15.2949
G1 X18.363 Y149.405 E15.2966
G1 X18.364 Y149.403 E15.2967
G1 X18.729 Y148.181 E15.3591
G1 X18.730 Y148.179 E15.3592
G1 X18.740 Y148.146 E15.3609
G1 X18.741 Y148.144 E15.3610
G1 X19.239 Y146.718 E15.4350
G1 X19.240 Y146.716 E15.4351
G1 X19.251 Y146.685 E15.4368
G1 X19.252 Y146.683 E15.4369
G1 X19.864 Y145.154 E15.5175
G1 X19.865 Y145.152 E15.5176
G1 X19.877 Y145.123 E15.5191
G1 X19.878 Y145.121 E15.5192
G1 X20.641 Y143.419 E15.6106
G1 X20.642 Y143.417 E15.6107
G1 X20.652 Y143.394 E15.6120
G1 X20.653 Y143.393 E15.6121
G1 X21.521 Y141.619 E15.7088
G1 X21.531 Y141.599 E15.7098
G1 X22.557 Y139.641 E15.8180
G1 X22.566 Y139.623 E15.8189
G1 X23.687 Y137.607 E15.9318
G1 X23.688 Y137.606 E15.9319
G1 X23.699 Y137.586 E15.9330
G1 X23.700 Y137.585 E15.9331
G1 X25.495 Y134.571 E16.1049
G1 X25.496 Y134.569 E16.1050
G1 X25.511 Y134.544 E16.1064
G1 X25.512 Y134.543 E16.1065
G1 X28.045 Y130.647 E16.3341
G1 X28.046 Y130.646 E16.3342
G1 X28.061 Y130.623 E16.3355
G1 X28.062 Y130.622 E16.3356
G1 X30.027 Y127.823 E16.5031
G1 X30.038 Y127.807 E16.5040
G1 X31.373 Y125.998 E16.6140
G1 X31.382 Y125.985 E16.6148
G1 X33.438 Y123.310 E16.7800
G1 X33.447 Y123.297 E16.7807
G1 X36.353 Y119.664 E17.0085
G1 X36.361 Y119.653 E17.0091
G1 X39.433 Y115.941 E17.2451
G1 X39.441 Y115.931 E17.2457
G1 X41.778 Y113.197 E17.4218
G1 X41.786 Y113.188 E17.4224
G1 X44.110 Y110.552 E17.5944
G1 X44.119 Y110.543 E17.5950
G1 X47.204 Y107.157 E17.8193
G1 X47.214 Y107.147 E17.8200
G1 X51.084 Y103.047 E18.0961
G1 X51.091 Y103.039 E18.0966
G1 X55.059 Y98.943 E18.3759
G1 X55.065 Y98.937 E18.3763
G1 X59.169 Y94.789 E18.6620
G1 X59.177 Y94.781 E18.6626
G1 X62.533 Y91.481 E18.8930
G1 X62.539 Y91.475 E18.8934
G1 X65.946 Y88.198 E19.1249
G1 X65.951 Y88.193 E19.1253
G1 X71.146 Y83.283 E19.4753
G1 X71.151 Y83.279 E19.4756
G1 X74.530 Y80.139 E19.7016
G1 X74.626 Y80.051 F1800
G1 X74.631 Y80.046 F1800
G92 E0
G1 E-0.8000 F1800
G1 X94.798 Y105.130 F7800
G1 E0.1200 F1800
G92 E0
G1 X94.802 Y105.127 E0.0003 F1800
G1 X100.251 Y100.678 E0.3448
G1 X100.256 Y100.673 E0.3451
G1 X111.059 Y92.005 E1.0235
G1 X111.063 Y92.002 E1.0237
G1 X140.321 Y68.874 E2.8504
G1 X140.327 Y68.869 E2.8508
G1 X150.380 Y61.075 E3.4738
G1 X155.736 Y56.836 E3.8083
G1 X162.610 Y51.245 E4.2423
G1 X174.807 Y41.077 E5.0201
G1 X174.886 Y41.052 E5.0242
G1 X176.113 Y41.155 E5.0845
G1 X176.187 Y41.192 E5.0885
G1 X177.465 Y42.684 E5.1847
G1 X177.491 Y42.755 E5.1884
G1 X177.491 Y43.864 E5.2428
G1 X177.465 Y43.935 E5.2465
G1 X166.872 Y56.321 E6.0447
G1 X155.294 Y70.007 E6.9228
G1 X155.292 Y70.010 E6.9229
G1 X150.301 Y75.860 E7.2996
G1 X144.594 Y82.733 E7.7371
G1 X144.590 Y82.738 E7.7374
G1 X140.703 Y87.342 E8.0326
G1 X140.697 Y87.348 E8.0329
G1 X130.722 Y98.934 E8.7817
G1 X130.717 Y98.940 E8.7821
G1 X126.010 Y104.310 E9.1318
G1 X126.006 Y104.316 E9.1321
G1 X122.083 Y108.710 E9.4206
G1 X122.078 Y108.717 E9.4210
G1 X115.814 Y115.586 E9.8763
G1 X115.809 Y115.591 E9.8766
G1 X112.624 Y119.020 E10.1059
G1 X112.619 Y119.027 E10.1062
G1 X106.894 Y125.063 E10.5137
G1 X106.889 Y125.068 E10.5140
G1 X103.586 Y128.489 E10.7469
G1 X103.580 Y128.494 E10.7473
G1 X99.445 Y132.698 E11.0360
G1 X99.436 Y132.708 E11.0367
G1 X94.424 Y137.634 E11.3808
G1 X94.415 Y137.642 E11.3814
G1 X88.636 Y143.155 E11.7725
G1 X88.629 Y143.162 E11.7730
G1 X86.151 Y145.466 E11.9387
G1 X86.142 Y145.475 E11.9393
G1 X81.900 Y149.298 E12.2189
G1 X81.886 Y149.311 E12.2198
G1 X77.411 Y153.156 E12.5087
G1 X77.399 Y153.167 E12.5094
G1 X74.603 Y155.475 E12.6870
G1 X74.595 Y155.482 E12.6875
G1 X71.799 Y157.730 E12.8632
G1 X71.791 Y157.737 E12.8636
G1 X69.062 Y159.875 E13.0334
G1 X69.051 Y159.884 E13.0340
G1 X66.361 Y161.918 E13.1992
G1 X66.348 Y161.928 E13.1999
G1 X64.530 Y163.248 E13.3099
G1 X64.518 Y163.256 E13.3106
G1 X62.655 Y164.557 E13.4218
G1 X62.642 Y164.566 E13.4226
G1 X60.725 Y165.849 E13.5355
G1 X60.707 Y165.860 E13.5365
G1 X57.755 Y167.726 E13.7075
G1 X57.736 Y167.738 E13.7085
G1 X55.720 Y168.934 E13.8232
G1 X55.704 Y168.943 E13.8241
G1 X53.673 Y170.084 E13.9381
G1 X53.656 Y170.093 E13.9390
G1 X51.655 Y171.154 E14.0499
G1 X51.636 Y171.164 E14.0508
G1 X49.717 Y172.118 E14.1557
G1 X49.716 Y172.118 E14.1558
G1 X49.696 Y172.128 E14.1569
G1 X49.694 Y172.129 E14.1570
G1 X47.982 Y172.917 E14.2493
G1 X47.981 Y172.918 E14.2494
G1 X47.955 Y172.929 E14.2508
G1 X47.953 Y172.930 E14.2509
G1 X46.330 Y173.604 E14.3369
G1 X46.328 Y173.605 E14.3371
G1 X46.290 Y173.620 E14.3390
G1 X46.287 Y173.621 E14.3392
G1 X44.124 Y174.386 E14.4516
G1 X44.121 Y174.387 E14.4517
G1 X44.088 Y174.398 E14.4534
G1 X44.086 Y174.398 E14.4535
G1 X43.441 Y174.593 E14.4865
G1 X43.439 Y174.594 E14.4867
G1 X43.407 Y174.603 E14.4883
G1 X43.405 Y174.603 E14.4884
G1 X41.723 Y175.033 E14.5734
G1 X41.720 Y175.034 E14.5735
G1 X41.678 Y175.044 E14.5757
G1 X41.675 Y175.044 E14.5758
G1 X40.671 Y175.240 E14.6259
G1 X40.668 Y175.241 E14.6261
G1 X40.618 Y175.249 E14.6286
G1 X40.614 Y175.249 E14.6287
G1 X39.284 Y175.417 E14.6944
G1 X39.280 Y175.417 E14.6946
G1 X39.224 Y175.422 E14.6973
G1 X39.221 Y175.422 E14.6975
G1 X38.398 Y175.465 E14.7379
G1 X38.395 Y175.465 E14.7380
G1 X38.350 Y175.466 E14.7402
G1 X38.347 Y175.466 E14.7404
G1 X37.575 Y175.459 E14.7782
G1 X37.572 Y175.459 E14.7783
G1 X37.528 Y175.458 E14.7805
G1 X37.525 Y175.457 E14.7806
G1 X36.797 Y175.409 E14.8164
G1 X36.792 Y175.409 E14.8166
G1 X36.724 Y175.401 E14.8200
G1 X36.719 Y175.400 E14.8202
G1 X35.508 Y175.207 E14.8802
G1 X35.501 Y175.206 E14.8806
G1 X35.401 Y175.182 E14.8857
G1 X35.394 Y175.181 E14.8860
G1 X34.681 Y174.964 E14.9225
G1 X34.675 Y174.961 E14.9228
G1 X34.582 Y174.926 E14.9277
G1 X34.575 Y174.924 E14.9280
G1 X34.038 Y174.678 E14.9570
G1 X34.032 Y174.675 E14.9573
G1 X33.947 Y174.630 E14.9620
G1 X33.941 Y174.627 E14.9623
G1 X33.443 Y174.318 E14.9910
G1 X33.438 Y174.314 E14.9914
G1 X33.360 Y174.259 E14.9960
G1 X33.355 Y174.255 E14.9964
G1 X33.046 Y174.004 E15.0158
G1 X33.040 Y173.999 E15.0162
G1 X32.956 Y173.919 E15.0219
G1 X32.950 Y173.913 E15.0223
G1 X32.620 Y173.548 E15.0464
G1 X32.615 Y173.542 E15.0468
G1 X32.546 Y173.453 E15.0523
G1 X32.541 Y173.447 E15.0527
G1 X32.242 Y172.995 E15.0793
G1 X32.238 Y172.988 E15.0796
