; G-Code generated by Simplify3D(R) Version 3.1.0
; 4 3, 2017 at 4:31:28 ODP.
; Settings Summary
;   processName,thick
;   applyToModels,cessna_152_strut_L
;   profileName,Default (modified)
;   profileVersion,2016-04-14 15:44:02
;   baseProfile,Default
;   printMaterial,
;   printQuality,
;   printExtruders,
;   extruderName,Primary Extruder
;   extruderToolheadNumber,0
;   extruderDiameter,0.4
;   extruderAutoWidth,0
;   extruderWidth,0.42
;   extrusionMultiplier,1.02
;   extruderUseRetract,1
;   extruderRetractionDistance,0.8
;   extruderExtraRestartDistance,0
;   extruderRetractionZLift,0
;   extruderRetractionSpeed,1800
;   extruderUseCoasting,1
;   extruderCoastingDistance,0.2
;   extruderUseWipe,1
;   extruderWipeDistance,2
;   primaryExtruder,0
;   layerHeight,0.2
;   topSolidLayers,4
;   bottomSolidLayers,1
;   perimeterOutlines,1
;   printPerimetersInsideOut,1
;   startPointOption,3
;   startPointOriginX,200
;   startPointOriginY,0
;   startPointOriginZ,-300
;   sequentialIslands,0
;   spiralVaseMode,0
;   firstLayerHeightPercentage,90
;   firstLayerWidthPercentage,110
;   firstLayerUnderspeed,0.5
;   useRaft,0
;   raftExtruder,0
;   raftLayers,3
;   raftOffset,3
;   raftSeparationDistance,0.14
;   raftInfill,85
;   disableRaftBaseLayers,0
;   useSkirt,1
;   skirtExtruder,0
;   skirtLayers,1
;   skirtOutlines,1
;   skirtOffset,1.4
;   usePrimePillar,0
;   primePillarExtruder,999
;   primePillarWidth,12
;   primePillarLocation,7
;   primePillarSpeedMultiplier,1
;   useOozeShield,0
;   oozeShieldExtruder,999
;   oozeShieldOffset,2
;   oozeShieldOutlines,1
;   oozeShieldSidewallShape,1
;   oozeShieldSidewallAngle,30
;   oozeShieldSpeedMultiplier,1
;   infillExtruder,0
;   internalInfillPattern,Rectilinear
;   externalInfillPattern,Rectilinear
;   infillPercentage,6
;   outlineOverlapPercentage,15
;   infillExtrusionWidthPercentage,100
;   minInfillLength,5
;   infillLayerInterval,1
;   infillAngles,45,-45
;   overlapInfillAngles,0
;   generateSupport,0
;   supportExtruder,0
;   supportInfillPercentage,30
;   supportExtraInflation,0
;   denseSupportLayers,0
;   denseSupportInfillPercentage,70
;   supportLayerInterval,1
;   supportHorizontalPartOffset,0.3
;   supportUpperSeparationLayers,1
;   supportLowerSeparationLayers,1
;   supportType,0
;   supportGridSpacing,4
;   maxOverhangAngle,45
;   supportAngles,0
;   temperatureName,Primary Extruder,Heated Bed
;   temperatureNumber,0,1
;   temperatureSetpointCount,1,1
;   temperatureSetpointLayers,1,1
;   temperatureSetpointTemperatures,230,50
;   temperatureStabilizeAtStartup,1,1
;   temperatureHeatedBed,0,1
;   temperatureRelayBetweenLayers,0,0
;   temperatureRelayBetweenLoops,0,0
;   fanLayers,1
;   fanSpeeds,0
;   blipFanToFullPower,1
;   adjustSpeedForCooling,1
;   minSpeedLayerTime,15
;   minCoolingSpeedSlowdown,30
;   increaseFanForCooling,0
;   minFanLayerTime,45
;   maxCoolingFanSpeed,100
;   increaseFanForBridging,0
;   bridgingFanSpeed,100
;   use5D,1
;   relativeEdistances,0
;   allowEaxisZeroing,1
;   independentExtruderAxes,0
;   includeM10123,0
;   stickySupport,1
;   applyToolheadOffsets,0
;   gcodeXoffset,0
;   gcodeYoffset,0
;   gcodeZoffset,0
;   overrideMachineDefinition,1
;   machineTypeOverride,0
;   strokeXoverride,195
;   strokeYoverride,195
;   strokeZoverride,150
;   originOffsetXoverride,0
;   originOffsetYoverride,0
;   originOffsetZoverride,0
;   homeXdirOverride,-1
;   homeYdirOverride,-1
;   homeZdirOverride,-1
;   flipXoverride,1
;   flipYoverride,-1
;   flipZoverride,1
;   toolheadOffsets,0,0|0,0|0,0|0,0|0,0|0,0
;   overrideFirmwareConfiguration,1
;   firmwareTypeOverride,RepRap (Marlin/Repetier/Sprinter)
;   GPXconfigOverride,r2
;   baudRateOverride,115200
;   overridePrinterModels,0
;   printerModelsOverride
;   startingGcode,G28,
;   layerChangeGcode,
;   retractionGcode,
;   toolChangeGcode,
;   endingGcode,M104 S0 ; turn off extruder,M140 S0 ; turn off bed,G28 X0 ; home X axis,M84 ; disable motors,M107 ; turn off fan
;   exportFileFormat,gcode
;   celebration,0
;   celebrationSong,Random Song
;   postProcessing,
;   defaultSpeed,3600
;   outlineUnderspeed,0.7
;   solidInfillUnderspeed,0.8
;   supportUnderspeed,0.8
;   rapidXYspeed,7800
;   rapidZspeed,1002
;   minBridgingArea,5
;   bridgingExtraInflation,0
;   bridgingExtrusionMultiplier,1
;   bridgingSpeedMultiplier,0.3
;   filamentDiameter,1.75
;   filamentPricePerKg,1000
;   filamentDensity,1.25
;   useMinPrintHeight,0
;   minPrintHeight,0
;   useMaxPrintHeight,0
;   maxPrintHeight,1
;   useDiaphragm,0
;   diaphragmLayerInterval,20
;   robustSlicing,1
;   mergeAllIntoSolid,0
;   onlyRetractWhenCrossingOutline,0
;   retractBetweenLayers,0
;   useRetractionMinTravel,0
;   retractionMinTravel,3
;   retractWhileWiping,0
;   onlyWipeOutlines,1
;   avoidCrossingOutline,0
;   maxMovementDetourFactor,3
;   toolChangeRetractionDistance,0
;   toolChangeExtraRestartDistance,0
;   toolChangeRetractionSpeed,360
;   allowThinWallGapFill,1
;   thinWallAllowedOverlapPercentage,10
;   horizontalSizeCompensation,0
G90
M82
M106 S0
M140 S50
M190 S50
M104 S230 T0
M109 S230 T0
G28
G92 E0
G1 E-0.8000 F1800
G1 Z0.180 F1002
; layer 1, Z = 0.18
T0
; tool H0.200 W0.462
; skirt
G1 X5.532 Y4.226 F7800
G1 E0.0000 F540
G92 E0
G1 X6.987 Y2.444 E0.0901 F1800
G1 X7.126 Y2.412 E0.0957
G1 X10.549 Y3.968 E0.2431
G1 X16.145 Y6.519 E0.4840
G1 X16.211 Y6.612 E0.4885
G1 X16.364 Y8.349 E0.5568
G1 X16.316 Y8.452 E0.5613
G1 X16.269 Y8.484 E0.5635
G1 X18.425 Y10.323 E0.6745
G1 X18.442 Y10.337 E0.6753
G1 X20.922 Y12.570 E0.8060
G1 X20.929 Y12.576 E0.8064
G1 X24.528 Y15.897 E0.9983
G1 X24.658 Y16.006 E1.0049
G1 X24.866 Y15.179 E1.0383
G1 X24.946 Y15.098 E1.0428
G1 X26.654 Y14.646 E1.1120
G1 X26.765 Y14.677 E1.1165
G1 X30.647 Y18.737 E1.3366
G1 X42.041 Y29.963 E1.9633
G1 X69.701 Y56.813 E3.4738
G1 X105.412 Y91.597 E5.4272
G1 X105.415 Y91.601 E5.4273
G1 X140.910 Y126.583 E7.3801
G1 X140.912 Y126.584 E7.3802
G1 X168.306 Y153.675 E8.8898
G1 X179.769 Y164.841 E9.5169
G1 X183.943 Y168.670 E9.7388
G1 X183.976 Y168.782 E9.7434
G1 X183.506 Y170.536 E9.8146
G1 X183.421 Y170.617 E9.8192
G1 X182.609 Y170.798 E9.8518
G1 X187.132 Y175.504 E10.1076
G1 X187.144 Y175.517 E10.1082
G1 X189.373 Y177.941 E10.2372
G1 X189.383 Y177.953 E10.2377
G1 X190.238 Y178.919 E10.2883
G1 X190.331 Y178.796 E10.2943
G1 X190.433 Y178.753 E10.2986
G1 X192.112 Y178.936 E10.3648
G1 X192.202 Y179.000 E10.3691
G1 X196.277 Y187.766 E10.7479
G1 X196.246 Y187.905 E10.7535
G1 X194.497 Y189.376 E10.8430
G1 X194.355 Y189.382 E10.8486
G1 X190.651 Y186.809 E11.0253
G1 X187.484 Y184.725 E11.1739
G1 X190.094 Y188.504 E11.3539
G1 X192.871 Y192.322 E11.5389
G1 X192.867 Y192.464 E11.5445
G1 X191.430 Y194.245 E11.6341
G1 X191.291 Y194.279 E11.6397
G1 X182.451 Y190.369 E12.0185
G1 X182.385 Y190.281 E12.0228
G1 X182.170 Y188.605 E12.0890
G1 X182.212 Y188.503 E12.0933
G1 X182.329 Y188.410 E12.0992
G1 X181.349 Y187.578 E12.1496
G1 X181.338 Y187.568 E12.1501
G1 X178.867 Y185.392 E12.2791
G1 X178.854 Y185.380 E12.2798
G1 X174.049 Y180.948 E12.5358
G1 X174.043 Y180.943 E12.5362
G1 X173.884 Y181.736 E12.5679
G1 X173.804 Y181.823 E12.5725
G1 X172.061 Y182.330 E12.6436
G1 X171.948 Y182.299 E12.6482
G1 X168.041 Y178.219 E12.8695
G1 X156.642 Y167.001 E13.4962
G1 X128.976 Y140.175 E15.0062
G1 X93.250 Y105.410 E16.9594
G1 X93.246 Y105.406 E16.9596
G1 X57.711 Y70.426 E18.9134
G1 X30.281 Y43.328 E20.4242
G1 X18.826 Y32.177 E21.0506
G1 X14.699 Y28.389 E21.2701
G1 X14.665 Y28.280 E21.2746
G1 X15.081 Y26.563 E21.3439
G1 X15.161 Y26.480 E21.3483
G1 X15.963 Y26.261 E21.3809
G1 X15.865 Y26.149 E21.3867
G1 X12.443 Y22.597 E21.5800
G1 X12.436 Y22.590 E21.5803
G1 X10.152 Y20.157 E21.7111
G1 X10.137 Y20.141 E21.7119
G1 X8.256 Y18.026 E21.8227
G1 X8.227 Y18.071 E21.8248
G1 X8.125 Y18.122 E21.8293
G1 X6.385 Y18.007 E21.8976
G1 X6.291 Y17.944 E21.9021
G1 X1.976 Y9.021 E22.2904
G1 X2.006 Y8.881 E22.2960
G1 X3.769 Y7.386 E22.3866
G1 X3.912 Y7.379 E22.3922
G1 X6.768 Y9.393 E22.5292
G1 X11.672 Y12.682 E22.7605
G1 X11.721 Y12.771 E22.7645
G1 X11.757 Y13.913 E22.8093
G1 X13.250 Y15.442 E22.8930
G1 X13.257 Y15.450 E22.8934
G1 X16.988 Y19.379 E23.1057
G1 X19.518 Y21.960 E23.2473
G1 X20.721 Y23.117 E23.3127
G1 X21.871 Y24.087 E23.3717
G1 X22.404 Y24.500 E23.3981
G1 X22.899 Y24.365 E23.4182
G1 X22.720 Y23.791 E23.4417
G1 X22.718 Y23.733 E23.4440
G1 X23.027 Y22.505 E23.4936
G1 X22.592 Y21.964 E23.5208
G1 X21.618 Y20.854 E23.5787
G1 X20.437 Y19.676 E23.6440
G1 X17.802 Y17.202 E23.7857
G1 X13.795 Y13.553 E23.9980
G1 X13.787 Y13.546 E23.9984
G1 X12.239 Y12.098 E24.0814
G1 X11.066 Y12.083 E24.1274
G1 X10.976 Y12.036 E24.1314
G1 X8.274 Y8.149 E24.3169
G1 X5.546 Y4.394 E24.4988
G1 X5.528 Y4.369 F1800
G1 X5.532 Y4.226 F1800
G92 E0
G1 E-0.8000 F1800
G1 X175.505 Y172.375 F7800
G1 E0.0000 F1800
G92 E0
G1 X175.655 Y172.815 E0.0182 F1800
G1 X175.658 Y172.870 E0.0204
G1 X175.395 Y174.186 E0.0729
G1 X175.854 Y174.754 E0.1016
G1 X176.849 Y175.887 E0.1606
G1 X178.031 Y177.064 E0.2260
G1 X181.971 Y180.752 E0.4375
G1 X184.621 Y183.149 E0.5775
G1 X184.631 Y183.158 E0.5780
G1 X186.122 Y184.553 E0.6580
G1 X187.185 Y184.528 E0.6996
G1 X186.482 Y184.066 E0.7326
G1 X186.432 Y183.972 E0.7367
G1 X186.434 Y182.784 E0.7833
G1 X185.041 Y181.354 E0.8615
G1 X185.031 Y181.345 E0.8620
G1 X182.578 Y178.744 E1.0021
G1 X178.808 Y174.881 E1.2135
G1 X177.588 Y173.706 E1.2799
G1 X176.455 Y172.754 E1.3379
G1 X175.860 Y172.297 E1.3673
G1 X175.697 Y172.333 E1.3739
G1 X175.505 Y172.375 F1800
G92 E0
G1 E-0.8000 F1800
; outer perimeter
G1 X4.527 Y10.066 F7800
G1 E0.0000 F1800
G92 E0
G1 X5.724 Y10.910 E0.0574 F1260
G1 X6.709 Y11.582 E0.1041
G1 X9.740 Y13.604 E0.2469
G1 X9.249 Y13.979 E0.2711
G1 X11.927 Y16.723 E0.4213
G1 X14.399 Y19.347 E0.5626
G1 X15.664 Y20.658 E0.6339
G1 X18.222 Y23.268 E0.7771
G1 X19.488 Y24.486 E0.8460
G1 X20.714 Y25.519 E0.9088
G1 X22.003 Y26.518 E0.9727
G1 X23.560 Y26.092 E1.0360
G1 X25.460 Y28.173 E1.1464
G1 X35.760 Y38.557 E1.7195
G1 X62.674 Y65.352 E3.2076
G1 X98.051 Y100.232 E5.1542
G1 X133.684 Y134.823 E7.1002
G1 X161.034 Y161.124 E8.5870
G1 X171.627 Y171.183 E9.1594
G1 X173.748 Y173.036 E9.2697
G1 X173.420 Y174.671 E9.3350
G1 X174.446 Y175.940 E9.3990
G1 X175.507 Y177.148 E9.4620
G1 X176.752 Y178.388 E9.5308
G1 X180.724 Y182.106 E9.7440
G1 X183.380 Y184.509 E9.8844
G1 X186.179 Y187.128 E10.0346
G1 X186.522 Y186.578 E10.0600
G1 X187.037 Y187.335 E10.0958
G1 X188.592 Y189.568 E10.2025
G1 X189.294 Y190.556 E10.2499
G1 X190.199 Y191.786 E10.3098
G1 X186.312 Y190.084 E10.4760
G1 X184.315 Y189.183 E10.5619
G1 X185.230 Y188.456 E10.6077
G1 X182.547 Y186.180 E10.7455
G1 X180.093 Y184.018 E10.8737
G1 X176.440 Y180.632 E11.0689
G1 X175.262 Y179.563 E11.1312
G1 X174.176 Y178.641 E11.1871
G1 X172.843 Y177.556 E11.2544
G1 X172.344 Y180.050 E11.3541
G1 X169.352 Y176.926 E11.5236
G1 X157.929 Y165.684 E12.1516
G1 X130.258 Y138.854 E13.6618
G1 X94.535 Y104.092 E15.6149
G1 X59.003 Y69.115 E17.5686
G1 X31.570 Y42.014 E19.0796
G1 X20.091 Y30.839 E19.7074
G1 X16.902 Y27.913 E19.8769
G1 X19.274 Y27.264 E19.9733
G1 X18.177 Y25.979 E20.0395
G1 X17.222 Y24.905 E20.0958
G1 X16.103 Y23.727 E20.1595
G1 X13.773 Y21.324 E20.2906
G1 X12.626 Y20.118 E20.3558
G1 X11.503 Y18.907 E20.4206
G1 X10.400 Y17.688 E20.4850
G1 X8.037 Y15.008 E20.6250
G1 X7.389 Y15.993 E20.6712
G1 X6.396 Y13.973 E20.7594
G1 X5.270 Y11.612 E20.8619
G1 X4.714 Y10.451 E20.9124
G1 X4.614 Y10.246 E20.9213
G1 X4.527 Y10.066 F1260
G92 E0
G1 E-0.8000 F1800
G1 X5.724 Y10.910 F3600
G1 X6.166 Y11.212 F3600
; solid layer
G1 X6.426 Y13.124 F7800
G1 E0.0000 F1800
G92 E0
G1 X7.862 Y14.560 E0.0796 F1440
G1 X7.603 Y14.954 E0.0980
G1 X7.180 Y14.531 E0.1215
G1 X7.038 Y14.389 F1440
G92 E0
G1 E-0.8000 F1800
G1 X8.534 Y13.272 F7800
G1 E0.0000 F1800
G92 E0
G1 X8.965 Y13.702 E0.0239 F1440
G1 X8.659 Y13.937 E0.0390
G1 X11.644 Y16.994 E0.2064
G1 X12.293 Y17.684 E0.2435
G1 X6.572 Y11.963 E0.5605
G1 X6.490 Y11.908 E0.5644
G1 X5.536 Y11.257 E0.6096
G1 X5.625 Y11.443 E0.6177
G1 X5.831 Y11.875 E0.6365
G1 X172.287 Y178.331 E9.8605
G1 X172.396 Y177.787 E9.8823
G1 X20.256 Y25.647 E18.3130
G1 X20.467 Y25.825 E18.3238
G1 X21.917 Y26.949 E18.3957
G1 X22.148 Y26.886 E18.4051
G1 X172.505 Y177.243 E26.7370
G1 X172.586 Y176.840 E26.7531
G1 X173.500 Y177.584 E26.7993
G1 X22.661 Y26.745 E35.1579
G1 X23.174 Y26.605 E35.1788
G1 X179.529 Y182.960 E43.8431
G1 X180.356 Y183.726 E43.8873
G1 X182.804 Y185.883 E44.0151
G1 X184.792 Y187.569 E44.1172
G1 X94.843 Y97.620 E49.1017
G1 X97.776 Y100.512 E49.2631
G1 X118.728 Y120.852 E50.4073
G1 X174.696 Y176.820 E53.5087
G1 X174.145 Y176.193 E53.5414
G1 X172.999 Y174.774 E53.6128
G1 X173.050 Y174.521 E53.6230
G1 X139.259 Y140.730 E55.4955
G1 X156.291 Y157.109 E56.4213
G1 X173.159 Y173.976 E57.3561
G1 X173.268 Y173.432 E57.3778
G1 X170.460 Y170.624 E57.5334
G1 X170.319 Y170.483 F1440
G92 E0
G1 E-0.8000 F1800
G1 X186.515 Y187.332 F7800
G1 E0.0000 F1800
G92 E0
G1 X186.655 Y187.472 E0.0078 F1440
G1 X186.713 Y187.558 E0.0118
G1 X188.150 Y189.621 E0.1103
G1 X186.264 Y187.734 E0.2149
G1 X186.260 Y187.741 E0.2151
G1 X183.115 Y184.798 E0.3839
G1 X180.458 Y182.395 E0.5243
G1 X177.538 Y179.662 E0.6810
G1 X188.481 Y190.605 E1.2874
G1 X187.319 Y190.096 E1.3372
G1 X185.759 Y188.537 E1.4236
G1 X185.395 Y188.826 E1.4418
G1 X186.007 Y189.438 E1.4757
G1 X186.149 Y189.579 F1440
G92 E0
G1 E-0.8000 F1800
G1 X18.044 Y28.008 F7800
G1 E0.0000 F1800
G92 E0
G1 X28.987 Y38.952 E0.6065 F1440
G1 X31.845 Y41.734 E0.7627
G1 X59.278 Y68.835 E2.2737
G1 X74.998 Y84.309 E3.1380
G1 X18.557 Y27.868 E6.2657
G1 X19.070 Y27.727 E6.2865
G1 X107.579 Y116.236 E11.1912
G1 X130.532 Y138.571 E12.4461
G1 X131.700 Y139.704 E12.5098
G1 X19.583 Y27.587 E18.7227
G1 X19.974 Y27.480 E18.7386
G1 X19.077 Y26.428 E18.7928
G1 X153.215 Y160.566 E26.2260
G1 X158.203 Y165.403 E26.4982
G1 X169.631 Y176.650 E27.1265
G1 X172.106 Y179.235 E27.2667
G1 X172.178 Y178.876 E27.2811
G1 X10.563 Y17.261 E36.2369
G1 X10.422 Y17.120 F1440
G92 E0
G1 E-0.8000 F1800
; outer perimeter
G1 X14.218 Y7.663 F7800
G1 E0.0000 F1800
G92 E0
G1 X13.250 Y8.331 E0.0461 F1260
G1 X15.979 Y10.637 E0.1861
G1 X17.221 Y11.715 E0.2506
G1 X18.456 Y12.813 E0.3153
G1 X19.685 Y13.933 E0.3805
G1 X22.135 Y16.210 E0.5115
G1 X23.314 Y17.282 E0.5740
G1 X24.401 Y18.207 E0.6299
G1 X25.731 Y19.291 E0.6971
G1 X26.334 Y16.890 E0.7941
G1 X29.335 Y20.029 E0.9643
G1 X40.753 Y31.278 E1.5923
G1 X68.418 Y58.134 E3.1031
G1 X104.125 Y92.914 E5.0563
G1 X139.617 Y127.893 E7.0089
G1 X167.017 Y154.989 E8.5189
G1 X178.504 Y166.179 E9.1472
G1 X181.703 Y169.113 E9.3173
G1 X179.204 Y169.668 E9.4176
G1 X180.319 Y170.988 E9.4853
G1 X181.247 Y172.037 E9.5402
G1 X182.340 Y173.194 E9.6025
G1 X185.798 Y176.772 E9.7975
G1 X188.011 Y179.180 E9.9257
G1 X190.342 Y181.815 E10.0635
G1 X191.052 Y180.886 E10.1093
G1 X191.886 Y182.647 E10.1857
G1 X193.767 Y186.727 E10.3617
G1 X192.508 Y185.844 E10.4219
G1 X191.682 Y185.283 E10.4611
G1 X189.324 Y183.719 E10.5719
G1 X188.467 Y183.165 E10.6120
G1 X189.022 Y182.802 E10.6379
G1 X186.364 Y180.075 E10.7872
G1 X183.906 Y177.469 E10.9275
G1 X180.106 Y173.575 E11.1407
G1 X178.820 Y172.337 E11.2107
G1 X177.609 Y171.319 E11.2727
G1 X176.300 Y170.313 E11.3374
G1 X174.669 Y170.675 E11.4028
G1 X172.770 Y168.592 E11.5133
G1 X162.492 Y158.214 E12.0856
G1 X135.626 Y131.431 E13.5720
G1 X100.304 Y96.544 E15.5174
G1 X64.701 Y61.916 E17.4635
G1 X37.359 Y35.572 E18.9512
G1 X26.763 Y25.493 E19.5242
G1 X24.641 Y23.634 E19.6348
G1 X25.035 Y22.065 E19.6981
G1 X24.002 Y20.780 E19.7628
G1 X22.961 Y19.594 E19.8246
G1 X21.718 Y18.353 E19.8934
G1 X19.053 Y15.851 E20.0366
G1 X17.716 Y14.613 E20.1080
G1 X15.039 Y12.195 E20.2494
G1 X12.236 Y9.575 E20.3997
G1 X11.862 Y10.086 E20.4245
G1 X9.776 Y7.084 E20.5677
G1 X9.083 Y6.110 E20.6146
G1 X8.217 Y4.930 E20.6719
G1 X9.788 Y5.645 E20.7396
G1 X11.075 Y6.219 E20.7948
G1 X14.036 Y7.579 E20.9225
G1 X14.218 Y7.663 F1260
G92 E0
G1 E-0.8000 F1800
G1 X13.250 Y8.331 F3600
G1 X13.878 Y8.863 F3600
; solid layer
G1 X13.053 Y7.990 F7800
G1 E0.0000 F1800
G92 E0
G1 X12.258 Y7.195 E0.0441 F1440
G1 X11.050 Y6.640 E0.0962
G1 X12.666 Y8.257 E0.1857
