;FLAVOR:RepRap
;TIME:1898
;Filament used: 1.21895m
;Layer height: 0.15
;Generated with Cura_SteamEngine 2.5.0-BETA
M190 S55
M104 S210
M109 S210
G21 ;metric values
G90 ;absolute positioning
M82 ;set extruder to absolute mode
M107 ;start with the fan off
;G28 X0 Y0 ;move X/Y to min endstops
;G28 Z0 ;move Z to min endstops
;G1 Z15.0 F9000 ;move the platform down 15mm
G92 E0 ;zero the extruded length
G1 F200 E3 ;extrude 3mm of feed stock
G92 E0 ;zero the extruded length again
G1 F9000
;Put printing message on LCD screen
M117 Printing...
;LAYER_COUNT:152
;LAYER:0
M107
G0 F1800 X80.701 Y91.052 Z0.3
;TYPE:SKIRT
G1 F1200 X81.221 Y90.693 E0.03152
G1 X81.782 Y90.402 E0.06305
G1 X82.375 Y90.184 E0.09458
G1 X82.992 Y90.043 E0.12615
G1 X83.8 Y89.978 E0.16659
G1 X118.403 Y90 E1.89294
G1 X119.034 Y90.04 E1.92449
G1 X119.655 Y90.16 E1.95604
G1 X120.255 Y90.357 E1.98755
G1 X120.826 Y90.628 E2.01908
G1 X121.359 Y90.969 E2.05065
G1 X121.936 Y91.464 E2.08858
G1 X122.16 Y91.688 E2.10438
G1 X122.577 Y92.163 E2.13592
G1 X122.932 Y92.686 E2.16745
G1 X123.218 Y93.25 E2.199
G1 X123.43 Y93.845 E2.23051
G1 X123.566 Y94.463 E2.26208
G1 X123.624 Y95.223 E2.30011
G1 X123.625 Y103.13 E2.69459
G1 X123.585 Y103.761 E2.72614
G1 X123.466 Y104.382 E2.75768
G1 X123.269 Y104.983 E2.78924
G1 X122.999 Y105.554 E2.82075
G1 X122.658 Y106.087 E2.85232
G1 X122.166 Y106.662 E2.89007
G1 X121.814 Y107.015 E2.91494
G1 X121.34 Y107.433 E2.94647
G1 X120.817 Y107.788 E2.97801
G1 X120.254 Y108.075 E3.00953
G1 X119.658 Y108.288 E3.04111
G1 X119.041 Y108.425 E3.07264
G1 X118.273 Y108.484 E3.11107
G1 X82.89 Y108.485 E4.87634
G1 X82.259 Y108.445 E4.90788
G1 X81.638 Y108.326 E4.93942
G1 X81.038 Y108.129 E4.97093
G1 X80.466 Y107.858 E5.00251
G1 X79.934 Y107.518 E5.03401
G1 X79.449 Y107.112 E5.06556
G1 X79.019 Y106.649 E5.09709
G1 X78.558 Y105.982 E5.13754
G1 X76.558 Y102.512 E5.33736
G1 X76.278 Y101.945 E5.3689
G1 X76.071 Y101.348 E5.40043
G1 X75.941 Y100.729 E5.43198
G1 X75.891 Y100.099 E5.46351
G1 X75.92 Y99.468 E5.49503
G1 X76.029 Y98.845 E5.52658
G1 X76.215 Y98.241 E5.55811
G1 X76.559 Y97.516 E5.59815
G1 X79.466 Y92.479 E5.88829
G1 X79.816 Y91.952 E5.91985
G1 X80.23 Y91.474 E5.9514
G1 X80.701 Y91.052 E5.98295
G0 F1800 X81.007 Y91.321
G1 F1200 X81.512 Y90.985 E6.01322
G1 X82.057 Y90.72 E6.04345
G1 X82.632 Y90.528 E6.07369
G1 X83.228 Y90.413 E6.10398
G1 X83.8 Y90.378 E6.13257
G1 X118.403 Y90.4 E7.85892
G1 X119.008 Y90.44 E7.88917
G1 X119.602 Y90.56 E7.9194
G1 X120.176 Y90.757 E7.94968
G1 X120.718 Y91.027 E7.97989
G1 X121.221 Y91.366 E8.01015
G1 X121.653 Y91.747 E8.03889
G1 X121.877 Y91.971 E8.05469
G1 X122.276 Y92.427 E8.08492
G1 X122.612 Y92.932 E8.11518
G1 X122.879 Y93.476 E8.14541
G1 X123.072 Y94.051 E8.17567
G1 X123.188 Y94.646 E8.20592
G1 X123.224 Y95.223 E8.23476
G1 X123.225 Y103.13 E8.62924
G1 X123.185 Y103.735 E8.65949
G1 X123.066 Y104.33 E8.68976
G1 X122.87 Y104.904 E8.72003
G1 X122.6 Y105.446 E8.75023
G1 X122.261 Y105.949 E8.7805
G1 X121.882 Y106.379 E8.80909
G1 X121.53 Y106.732 E8.83396
G1 X121.075 Y107.132 E8.86419
G1 X120.571 Y107.469 E8.89444
G1 X120.027 Y107.737 E8.92469
G1 X119.452 Y107.93 E8.95495
G1 X118.857 Y108.047 E8.9852
G1 X118.273 Y108.084 E9.0144
G1 X82.89 Y108.085 E10.77966
G1 X82.285 Y108.045 E10.80991
G1 X81.691 Y107.926 E10.84014
G1 X81.117 Y107.73 E10.8704
G1 X80.574 Y107.46 E10.90065
G1 X80.072 Y107.12 E10.9309
G1 X79.618 Y106.718 E10.96115
G1 X79.221 Y106.26 E10.99139
G1 X78.905 Y105.782 E11.01998
G1 X76.905 Y102.312 E11.2198
G1 X76.637 Y101.768 E11.25005
G1 X76.443 Y101.193 E11.28033
G1 X76.327 Y100.598 E11.31057
G1 X76.29 Y99.993 E11.34081
G1 X76.333 Y99.388 E11.37107
G1 X76.455 Y98.795 E11.40127
G1 X76.654 Y98.222 E11.43154
G1 X76.906 Y97.716 E11.45974
G1 X79.813 Y92.679 E11.74988
G1 X80.15 Y92.175 E11.78013
G1 X80.55 Y91.719 E11.81039
G1 X81.007 Y91.321 E11.84063
G0 F1800 X81.312 Y91.592
G1 F1200 X81.801 Y91.283 E11.86949
G1 X82.329 Y91.043 E11.89842
G1 X82.884 Y90.878 E11.92731
G1 X83.457 Y90.792 E11.95622
G1 X83.8 Y90.778 E11.97334
G1 X118.403 Y90.8 E13.69969
G1 X118.981 Y90.84 E13.7286
G1 X119.547 Y90.96 E13.75747
G1 X120.092 Y91.156 E13.78636
G1 X120.605 Y91.426 E13.81528
G1 X121.076 Y91.763 E13.84418
G1 X121.37 Y92.03 E13.86399
G1 X121.594 Y92.254 E13.87979
G1 X121.974 Y92.691 E13.90869
G1 X122.291 Y93.176 E13.93759
G1 X122.538 Y93.7 E13.96649
G1 X122.71 Y94.253 E13.99539
G1 X122.805 Y94.825 E14.02432
G1 X122.824 Y95.223 E14.04419
G1 X122.825 Y103.13 E14.43868
G1 X122.785 Y103.708 E14.46758
G1 X122.666 Y104.275 E14.49649
G1 X122.47 Y104.821 E14.52543
G1 X122.201 Y105.334 E14.55433
G1 X121.864 Y105.805 E14.58322
G1 X121.599 Y106.097 E14.60289
G1 X121.247 Y106.45 E14.62776
G1 X120.811 Y106.831 E14.65665
G1 X120.326 Y107.148 E14.68556
G1 X119.802 Y107.396 E14.71448
G1 X119.25 Y107.569 E14.74334
G1 X118.678 Y107.664 E14.77227
G1 X118.273 Y107.684 E14.7925
G1 X82.89 Y107.685 E16.55776
G1 X82.312 Y107.645 E16.58667
G1 X81.745 Y107.526 E16.61557
G1 X81.2 Y107.33 E16.64447
G1 X80.687 Y107.061 E16.67337
G1 X80.216 Y106.724 E16.70226
G1 X79.796 Y106.325 E16.73116
G1 X79.434 Y105.872 E16.76009
G1 X79.251 Y105.582 E16.7772
G1 X77.251 Y102.112 E16.97702
G1 X76.997 Y101.592 E17.00589
G1 X76.817 Y101.041 E17.03481
G1 X76.715 Y100.471 E17.0637
G1 X76.692 Y99.892 E17.09261
G1 X76.749 Y99.315 E17.12153
G1 X76.884 Y98.752 E17.15042
G1 X77.096 Y98.213 E17.17931
G1 X77.252 Y97.916 E17.19605
G1 X80.159 Y92.879 E17.4862
G1 X80.483 Y92.398 E17.51513
G1 X80.869 Y91.967 E17.54399
G1 X81.312 Y91.592 E17.57295
G0 F1800 X81.614 Y91.868
G1 F1200 X82.087 Y91.585 E17.60045
G1 X82.595 Y91.373 E17.62791
G1 X83.129 Y91.237 E17.65541
G1 X83.799 Y91.178 E17.68896
G1 X118.402 Y91.2 E19.41531
G1 X118.952 Y91.24 E19.44282
G1 X119.49 Y91.36 E19.47032
G1 X120.005 Y91.556 E19.49782
G1 X120.486 Y91.824 E19.52529
G1 X121.087 Y92.313 E19.56394
G1 X121.311 Y92.537 E19.57975
G1 X121.671 Y92.954 E19.60723
G1 X121.968 Y93.418 E19.63472
G1 X122.194 Y93.921 E19.66223
G1 X122.345 Y94.451 E19.68972
G1 X122.424 Y95.224 E19.72849
G1 X122.425 Y103.131 E20.12297
G1 X122.385 Y103.68 E20.15043
G1 X122.266 Y104.218 E20.17792
G1 X122.071 Y104.733 E20.20539
G1 X121.803 Y105.215 E20.23291
G1 X121.316 Y105.814 E20.27142
G1 X120.964 Y106.167 E20.29629
G1 X120.547 Y106.528 E20.32381
G1 X120.083 Y106.825 E20.3513
G1 X119.581 Y107.052 E20.37878
G1 X119.051 Y107.203 E20.40628
G1 X118.273 Y107.284 E20.4453
G1 X82.89 Y107.285 E22.21057
G1 X82.341 Y107.245 E22.23803
G1 X81.803 Y107.126 E22.26552
G1 X81.287 Y106.931 E22.29304
G1 X80.806 Y106.663 E22.32051
G1 X80.368 Y106.328 E22.34802
G1 X79.984 Y105.933 E22.3755
G1 X79.598 Y105.383 E22.40903
G1 X77.598 Y101.913 E22.60884
G1 X77.358 Y101.417 E22.63633
G1 X77.192 Y100.891 E22.66385
G1 X77.105 Y100.347 E22.69134
G1 X77.096 Y99.796 E22.71883
G1 X77.168 Y99.25 E22.74631
G1 X77.318 Y98.719 E22.77383
G1 X77.599 Y98.116 E22.80702
G1 X80.506 Y93.079 E23.09717
G1 X80.815 Y92.623 E23.12465
G1 X81.187 Y92.216 E23.15216
G1 X81.614 Y91.868 E23.17964
G0 F1800 X81.914 Y92.147
G1 F1200 X82.368 Y91.893 E23.20559
G1 X82.857 Y91.711 E23.23163
G1 X83.367 Y91.605 E23.25761
G1 X83.799 Y91.578 E23.27921
G1 X118.402 Y91.6 E25.00556
G1 X118.922 Y91.64 E25.03158
G1 X119.429 Y91.759 E25.05756
G1 X119.912 Y91.955 E25.08357
G1 X120.36 Y92.222 E25.10959
G1 X120.804 Y92.596 E25.13855
G1 X121.028 Y92.82 E25.15435
G1 X121.367 Y93.216 E25.18036
G1 X121.642 Y93.658 E25.20633
G1 X121.846 Y94.138 E25.23235
G1 X121.974 Y94.643 E25.25834
G1 X122.024 Y95.224 E25.28744
G1 X122.025 Y103.131 E25.68192
G1 X121.985 Y103.65 E25.70789
G1 X121.866 Y104.158 E25.73392
G1 X121.671 Y104.641 E25.7599
G1 X121.405 Y105.089 E25.7859
G1 X121.033 Y105.532 E25.81476
G1 X120.681 Y105.885 E25.83963
G1 X120.285 Y106.224 E25.86564
G1 X119.843 Y106.5 E25.89163
G1 X119.364 Y106.704 E25.91761
G1 X118.859 Y106.833 E25.94361
G1 X118.273 Y106.884 E25.97296
G1 X82.89 Y106.885 E27.73822
G1 X82.37 Y106.845 E27.76424
G1 X81.863 Y106.726 E27.79022
G1 X81.38 Y106.531 E27.81621
G1 X80.932 Y106.265 E27.8422
G1 X80.53 Y105.933 E27.86822
G1 X80.184 Y105.543 E27.89423
G1 X79.944 Y105.183 E27.91581
G1 X77.944 Y101.713 E28.11563
G1 X77.719 Y101.243 E28.14162
G1 X77.569 Y100.744 E28.16762
G1 X77.497 Y100.228 E28.19361
G1 X77.504 Y99.707 E28.21961
G1 X77.591 Y99.193 E28.24562
G1 X77.755 Y98.698 E28.27163
G1 X77.945 Y98.315 E28.29296
G1 X80.852 Y93.278 E28.58311
G1 X81.147 Y92.848 E28.60912
G1 X81.503 Y92.468 E28.6351
G1 X81.914 Y92.147 E28.66112
G0 F1800 X82.21 Y92.432
G1 F1200 X82.645 Y92.208 E28.68553
G1 X83.111 Y92.057 E28.70997
G1 X83.799 Y91.978 E28.74452
G1 X118.402 Y92 E30.47087
G1 X118.89 Y92.04 E30.4953
G1 X119.365 Y92.159 E30.51973
G1 X119.814 Y92.354 E30.54415
G1 X120.225 Y92.619 E30.56855
G1 X120.521 Y92.879 E30.5882
G1 X120.745 Y93.103 E30.60401
G1 X121.062 Y93.476 E30.62843
G1 X121.314 Y93.896 E30.65287
G1 X121.494 Y94.351 E30.67728
G1 X121.598 Y94.829 E30.70168
G1 X121.624 Y95.224 E30.72143
G1 X121.625 Y103.131 E31.11591
G1 X121.585 Y103.618 E31.14029
G1 X121.466 Y104.093 E31.16472
G1 X121.272 Y104.543 E31.18917
G1 X121.007 Y104.954 E31.21357
G1 X120.749 Y105.249 E31.23312
G1 X120.397 Y105.602 E31.25799
G1 X120.025 Y105.92 E31.28241
G1 X119.605 Y106.172 E31.30684
G1 X119.15 Y106.353 E31.33127
G1 X118.672 Y106.457 E31.35568
G1 X118.273 Y106.484 E31.37563
G1 X82.89 Y106.485 E33.1409
G1 X82.402 Y106.445 E33.16532
G1 X81.927 Y106.326 E33.18975
G1 X81.478 Y106.132 E33.21416
G1 X81.066 Y105.867 E33.2386
G1 X80.703 Y105.539 E33.263
G1 X80.291 Y104.983 E33.29753
G1 X78.291 Y101.513 E33.49734
G1 X78.082 Y101.07 E33.52178
G1 X77.948 Y100.6 E33.54616
G1 X77.892 Y100.113 E33.57062
G1 X77.916 Y99.625 E33.595
G1 X78.019 Y99.146 E33.61944
G1 X78.292 Y98.515 E33.65374
G1 X81.199 Y93.478 E33.94389
G1 X81.477 Y93.076 E33.96827
G1 X81.817 Y92.724 E33.99269
G1 X82.21 Y92.432 E34.01711
G0 F1800 X82.503 Y92.723
G1 F1200 X82.916 Y92.532 E34.03981
G1 X83.357 Y92.415 E34.06258
G1 X83.799 Y92.378 E34.08471
G1 X118.402 Y92.4 E35.81106
G1 X118.856 Y92.44 E35.83379
G1 X119.295 Y92.559 E35.85649
G1 X119.708 Y92.753 E35.87925
G1 X120.238 Y93.162 E35.91265
G1 X120.462 Y93.386 E35.92846
G1 X120.755 Y93.735 E35.95119
G1 X120.982 Y94.13 E35.97392
G1 X121.137 Y94.558 E35.99663
G1 X121.224 Y95.224 E36.03014
G1 X121.225 Y103.131 E36.42462
G1 X121.185 Y103.585 E36.44736
G1 X121.067 Y104.025 E36.47008
G1 X120.873 Y104.437 E36.4928
G1 X120.466 Y104.967 E36.52614
G1 X120.114 Y105.32 E36.55101
G1 X119.765 Y105.613 E36.57375
G1 X119.371 Y105.841 E36.59646
G1 X118.942 Y105.996 E36.61922
G1 X118.273 Y106.084 E36.65288
G1 X82.89 Y106.085 E38.41815
G1 X82.436 Y106.045 E38.44088
G1 X81.996 Y105.927 E38.46361
G1 X81.584 Y105.733 E38.48633
G1 X81.211 Y105.47 E38.5091
G1 X80.891 Y105.147 E38.53178
G1 X80.637 Y104.783 E38.55393
G1 X78.637 Y101.313 E38.75374
G1 X78.445 Y100.9 E38.77647
G1 X78.328 Y100.46 E38.79918
G1 X78.29 Y100.006 E38.82191
G1 X78.332 Y99.552 E38.84466
G1 X78.452 Y99.113 E38.86736
G1 X78.638 Y98.715 E38.88928
G1 X81.545 Y93.678 E39.17942
G1 X81.807 Y93.305 E39.20217
G1 X82.129 Y92.983 E39.22488
G1 X82.503 Y92.723 E39.24761
G0 F1800 X82.791 Y93.022
G1 F1200 X83.18 Y92.866 E39.26852
G1 X83.798 Y92.778 E39.29966
G1 X118.401 Y92.8 E41.02601
G1 X118.819 Y92.84 E41.04696
G1 X119.22 Y92.959 E41.06783
G1 X119.593 Y93.151 E41.08876
G1 X119.956 Y93.444 E41.11203
G1 X120.18 Y93.668 E41.12784
G1 X120.446 Y93.992 E41.14875
G1 X120.647 Y94.359 E41.16963
G1 X120.774 Y94.759 E41.19057
G1 X120.824 Y95.224 E41.2139
G1 X120.825 Y103.131 E41.60838
G1 X120.785 Y103.548 E41.62928
G1 X120.667 Y103.95 E41.65018
G1 X120.475 Y104.322 E41.67107
G1 X120.183 Y104.684 E41.69427
G1 X119.831 Y105.037 E41.71914
G1 X119.508 Y105.305 E41.74008
G1 X119.14 Y105.506 E41.761
G1 X118.741 Y105.634 E41.78191
G1 X118.273 Y105.684 E41.80539
G1 X82.89 Y105.685 E43.57065
G1 X82.473 Y105.645 E43.59155
G1 X82.071 Y105.527 E43.61245
G1 X81.699 Y105.334 E43.63336
G1 X81.37 Y105.075 E43.65425
G1 X80.984 Y104.584 E43.68541
G1 X78.984 Y101.114 E43.88523
G1 X78.81 Y100.732 E43.90617
G1 X78.712 Y100.325 E43.92706
G1 X78.693 Y99.906 E43.94798
G1 X78.753 Y99.492 E43.96885
G1 X78.985 Y98.915 E43.99988
G1 X81.892 Y93.878 E44.29002
G1 X82.135 Y93.537 E44.31091
G1 X82.438 Y93.248 E44.3318
G1 X82.791 Y93.022 E44.35271
G0 F1800 X83.072 Y93.331
G1 F1200 X83.433 Y93.215 E44.37163
G1 X83.798 Y93.178 E44.38994
G1 X118.401 Y93.2 E46.11629
G1 X118.778 Y93.24 E46.1352
G1 X119.138 Y93.358 E46.1541
G1 X119.465 Y93.549 E46.17299
G1 X119.673 Y93.727 E46.18665
G1 X119.897 Y93.951 E46.20246
G1 X120.135 Y94.246 E46.22137
G1 X120.306 Y94.584 E46.24027
G1 X120.403 Y94.95 E46.25916
G1 X120.424 Y95.224 E46.27287
G1 X120.425 Y103.131 E46.66735
G1 X120.385 Y103.508 E46.68626
G1 X120.267 Y103.868 E46.70516
G1 X120.077 Y104.195 E46.72403
G1 X119.9 Y104.402 E46.73762
G1 X119.548 Y104.755 E46.76249
G1 X119.253 Y104.994 E46.78143
G1 X118.915 Y105.165 E46.80033
G1 X118.549 Y105.263 E46.81923
G1 X118.273 Y105.284 E46.83304
G1 X82.89 Y105.285 E48.59831
G1 X82.513 Y105.245 E48.61722
G1 X82.153 Y105.127 E48.63612
G1 X81.826 Y104.937 E48.65499
G1 X81.545 Y104.682 E48.67392
G1 X81.33 Y104.384 E48.69225
G1 X79.33 Y100.914 E48.89207
G1 X79.177 Y100.567 E48.91099
G1 X79.099 Y100.197 E48.92985
G1 X79.101 Y99.818 E48.94876
G1 X79.182 Y99.447 E48.96771
G1 X79.331 Y99.115 E48.98586
G1 X82.238 Y94.078 E49.27601
G1 X82.461 Y93.772 E49.2949
G1 X82.743 Y93.519 E49.3138
G1 X83.072 Y93.331 E49.3327
G0 F1800 X83.798 Y93.578
G1 F1200 X118.401 Y93.6 E51.05906
G1 X118.733 Y93.64 E51.07574
G1 X119.045 Y93.758 E51.09238
G1 X119.39 Y94.01 E51.1137
G1 X119.614 Y94.234 E51.1295
G1 X119.82 Y94.497 E51.14617
G1 X119.959 Y94.801 E51.16284
G1 X120.024 Y95.224 E51.18419
G1 X120.025 Y103.131 E51.57868
G1 X119.985 Y103.463 E51.59536
G1 X119.868 Y103.775 E51.61198
G1 X119.616 Y104.12 E51.6333
G1 X119.264 Y104.473 E51.65817
G1 X119.002 Y104.679 E51.6748
G1 X118.698 Y104.818 E51.69147
G1 X118.273 Y104.884 E51.71293
G1 X82.89 Y104.885 E53.4782
G1 X82.558 Y104.845 E53.49488
G1 X82.246 Y104.728 E53.5115
G1 X81.969 Y104.54 E53.52821
G1 X81.677 Y104.184 E53.55118
G1 X79.677 Y100.714 E53.75099
G1 X79.546 Y100.407 E53.76765
G1 X79.491 Y100.077 E53.78434
G1 X79.516 Y99.744 E53.801
G1 X79.677 Y99.315 E53.82386
G1 X82.584 Y94.278 E54.114
G1 X82.785 Y94.011 E54.13068
G1 X83.043 Y93.799 E54.14734
G1 X83.344 Y93.653 E54.16403
G1 X83.798 Y93.578 E54.18698
G0 F1800 X83.798 Y93.978
G1 F1200 X118.401 Y94 E55.91333
G1 X118.68 Y94.04 E55.9274
G1 X118.937 Y94.156 E55.94146
G1 X119.107 Y94.293 E55.95236
G1 X119.331 Y94.517 E55.96816
G1 X119.5 Y94.743 E55.98224
G1 X119.6 Y95.007 E55.99632
G1 X119.624 Y95.224 E56.00722
G1 X119.625 Y103.131 E56.4017
G1 X119.585 Y103.41 E56.41576
G1 X119.469 Y103.667 E56.42983
G1 X119.333 Y103.837 E56.44069
G1 X118.981 Y104.19 E56.46556
G1 X118.756 Y104.36 E56.47963
G1 X118.492 Y104.46 E56.49371
G1 X118.273 Y104.484 E56.5047
G1 X82.89 Y104.485 E58.26997
G1 X82.611 Y104.445 E58.28403
G1 X82.354 Y104.329 E58.2981
G1 X82.139 Y104.146 E58.31218
G1 X82.024 Y103.984 E58.32209
G1 X80.024 Y100.514 E58.52191
G1 X79.919 Y100.252 E58.53599
G1 X79.891 Y99.972 E58.55003
G1 X79.943 Y99.694 E58.56414
G1 X80.024 Y99.515 E58.57394
G1 X82.931 Y94.478 E58.86409
G1 X83.105 Y94.256 E58.87816
G1 X83.334 Y94.092 E58.89221
G1 X83.6 Y93.998 E58.90629
G1 X83.798 Y93.978 E58.91622
G0 F1800 X83.797 Y94.378
G1 F1200 X118.4 Y94.4 E60.64257
G1 X118.615 Y94.44 E60.65348
G1 X118.824 Y94.576 E60.66592
G1 X119.048 Y94.8 E60.68172
G1 X119.172 Y94.979 E60.69259
G1 X119.224 Y95.224 E60.70508
G1 X119.225 Y103.131 E61.09956
G1 X119.185 Y103.345 E61.11042
G1 X119.05 Y103.555 E61.12288
G1 X118.698 Y103.908 E61.14775
G1 X118.518 Y104.032 E61.15866
G1 X118.273 Y104.084 E61.17115
G1 X82.89 Y104.085 E62.93642
G1 X82.675 Y104.045 E62.94733
G1 X82.489 Y103.932 E62.95818
G1 X82.37 Y103.785 E62.96762
G1 X80.37 Y100.315 E63.16744
G1 X80.297 Y100.109 E63.17834
G1 X80.303 Y99.891 E63.18922
G1 X80.37 Y99.715 E63.19861
G1 X83.277 Y94.678 E63.48876
G1 X83.419 Y94.512 E63.49966
G1 X83.611 Y94.408 E63.51055
G1 X83.797 Y94.378 E63.51995
G0 F1800 X83.797 Y94.778
G1 F1200 X118.4 Y94.8 E65.2463
