;FLAVOR:RepRap
;TIME:2292
;Filament used: 2.7339m
;Layer height: 0.15
;Generated with Cura_SteamEngine 2.5.0-BETA
M190 S55
M104 S210
M109 S210
G21 ;metric values
G90 ;absolute positioning
M82 ;set extruder to absolute mode
M107 ;start with the fan off
;G28 X0 Y0 ;move X/Y to min endstops
;G28 Z0 ;move Z to min endstops
;G1 Z15.0 F9000 ;move the platform down 15mm
G92 E0 ;zero the extruded length
G1 F200 E3 ;extrude 3mm of feed stock
G92 E0 ;zero the extruded length again
G1 F9000
;Put printing message on LCD screen
M117 Printing...
;LAYER_COUNT:86
;LAYER:0
M107
G0 F1800 X82.601 Y86.463 Z0.3
;TYPE:SKIRT
G1 F1200 X93.815 Y75.25 E0.79117
G1 X94.289 Y74.832 E0.8227
G1 X94.812 Y74.478 E0.85421
G1 X95.376 Y74.192 E0.88576
G1 X95.972 Y73.98 E0.91732
G1 X96.589 Y73.844 E0.94884
G1 X97.219 Y73.788 E0.9804
G1 X97.85 Y73.811 E1.0119
G1 X98.474 Y73.914 E1.04345
G1 X99.08 Y74.095 E1.075
G1 X99.658 Y74.35 E1.10652
G1 X100.199 Y74.677 E1.13806
G1 X100.886 Y75.251 E1.18272
G1 X117.085 Y91.451 E2.32568
G1 X117.502 Y91.925 E2.35718
G1 X117.857 Y92.448 E2.38872
G1 X118.143 Y93.012 E2.42027
G1 X118.355 Y93.607 E2.45178
G1 X118.491 Y94.225 E2.48335
G1 X118.547 Y94.855 E2.5149
G1 X118.524 Y95.486 E2.5464
G1 X118.421 Y96.11 E2.57796
G1 X118.24 Y96.716 E2.60951
G1 X118.09 Y97.078 E2.62906
G1 X117.973 Y97.332 E2.64301
G1 X117.673 Y97.888 E2.67453
G1 X117.305 Y98.402 E2.70607
G1 X116.875 Y98.866 E2.73763
G1 X116.39 Y99.271 E2.76915
G1 X115.858 Y99.612 E2.80068
G1 X115.287 Y99.883 E2.83221
G1 X114.932 Y99.999 E2.85085
G1 X115.355 Y100.145 E2.87317
G1 X115.922 Y100.424 E2.9047
G1 X116.449 Y100.773 E2.93623
G1 X116.928 Y101.186 E2.96779
G1 X117.351 Y101.655 E2.9993
G1 X117.712 Y102.175 E3.03088
G1 X117.973 Y102.668 E3.05871
G1 X118.09 Y102.922 E3.07266
G1 X118.318 Y103.512 E3.10422
G1 X118.469 Y104.126 E3.13576
G1 X118.542 Y104.754 E3.1673
G1 X118.535 Y105.386 E3.19884
G1 X118.448 Y106.012 E3.23037
G1 X118.283 Y106.622 E3.26189
G1 X118.043 Y107.206 E3.29339
G1 X117.73 Y107.756 E3.32497
G1 X117.351 Y108.262 E3.35651
G1 X117.085 Y108.549 E3.37603
G1 X100.886 Y124.749 E4.51899
G1 X100.411 Y125.167 E4.55056
G1 X99.888 Y125.522 E4.58209
G1 X99.324 Y125.808 E4.61364
G1 X98.729 Y126.02 E4.64516
G1 X98.111 Y126.156 E4.67673
G1 X97.482 Y126.212 E4.70823
G1 X96.85 Y126.189 E4.73978
G1 X96.226 Y126.086 E4.77134
G1 X95.621 Y125.905 E4.80284
G1 X95.042 Y125.65 E4.8344
G1 X94.501 Y125.323 E4.86594
G1 X93.815 Y124.75 E4.91054
G1 X82.601 Y113.537 E5.70171
G1 X82.183 Y113.062 E5.73328
G1 X81.828 Y112.539 E5.76481
G1 X81.542 Y111.975 E5.79636
G1 X81.33 Y111.38 E5.82787
G1 X81.194 Y110.762 E5.85944
G1 X81.136 Y110.001 E5.89752
G1 X81.136 Y89.999 E6.89542
G1 X81.176 Y89.368 E6.92697
G1 X81.295 Y88.747 E6.95851
G1 X81.492 Y88.147 E6.99002
G1 X81.763 Y87.575 E7.0216
G1 X82.103 Y87.043 E7.0531
G1 X82.601 Y86.463 E7.09124
G0 F1800 X82.883 Y86.746
G1 F1200 X94.097 Y75.533 E7.88241
G1 X94.554 Y75.134 E7.91268
G1 X95.058 Y74.798 E7.9429
G1 X95.603 Y74.531 E7.97317
G1 X96.177 Y74.338 E8.00339
G1 X96.773 Y74.222 E8.03368
G1 X97.378 Y74.186 E8.06392
G1 X97.983 Y74.23 E8.09418
G1 X98.576 Y74.352 E8.12438
G1 X99.149 Y74.552 E8.15466
G1 X99.69 Y74.826 E8.18492
G1 X100.19 Y75.168 E8.21514
G1 X100.603 Y75.533 E8.24264
G1 X116.802 Y91.733 E9.3856
G1 X117.201 Y92.189 E9.41583
G1 X117.537 Y92.694 E9.44609
G1 X117.804 Y93.239 E9.47637
G1 X117.997 Y93.813 E9.50658
G1 X118.113 Y94.409 E9.53687
G1 X118.149 Y95.014 E9.56711
G1 X118.105 Y95.618 E9.59732
G1 X117.983 Y96.212 E9.62758
G1 X117.727 Y96.911 E9.66472
G1 X117.61 Y97.165 E9.67867
G1 X117.321 Y97.697 E9.70887
G1 X116.964 Y98.187 E9.73912
G1 X116.545 Y98.626 E9.7694
G1 X116.073 Y99.006 E9.79963
G1 X115.555 Y99.321 E9.82987
G1 X115 Y99.565 E9.86012
G1 X114.417 Y99.733 E9.89039
G1 X113.818 Y99.824 E9.92062
G1 X113.502 Y99.839 E9.9364
G1 X112.828 Y99.849 E9.97003
G1 X112.824 Y99.852 E9.97028
G1 X112.804 Y99.869 E9.97159
G1 X112.788 Y99.887 E9.97279
G1 X112.768 Y99.92 E9.97471
G1 X112.758 Y99.944 E9.97601
G1 X112.751 Y99.973 E9.9775
G1 X112.749 Y100 E9.97885
G1 X112.751 Y100.024 E9.98005
G1 X112.758 Y100.056 E9.98169
G1 X112.768 Y100.08 E9.98298
G1 X112.788 Y100.113 E9.98491
G1 X112.803 Y100.13 E9.98604
G1 X112.826 Y100.15 E9.98756
G1 X112.828 Y100.151 E9.98767
G1 X113.502 Y100.161 E10.0213
G1 X114.107 Y100.21 E10.05158
G1 X114.699 Y100.338 E10.0818
G1 X115.27 Y100.543 E10.11207
G1 X115.808 Y100.821 E10.14228
G1 X116.306 Y101.168 E10.17256
G1 X116.753 Y101.577 E10.20279
G1 X117.143 Y102.042 E10.23307
G1 X117.468 Y102.553 E10.26328
G1 X117.61 Y102.835 E10.27903
G1 X117.727 Y103.089 E10.29299
G1 X117.944 Y103.656 E10.32328
G1 X118.084 Y104.245 E10.35348
G1 X118.146 Y104.849 E10.38377
G1 X118.128 Y105.455 E10.41402
G1 X118.03 Y106.053 E10.44425
G1 X117.855 Y106.633 E10.47448
G1 X117.604 Y107.186 E10.50477
G1 X117.283 Y107.7 E10.53501
G1 X116.802 Y108.267 E10.5721
G1 X100.603 Y124.467 E11.71506
G1 X100.147 Y124.866 E11.74529
G1 X99.642 Y125.202 E11.77556
G1 X99.098 Y125.469 E11.80579
G1 X98.523 Y125.662 E11.83605
G1 X97.928 Y125.778 E11.86629
G1 X97.323 Y125.814 E11.89653
G1 X96.718 Y125.77 E11.92679
G1 X96.124 Y125.648 E11.95705
G1 X95.552 Y125.448 E11.98728
G1 X95.01 Y125.175 E12.01755
G1 X94.51 Y124.832 E12.0478
G1 X94.097 Y124.467 E12.0753
G1 X82.883 Y113.254 E12.86648
G1 X82.484 Y112.798 E12.8967
G1 X82.148 Y112.293 E12.92697
G1 X81.881 Y111.749 E12.9572
G1 X81.688 Y111.174 E12.98746
G1 X81.572 Y110.579 E13.0177
G1 X81.536 Y110.001 E13.0466
G1 X81.536 Y89.999 E14.0445
G1 X81.576 Y89.394 E14.07475
G1 X81.695 Y88.8 E14.10497
G1 X81.891 Y88.226 E14.13523
G1 X82.162 Y87.683 E14.16551
G1 X82.501 Y87.18 E14.19577
G1 X82.883 Y86.746 E14.22462
G0 F1800 X83.166 Y87.029
G1 F1200 X94.38 Y75.816 E15.01579
G1 X94.817 Y75.436 E15.04468
G1 X95.302 Y75.119 E15.07359
G1 X95.826 Y74.872 E15.10249
G1 X96.379 Y74.7 E15.13138
G1 X96.951 Y74.605 E15.16031
G1 X97.53 Y74.59 E15.18921
G1 X98.106 Y74.655 E15.21813
G1 X98.667 Y74.798 E15.24701
G1 X99.203 Y75.017 E15.2759
G1 X99.704 Y75.308 E15.3048
G1 X100.32 Y75.816 E15.34464
G1 X116.519 Y92.016 E16.4876
G1 X116.899 Y92.453 E16.51649
G1 X117.216 Y92.938 E16.5454
G1 X117.463 Y93.462 E16.5743
G1 X117.635 Y94.015 E16.60319
G1 X117.73 Y94.587 E16.63212
G1 X117.745 Y95.166 E16.66102
G1 X117.68 Y95.742 E16.68993
G1 X117.537 Y96.303 E16.71882
G1 X117.364 Y96.743 E16.74241
G1 X117.247 Y96.997 E16.75636
G1 X116.969 Y97.505 E16.78525
G1 X116.623 Y97.97 E16.81417
G1 X116.217 Y98.384 E16.84309
G1 X115.758 Y98.737 E16.87198
G1 X115.255 Y99.024 E16.90088
G1 X114.717 Y99.239 E16.92978
G1 X114.154 Y99.377 E16.9587
G1 X113.496 Y99.44 E16.99168
G1 X112.73 Y99.452 E17.0299
G1 X112.669 Y99.477 E17.03319
G1 X112.59 Y99.525 E17.0378
G1 X112.52 Y99.585 E17.0424
G1 X112.464 Y99.651 E17.04672
G1 X112.409 Y99.74 E17.05194
G1 X112.378 Y99.816 E17.05603
G1 X112.355 Y99.911 E17.06091
G1 X112.348 Y100.006 E17.06566
G1 X112.354 Y100.083 E17.06951
G1 X112.378 Y100.184 E17.07469
G1 X112.409 Y100.26 E17.07879
G1 X112.464 Y100.349 E17.08401
G1 X112.519 Y100.414 E17.08826
G1 X112.59 Y100.474 E17.09289
G1 X112.671 Y100.524 E17.09764
G1 X112.73 Y100.548 E17.10082
G1 X113.496 Y100.56 E17.13904
G1 X114.073 Y100.609 E17.16793
G1 X114.638 Y100.737 E17.19683
G1 X115.181 Y100.941 E17.22577
G1 X115.689 Y101.218 E17.25464
G1 X116.155 Y101.563 E17.28357
G1 X116.569 Y101.968 E17.31246
G1 X116.924 Y102.426 E17.34137
G1 X117.247 Y103.003 E17.37436
G1 X117.364 Y103.257 E17.38831
G1 X117.569 Y103.798 E17.41718
G1 X117.698 Y104.363 E17.44609
G1 X117.748 Y104.94 E17.47498
G1 X117.719 Y105.519 E17.50391
G1 X117.609 Y106.088 E17.53282
G1 X117.423 Y106.636 E17.56169
G1 X117.163 Y107.154 E17.59061
G1 X116.834 Y107.631 E17.61952
G1 X116.519 Y107.984 E17.64312
G1 X100.32 Y124.184 E18.78608
G1 X99.883 Y124.564 E18.81497
G1 X99.398 Y124.881 E18.84388
G1 X98.874 Y125.128 E18.87278
G1 X98.321 Y125.3 E18.90167
G1 X97.749 Y125.395 E18.9306
G1 X97.17 Y125.41 E18.9595
G1 X96.595 Y125.345 E18.98837
G1 X96.033 Y125.202 E19.0173
G1 X95.497 Y124.983 E19.04619
G1 X94.996 Y124.692 E19.07509
G1 X94.38 Y124.184 E19.11493
G1 X83.166 Y112.971 E19.9061
G1 X82.786 Y112.534 E19.93499
G1 X82.469 Y112.049 E19.9639
G1 X82.222 Y111.525 E19.9928
G1 X82.05 Y110.972 E20.02169
G1 X81.955 Y110.4 E20.05062
G1 X81.936 Y110.001 E20.07055
G1 X81.936 Y89.999 E21.06845
G1 X81.976 Y89.421 E21.09736
G1 X82.095 Y88.854 E21.12626
G1 X82.291 Y88.309 E21.15516
G1 X82.56 Y87.796 E21.18406
G1 X82.897 Y87.325 E21.21295
G1 X83.166 Y87.029 E21.23291
G0 F1800 X83.449 Y87.312
G1 F1200 X94.663 Y76.099 E22.02408
G1 X95.08 Y75.739 E22.05156
G1 X95.545 Y75.442 E22.07909
G1 X96.047 Y75.216 E22.10656
G1 X96.577 Y75.065 E22.13405
G1 X97.123 Y74.993 E22.16153
G1 X97.674 Y75 E22.18902
G1 X98.218 Y75.087 E22.2165
G1 X98.744 Y75.251 E22.24399
G1 X99.241 Y75.49 E22.27151
G1 X99.698 Y75.798 E22.299
G1 X100.037 Y76.099 E22.32162
G1 X116.236 Y92.299 E23.46458
G1 X116.596 Y92.716 E23.49206
G1 X116.893 Y93.181 E23.51959
G1 X117.119 Y93.683 E23.54706
G1 X117.27 Y94.213 E23.57455
G1 X117.342 Y94.759 E23.60203
G1 X117.335 Y95.31 E23.62952
G1 X117.248 Y95.854 E23.657
G1 X117 Y96.576 E23.69509
G1 X116.883 Y96.83 E23.70904
G1 X116.617 Y97.312 E23.73651
G1 X116.284 Y97.751 E23.764
G1 X115.891 Y98.137 E23.79148
G1 X115.446 Y98.462 E23.81897
G1 X114.959 Y98.72 E23.84647
G1 X114.44 Y98.904 E23.87394
G1 X113.899 Y99.011 E23.90145
G1 X113.49 Y99.04 E23.92191
G1 X112.663 Y99.053 E23.96317
G1 X112.631 Y99.06 E23.96481
G1 X112.484 Y99.121 E23.97275
G1 X112.354 Y99.201 E23.98036
G1 X112.236 Y99.302 E23.98811
G1 X112.138 Y99.417 E23.99565
G1 X112.055 Y99.552 E24.00356
G1 X111.995 Y99.696 E24.01134
G1 X111.959 Y99.85 E24.01923
G1 X111.946 Y100.001 E24.02679
G1 X111.958 Y100.149 E24.0342
G1 X111.995 Y100.304 E24.04215
G1 X112.055 Y100.448 E24.04993
G1 X112.138 Y100.583 E24.05784
G1 X112.236 Y100.698 E24.06538
G1 X112.348 Y100.794 E24.07274
G1 X112.491 Y100.881 E24.08109
G1 X112.631 Y100.94 E24.08867
G1 X112.663 Y100.947 E24.0903
G1 X113.49 Y100.96 E24.13157
G1 X114.039 Y101.009 E24.15906
G1 X114.575 Y101.136 E24.18655
G1 X115.087 Y101.339 E24.21402
G1 X115.564 Y101.615 E24.24152
G1 X115.997 Y101.956 E24.26901
G1 X116.375 Y102.357 E24.29651
G1 X116.692 Y102.808 E24.32401
G1 X116.883 Y103.17 E24.34443
G1 X117 Y103.424 E24.35838
G1 X117.194 Y103.94 E24.38589
G1 X117.311 Y104.478 E24.41335
G1 X117.349 Y105.028 E24.44086
G1 X117.307 Y105.578 E24.46838
G1 X117.186 Y106.115 E24.49584
G1 X116.989 Y106.629 E24.5233
G1 X116.719 Y107.11 E24.55082
G1 X116.236 Y107.701 E24.5889
G1 X100.037 Y123.901 E25.73186
G1 X99.62 Y124.261 E25.75935
G1 X99.156 Y124.558 E25.78683
G1 X98.653 Y124.784 E25.81435
G1 X98.123 Y124.934 E25.84183
G1 X97.577 Y125.007 E25.86931
G1 X97.026 Y125 E25.8968
G1 X96.482 Y124.914 E25.92428
G1 X95.956 Y124.749 E25.95178
G1 X95.459 Y124.51 E25.97929
G1 X95.003 Y124.202 E26.00675
G1 X94.663 Y123.901 E26.0294
G1 X83.449 Y112.688 E26.82057
G1 X83.089 Y112.271 E26.84806
G1 X82.792 Y111.807 E26.87554
G1 X82.566 Y111.304 E26.90306
G1 X82.416 Y110.774 E26.93054
G1 X82.336 Y110.001 E26.96931
G1 X82.336 Y89.999 E27.96721
G1 X82.376 Y89.449 E27.99472
G1 X82.495 Y88.911 E28.02221
G1 X82.691 Y88.396 E28.0497
G1 X82.959 Y87.915 E28.07717
G1 X83.449 Y87.312 E28.11594
G0 F1800 X83.732 Y87.595
G1 F1200 X94.946 Y76.382 E28.90711
G1 X95.342 Y76.043 E28.93312
G1 X95.784 Y75.768 E28.95909
G1 X96.264 Y75.564 E28.98511
G1 X96.769 Y75.436 E29.0111
G1 X97.288 Y75.387 E29.03711
G1 X97.808 Y75.417 E29.0631
G1 X98.318 Y75.527 E29.08912
G1 X98.805 Y75.713 E29.11513
G1 X99.257 Y75.971 E29.1411
G1 X99.754 Y76.382 E29.17327
G1 X115.953 Y92.582 E30.31624
G1 X116.292 Y92.978 E30.34224
G1 X116.567 Y93.42 E30.36821
G1 X116.771 Y93.9 E30.39423
G1 X116.899 Y94.405 E30.42023
G1 X116.948 Y94.924 E30.44623
G1 X116.918 Y95.444 E30.47222
G1 X116.808 Y95.954 E30.49825
G1 X116.637 Y96.408 E30.52245
G1 X116.52 Y96.662 E30.5364
G1 X116.266 Y97.118 E30.56245
G1 X115.946 Y97.529 E30.58843
G1 X115.567 Y97.886 E30.61441
G1 X115.137 Y98.181 E30.64042
G1 X114.668 Y98.407 E30.6664
G1 X114.169 Y98.559 E30.69242
G1 X113.484 Y98.64 E30.72684
G1 X112.613 Y98.653 E30.77029
G1 X112.505 Y98.679 E30.77584
G1 X112.304 Y98.763 E30.78671
G1 X112.122 Y98.874 E30.79734
G1 X111.949 Y99.021 E30.80867
G1 X111.814 Y99.181 E30.81911
G1 X111.696 Y99.372 E30.83031
G1 X111.615 Y99.568 E30.84089
G1 X111.562 Y99.791 E30.85233
G1 X111.545 Y100.001 E30.86284
G1 X111.562 Y100.209 E30.87325
G1 X111.615 Y100.432 E30.88469
G1 X111.696 Y100.628 E30.89527
G1 X111.814 Y100.819 E30.90647
G1 X111.952 Y100.982 E30.91712
G1 X112.115 Y101.121 E30.92781
G1 X112.308 Y101.239 E30.9391
G1 X112.505 Y101.321 E30.94974
G1 X112.613 Y101.347 E30.95528
G1 X113.484 Y101.36 E30.99874
G1 X114.003 Y101.408 E31.02475
G1 X114.508 Y101.535 E31.05073
G1 X114.989 Y101.737 E31.07675
G1 X115.432 Y102.011 E31.10274
G1 X115.829 Y102.349 E31.12875
G1 X116.169 Y102.743 E31.15472
G1 X116.52 Y103.338 E31.18918
G1 X116.637 Y103.592 E31.20313
G1 X116.818 Y104.08 E31.2291
G1 X116.923 Y104.591 E31.25513
G1 X116.948 Y105.111 E31.2811
G1 X116.893 Y105.63 E31.30714
G1 X116.759 Y106.133 E31.33311
G1 X116.551 Y106.611 E31.35912
G1 X116.271 Y107.051 E31.38514
G1 X115.953 Y107.418 E31.40936
G1 X99.754 Y123.618 E32.55232
G1 X99.359 Y123.957 E32.57829
G1 X98.916 Y124.232 E32.60431
G1 X98.436 Y124.436 E32.63033
G1 X97.931 Y124.564 E32.65632
G1 X97.412 Y124.613 E32.68233
G1 X96.892 Y124.583 E32.70831
G1 X96.382 Y124.473 E32.73434
G1 X95.896 Y124.287 E32.7603
G1 X95.443 Y124.029 E32.78631
G1 X94.946 Y123.618 E32.81849
G1 X83.732 Y112.405 E33.60966
G1 X83.393 Y112.01 E33.63563
G1 X83.118 Y111.567 E33.66164
G1 X82.914 Y111.087 E33.68766
G1 X82.786 Y110.582 E33.71366
G1 X82.736 Y110.001 E33.74275
G1 X82.736 Y89.999 E34.74065
G1 X82.776 Y89.479 E34.76667
G1 X82.895 Y88.972 E34.79265
G1 X83.09 Y88.489 E34.81864
G1 X83.356 Y88.041 E34.84463
G1 X83.732 Y87.595 E34.87374
G0 F1800 X84.015 Y87.878
G1 F1200 X95.229 Y76.665 E35.66491
G1 X95.602 Y76.348 E35.68933
G1 X96.022 Y76.096 E35.71377
G1 X96.477 Y75.916 E35.73818
G1 X96.955 Y75.812 E35.76259
G1 X97.444 Y75.787 E35.78701
G1 X97.93 Y75.843 E35.81142
G1 X98.401 Y75.976 E35.83584
G1 X98.844 Y76.185 E35.86028
G1 X99.247 Y76.462 E35.88467
G1 X99.471 Y76.665 E35.89975
G1 X115.67 Y92.865 E37.04272
G1 X115.987 Y93.238 E37.06714
G1 X116.239 Y93.658 E37.09157
G1 X116.419 Y94.113 E37.11599
G1 X116.523 Y94.591 E37.14039
G1 X116.548 Y95.08 E37.16482
G1 X116.492 Y95.566 E37.18923
G1 X116.274 Y96.241 E37.22462
G1 X116.157 Y96.495 E37.23857
G1 X115.916 Y96.922 E37.26303
G1 X115.61 Y97.303 E37.28741
G1 X115.245 Y97.63 E37.31186
G1 X114.833 Y97.893 E37.33624
G1 X114.383 Y98.085 E37.36065
G1 X113.907 Y98.202 E37.38511
G1 X113.478 Y98.24 E37.40659
G1 X112.564 Y98.254 E37.4522
G1 X112.376 Y98.299 E37.46184
G1 X112.131 Y98.4 E37.47506
G1 X111.877 Y98.556 E37.48994
G1 X111.669 Y98.734 E37.50359
G1 X111.489 Y98.944 E37.51739
G1 X111.336 Y99.195 E37.53206
G1 X111.232 Y99.445 E37.54557
G1 X111.166 Y99.724 E37.55987
G1 X111.143 Y100.001 E37.57374
G1 X111.166 Y100.276 E37.58751
G1 X111.232 Y100.555 E37.60181
G1 X111.336 Y100.805 E37.61532
G1 X111.489 Y101.056 E37.62998
G1 X111.665 Y101.262 E37.6435
G1 X111.882 Y101.447 E37.65773
G1 X112.13 Y101.599 E37.67224
G1 X112.376 Y101.701 E37.68553
G1 X112.564 Y101.746 E37.69517
G1 X113.478 Y101.76 E37.74077
G1 X113.965 Y101.808 E37.76519
G1 X114.438 Y101.934 E37.78961
G1 X114.884 Y102.135 E37.81402
G1 X115.292 Y102.406 E37.83845
G1 X115.65 Y102.74 E37.86288
G1 X115.949 Y103.127 E37.88728
G1 X116.157 Y103.505 E37.9088
G1 X116.274 Y103.759 E37.92275
G1 X116.442 Y104.219 E37.94719
G1 X116.532 Y104.7 E37.9716
G1 X116.544 Y105.189 E37.996
G1 X116.476 Y105.674 E38.02044
G1 X116.329 Y106.141 E38.04486
G1 X116.109 Y106.578 E38.06927
G1 X115.67 Y107.135 E38.10465
G1 X99.471 Y123.335 E39.24762
G1 X99.098 Y123.652 E39.27204
G1 X98.678 Y123.904 E39.29647
G1 X98.223 Y124.084 E39.32089
G1 X97.745 Y124.188 E39.34529
G1 X97.256 Y124.213 E39.36972
G1 X96.77 Y124.157 E39.39413
G1 X96.299 Y124.024 E39.41854
G1 X95.856 Y123.815 E39.44298
G1 X95.453 Y123.538 E39.46738
G1 X95.229 Y123.335 E39.48246
