;FLAVOR:RepRap
;TIME:786
;Filament used: 0.673328m
;Layer height: 0.15
;Generated with Cura_SteamEngine 2.5.0-BETA
M190 S55
M104 S210
M109 S210
G21 ;metric values
G90 ;absolute positioning
M82 ;set extruder to absolute mode
M107 ;start with the fan off
;G28 X0 Y0 ;move X/Y to min endstops
;G28 Z0 ;move Z to min endstops
;G1 Z15.0 F9000 ;move the platform down 15mm
G92 E0 ;zero the extruded length
G1 F200 E3 ;extrude 3mm of feed stock
G92 E0 ;zero the extruded length again
G1 F9000
;Put printing message on LCD screen
M117 Printing...
;LAYER_COUNT:48
;LAYER:0
M107
G0 F1800 X89.348 Y85.777 Z0.3
G0 X89.602 Y85.542
;TYPE:SKIRT
G1 F1200 X91.067 Y84.285 E0.09631
G1 X91.572 Y83.905 E0.12784
G1 X91.869 Y83.724 E0.14519
G1 X93.559 Y82.772 E0.24196
G1 X94.128 Y82.497 E0.27349
G1 X94.46 Y82.375 E0.29114
G1 X96.311 Y81.77 E0.38829
G1 X96.923 Y81.612 E0.41982
G1 X97.266 Y81.559 E0.43714
G1 X99.192 Y81.327 E0.53392
G1 X99.823 Y81.291 E0.56545
G1 X100.174 Y81.306 E0.58298
G1 X102.108 Y81.455 E0.67976
G1 X102.734 Y81.543 E0.71129
G1 X103.074 Y81.626 E0.72875
G1 X104.932 Y82.147 E0.82503
G1 X105.529 Y82.356 E0.85658
G1 X105.842 Y82.501 E0.87379
G1 X107.579 Y83.381 E0.97094
G1 X108.123 Y83.701 E1.00243
G1 X108.408 Y83.909 E1.02003
G1 X109.934 Y85.108 E1.11685
G1 X110.405 Y85.53 E1.1484
G1 X110.641 Y85.786 E1.16577
G1 X111.903 Y87.258 E1.26251
G1 X112.283 Y87.763 E1.29404
G1 X112.522 Y88.166 E1.31741
G1 X113.655 Y90.298 E1.43786
G1 X113.916 Y90.873 E1.46937
G1 X114.029 Y91.207 E1.48696
G1 X114.447 Y92.6 E1.55952
G1 X114.606 Y93.316 E1.59611
G1 X114.816 Y94.757 E1.66876
G1 X114.866 Y95.61 E1.71139
G1 X114.815 Y97.548 E1.80811
G1 X114.707 Y98.461 E1.85398
G1 X114.356 Y100.103 E1.93775
G1 X114.166 Y100.763 E1.97201
G1 X113.804 Y101.761 E2.02498
G1 X113.551 Y102.343 E2.05664
G1 X112.9 Y103.609 E2.12766
G1 X112.478 Y104.288 E2.16755
G1 X111.434 Y105.705 E2.25536
G1 X110.973 Y106.246 E2.29082
G1 X110.226 Y107.005 E2.34395
G1 X109.75 Y107.43 E2.37578
G1 X108.637 Y108.304 E2.44638
G1 X108.053 Y108.7 E2.48159
G1 X107 Y109.309 E2.54227
G1 X107 Y113.704 E2.76154
G1 X106.96 Y114.335 E2.79309
G1 X106.841 Y114.956 E2.82463
G1 X106.644 Y115.556 E2.85614
G1 X106.373 Y116.128 E2.88772
G1 X106.033 Y116.66 E2.91922
G1 X105.627 Y117.145 E2.95077
G1 X105.164 Y117.575 E2.9823
G1 X104.65 Y117.944 E3.01386
G1 X104.094 Y118.244 E3.04538
G1 X103.505 Y118.472 E3.07689
G1 X102.891 Y118.624 E3.10845
G1 X102 Y118.704 E3.15308
G1 X98 Y118.704 E3.35264
G1 X97.369 Y118.664 E3.38419
G1 X96.748 Y118.545 E3.41573
G1 X96.148 Y118.348 E3.44724
G1 X95.576 Y118.077 E3.47881
G1 X95.044 Y117.737 E3.51031
G1 X94.559 Y117.331 E3.54187
G1 X94.129 Y116.868 E3.57339
G1 X93.76 Y116.354 E3.60496
G1 X93.46 Y115.798 E3.63648
G1 X93.232 Y115.209 E3.66799
G1 X93.08 Y114.595 E3.69955
G1 X93 Y113.704 E3.74418
G1 X93 Y109.311 E3.96335
G1 X92.506 Y109.052 E3.99117
G1 X92.209 Y108.857 E4.0089
G1 X90.627 Y107.735 E4.10566
G1 X90.136 Y107.338 E4.13716
G1 X89.893 Y107.098 E4.1542
G1 X88.559 Y105.692 E4.2509
G1 X88.154 Y105.207 E4.28242
G1 X87.952 Y104.91 E4.30034
G1 X86.915 Y103.259 E4.39761
G1 X86.525 Y102.501 E4.44014
G1 X85.972 Y101.156 E4.51269
G1 X85.743 Y100.459 E4.54929
G1 X85.395 Y99.056 E4.62141
G1 X85.271 Y98.33 E4.65815
G1 X85.132 Y96.882 E4.73073
G1 X85.124 Y96.022 E4.77364
G1 X85.273 Y94.077 E4.87096
G1 X85.361 Y93.451 E4.90249
G1 X85.443 Y93.111 E4.91994
G1 X85.963 Y91.254 E5.01615
G1 X86.172 Y90.657 E5.04771
G1 X86.318 Y90.342 E5.06503
G1 X87.199 Y88.603 E5.16229
G1 X87.519 Y88.059 E5.19378
G1 X87.727 Y87.774 E5.21138
G1 X88.926 Y86.248 E5.3082
G1 X89.348 Y85.777 E5.33975
G1 X89.602 Y85.542 E5.35702
G0 F1800 X89.863 Y85.846
G1 F1200 X91.328 Y84.589 E5.45332
G1 X92.065 Y84.072 E5.49823
G1 X93.755 Y83.12 E5.59501
G1 X94.584 Y82.756 E5.64018
G1 X96.435 Y82.151 E5.73733
G1 X97.314 Y81.956 E5.78225
G1 X99.24 Y81.724 E5.87903
G1 X100.143 Y81.705 E5.92409
G1 X102.077 Y81.854 E6.02087
G1 X102.966 Y82.011 E6.06591
G1 X104.824 Y82.532 E6.16218
G1 X105.661 Y82.858 E6.20699
G1 X107.398 Y83.738 E6.30414
G1 X108.161 Y84.224 E6.34927
G1 X109.687 Y85.423 E6.44609
G1 X110.337 Y86.046 E6.49101
G1 X111.599 Y87.518 E6.58774
G1 X111.963 Y88.003 E6.618
G1 X112.169 Y88.353 E6.63826
G1 X113.302 Y90.485 E6.75871
G1 X113.646 Y91.322 E6.80386
G1 X114.064 Y92.715 E6.87642
G1 X114.21 Y93.374 E6.91009
G1 X114.42 Y94.815 E6.98274
G1 X114.466 Y95.599 E7.02192
G1 X114.415 Y97.537 E7.11865
G1 X114.315 Y98.378 E7.1609
G1 X113.964 Y100.02 E7.24467
G1 X113.79 Y100.627 E7.27617
G1 X113.428 Y101.625 E7.32914
G1 X113.195 Y102.16 E7.35825
G1 X112.544 Y103.426 E7.42927
G1 X112.156 Y104.051 E7.46597
G1 X111.112 Y105.468 E7.55378
G1 X110.688 Y105.966 E7.58641
G1 X109.941 Y106.725 E7.63954
G1 X109.503 Y107.116 E7.66884
G1 X108.39 Y107.99 E7.73944
G1 X107.852 Y108.354 E7.77184
G1 X106.628 Y109.062 E7.84239
G1 X106.6 Y109.076 E7.84395
G1 X106.6 Y113.704 E8.07484
G1 X106.56 Y114.309 E8.10509
G1 X106.441 Y114.903 E8.13532
G1 X106.245 Y115.477 E8.16558
G1 X105.974 Y116.02 E8.19585
G1 X105.635 Y116.523 E8.22612
G1 X105.233 Y116.976 E8.25633
G1 X104.775 Y117.373 E8.28657
G1 X104.268 Y117.706 E8.31683
G1 X103.722 Y117.97 E8.34709
G1 X103.146 Y118.159 E8.37734
G1 X102.55 Y118.271 E8.40759
G1 X102 Y118.304 E8.43508
G1 X98 Y118.304 E8.63464
G1 X97.395 Y118.264 E8.66489
G1 X96.801 Y118.145 E8.69511
G1 X96.227 Y117.949 E8.72537
G1 X95.684 Y117.678 E8.75565
G1 X95.181 Y117.339 E8.78591
G1 X94.728 Y116.937 E8.81613
G1 X94.331 Y116.479 E8.84637
G1 X93.998 Y115.972 E8.87663
G1 X93.734 Y115.426 E8.90689
G1 X93.545 Y114.85 E8.93713
G1 X93.433 Y114.254 E8.96739
G1 X93.4 Y113.704 E8.99488
G1 X93.4 Y109.056 E9.22676
G1 X93.229 Y108.98 E9.2361
G1 X92.441 Y108.531 E9.28135
G1 X90.859 Y107.409 E9.37811
G1 X90.183 Y106.823 E9.42274
G1 X88.849 Y105.417 E9.51944
G1 X88.462 Y104.951 E9.54966
G1 X88.291 Y104.698 E9.56489
G1 X87.254 Y103.047 E9.66216
G1 X86.895 Y102.349 E9.70132
G1 X86.342 Y101.004 E9.77387
G1 X86.131 Y100.362 E9.80759
G1 X85.783 Y98.959 E9.87971
G1 X85.669 Y98.292 E9.91347
G1 X85.53 Y96.844 E9.98604
G1 X85.522 Y96.053 E10.0255
G1 X85.671 Y94.108 E10.12282
G1 X85.828 Y93.219 E10.16786
G1 X86.348 Y91.362 E10.26407
G1 X86.675 Y90.523 E10.309
G1 X87.556 Y88.784 E10.40626
G1 X88.042 Y88.021 E10.45139
G1 X89.241 Y86.495 E10.54821
G1 X89.863 Y85.846 E10.59306
G0 F1800 X90.123 Y86.15
G1 F1200 X91.588 Y84.893 E10.68936
G1 X92.262 Y84.421 E10.73041
G1 X93.952 Y83.469 E10.82719
G1 X94.708 Y83.136 E10.8684
G1 X96.559 Y82.531 E10.96555
G1 X97.362 Y82.353 E11.00659
G1 X99.288 Y82.121 E11.10337
G1 X100.113 Y82.103 E11.14454
G1 X102.047 Y82.252 E11.24131
G1 X102.858 Y82.396 E11.28241
G1 X104.716 Y82.917 E11.37868
G1 X105.48 Y83.214 E11.41957
G1 X107.217 Y84.094 E11.51672
G1 X107.914 Y84.538 E11.55795
G1 X109.44 Y85.737 E11.65477
G1 X110.034 Y86.306 E11.69581
G1 X111.296 Y87.778 E11.79254
G1 X111.641 Y88.243 E11.82143
G1 X111.816 Y88.541 E11.83867
G1 X112.949 Y90.673 E11.95912
G1 X113.263 Y91.437 E12.00033
G1 X113.681 Y92.83 E12.07289
G1 X113.814 Y93.431 E12.1036
G1 X114.024 Y94.872 E12.17625
G1 X114.067 Y95.588 E12.21204
G1 X114.016 Y97.526 E12.30876
G1 X113.924 Y98.294 E12.34735
G1 X113.573 Y99.936 E12.43112
G1 X113.414 Y100.49 E12.45987
G1 X113.052 Y101.488 E12.51284
G1 X112.839 Y101.977 E12.53945
G1 X112.188 Y103.243 E12.61047
G1 X111.834 Y103.813 E12.64395
G1 X110.79 Y105.23 E12.73176
G1 X110.402 Y105.685 E12.76159
G1 X109.655 Y106.444 E12.81472
G1 X109.256 Y106.801 E12.84143
G1 X108.143 Y107.675 E12.91203
G1 X107.652 Y108.008 E12.94163
G1 X106.428 Y108.716 E13.01218
G1 X106.2 Y108.827 E13.02483
G1 X106.2 Y113.704 E13.26814
G1 X106.16 Y114.282 E13.29705
G1 X106.041 Y114.849 E13.32595
G1 X105.845 Y115.394 E13.35485
G1 X105.576 Y115.907 E13.38374
G1 X105.239 Y116.378 E13.41264
G1 X104.84 Y116.798 E13.44154
G1 X104.387 Y117.16 E13.47047
G1 X103.889 Y117.455 E13.49935
G1 X103.355 Y117.68 E13.52826
G1 X102.795 Y117.828 E13.55716
G1 X102 Y117.904 E13.597
G1 X98 Y117.904 E13.79656
G1 X97.422 Y117.864 E13.82547
G1 X96.855 Y117.745 E13.85437
G1 X96.31 Y117.549 E13.88326
G1 X95.797 Y117.28 E13.91216
G1 X95.326 Y116.943 E13.94106
G1 X94.906 Y116.544 E13.96996
G1 X94.544 Y116.091 E13.99889
G1 X94.249 Y115.593 E14.02777
G1 X94.024 Y115.059 E14.05668
G1 X93.876 Y114.499 E14.08557
G1 X93.8 Y113.704 E14.12542
G1 X93.8 Y108.797 E14.37023
G1 X93.392 Y108.615 E14.39252
G1 X92.672 Y108.205 E14.43385
G1 X91.09 Y107.083 E14.53061
G1 X90.473 Y106.548 E14.57136
G1 X89.139 Y105.142 E14.66805
G1 X88.629 Y104.485 E14.70955
G1 X87.592 Y102.834 E14.80682
G1 X87.265 Y102.197 E14.84254
G1 X86.712 Y100.852 E14.91509
G1 X86.52 Y100.266 E14.94586
G1 X86.172 Y98.863 E15.01797
G1 X86.067 Y98.253 E15.04885
G1 X85.928 Y96.805 E15.12143
G1 X85.921 Y96.083 E15.15745
G1 X86.07 Y94.138 E15.25477
G1 X86.214 Y93.326 E15.29591
G1 X86.734 Y91.469 E15.39212
G1 X87.031 Y90.704 E15.43306
G1 X87.912 Y88.965 E15.53032
G1 X88.356 Y88.268 E15.57155
G1 X89.555 Y86.742 E15.66837
G1 X90.123 Y86.15 E15.7093
G0 F1800 X90.384 Y86.453
G1 F1200 X91.849 Y85.196 E15.80561
G1 X92.458 Y84.769 E15.84272
G1 X94.148 Y83.817 E15.93949
G1 X94.832 Y83.516 E15.97677
G1 X96.683 Y82.911 E16.07393
G1 X97.41 Y82.75 E16.11107
G1 X99.336 Y82.518 E16.20786
G1 X100.082 Y82.502 E16.24508
G1 X102.016 Y82.651 E16.34186
G1 X102.75 Y82.781 E16.37905
G1 X104.608 Y83.302 E16.47532
G1 X105.299 Y83.571 E16.51231
G1 X107.036 Y84.451 E16.60946
G1 X107.667 Y84.853 E16.64678
G1 X109.193 Y86.052 E16.74361
G1 X109.73 Y86.567 E16.78073
G1 X110.992 Y88.039 E16.87746
G1 X111.319 Y88.482 E16.90493
G1 X111.463 Y88.729 E16.91919
G1 X112.596 Y90.861 E17.03965
G1 X112.88 Y91.552 E17.07692
G1 X113.298 Y92.945 E17.14948
G1 X113.418 Y93.489 E17.17727
G1 X113.628 Y94.93 E17.24992
G1 X113.667 Y95.578 E17.28231
G1 X113.616 Y97.516 E17.37903
G1 X113.533 Y98.21 E17.4139
G1 X113.182 Y99.852 E17.49767
G1 X113.038 Y100.354 E17.52373
G1 X112.676 Y101.352 E17.57669
G1 X112.483 Y101.794 E17.60075
G1 X111.832 Y103.06 E17.67177
G1 X111.512 Y103.576 E17.70207
G1 X110.468 Y104.993 E17.78988
G1 X110.117 Y105.405 E17.81688
G1 X109.37 Y106.164 E17.87001
G1 X109.009 Y106.487 E17.89418
G1 X107.896 Y107.361 E17.96478
G1 X107.452 Y107.661 E17.99151
G1 X106.228 Y108.369 E18.06206
G1 X105.8 Y108.577 E18.0858
G1 X105.8 Y113.704 E18.34159
G1 X105.76 Y114.254 E18.3691
G1 X105.641 Y114.792 E18.39659
G1 X105.445 Y115.307 E18.42408
G1 X105.177 Y115.788 E18.45155
G1 X104.843 Y116.226 E18.47903
G1 X104.448 Y116.61 E18.50651
G1 X104.002 Y116.934 E18.53402
G1 X103.514 Y117.189 E18.56149
G1 X102.994 Y117.372 E18.58899
G1 X102.453 Y117.477 E18.61648
G1 X102 Y117.504 E18.63912
G1 X98 Y117.504 E18.83868
G1 X97.45 Y117.464 E18.8662
G1 X96.912 Y117.345 E18.89369
G1 X96.397 Y117.149 E18.92118
G1 X95.916 Y116.881 E18.94865
G1 X95.478 Y116.547 E18.97613
G1 X95.094 Y116.152 E19.00361
G1 X94.77 Y115.706 E19.03112
G1 X94.515 Y115.218 E19.05859
G1 X94.332 Y114.698 E19.08609
G1 X94.227 Y114.157 E19.11358
G1 X94.2 Y113.704 E19.13622
G1 X94.2 Y108.538 E19.39396
G1 X93.555 Y108.25 E19.4292
G1 X92.904 Y107.879 E19.46658
G1 X91.322 Y106.757 E19.56334
G1 X90.763 Y106.272 E19.60026
G1 X89.429 Y104.866 E19.69696
G1 X88.968 Y104.272 E19.73447
G1 X87.931 Y102.621 E19.83174
G1 X87.634 Y102.045 E19.86407
G1 X87.081 Y100.7 E19.93662
G1 X86.908 Y100.17 E19.96444
G1 X86.56 Y98.767 E20.03655
G1 X86.465 Y98.215 E20.0645
G1 X86.326 Y96.767 E20.13707
G1 X86.32 Y96.114 E20.16965
G1 X86.469 Y94.169 E20.26697
G1 X86.599 Y93.434 E20.30421
G1 X87.119 Y91.577 E20.40042
G1 X87.388 Y90.885 E20.43746
G1 X88.269 Y89.146 E20.53472
G1 X88.671 Y88.515 E20.57205
G1 X89.87 Y86.989 E20.66887
G1 X90.384 Y86.453 E20.70592
G0 F1800 X90.644 Y86.757
G1 F1200 X92.109 Y85.5 E20.80222
G1 X92.654 Y85.118 E20.83543
G1 X94.344 Y84.166 E20.9322
G1 X94.957 Y83.896 E20.96562
G1 X96.808 Y83.291 E21.06277
G1 X97.457 Y83.147 E21.09594
G1 X99.383 Y82.915 E21.19272
G1 X100.051 Y82.901 E21.22605
G1 X101.985 Y83.05 E21.32283
G1 X102.642 Y83.166 E21.35611
G1 X104.5 Y83.687 E21.45238
G1 X105.119 Y83.928 E21.48552
G1 X106.856 Y84.808 E21.58267
G1 X107.42 Y85.168 E21.61605
G1 X108.946 Y86.367 E21.71287
G1 X109.426 Y86.827 E21.74604
G1 X110.688 Y88.299 E21.84277
G1 X111.109 Y88.916 E21.88004
G1 X112.242 Y91.048 E22.00049
G1 X112.497 Y91.667 E22.03389
G1 X112.915 Y93.06 E22.10645
G1 X113.022 Y93.547 E22.13133
G1 X113.232 Y94.988 E22.20398
G1 X113.267 Y95.567 E22.23292
G1 X113.216 Y97.505 E22.32964
G1 X113.142 Y98.127 E22.36089
G1 X112.791 Y99.769 E22.44466
G1 X112.662 Y100.217 E22.46792
G1 X112.3 Y101.215 E22.52088
G1 X112.128 Y101.611 E22.54242
G1 X111.477 Y102.877 E22.61344
G1 X111.19 Y103.339 E22.64058
G1 X110.146 Y104.756 E22.72839
G1 X109.832 Y105.124 E22.75252
G1 X109.085 Y105.883 E22.80565
G1 X108.762 Y106.172 E22.82728
G1 X107.649 Y107.046 E22.89788
G1 X107.251 Y107.315 E22.92185
G1 X106.027 Y108.023 E22.99239
G1 X105.59 Y108.236 E23.01664
G1 X105.4 Y108.312 E23.02685
G1 X105.4 Y113.704 E23.29586
G1 X105.36 Y114.224 E23.32188
G1 X105.241 Y114.731 E23.34786
G1 X105.046 Y115.214 E23.37385
G1 X104.78 Y115.662 E23.39984
G1 X104.448 Y116.064 E23.42586
G1 X104.058 Y116.41 E23.45187
G1 X103.62 Y116.693 E23.47788
G1 X103.145 Y116.906 E23.50385
G1 X102.642 Y117.043 E23.52986
G1 X102 Y117.104 E23.56204
G1 X98 Y117.104 E23.7616
G1 X97.48 Y117.064 E23.78762
G1 X96.973 Y116.945 E23.8136
G1 X96.49 Y116.75 E23.83959
G1 X96.042 Y116.484 E23.86558
G1 X95.64 Y116.152 E23.89159
G1 X95.294 Y115.762 E23.9176
G1 X95.011 Y115.324 E23.94362
G1 X94.798 Y114.849 E23.96959
G1 X94.661 Y114.346 E23.9956
G1 X94.6 Y113.704 E24.02777
G1 X94.6 Y108.277 E24.29853
G1 X93.718 Y107.884 E24.3467
G1 X93.135 Y107.552 E24.38017
G1 X91.553 Y106.43 E24.47693
G1 X91.054 Y105.997 E24.50989
G1 X89.72 Y104.591 E24.60659
G1 X89.307 Y104.059 E24.64019
G1 X88.27 Y102.408 E24.73746
G1 X88.004 Y101.893 E24.76638
G1 X87.451 Y100.548 E24.83893
G1 X87.296 Y100.074 E24.86381
G1 X86.948 Y98.671 E24.93593
G1 X86.864 Y98.177 E24.96092
G1 X86.725 Y96.729 E25.0335
G1 X86.719 Y96.144 E25.06269
G1 X86.868 Y94.199 E25.16001
G1 X86.984 Y93.542 E25.19329
G1 X87.504 Y91.685 E25.2895
G1 X87.745 Y91.065 E25.32269
G1 X88.626 Y89.326 E25.41994
G1 X88.986 Y88.762 E25.45333
G1 X90.185 Y87.236 E25.55015
G1 X90.644 Y86.757 E25.58325
G0 F1800 X90.904 Y87.06
G1 F1200 X92.369 Y85.803 E25.67955
G1 X92.851 Y85.466 E25.70889
G1 X94.541 Y84.514 E25.80567
G1 X95.081 Y84.276 E25.83511
G1 X96.932 Y83.671 E25.93226
G1 X97.505 Y83.545 E25.96153
G1 X99.431 Y83.313 E26.05831
G1 X100.02 Y83.3 E26.08771
G1 X101.954 Y83.449 E26.18448
G1 X102.534 Y83.551 E26.21386
G1 X104.392 Y84.072 E26.31013
G1 X104.938 Y84.285 E26.33937
G1 X106.675 Y85.165 E26.43652
G1 X107.172 Y85.482 E26.46593
G1 X108.698 Y86.681 E26.56275
G1 X109.123 Y87.087 E26.59207
G1 X110.385 Y88.559 E26.68881
G1 X110.756 Y89.104 E26.7217
G1 X111.889 Y91.236 E26.84215
G1 X112.113 Y91.782 E26.87159
G1 X112.531 Y93.175 E26.94415
G1 X112.627 Y93.604 E26.96608
G1 X112.837 Y95.045 E27.03874
G1 X112.867 Y95.557 E27.06432
G1 X112.816 Y97.495 E27.16104
G1 X112.751 Y98.043 E27.18858
G1 X112.4 Y99.685 E27.27235
G1 X112.286 Y100.081 E27.2929
G1 X111.924 Y101.079 E27.34587
G1 X111.772 Y101.428 E27.36486
G1 X111.121 Y102.694 E27.43588
G1 X110.868 Y103.101 E27.45979
G1 X109.824 Y104.518 E27.5476
G1 X109.547 Y104.843 E27.56891
G1 X108.8 Y105.602 E27.62204
G1 X108.515 Y105.857 E27.64112
G1 X107.402 Y106.731 E27.71172
G1 X107.051 Y106.969 E27.73287
G1 X105.827 Y107.677 E27.80342
G1 X105.441 Y107.865 E27.82484
G1 X105 Y108.042 E27.84855
G1 X105 Y113.704 E28.13103
G1 X104.96 Y114.192 E28.15545
G1 X104.841 Y114.667 E28.17988
G1 X104.647 Y115.116 E28.20429
G1 X104.382 Y115.528 E28.22873
G1 X104.054 Y115.891 E28.25313
G1 X103.671 Y116.196 E28.27756
G1 X103.243 Y116.434 E28.30199
G1 X102.783 Y116.6 E28.32639
G1 X102.302 Y116.689 E28.3508
G1 X102 Y116.704 E28.36588
G1 X98 Y116.704 E28.56544
G1 X97.512 Y116.664 E28.58987
G1 X97.037 Y116.545 E28.6143
G1 X96.588 Y116.351 E28.6387
G1 X96.176 Y116.086 E28.66314
G1 X95.813 Y115.758 E28.68755
G1 X95.508 Y115.375 E28.71198
G1 X95.27 Y114.947 E28.73641
G1 X95.104 Y114.487 E28.76081
G1 X95.015 Y114.006 E28.78521
G1 X95 Y113.704 E28.8003
