;FLAVOR:RepRap
;TIME:5402
;Filament used: 5.78413m
;Layer height: 0.15
;Generated with Cura_SteamEngine 2.5.0-BETA
M190 S55
M104 S210
M109 S210
G21 ;metric values
G90 ;absolute positioning
M82 ;set extruder to absolute mode
M107 ;start with the fan off
G28 X0 Y0 ;move X/Y to min endstops
G28 Z0 ;move Z to min endstops
G1 Z15.0 F9000 ;move the platform down 15mm
G92 E0 ;zero the extruded length
G1 F200 E3 ;extrude 3mm of feed stock
G92 E0 ;zero the extruded length again
G1 F9000
;Put printing message on LCD screen
M117 Printing...
;LAYER_COUNT:186
;LAYER:0
M107
G0 F1800 X73.791 Y79.559 Z0.3
;TYPE:SKIRT
G1 F1200 X74.254 Y79.128 E0.03156
G1 X74.768 Y78.76 E0.0631
G1 X75.324 Y78.46 E0.09462
G1 X75.914 Y78.232 E0.12617
G1 X76.527 Y78.08 E0.15768
G1 X77.418 Y78 E0.20231
G1 X91.31 Y78 E0.89539
G1 X91.609 Y77.926 E0.91075
G1 X92.5 Y77.846 E0.95539
G1 X123.346 Y77.846 E2.4943
G1 X123.977 Y77.886 E2.52584
G1 X124.598 Y78.005 E2.55739
G1 X125.198 Y78.202 E2.58889
G1 X125.77 Y78.473 E2.62047
G1 X126.302 Y78.813 E2.65197
G1 X126.881 Y79.31 E2.69004
G1 X130.035 Y82.463 E2.91254
G1 X130.453 Y82.937 E2.94407
G1 X130.808 Y83.46 E2.9756
G1 X131.093 Y84.024 E3.00713
G1 X131.306 Y84.62 E3.03871
G1 X131.442 Y85.237 E3.07023
G1 X131.5 Y85.999 E3.10835
G1 X131.5 Y113.858 E4.49824
G1 X131.46 Y114.489 E4.52979
G1 X131.341 Y115.11 E4.56133
G1 X131.144 Y115.71 E4.59284
G1 X130.873 Y116.282 E4.62442
G1 X130.533 Y116.814 E4.65592
G1 X130.036 Y117.394 E4.69402
G1 X124.894 Y122.536 E5.05682
G1 X124.419 Y122.953 E5.08835
G1 X123.896 Y123.308 E5.11989
G1 X123.332 Y123.594 E5.15144
G1 X122.737 Y123.806 E5.18295
G1 X122.119 Y123.942 E5.21452
G1 X121.358 Y124 E5.2526
G1 X114.641 Y124 E5.58771
G1 X114.01 Y123.96 E5.61925
G1 X113.389 Y123.841 E5.6508
G1 X112.789 Y123.644 E5.68231
G1 X112.217 Y123.373 E5.71388
G1 X111.685 Y123.033 E5.74538
G1 X111.105 Y122.535 E5.78352
G1 X105.964 Y117.393 E6.14628
G1 X105.546 Y116.919 E6.17781
G1 X105.192 Y116.395 E6.20936
G1 X104.906 Y115.832 E6.24087
G1 X104.694 Y115.236 E6.27243
G1 X104.558 Y114.619 E6.30395
G1 X104.5 Y113.858 E6.34202
G1 X104.5 Y103.259 E6.87081
G1 X104.476 Y103.027 E6.88245
G1 X77.412 Y103 E8.23267
G1 X76.781 Y102.959 E8.26422
G1 X76.16 Y102.84 E8.29577
G1 X75.56 Y102.642 E8.32729
G1 X74.989 Y102.371 E8.35882
G1 X74.457 Y102.03 E8.39035
G1 X73.972 Y101.624 E8.4219
G1 X73.542 Y101.16 E8.45346
G1 X73.175 Y100.646 E8.48497
G1 X72.875 Y100.09 E8.51649
G1 X72.647 Y99.5 E8.54805
G1 X72.496 Y98.886 E8.5796
G1 X72.417 Y98 E8.62397
G1 X72.418 Y83 E9.37233
G1 X72.458 Y82.369 E9.40387
G1 X72.577 Y81.748 E9.43542
G1 X72.774 Y81.147 E9.46697
G1 X73.045 Y80.576 E9.4985
G1 X73.386 Y80.044 E9.53003
G1 X73.791 Y79.559 E9.56155
G0 F1800 X74.185 Y79.728
G1 F1200 X74.644 Y79.331 E9.59183
G1 X75.15 Y78.998 E9.62205
G1 X75.696 Y78.734 E9.65231
G1 X76.272 Y78.545 E9.68255
G1 X76.868 Y78.433 E9.71281
G1 X77.418 Y78.4 E9.74029
G1 X91.327 Y78.4 E10.43422
G1 X91.354 Y78.391 E10.43564
G1 X91.95 Y78.279 E10.46589
G1 X92.5 Y78.246 E10.49338
G1 X123.346 Y78.246 E12.03229
G1 X123.951 Y78.286 E12.06254
G1 X124.545 Y78.405 E12.09277
G1 X125.119 Y78.601 E12.12303
G1 X125.662 Y78.872 E12.15331
G1 X126.165 Y79.211 E12.18357
G1 X126.598 Y79.593 E12.21237
G1 X129.752 Y82.746 E12.43487
G1 X130.152 Y83.202 E12.46513
G1 X130.488 Y83.706 E12.49535
G1 X130.755 Y84.251 E12.52563
G1 X130.948 Y84.826 E12.55589
G1 X131.064 Y85.421 E12.58613
G1 X131.1 Y85.999 E12.61503
G1 X131.1 Y113.858 E14.00492
G1 X131.06 Y114.463 E14.03517
G1 X130.941 Y115.057 E14.06539
G1 X130.745 Y115.631 E14.09565
G1 X130.474 Y116.174 E14.12593
G1 X130.135 Y116.677 E14.15619
G1 X129.753 Y117.111 E14.18504
G1 X124.611 Y122.253 E14.54783
G1 X124.155 Y122.652 E14.57806
G1 X123.65 Y122.988 E14.60832
G1 X123.106 Y123.255 E14.63856
G1 X122.531 Y123.448 E14.66882
G1 X121.936 Y123.564 E14.69906
G1 X121.358 Y123.6 E14.72795
G1 X114.641 Y123.6 E15.06306
G1 X114.036 Y123.56 E15.09331
G1 X113.442 Y123.441 E15.12354
G1 X112.868 Y123.245 E15.1538
G1 X112.325 Y122.974 E15.18407
G1 X111.822 Y122.635 E15.21434
G1 X111.388 Y122.252 E15.24321
G1 X106.247 Y117.11 E15.60597
G1 X105.848 Y116.654 E15.6362
G1 X105.511 Y116.15 E15.66645
G1 X105.245 Y115.605 E15.69671
G1 X105.052 Y115.03 E15.72697
G1 X104.936 Y114.435 E15.75721
G1 X104.9 Y113.858 E15.78605
G1 X104.9 Y103.245 E16.31554
G1 X104.866 Y102.921 E16.33179
G1 X104.842 Y102.848 E16.33563
G1 X104.805 Y102.783 E16.33936
G1 X104.751 Y102.723 E16.34338
G1 X104.683 Y102.674 E16.34757
G1 X104.619 Y102.646 E16.35105
G1 X104.534 Y102.628 E16.35539
G1 X77.412 Y102.6 E17.70851
G1 X76.807 Y102.559 E17.73876
G1 X76.213 Y102.44 E17.76898
G1 X75.64 Y102.243 E17.79921
G1 X75.097 Y101.972 E17.82949
G1 X74.595 Y101.633 E17.85971
G1 X74.142 Y101.23 E17.88996
G1 X73.745 Y100.771 E17.92024
G1 X73.413 Y100.264 E17.95047
G1 X73.15 Y99.718 E17.98071
G1 X72.961 Y99.142 E18.01095
G1 X72.849 Y98.546 E18.04121
G1 X72.817 Y98 E18.06849
G1 X72.818 Y83 E18.81685
G1 X72.858 Y82.395 E18.8471
G1 X72.977 Y81.8 E18.87737
G1 X73.174 Y81.227 E18.9076
G1 X73.444 Y80.684 E18.93785
G1 X73.783 Y80.181 E18.96812
G1 X74.185 Y79.728 E18.99833
G0 F1800 X74.578 Y79.905
G1 F1200 X75.031 Y79.544 E19.02723
G1 X75.529 Y79.249 E19.05611
G1 X76.064 Y79.024 E19.08506
G1 X76.623 Y78.876 E19.11391
G1 X77.418 Y78.8 E19.15376
G1 X91.41 Y78.8 E19.85182
G1 X91.705 Y78.722 E19.86704
G1 X92.5 Y78.646 E19.90689
G1 X123.346 Y78.646 E21.4458
G1 X123.924 Y78.686 E21.47471
G1 X124.491 Y78.805 E21.50361
G1 X125.036 Y79.001 E21.5325
G1 X125.549 Y79.27 E21.5614
G1 X126.02 Y79.607 E21.5903
G1 X126.315 Y79.876 E21.61021
G1 X129.469 Y83.029 E21.83271
G1 X129.85 Y83.466 E21.86164
G1 X130.167 Y83.951 E21.89054
G1 X130.414 Y84.475 E21.91944
G1 X130.586 Y85.028 E21.94834
G1 X130.681 Y85.599 E21.97722
G1 X130.7 Y85.999 E21.99719
G1 X130.7 Y113.858 E23.38709
G1 X130.66 Y114.436 E23.41599
G1 X130.541 Y115.003 E23.4449
G1 X130.345 Y115.548 E23.47379
G1 X130.076 Y116.061 E23.50269
G1 X129.739 Y116.532 E23.53158
G1 X129.47 Y116.828 E23.55154
G1 X124.328 Y121.97 E23.91433
G1 X123.891 Y122.35 E23.94323
G1 X123.406 Y122.667 E23.97213
G1 X122.882 Y122.914 E24.00103
G1 X122.329 Y123.086 E24.02993
G1 X121.757 Y123.181 E24.05885
G1 X121.358 Y123.2 E24.07878
G1 X114.641 Y123.2 E24.4139
G1 X114.063 Y123.16 E24.4428
G1 X113.496 Y123.041 E24.47171
G1 X112.951 Y122.845 E24.5006
G1 X112.438 Y122.576 E24.5295
G1 X111.967 Y122.239 E24.55839
G1 X111.671 Y121.97 E24.57835
G1 X106.53 Y116.828 E24.94111
G1 X106.149 Y116.391 E24.97003
G1 X105.833 Y115.905 E24.99895
G1 X105.586 Y115.381 E25.02786
G1 X105.414 Y114.828 E25.05675
G1 X105.319 Y114.257 E25.08563
G1 X105.3 Y113.858 E25.10556
G1 X105.3 Y103.223 E25.63614
G1 X105.259 Y102.838 E25.65545
G1 X105.208 Y102.681 E25.66369
G1 X105.132 Y102.548 E25.67133
G1 X105.022 Y102.427 E25.67949
G1 X104.884 Y102.327 E25.68799
G1 X104.74 Y102.263 E25.69586
G1 X104.576 Y102.228 E25.70422
G1 X77.413 Y102.2 E27.05939
G1 X76.835 Y102.159 E27.0883
G1 X76.268 Y102.04 E27.1172
G1 X75.723 Y101.843 E27.14611
G1 X75.21 Y101.574 E27.17501
G1 X74.74 Y101.236 E27.2039
G1 X74.32 Y100.837 E27.2328
G1 X73.959 Y100.384 E27.2617
G1 X73.664 Y99.885 E27.29062
G1 X73.44 Y99.351 E27.31951
G1 X73.292 Y98.791 E27.3484
G1 X73.217 Y98 E27.38805
G1 X73.218 Y83 E28.1364
G1 X73.258 Y82.422 E28.1653
G1 X73.377 Y81.855 E28.19421
G1 X73.573 Y81.31 E28.2231
G1 X73.842 Y80.797 E28.252
G1 X74.179 Y80.326 E28.2809
G1 X74.578 Y79.905 E28.30983
G0 F1800 X74.97 Y80.094
G1 F1200 X75.416 Y79.77 E28.33734
G1 X75.904 Y79.515 E28.36481
G1 X76.424 Y79.332 E28.39231
G1 X76.965 Y79.227 E28.4198
G1 X77.418 Y79.2 E28.44244
G1 X91.443 Y79.2 E29.14215
G1 X91.506 Y79.178 E29.14548
G1 X92.047 Y79.073 E29.17298
G1 X92.5 Y79.046 E29.19562
G1 X123.346 Y79.046 E30.73453
G1 X123.896 Y79.086 E30.76204
G1 X124.434 Y79.205 E30.78953
G1 X124.949 Y79.401 E30.81702
G1 X125.43 Y79.669 E30.84449
G1 X126.033 Y80.159 E30.88326
G1 X129.187 Y83.312 E31.10575
G1 X129.547 Y83.728 E31.1332
G1 X129.843 Y84.193 E31.1607
G1 X130.069 Y84.695 E31.18817
G1 X130.22 Y85.225 E31.21566
G1 X130.3 Y85.999 E31.25448
G1 X130.3 Y113.858 E32.64437
G1 X130.26 Y114.408 E32.67189
G1 X130.141 Y114.946 E32.69938
G1 X129.945 Y115.461 E32.72687
G1 X129.677 Y115.942 E32.75434
G1 X129.187 Y116.545 E32.7931
G1 X124.045 Y121.687 E33.1559
G1 X123.628 Y122.047 E33.18338
G1 X123.164 Y122.344 E33.21087
G1 X122.661 Y122.57 E33.23838
G1 X122.131 Y122.721 E33.26587
G1 X121.358 Y122.8 E33.30464
G1 X114.641 Y122.8 E33.63975
G1 X114.091 Y122.76 E33.66726
G1 X113.553 Y122.641 E33.69475
G1 X113.038 Y122.445 E33.72224
G1 X112.557 Y122.177 E33.74971
G1 X111.954 Y121.687 E33.78848
G1 X106.813 Y116.545 E34.15124
G1 X106.452 Y116.128 E34.17876
G1 X106.156 Y115.663 E34.20626
G1 X105.93 Y115.161 E34.23372
G1 X105.779 Y114.631 E34.26122
G1 X105.7 Y113.858 E34.29998
G1 X105.7 Y103.2 E34.83171
G1 X105.653 Y102.757 E34.85394
G1 X105.575 Y102.518 E34.86648
G1 X105.456 Y102.31 E34.87844
G1 X105.288 Y102.125 E34.8909
G1 X105.087 Y101.978 E34.90333
G1 X104.869 Y101.881 E34.91523
G1 X104.616 Y101.828 E34.92813
G1 X77.413 Y101.8 E36.28529
G1 X76.864 Y101.759 E36.31276
G1 X76.326 Y101.64 E36.34025
G1 X75.811 Y101.444 E36.36774
G1 X75.33 Y101.175 E36.39523
G1 X74.892 Y100.84 E36.42274
G1 X74.508 Y100.445 E36.45023
G1 X74.185 Y99.999 E36.4777
G1 X73.93 Y99.51 E36.50522
G1 X73.748 Y98.99 E36.5327
G1 X73.644 Y98.449 E36.56019
G1 X73.617 Y98 E36.58263
G1 X73.618 Y83 E37.33098
G1 X73.658 Y82.45 E37.35849
G1 X73.777 Y81.912 E37.38598
G1 X73.973 Y81.397 E37.41347
G1 X74.241 Y80.916 E37.44094
G1 X74.575 Y80.478 E37.46842
G1 X74.97 Y80.094 E37.49591
G0 F1800 X75.36 Y80.294
G1 F1200 X75.798 Y80.011 E37.52192
G1 X76.274 Y79.798 E37.54794
G1 X76.776 Y79.661 E37.5739
G1 X77.418 Y79.6 E37.60608
G1 X91.517 Y79.6 E38.30948
G1 X91.858 Y79.507 E38.32711
G1 X92.5 Y79.446 E38.35929
G1 X123.346 Y79.446 E39.8982
G1 X123.866 Y79.486 E39.92422
G1 X124.373 Y79.605 E39.9502
G1 X124.856 Y79.8 E39.97619
G1 X125.304 Y80.066 E40.00218
G1 X125.75 Y80.441 E40.03125
G1 X128.904 Y83.594 E40.25375
G1 X129.243 Y83.99 E40.27976
G1 X129.518 Y84.433 E40.30577
G1 X129.722 Y84.912 E40.33174
G1 X129.85 Y85.418 E40.35778
G1 X129.9 Y85.999 E40.38688
G1 X129.9 Y113.858 E41.77677
G1 X129.86 Y114.378 E41.80279
G1 X129.741 Y114.885 E41.82877
G1 X129.546 Y115.368 E41.85476
G1 X129.28 Y115.816 E41.88075
G1 X128.904 Y116.262 E41.90985
G1 X123.762 Y121.404 E42.27265
G1 X123.366 Y121.743 E42.29866
G1 X122.924 Y122.018 E42.32463
G1 X122.444 Y122.222 E42.35065
G1 X121.939 Y122.35 E42.37664
G1 X121.358 Y122.4 E42.40573
G1 X114.641 Y122.4 E42.74084
G1 X114.121 Y122.36 E42.76686
G1 X113.614 Y122.241 E42.79284
G1 X113.131 Y122.046 E42.81883
G1 X112.683 Y121.78 E42.84483
G1 X112.237 Y121.404 E42.87393
G1 X107.096 Y116.262 E43.23669
G1 X106.756 Y115.866 E43.26273
G1 X106.482 Y115.423 E43.28872
G1 X106.278 Y114.944 E43.31469
G1 X106.15 Y114.439 E43.34068
G1 X106.1 Y113.858 E43.36977
G1 X106.1 Y103.177 E43.90265
G1 X106.047 Y102.671 E43.92803
G1 X105.944 Y102.355 E43.94462
G1 X105.783 Y102.076 E43.96069
G1 X105.559 Y101.828 E43.97736
G1 X105.287 Y101.63 E43.99414
G1 X104.993 Y101.499 E44.0102
G1 X104.657 Y101.428 E44.02734
G1 X77.414 Y101.4 E45.3865
G1 X76.894 Y101.36 E45.41251
G1 X76.387 Y101.24 E45.43851
G1 X75.904 Y101.045 E45.46449
G1 X75.456 Y100.778 E45.49051
G1 X75.055 Y100.445 E45.51652
G1 X74.709 Y100.055 E45.54253
G1 X74.426 Y99.617 E45.56855
G1 X74.214 Y99.141 E45.59454
G1 X74.077 Y98.638 E45.62055
G1 X74.017 Y98 E45.65252
G1 X74.018 Y83 E46.40087
G1 X74.058 Y82.48 E46.42689
G1 X74.177 Y81.973 E46.45288
G1 X74.372 Y81.489 E46.47891
G1 X74.639 Y81.042 E46.50489
G1 X74.971 Y80.64 E46.5309
G1 X75.36 Y80.294 E46.55687
G0 F1800 X75.747 Y80.508
G1 F1200 X76.175 Y80.27 E46.5813
G1 X76.635 Y80.104 E46.6057
G1 X77.117 Y80.015 E46.63015
G1 X77.418 Y80 E46.64519
G1 X91.578 Y80 E47.35163
G1 X91.717 Y79.95 E47.359
G1 X92.198 Y79.861 E47.38341
G1 X92.5 Y79.846 E47.39849
G1 X123.346 Y79.846 E48.93741
G1 X123.834 Y79.886 E48.96184
G1 X124.309 Y80.005 E48.98627
G1 X124.758 Y80.199 E49.01067
G1 X125.17 Y80.464 E49.03511
G1 X125.467 Y80.724 E49.0548
G1 X128.621 Y83.877 E49.2773
G1 X128.938 Y84.25 E49.30172
G1 X129.19 Y84.67 E49.32615
G1 X129.37 Y85.125 E49.35057
G1 X129.474 Y85.604 E49.37502
G1 X129.5 Y85.999 E49.39477
G1 X129.5 Y113.858 E50.78466
G1 X129.46 Y114.346 E50.80909
G1 X129.341 Y114.821 E50.83352
G1 X129.147 Y115.27 E50.85792
G1 X128.882 Y115.682 E50.88236
G1 X128.621 Y115.979 E50.90209
G1 X123.479 Y121.121 E51.26488
G1 X123.106 Y121.438 E51.2893
G1 X122.686 Y121.69 E51.31374
G1 X122.231 Y121.87 E51.33815
G1 X121.753 Y121.974 E51.36256
G1 X121.358 Y122 E51.38231
G1 X114.641 Y122 E51.71742
G1 X114.153 Y121.96 E51.74185
G1 X113.678 Y121.841 E51.76628
G1 X113.229 Y121.647 E51.79068
G1 X112.817 Y121.382 E51.81512
G1 X112.519 Y121.121 E51.83488
G1 X107.378 Y115.979 E52.19764
G1 X107.062 Y115.606 E52.22203
G1 X106.81 Y115.186 E52.24647
G1 X106.63 Y114.731 E52.27088
G1 X106.526 Y114.253 E52.29529
G1 X106.5 Y113.858 E52.31504
G1 X106.5 Y103.154 E52.84906
G1 X106.44 Y102.589 E52.87741
G1 X106.31 Y102.19 E52.89834
G1 X106.108 Y101.839 E52.91855
G1 X105.828 Y101.528 E52.93943
G1 X105.488 Y101.281 E52.96039
G1 X105.116 Y101.115 E52.98071
G1 X104.703 Y101.028 E53.00177
G1 X77.414 Y101 E54.36323
G1 X76.926 Y100.96 E54.38765
G1 X76.451 Y100.84 E54.4121
G1 X76.002 Y100.646 E54.4365
G1 X75.591 Y100.38 E54.46092
G1 X75.228 Y100.052 E54.48533
G1 X74.924 Y99.668 E54.50977
G1 X74.686 Y99.241 E54.53416
G1 X74.52 Y98.78 E54.5586
G1 X74.432 Y98.299 E54.583
G1 X74.417 Y98 E54.59793
G1 X74.418 Y83 E55.34628
G1 X74.458 Y82.512 E55.37071
G1 X74.577 Y82.037 E55.39514
G1 X74.771 Y81.588 E55.41955
G1 X75.036 Y81.176 E55.44398
G1 X75.364 Y80.813 E55.46839
G1 X75.747 Y80.508 E55.49282
G0 F1800 X76.131 Y80.741
G1 F1200 X76.545 Y80.551 E55.51555
G1 X76.986 Y80.436 E55.53828
G1 X77.418 Y80.4 E55.55991
G1 X91.62 Y80.4 E56.26845
G1 X91.627 Y80.397 E56.26883
G1 X92.068 Y80.282 E56.29157
G1 X92.5 Y80.246 E56.31319
G1 X123.346 Y80.246 E57.85211
G1 X123.8 Y80.286 E57.87485
G1 X124.24 Y80.404 E57.89757
G1 X124.652 Y80.598 E57.92029
G1 X125.184 Y81.007 E57.95377
G1 X128.338 Y84.16 E58.17627
G1 X128.631 Y84.509 E58.199
G1 X128.858 Y84.904 E58.22173
G1 X129.013 Y85.333 E58.24449
G1 X129.1 Y85.999 E58.278
G1 X129.1 Y113.858 E59.66789
G1 X129.06 Y114.312 E59.69063
G1 X128.942 Y114.752 E59.71335
G1 X128.748 Y115.164 E59.73607
G1 X128.338 Y115.696 E59.76958
G1 X123.196 Y120.838 E60.13238
G1 X122.847 Y121.131 E60.15511
G1 X122.452 Y121.358 E60.17784
G1 X122.024 Y121.513 E60.20055
G1 X121.358 Y121.6 E60.23406
G1 X114.641 Y121.6 E60.56917
G1 X114.187 Y121.56 E60.59191
G1 X113.747 Y121.442 E60.61464
G1 X113.335 Y121.248 E60.63736
G1 X112.802 Y120.838 E60.67091
G1 X107.661 Y115.696 E61.03367
G1 X107.369 Y115.347 E61.05637
G1 X107.141 Y114.952 E61.07912
G1 X106.987 Y114.524 E61.10182
G1 X106.9 Y113.858 E61.13533
G1 X106.9 Y103.14 E61.67005
G1 X106.833 Y102.501 E61.7021
G1 X106.678 Y102.028 E61.72694
G1 X106.432 Y101.601 E61.75152
G1 X106.097 Y101.23 E61.77646
G1 X105.69 Y100.933 E61.8016
G1 X105.24 Y100.733 E61.82617
G1 X104.744 Y100.628 E61.85146
G1 X77.414 Y100.6 E63.21496
G1 X76.961 Y100.56 E63.23765
G1 X76.521 Y100.441 E63.26039
G1 X76.108 Y100.247 E63.28315
G1 X75.736 Y99.984 E63.30588
G1 X75.416 Y99.66 E63.3286
G1 X75.157 Y99.285 E63.35134
G1 X74.967 Y98.871 E63.37406
G1 X74.853 Y98.43 E63.39679
G1 X74.817 Y98 E63.41832
G1 X74.818 Y83 E64.16667
G1 X74.858 Y82.546 E64.18941
G1 X74.977 Y82.106 E64.21215
G1 X75.17 Y81.694 E64.23485
G1 X75.433 Y81.321 E64.25762
G1 X75.756 Y81 E64.28034
G1 X76.131 Y80.741 E64.30307
G0 F1800 X76.509 Y80.997
G1 F1200 X76.905 Y80.861 E64.32396
G1 X77.418 Y80.8 E64.34974
G1 X91.716 Y80.8 E65.06307
G1 X91.987 Y80.707 E65.07736
G1 X92.5 Y80.646 E65.10313
G1 X123.346 Y80.646 E66.64205
G1 X123.763 Y80.686 E66.66295
G1 X124.165 Y80.804 E66.68385
G1 X124.537 Y80.997 E66.70476
G1 X124.901 Y81.29 E66.72807
G1 X128.055 Y84.443 E66.95057
G1 X128.322 Y84.766 E66.97147
G1 X128.523 Y85.134 E66.99239
G1 X128.65 Y85.533 E67.01328
G1 X128.7 Y85.999 E67.03667
G1 X128.7 Y113.858 E68.42656
