;FLAVOR:RepRap
;TIME:2335
;Filament used: 1.58545m
;Layer height: 0.15
;Generated with Cura_SteamEngine 2.5.0-BETA
M190 S55
M104 S210
M109 S210
G21 ;metric values
G90 ;absolute positioning
M82 ;set extruder to absolute mode
M107 ;start with the fan off
G28 X0 Y0 ;move X/Y to min endstops
G28 Z0 ;move Z to min endstops
G1 Z15.0 F9000 ;move the platform down 15mm
G92 E0 ;zero the extruded length
G1 F200 E3 ;extrude 3mm of feed stock
G92 E0 ;zero the extruded length again
G1 F9000
;Put printing message on LCD screen
M117 Printing...
;LAYER_COUNT:186
;LAYER:0
M107
G0 F1800 X92.473 Y82.559 Z0.3
;TYPE:SKIRT
G1 F1200 X92.936 Y82.129 E0.03152
G1 X93.45 Y81.76 E0.06309
G1 X94.006 Y81.46 E0.09461
G1 X94.595 Y81.232 E0.12612
G1 X95.209 Y81.08 E0.15768
G1 X96.1 Y81 E0.20231
G1 X97.834 Y81 E0.28882
G1 X98.465 Y81.04 E0.32036
G1 X99.086 Y81.159 E0.35191
G1 X99.686 Y81.356 E0.38341
G1 X100.258 Y81.627 E0.41499
G1 X100.79 Y81.967 E0.44649
G1 X101.263 Y82.363 E0.47727
G1 X101.515 Y82.129 E0.49443
G1 X102.029 Y81.76 E0.52599
G1 X102.585 Y81.46 E0.55751
G1 X103.174 Y81.232 E0.58902
G1 X103.788 Y81.08 E0.62058
G1 X104.679 Y81 E0.66521
G1 X106.413 Y81 E0.75172
G1 X107.044 Y81.04 E0.78326
G1 X107.665 Y81.159 E0.81481
G1 X108.265 Y81.356 E0.84632
G1 X108.837 Y81.627 E0.87789
G1 X109.369 Y81.967 E0.90939
G1 X109.854 Y82.373 E0.94095
G1 X110.284 Y82.836 E0.97247
G1 X110.744 Y83.501 E1.01281
G1 X116.746 Y93.901 E1.61188
G1 X117.026 Y94.467 E1.64338
G1 X117.233 Y95.064 E1.67491
G1 X117.387 Y95.868 E1.71575
G1 X117.451 Y96.466 E1.74575
G1 X117.478 Y97.097 E1.77726
G1 X117.453 Y97.509 E1.79785
G1 X117.395 Y98.074 E1.82619
G1 X117.291 Y98.697 E1.8577
G1 X117.183 Y99.087 E1.87789
G1 X116.998 Y99.665 E1.90817
G1 X116.768 Y100.254 E1.93972
G1 X116.637 Y100.507 E1.95393
G1 X116.78 Y100.946 E1.97696
G1 X116.938 Y101.558 E2.0085
G1 X117 Y101.981 E2.02983
G1 X117.052 Y102.482 E2.05496
G1 X117.078 Y103.113 E2.08646
G1 X117.052 Y103.519 E2.10676
G1 X116.999 Y104.025 E2.13214
G1 X116.893 Y104.648 E2.16367
G1 X116.624 Y105.468 E2.20673
G1 X116.531 Y105.685 E2.2185
G1 X116.499 Y105.841 E2.22645
G1 X116.293 Y106.439 E2.258
G1 X116.007 Y107.018 E2.29022
G1 X110.533 Y116.5 E2.83645
G1 X110.183 Y117.026 E2.86797
G1 X109.77 Y117.504 E2.89949
G1 X109.299 Y117.926 E2.93104
G1 X108.779 Y118.285 E2.96257
G1 X108.217 Y118.576 E2.99414
G1 X107.624 Y118.794 E3.02566
G1 X107.008 Y118.935 E3.05719
G1 X106.203 Y119 E3.09748
G1 X104.679 Y119 E3.17351
G1 X104.048 Y118.96 E3.20506
G1 X103.427 Y118.841 E3.2366
G1 X102.827 Y118.644 E3.26811
G1 X102.255 Y118.373 E3.29969
G1 X101.723 Y118.033 E3.33119
G1 X101.238 Y117.627 E3.36274
G1 X101.154 Y117.537 E3.36888
G1 X100.721 Y117.926 E3.39792
G1 X100.2 Y118.285 E3.42949
G1 X99.639 Y118.576 E3.46102
G1 X99.046 Y118.794 E3.49254
G1 X98.429 Y118.935 E3.52412
G1 X97.624 Y119 E3.56441
G1 X96.1 Y119 E3.64044
G1 X95.469 Y118.96 E3.67198
G1 X94.848 Y118.841 E3.70353
G1 X94.248 Y118.644 E3.73504
G1 X93.676 Y118.373 E3.76661
G1 X93.144 Y118.033 E3.79811
G1 X92.659 Y117.627 E3.82967
G1 X92.229 Y117.164 E3.86119
G1 X91.86 Y116.65 E3.89276
G1 X91.56 Y116.094 E3.92428
G1 X91.332 Y115.505 E3.95579
G1 X91.18 Y114.891 E3.98735
G1 X91.1 Y114 E4.03198
G1 X91.1 Y103 E4.58077
G1 X91.14 Y102.369 E4.61231
G1 X91.259 Y101.748 E4.64386
G1 X91.456 Y101.148 E4.67537
G1 X91.727 Y100.576 E4.70694
G1 X92.067 Y100.044 E4.73844
G1 X92.108 Y99.995 E4.74163
G1 X91.86 Y99.65 E4.76283
G1 X91.56 Y99.094 E4.79435
G1 X91.332 Y98.505 E4.82586
G1 X91.18 Y97.891 E4.85741
G1 X91.1 Y97 E4.90205
G1 X91.1 Y86 E5.45084
G1 X91.14 Y85.369 E5.48238
G1 X91.259 Y84.748 E5.51393
G1 X91.456 Y84.148 E5.54543
G1 X91.727 Y83.576 E5.57701
G1 X92.067 Y83.044 E5.60851
G1 X92.473 Y82.559 E5.64007
G0 F1800 X92.867 Y82.728
G1 F1200 X93.325 Y82.331 E5.67031
G1 X93.832 Y81.998 E5.70057
G1 X94.378 Y81.734 E5.73083
G1 X94.954 Y81.545 E5.76107
G1 X95.55 Y81.433 E5.79132
G1 X96.1 Y81.4 E5.81881
G1 X97.834 Y81.4 E5.90532
G1 X98.439 Y81.44 E5.93557
G1 X99.033 Y81.559 E5.9658
G1 X99.607 Y81.755 E5.99606
G1 X100.15 Y82.026 E6.02633
G1 X100.653 Y82.365 E6.0566
G1 X101.106 Y82.767 E6.08681
G1 X101.257 Y82.941 E6.09831
G1 X101.446 Y82.728 E6.11251
G1 X101.904 Y82.331 E6.14275
G1 X102.411 Y81.998 E6.17301
G1 X102.957 Y81.734 E6.20327
G1 X103.533 Y81.545 E6.23352
G1 X104.129 Y81.433 E6.26377
G1 X104.679 Y81.4 E6.29126
G1 X106.413 Y81.4 E6.37777
G1 X107.018 Y81.44 E6.40802
G1 X107.612 Y81.559 E6.43824
G1 X108.186 Y81.755 E6.4685
G1 X108.729 Y82.026 E6.49878
G1 X109.232 Y82.365 E6.52904
G1 X109.685 Y82.767 E6.55926
G1 X110.082 Y83.225 E6.5895
G1 X110.397 Y83.701 E6.61797
G1 X116.399 Y94.101 E7.21704
G1 X116.667 Y94.645 E7.24729
G1 X116.861 Y95.219 E7.27752
G1 X116.989 Y95.91 E7.31258
G1 X117.053 Y96.508 E7.34259
G1 X117.078 Y97.114 E7.37285
G1 X117.055 Y97.468 E7.39054
G1 X116.997 Y98.033 E7.41888
G1 X116.895 Y98.63 E7.4491
G1 X116.802 Y98.965 E7.46644
G1 X116.617 Y99.543 E7.49672
G1 X116.395 Y100.107 E7.52696
G1 X116.226 Y100.43 E7.54515
G1 X116.201 Y100.474 E7.54767
G1 X116.246 Y100.598 E7.55425
G1 X116.4 Y101.07 E7.57902
G1 X116.55 Y101.658 E7.6093
G1 X116.602 Y102.022 E7.62764
G1 X116.654 Y102.523 E7.65277
G1 X116.677 Y103.129 E7.68303
G1 X116.654 Y103.477 E7.70042
G1 X116.601 Y103.983 E7.72581
G1 X116.498 Y104.581 E7.75608
G1 X116.256 Y105.311 E7.79445
G1 X116.147 Y105.567 E7.80833
G1 X116.1 Y105.783 E7.81936
G1 X115.895 Y106.353 E7.84958
G1 X115.661 Y106.818 E7.87555
G1 X110.187 Y116.3 E8.42178
G1 X109.85 Y116.804 E8.45203
G1 X109.449 Y117.259 E8.48229
G1 X108.992 Y117.658 E8.51255
G1 X108.487 Y117.993 E8.54279
G1 X107.942 Y118.259 E8.57304
G1 X107.367 Y118.45 E8.60327
G1 X106.772 Y118.565 E8.63351
G1 X106.203 Y118.6 E8.66195
G1 X104.679 Y118.6 E8.73798
G1 X104.074 Y118.56 E8.76823
G1 X103.48 Y118.441 E8.79845
G1 X102.906 Y118.245 E8.82871
G1 X102.363 Y117.974 E8.85899
G1 X101.86 Y117.635 E8.88925
G1 X101.407 Y117.233 E8.91947
G1 X101.152 Y116.939 E8.93888
G1 X100.871 Y117.259 E8.96013
G1 X100.414 Y117.657 E8.99037
G1 X99.909 Y117.992 E9.0206
G1 X99.364 Y118.258 E9.05086
G1 X98.789 Y118.45 E9.0811
G1 X98.193 Y118.565 E9.11138
G1 X97.624 Y118.6 E9.13982
G1 X96.1 Y118.6 E9.21586
G1 X95.495 Y118.56 E9.24611
G1 X94.901 Y118.441 E9.27633
G1 X94.327 Y118.245 E9.30659
G1 X93.784 Y117.974 E9.33687
G1 X93.281 Y117.635 E9.36713
G1 X92.828 Y117.233 E9.39734
G1 X92.431 Y116.775 E9.42758
G1 X92.098 Y116.268 E9.45785
G1 X91.834 Y115.722 E9.4881
G1 X91.645 Y115.146 E9.51835
G1 X91.533 Y114.55 E9.5486
G1 X91.5 Y114 E9.57609
G1 X91.5 Y103 E10.12488
G1 X91.54 Y102.395 E10.15513
G1 X91.659 Y101.801 E10.18536
G1 X91.855 Y101.227 E10.21562
G1 X92.126 Y100.684 E10.24589
G1 X92.465 Y100.181 E10.27616
G1 X92.626 Y100 E10.28824
G1 X92.431 Y99.775 E10.3031
G1 X92.098 Y99.268 E10.33336
G1 X91.834 Y98.722 E10.36362
G1 X91.645 Y98.146 E10.39386
G1 X91.533 Y97.55 E10.42411
G1 X91.5 Y97 E10.4516
G1 X91.5 Y86 E11.0004
G1 X91.54 Y85.395 E11.03065
G1 X91.659 Y84.801 E11.06087
G1 X91.855 Y84.227 E11.09113
G1 X92.126 Y83.684 E11.12141
G1 X92.465 Y83.181 E11.15167
G1 X92.867 Y82.728 E11.18188
G0 F1800 X93.26 Y82.906
G1 F1200 X93.713 Y82.544 E11.21081
G1 X94.211 Y82.249 E11.23969
G1 X94.745 Y82.024 E11.2686
G1 X95.305 Y81.876 E11.2975
G1 X96.1 Y81.8 E11.33734
G1 X97.834 Y81.8 E11.42385
G1 X98.412 Y81.84 E11.45276
G1 X98.979 Y81.959 E11.48166
G1 X99.524 Y82.155 E11.51056
G1 X100.037 Y82.424 E11.53946
G1 X100.508 Y82.761 E11.56835
G1 X100.928 Y83.16 E11.59725
G1 X101.261 Y83.576 E11.62384
G1 X101.44 Y83.326 E11.63918
G1 X101.839 Y82.906 E11.66808
G1 X102.292 Y82.544 E11.69701
G1 X102.79 Y82.249 E11.72589
G1 X103.324 Y82.024 E11.75479
G1 X103.884 Y81.876 E11.78369
G1 X104.679 Y81.8 E11.82354
G1 X106.413 Y81.8 E11.91005
G1 X106.991 Y81.84 E11.93895
G1 X107.558 Y81.959 E11.96786
G1 X108.103 Y82.155 E11.99675
G1 X108.616 Y82.424 E12.02565
G1 X109.087 Y82.761 E12.05454
G1 X109.507 Y83.16 E12.08344
G1 X109.869 Y83.613 E12.11237
G1 X110.051 Y83.901 E12.12937
G1 X116.053 Y94.301 E12.72844
G1 X116.307 Y94.821 E12.75731
G1 X116.487 Y95.372 E12.78623
G1 X116.591 Y95.953 E12.81568
G1 X116.655 Y96.551 E12.84568
G1 X116.677 Y97.13 E12.87459
G1 X116.657 Y97.427 E12.88944
G1 X116.599 Y97.992 E12.91777
G1 X116.5 Y98.563 E12.94669
G1 X116.421 Y98.843 E12.9612
G1 X116.236 Y99.421 E12.99148
G1 X116.022 Y99.96 E13.02041
G1 X115.879 Y100.231 E13.0357
G1 X115.749 Y100.458 E13.04875
G1 X115.866 Y100.722 E13.06316
G1 X116.02 Y101.194 E13.08793
G1 X116.161 Y101.756 E13.11683
G1 X116.205 Y102.063 E13.13231
G1 X116.257 Y102.564 E13.15744
G1 X116.276 Y103.143 E13.18634
G1 X116.256 Y103.436 E13.20099
G1 X116.203 Y103.942 E13.22637
G1 X116.103 Y104.512 E13.25524
G1 X115.888 Y105.154 E13.28902
G1 X115.763 Y105.447 E13.30491
G1 X115.701 Y105.722 E13.31898
G1 X115.497 Y106.264 E13.34787
G1 X115.314 Y106.618 E13.36775
G1 X109.84 Y116.1 E13.91398
G1 X109.517 Y116.58 E13.94285
G1 X109.13 Y117.012 E13.97178
G1 X108.688 Y117.386 E14.00067
G1 X108.198 Y117.696 E14.0296
G1 X107.671 Y117.935 E14.05847
G1 X107.115 Y118.1 E14.0874
G1 X106.543 Y118.186 E14.11626
G1 X106.203 Y118.2 E14.13324
G1 X104.679 Y118.2 E14.20927
G1 X104.101 Y118.16 E14.23817
G1 X103.534 Y118.041 E14.26708
G1 X102.989 Y117.845 E14.29597
G1 X102.476 Y117.576 E14.32487
G1 X102.005 Y117.239 E14.35377
G1 X101.585 Y116.84 E14.38267
G1 X101.223 Y116.387 E14.4116
G1 X101.15 Y116.265 E14.41869
G1 X100.938 Y116.58 E14.43763
G1 X100.552 Y117.011 E14.4665
G1 X100.109 Y117.386 E14.49546
G1 X99.62 Y117.695 E14.52431
G1 X99.092 Y117.935 E14.55325
G1 X98.537 Y118.1 E14.58214
G1 X97.964 Y118.186 E14.61104
G1 X97.624 Y118.2 E14.62802
G1 X96.1 Y118.2 E14.70405
G1 X95.522 Y118.16 E14.73296
G1 X94.955 Y118.041 E14.76186
G1 X94.41 Y117.845 E14.79076
G1 X93.897 Y117.576 E14.81966
G1 X93.426 Y117.239 E14.84855
G1 X93.006 Y116.84 E14.87745
G1 X92.644 Y116.387 E14.90638
G1 X92.349 Y115.889 E14.93526
G1 X92.124 Y115.355 E14.96417
G1 X91.976 Y114.795 E14.99307
G1 X91.9 Y114 E15.03291
G1 X91.9 Y103 E15.5817
G1 X91.94 Y102.422 E15.61061
G1 X92.059 Y101.855 E15.63951
G1 X92.255 Y101.31 E15.66841
G1 X92.524 Y100.797 E15.69731
G1 X92.861 Y100.326 E15.7262
G1 X93.172 Y99.998 E15.74875
G1 X93.006 Y99.84 E15.76018
G1 X92.644 Y99.387 E15.78911
G1 X92.349 Y98.889 E15.81799
G1 X92.124 Y98.355 E15.8469
G1 X91.976 Y97.795 E15.8758
G1 X91.9 Y97 E15.91564
G1 X91.9 Y86 E16.46444
G1 X91.94 Y85.422 E16.49334
G1 X92.059 Y84.855 E16.52224
G1 X92.255 Y84.31 E16.55114
G1 X92.524 Y83.797 E16.58004
G1 X92.861 Y83.326 E16.60893
G1 X93.26 Y82.906 E16.63783
G0 F1800 X93.652 Y83.094
G1 F1200 X94.098 Y82.77 E16.66534
G1 X94.586 Y82.515 E16.69281
G1 X95.106 Y82.332 E16.72031
G1 X95.647 Y82.227 E16.7478
G1 X96.1 Y82.2 E16.77044
G1 X97.834 Y82.2 E16.85695
G1 X98.384 Y82.24 E16.88447
G1 X98.922 Y82.359 E16.91196
G1 X99.437 Y82.555 E16.93945
G1 X99.918 Y82.823 E16.96692
G1 X100.356 Y83.157 E16.9944
G1 X100.74 Y83.552 E17.02188
G1 X101.125 Y84.101 E17.05534
G1 X101.264 Y84.343 E17.06926
G1 X101.502 Y83.916 E17.09365
G1 X101.836 Y83.478 E17.12113
G1 X102.231 Y83.094 E17.14861
G1 X102.677 Y82.77 E17.17611
G1 X103.165 Y82.515 E17.20358
G1 X103.685 Y82.332 E17.23109
G1 X104.226 Y82.227 E17.25858
G1 X104.679 Y82.2 E17.28122
G1 X106.413 Y82.2 E17.36773
G1 X106.963 Y82.24 E17.39524
G1 X107.501 Y82.359 E17.42273
G1 X108.016 Y82.555 E17.45022
G1 X108.497 Y82.823 E17.4777
G1 X108.935 Y83.157 E17.50518
G1 X109.319 Y83.552 E17.53266
G1 X109.704 Y84.101 E17.56611
G1 X115.706 Y94.501 E18.16518
G1 X115.946 Y94.997 E18.19267
G1 X116.112 Y95.522 E18.22014
G1 X116.193 Y95.996 E18.24413
G1 X116.257 Y96.594 E18.27413
G1 X116.259 Y97.386 E18.31365
G1 X116.201 Y97.951 E18.34198
G1 X116.04 Y98.721 E18.38123
G1 X115.855 Y99.299 E18.41151
G1 X115.532 Y100.032 E18.45147
G1 X115.302 Y100.433 E18.47453
G1 X115.486 Y100.846 E18.49709
G1 X115.64 Y101.318 E18.52186
G1 X115.807 Y102.105 E18.562
G1 X115.859 Y102.606 E18.58713
G1 X115.858 Y103.394 E18.62644
G1 X115.805 Y103.9 E18.65182
G1 X115.708 Y104.442 E18.67929
G1 X115.521 Y104.997 E18.70851
G1 X115.381 Y105.324 E18.72626
G1 X115.302 Y105.659 E18.74343
G1 X115.099 Y106.171 E18.77091
G1 X114.968 Y106.418 E18.78486
G1 X109.494 Y115.9 E19.33109
G1 X109.185 Y116.356 E19.35857
G1 X108.813 Y116.762 E19.38604
G1 X108.386 Y117.111 E19.41355
G1 X107.913 Y117.394 E19.44105
G1 X107.404 Y117.605 E19.46854
G1 X106.87 Y117.741 E19.49603
G1 X106.203 Y117.8 E19.52944
G1 X104.679 Y117.8 E19.60547
G1 X104.129 Y117.76 E19.63299
G1 X103.591 Y117.641 E19.66048
G1 X103.076 Y117.445 E19.68797
G1 X102.595 Y117.177 E19.71544
G1 X102.157 Y116.843 E19.74292
G1 X101.773 Y116.448 E19.7704
G1 X101.449 Y116.002 E19.7979
G1 X101.194 Y115.514 E19.82537
G1 X101.172 Y115.453 E19.82861
G1 X100.915 Y115.899 E19.85429
G1 X100.606 Y116.355 E19.88177
G1 X100.234 Y116.762 E19.90928
G1 X99.807 Y117.11 E19.93676
G1 X99.334 Y117.393 E19.96426
G1 X98.826 Y117.605 E19.99172
G1 X98.292 Y117.741 E20.01922
G1 X97.624 Y117.8 E20.05267
G1 X96.1 Y117.8 E20.12871
G1 X95.55 Y117.76 E20.15622
G1 X95.012 Y117.641 E20.18371
G1 X94.497 Y117.445 E20.2112
G1 X94.016 Y117.177 E20.23867
G1 X93.578 Y116.843 E20.26615
G1 X93.194 Y116.448 E20.29363
G1 X92.87 Y116.002 E20.32114
G1 X92.615 Y115.514 E20.34861
G1 X92.432 Y114.994 E20.37611
G1 X92.327 Y114.453 E20.4036
G1 X92.3 Y114 E20.42624
G1 X92.3 Y103 E20.97504
G1 X92.34 Y102.45 E21.00255
G1 X92.459 Y101.912 E21.03004
G1 X92.655 Y101.397 E21.05753
G1 X92.923 Y100.916 E21.085
G1 X93.257 Y100.478 E21.11248
G1 X93.652 Y100.094 E21.13996
G1 X93.783 Y99.999 E21.14804
G1 X93.578 Y99.843 E21.16089
G1 X93.194 Y99.448 E21.18837
G1 X92.87 Y99.002 E21.21588
G1 X92.615 Y98.514 E21.24335
G1 X92.432 Y97.994 E21.27085
G1 X92.327 Y97.453 E21.29834
G1 X92.3 Y97 E21.32098
G1 X92.3 Y86 E21.86978
G1 X92.34 Y85.45 E21.89729
G1 X92.459 Y84.912 E21.92478
G1 X92.655 Y84.397 E21.95227
G1 X92.923 Y83.916 E21.97974
G1 X93.257 Y83.478 E22.00722
G1 X93.652 Y83.094 E22.0347
G0 F1800 X94.042 Y83.294
G1 F1200 X94.48 Y83.011 E22.06072
G1 X94.955 Y82.798 E22.08669
G1 X95.458 Y82.661 E22.1127
G1 X96.1 Y82.6 E22.14487
G1 X97.834 Y82.6 E22.23138
G1 X98.354 Y82.64 E22.2574
G1 X98.861 Y82.759 E22.28339
G1 X99.344 Y82.954 E22.30937
G1 X99.792 Y83.22 E22.33537
G1 X100.194 Y83.552 E22.36138
G1 X100.54 Y83.942 E22.38739
G1 X100.779 Y84.301 E22.4089
G1 X101.36 Y85.307 E22.46686
G1 X101.438 Y84.973 E22.48397
G1 X101.633 Y84.49 E22.50996
G1 X101.899 Y84.042 E22.53595
G1 X102.231 Y83.64 E22.56197
G1 X102.621 Y83.294 E22.58798
G1 X103.059 Y83.011 E22.61399
G1 X103.534 Y82.798 E22.63996
G1 X104.037 Y82.661 E22.66597
G1 X104.679 Y82.6 E22.69815
G1 X106.413 Y82.6 E22.78466
G1 X106.933 Y82.64 E22.81068
G1 X107.44 Y82.759 E22.83666
G1 X107.923 Y82.954 E22.86264
G1 X108.371 Y83.22 E22.88864
G1 X108.773 Y83.552 E22.91465
G1 X109.119 Y83.942 E22.94066
G1 X109.358 Y84.301 E22.96218
G1 X115.36 Y94.701 E23.56124
G1 X115.585 Y95.171 E23.58724
G1 X115.736 Y95.669 E23.6132
G1 X115.796 Y96.038 E23.63185
G1 X115.86 Y96.636 E23.66186
G1 X115.861 Y97.345 E23.69723
G1 X115.803 Y97.91 E23.72557
G1 X115.659 Y98.599 E23.76068
G1 X115.474 Y99.177 E23.79096
G1 X115.185 Y99.833 E23.82672
G1 X114.897 Y100.335 E23.8556
G1 X114.851 Y100.398 E23.85949
G1 X115.105 Y100.97 E23.89071
G1 X115.259 Y101.442 E23.91548
G1 X115.409 Y102.146 E23.95139
G1 X115.461 Y102.647 E23.97652
G1 X115.461 Y103.352 E24.0117
G1 X115.408 Y103.858 E24.03708
G1 X115.314 Y104.371 E24.0631
G1 X115.153 Y104.84 E24.08784
G1 X115.003 Y105.191 E24.10688
G1 X114.903 Y105.593 E24.12755
G1 X114.622 Y106.218 E24.16174
G1 X109.148 Y115.7 E24.70797
G1 X108.853 Y116.13 E24.73398
G1 X108.497 Y116.51 E24.75996
G1 X108.086 Y116.831 E24.78598
G1 X107.631 Y117.085 E24.81198
G1 X107.143 Y117.268 E24.83798
G1 X106.632 Y117.373 E24.864
G1 X106.203 Y117.4 E24.88545
G1 X104.679 Y117.4 E24.96148
G1 X104.159 Y117.36 E24.9875
G1 X103.652 Y117.241 E25.01348
G1 X103.169 Y117.046 E25.03947
G1 X102.721 Y116.78 E25.06546
G1 X102.319 Y116.448 E25.09148
G1 X101.973 Y116.058 E25.11749
G1 X101.69 Y115.62 E25.1435
G1 X101.477 Y115.145 E25.16947
G1 X101.34 Y114.642 E25.19548
G1 X101.317 Y114.402 E25.20751
G1 X100.569 Y115.699 E25.28221
G1 X100.274 Y116.13 E25.30827
