;FLAVOR:RepRap
;TIME:3238
;Filament used: 3.24615m
;Layer height: 0.15
;Generated with Cura_SteamEngine 2.5.0-BETA
M190 S55
M104 S210
M109 S210
G21 ;metric values
G90 ;absolute positioning
M82 ;set extruder to absolute mode
M107 ;start with the fan off
;G28 X0 Y0 ;move X/Y to min endstops
;G28 Z0 ;move Z to min endstops
;G1 Z15.0 F9000 ;move the platform down 15mm
G92 E0 ;zero the extruded length
G1 F200 E3 ;extrude 3mm of feed stock
G92 E0 ;zero the extruded length again
G1 F9000
;Put printing message on LCD screen
M117 Printing...
;LAYER_COUNT:186
;LAYER:0
M107
G0 F1800 X83.272 Y86.38 Z0.3
;TYPE:SKIRT
G1 F1200 X83.866 Y85.873 E0.03896
G1 X84.88 Y85.135 E0.10153
G1 X85.413 Y84.796 E0.13304
G1 X85.729 Y84.637 E0.15069
G1 X87.434 Y83.851 E0.24436
G1 X88.174 Y83.578 E0.28371
G1 X88.786 Y83.406 E0.31543
G1 X89.553 Y83.254 E0.35444
G1 X91.418 Y83.034 E0.44813
G1 X92.004 Y83 E0.47741
G1 X95.031 Y83 E0.62843
G1 X95.048 Y80.751 E0.74064
G1 X95.093 Y80.121 E0.77215
G1 X95.205 Y79.545 E0.80142
G1 X95.542 Y78.233 E0.869
G1 X95.738 Y77.632 E0.90054
G1 X96.005 Y77.065 E0.93181
G1 X96.673 Y75.852 E1.00089
G1 X97.013 Y75.319 E1.03244
G1 X97.413 Y74.836 E1.06372
G1 X98.354 Y73.837 E1.13219
G1 X98.816 Y73.405 E1.16375
G1 X99.309 Y73.047 E1.19414
G1 X100.47 Y72.308 E1.26281
G1 X101.024 Y72.003 E1.29436
G1 X101.607 Y71.772 E1.32564
G1 X102.925 Y71.343 E1.39479
G1 X103.568 Y71.18 E1.42789
G1 X104.095 Y71.083 E1.45462
G1 X105.038 Y71 E1.50185
G1 X111.168 Y71.047 E1.80769
G1 X111.799 Y71.092 E1.83925
G1 X112.419 Y71.216 E1.87079
G1 X113.018 Y71.417 E1.90231
G1 X113.587 Y71.692 E1.93384
G1 X114.117 Y72.037 E1.96539
G1 X114.599 Y72.446 E1.99693
G1 X115.026 Y72.913 E2.0285
G1 X115.39 Y73.429 E2.06
G1 X115.686 Y73.988 E2.09156
G1 X115.91 Y74.579 E2.12309
G1 X116.057 Y75.194 E2.15464
G1 X116.13 Y76.047 E2.19735
G1 X116.131 Y91.695 E2.97803
G1 X116.091 Y92.326 E3.00958
G1 X115.972 Y92.946 E3.04107
G1 X115.775 Y93.547 E3.07263
G1 X115.504 Y94.118 E3.10416
G1 X115.164 Y94.651 E3.1357
G1 X114.664 Y95.233 E3.17398
G1 X114.622 Y95.275 E3.17694
G1 X114.208 Y96.088 E3.22246
G1 X114 Y97.4 E3.28874
G1 X114 Y106.338 E3.73465
G1 X114.326 Y106.852 E3.76502
G1 X114.993 Y108.064 E3.83404
G1 X115.263 Y108.636 E3.8656
G1 X115.455 Y109.228 E3.89665
G1 X115.797 Y110.556 E3.96506
G1 X115.916 Y111.177 E3.99661
G1 X115.955 Y111.803 E4.0279
G1 X115.955 Y113.196 E4.0974
G1 X115.915 Y113.827 E4.12894
G1 X115.797 Y114.441 E4.16013
G1 X115.456 Y115.767 E4.22844
G1 X115.261 Y116.368 E4.25996
G1 X114.995 Y116.932 E4.29107
G1 X114.327 Y118.146 E4.3602
G1 X113.987 Y118.68 E4.39179
G1 X113.586 Y119.164 E4.42314
G1 X112.645 Y120.163 E4.49161
G1 X111.952 Y120.774 E4.53771
G1 X111.39 Y121.184 E4.57241
G1 X110.857 Y121.524 E4.60395
G1 X110.571 Y121.67 E4.61997
G1 X109.327 Y122.255 E4.68856
G1 X108.739 Y122.487 E4.72009
G1 X108.176 Y122.634 E4.74912
G1 X106.977 Y122.873 E4.81012
G1 X106.351 Y122.957 E4.84163
G1 X106.025 Y122.969 E4.85791
G1 X102.94 Y122.984 E5.01182
G1 X102.743 Y123.306 E5.03065
G1 X102.276 Y123.948 E5.07026
G1 X101.455 Y124.907 E5.13324
G1 X100.91 Y125.452 E5.17169
G1 X99.954 Y126.271 E5.2345
G1 X99.313 Y126.738 E5.27406
G1 X98.252 Y127.388 E5.33614
G1 X97.693 Y127.683 E5.36768
G1 X97.371 Y127.815 E5.38504
G1 X95.593 Y128.471 E5.47959
G1 X94.987 Y128.652 E5.51114
G1 X94.449 Y128.745 E5.53838
G1 X92.587 Y128.965 E5.63192
G1 X91.955 Y129 E5.6635
G1 X91.41 Y128.965 E5.69075
G1 X89.549 Y128.744 E5.78424
G1 X88.928 Y128.63 E5.81574
G1 X88.6 Y128.536 E5.83277
G1 X87.401 Y128.148 E5.89564
G1 X86.672 Y127.847 E5.93499
G1 X85.554 Y127.278 E5.99757
G1 X84.88 Y126.865 E6.03701
G1 X83.866 Y126.127 E6.09958
G1 X83.272 Y125.62 E6.13854
G1 X82.38 Y124.728 E6.20148
G1 X81.873 Y124.134 E6.24044
G1 X81.135 Y123.12 E6.30301
G1 X80.796 Y122.587 E6.33452
G1 X80.637 Y122.271 E6.35217
G1 X79.851 Y120.566 E6.44584
G1 X79.578 Y119.826 E6.48519
G1 X79.406 Y119.214 E6.5169
G1 X79.255 Y118.449 E6.5558
G1 X79.035 Y116.592 E6.6491
G1 X79 Y115.998 E6.67878
G1 X79.024 Y95.375 E7.70767
G1 X79.065 Y94.744 E7.73922
G1 X79.12 Y94.408 E7.7562
G1 X79.488 Y92.554 E7.85051
G1 X79.65 Y91.943 E7.88204
G1 X79.853 Y91.431 E7.90952
G1 X80.644 Y89.718 E8.00365
G1 X80.944 Y89.162 E8.03517
G1 X81.142 Y88.87 E8.05277
G1 X81.875 Y87.864 E8.11487
G1 X82.38 Y87.272 E8.15369
G1 X83.272 Y86.38 E8.21663
G0 F1800 X83.555 Y86.663
G1 F1200 X84.101 Y86.197 E8.25244
G1 X85.115 Y85.459 E8.31501
G1 X85.896 Y85.001 E8.36018
G1 X87.601 Y84.215 E8.45385
G1 X88.282 Y83.964 E8.49006
G1 X88.894 Y83.792 E8.52177
G1 X89.6 Y83.652 E8.55768
G1 X91.465 Y83.432 E8.65137
G1 X92.004 Y83.4 E8.67831
G1 X95.428 Y83.4 E8.84913
G1 X95.448 Y80.754 E8.98115
G1 X95.493 Y80.15 E9.01136
G1 X95.593 Y79.645 E9.03705
G1 X95.93 Y78.333 E9.10463
G1 X96.119 Y77.757 E9.13487
G1 X96.356 Y77.258 E9.16243
G1 X97.024 Y76.045 E9.23152
G1 X97.35 Y75.534 E9.26176
G1 X97.705 Y75.11 E9.28935
G1 X98.646 Y74.111 E9.35782
G1 X99.089 Y73.698 E9.38803
G1 X99.524 Y73.384 E9.4148
G1 X100.685 Y72.645 E9.48346
G1 X101.217 Y72.354 E9.51371
G1 X101.731 Y72.152 E9.54127
G1 X103.049 Y71.723 E9.61042
G1 X103.64 Y71.573 E9.64084
G1 X104.167 Y71.476 E9.66757
G1 X105.035 Y71.4 E9.71104
G1 X111.165 Y71.447 E10.01688
G1 X111.77 Y71.492 E10.04714
G1 X112.363 Y71.615 E10.07736
G1 X112.936 Y71.816 E10.10765
G1 X113.476 Y72.09 E10.13786
G1 X113.976 Y72.433 E10.16811
G1 X114.427 Y72.839 E10.19839
G1 X114.82 Y73.301 E10.22865
G1 X115.149 Y73.81 E10.25889
G1 X115.409 Y74.358 E10.28915
G1 X115.594 Y74.935 E10.31938
G1 X115.701 Y75.532 E10.34964
G1 X115.73 Y76.047 E10.37537
G1 X115.731 Y91.695 E11.15605
G1 X115.691 Y92.3 E11.1863
G1 X115.572 Y92.894 E11.21653
G1 X115.376 Y93.468 E11.24679
G1 X115.106 Y94.011 E11.27704
G1 X114.767 Y94.513 E11.30726
G1 X114.381 Y94.95 E11.33635
G1 X114.295 Y95.036 E11.34242
G1 X113.821 Y95.967 E11.39454
G1 X113.6 Y97.362 E11.465
G1 X113.6 Y106.48 E11.9199
G1 X113.682 Y106.58 E11.92635
G1 X113.976 Y107.045 E11.9538
G1 X114.643 Y108.257 E12.02282
G1 X114.9 Y108.806 E12.05306
G1 X115.068 Y109.328 E12.08042
G1 X115.41 Y110.656 E12.14884
G1 X115.522 Y111.252 E12.17909
G1 X115.555 Y111.803 E12.20663
G1 X115.555 Y113.196 E12.27613
G1 X115.515 Y113.801 E12.30638
G1 X115.41 Y114.342 E12.33387
G1 X115.069 Y115.668 E12.40218
G1 X114.88 Y116.244 E12.43242
G1 X114.644 Y116.74 E12.45983
G1 X113.976 Y117.954 E12.52896
G1 X113.65 Y118.464 E12.55915
G1 X113.294 Y118.89 E12.58685
G1 X112.353 Y119.889 E12.65532
G1 X111.716 Y120.451 E12.6977
G1 X111.154 Y120.861 E12.73241
G1 X110.401 Y121.308 E12.7761
G1 X109.157 Y121.893 E12.84468
G1 X108.592 Y122.114 E12.87495
G1 X108.098 Y122.241 E12.90039
G1 X106.899 Y122.48 E12.96139
G1 X106.023 Y122.569 E13.00532
G1 X102.715 Y122.585 E13.17036
G1 X102.402 Y123.097 E13.2003
G1 X101.972 Y123.688 E13.23676
G1 X101.151 Y124.647 E13.29974
G1 X100.65 Y125.148 E13.33509
G1 X99.694 Y125.967 E13.3979
G1 X99.104 Y126.396 E13.43429
G1 X98.043 Y127.046 E13.49637
G1 X97.232 Y127.44 E13.54135
G1 X95.454 Y128.096 E13.6359
G1 X94.873 Y128.268 E13.66613
G1 X94.402 Y128.348 E13.68996
G1 X92.54 Y128.568 E13.78351
G1 X91.934 Y128.6 E13.81378
G1 X91.458 Y128.568 E13.83758
G1 X89.597 Y128.347 E13.93108
G1 X88.723 Y128.156 E13.97571
G1 X87.524 Y127.768 E14.03859
G1 X86.854 Y127.491 E14.07476
G1 X85.736 Y126.922 E14.13734
G1 X85.115 Y126.541 E14.17369
G1 X84.101 Y125.803 E14.23626
G1 X83.555 Y125.337 E14.27207
G1 X82.663 Y124.445 E14.33501
G1 X82.197 Y123.899 E14.37082
G1 X81.459 Y122.885 E14.43339
G1 X81.001 Y122.104 E14.47856
G1 X80.215 Y120.399 E14.57222
G1 X79.964 Y119.718 E14.60843
G1 X79.792 Y119.106 E14.64015
G1 X79.652 Y118.402 E14.67596
G1 X79.432 Y116.545 E14.76925
G1 X79.4 Y115.999 E14.79654
G1 X79.424 Y95.376 E15.82543
G1 X79.512 Y94.485 E15.8701
G1 X79.88 Y92.631 E15.9644
G1 X80.037 Y92.046 E15.99461
G1 X80.216 Y91.599 E16.01864
G1 X81.007 Y89.886 E16.11277
G1 X81.465 Y89.105 E16.15794
G1 X82.198 Y88.099 E16.22004
G1 X82.663 Y87.555 E16.25574
G1 X83.555 Y86.663 E16.31868
G0 F1800 X83.838 Y86.946
G1 F1200 X84.336 Y86.52 E16.35137
G1 X85.35 Y85.782 E16.41394
G1 X86.064 Y85.364 E16.45522
G1 X87.769 Y84.578 E16.54889
G1 X88.391 Y84.349 E16.58196
G1 X89.003 Y84.177 E16.61367
G1 X89.647 Y84.049 E16.64643
G1 X91.512 Y83.829 E16.74012
G1 X92.004 Y83.8 E16.76471
G1 X95.825 Y83.8 E16.95534
G1 X95.848 Y80.757 E17.10716
G1 X95.892 Y80.18 E17.13603
G1 X95.98 Y79.744 E17.15822
G1 X96.317 Y78.432 E17.2258
G1 X96.5 Y77.882 E17.25472
G1 X96.706 Y77.451 E17.27855
G1 X97.374 Y76.238 E17.34764
G1 X97.688 Y75.751 E17.37655
G1 X97.996 Y75.384 E17.40045
G1 X98.937 Y74.385 E17.46892
G1 X99.362 Y73.992 E17.4978
G1 X99.739 Y73.722 E17.52093
G1 X100.9 Y72.983 E17.58959
G1 X101.409 Y72.706 E17.61851
G1 X101.855 Y72.532 E17.64239
G1 X103.173 Y72.103 E17.71154
G1 X103.713 Y71.966 E17.73933
G1 X104.24 Y71.869 E17.76607
G1 X105.032 Y71.8 E17.80573
G1 X111.162 Y71.847 E18.11157
G1 X111.74 Y71.892 E18.14049
G1 X112.306 Y72.015 E18.16939
G1 X112.849 Y72.215 E18.19826
G1 X113.36 Y72.488 E18.22716
G1 X113.829 Y72.829 E18.25609
G1 X114.246 Y73.231 E18.28499
G1 X114.604 Y73.686 E18.31387
G1 X114.896 Y74.187 E18.3428
G1 X115.116 Y74.723 E18.37171
G1 X115.26 Y75.284 E18.4006
G1 X115.33 Y76.047 E18.43883
G1 X115.331 Y91.695 E19.21951
G1 X115.291 Y92.273 E19.24842
G1 X115.172 Y92.84 E19.27732
G1 X114.976 Y93.385 E19.30622
G1 X114.707 Y93.898 E19.33512
G1 X114.37 Y94.369 E19.36401
G1 X114.098 Y94.667 E19.38414
G1 X113.966 Y94.799 E19.39345
G1 X113.436 Y95.839 E19.45169
G1 X113.2 Y97.331 E19.52705
G1 X113.2 Y106.623 E19.99063
G1 X113.372 Y106.834 E20.00421
G1 X113.626 Y107.238 E20.02802
G1 X114.293 Y108.45 E20.09704
G1 X114.536 Y108.976 E20.12594
G1 X114.68 Y109.428 E20.14961
G1 X115.022 Y110.756 E20.21803
G1 X115.128 Y111.325 E20.2469
G1 X115.155 Y111.803 E20.27079
G1 X115.155 Y113.196 E20.34029
G1 X115.115 Y113.774 E20.36919
G1 X115.023 Y114.242 E20.39299
G1 X114.682 Y115.568 E20.46129
G1 X114.499 Y116.118 E20.49021
G1 X114.294 Y116.547 E20.51393
G1 X113.626 Y117.761 E20.58306
G1 X113.312 Y118.248 E20.61197
G1 X113.003 Y118.616 E20.63595
G1 X112.062 Y119.615 E20.70442
G1 X111.48 Y120.128 E20.74312
G1 X110.918 Y120.538 E20.77783
G1 X110.23 Y120.946 E20.81773
G1 X108.986 Y121.531 E20.88632
G1 X108.446 Y121.741 E20.91522
G1 X108.02 Y121.849 E20.93715
G1 X106.821 Y122.088 E20.99814
G1 X106.021 Y122.169 E21.03826
G1 X102.49 Y122.186 E21.21442
G1 X102.061 Y122.888 E21.25547
G1 X101.669 Y123.427 E21.28872
G1 X100.848 Y124.386 E21.3517
G1 X100.389 Y124.845 E21.38409
G1 X99.433 Y125.664 E21.44689
G1 X98.895 Y126.055 E21.48007
G1 X97.834 Y126.705 E21.54215
G1 X97.094 Y127.064 E21.58318
G1 X95.316 Y127.72 E21.67773
G1 X94.76 Y127.883 E21.70664
G1 X94.355 Y127.951 E21.72713
G1 X92.493 Y128.171 E21.82067
G1 X91.914 Y128.199 E21.84959
G1 X91.505 Y128.171 E21.87004
G1 X89.644 Y127.95 E21.96354
G1 X88.846 Y127.775 E22.0043
G1 X87.647 Y127.387 E22.06717
G1 X87.035 Y127.134 E22.10021
G1 X85.917 Y126.565 E22.1628
G1 X85.35 Y126.218 E22.19596
G1 X84.336 Y125.48 E22.25853
G1 X83.838 Y125.054 E22.29123
G1 X82.946 Y124.162 E22.35416
G1 X82.52 Y123.664 E22.38686
G1 X81.782 Y122.65 E22.44942
G1 X81.364 Y121.936 E22.4907
G1 X80.578 Y120.231 E22.58437
G1 X80.349 Y119.609 E22.61744
G1 X80.177 Y118.997 E22.64915
G1 X80.049 Y118.355 E22.68181
G1 X79.829 Y116.498 E22.77511
G1 X79.8 Y115.999 E22.80004
G1 X79.824 Y95.376 E23.82893
G1 X79.904 Y94.563 E23.86969
G1 X80.272 Y92.709 E23.96399
G1 X80.424 Y92.15 E23.99289
G1 X80.579 Y91.766 E24.01355
G1 X81.37 Y90.053 E24.10768
G1 X81.788 Y89.341 E24.14887
G1 X82.521 Y88.335 E24.21097
G1 X82.946 Y87.838 E24.2436
G1 X83.838 Y86.946 E24.30653
G0 F1800 X84.121 Y87.229
G1 F1200 X84.572 Y86.844 E24.33612
G1 X85.586 Y86.106 E24.39868
G1 X86.231 Y85.727 E24.43601
G1 X87.936 Y84.941 E24.52967
G1 X88.499 Y84.734 E24.5596
G1 X89.111 Y84.562 E24.59132
G1 X89.694 Y84.446 E24.62097
G1 X91.559 Y84.226 E24.71466
G1 X92.004 Y84.2 E24.7369
G1 X96.222 Y84.2 E24.94734
G1 X96.248 Y80.76 E25.11897
G1 X96.292 Y80.211 E25.14644
G1 X96.367 Y79.844 E25.16513
G1 X96.704 Y78.532 E25.23271
G1 X96.88 Y78.009 E25.26024
G1 X97.056 Y77.644 E25.28046
G1 X97.724 Y76.431 E25.34955
G1 X98.024 Y75.969 E25.37703
G1 X98.287 Y75.658 E25.39735
G1 X99.228 Y74.659 E25.46582
G1 X99.634 Y74.287 E25.49329
G1 X99.954 Y74.059 E25.51289
G1 X101.115 Y73.32 E25.58155
G1 X101.6 Y73.059 E25.60903
G1 X101.979 Y72.913 E25.62929
G1 X103.297 Y72.484 E25.69845
G1 X103.785 Y72.36 E25.72357
G1 X104.312 Y72.263 E25.7503
G1 X105.029 Y72.2 E25.78621
G1 X111.159 Y72.247 E26.09204
G1 X111.708 Y72.291 E26.11952
G1 X112.245 Y72.414 E26.14701
G1 X112.759 Y72.614 E26.17452
G1 X113.238 Y72.886 E26.202
G1 X113.673 Y73.224 E26.22949
G1 X114.055 Y73.621 E26.25697
G1 X114.375 Y74.07 E26.28448
G1 X114.627 Y74.56 E26.31197
G1 X114.805 Y75.081 E26.33944
G1 X114.906 Y75.623 E26.36695
G1 X114.93 Y76.047 E26.38813
G1 X114.931 Y91.695 E27.16882
G1 X114.891 Y92.244 E27.19628
G1 X114.772 Y92.782 E27.22377
G1 X114.577 Y93.297 E27.25124
G1 X114.309 Y93.779 E27.27875
G1 X113.816 Y94.384 E27.31769
G1 X113.639 Y94.561 E27.33018
G1 X113.051 Y95.716 E27.39484
G1 X112.8 Y97.3 E27.47485
G1 X112.8 Y106.766 E27.94711
G1 X113.062 Y107.088 E27.96782
G1 X113.275 Y107.431 E27.98797
G1 X113.942 Y108.643 E28.05699
G1 X114.172 Y109.144 E28.08449
G1 X114.293 Y109.527 E28.10453
G1 X114.635 Y110.855 E28.17294
G1 X114.733 Y111.397 E28.20042
G1 X114.755 Y111.803 E28.22071
G1 X114.755 Y113.196 E28.2902
G1 X114.715 Y113.746 E28.31772
G1 X114.635 Y114.142 E28.33787
G1 X114.294 Y115.468 E28.40618
G1 X114.119 Y115.991 E28.43369
G1 X113.943 Y116.354 E28.45382
G1 X113.275 Y117.568 E28.52295
G1 X112.975 Y118.03 E28.55043
G1 X112.712 Y118.342 E28.57079
G1 X111.771 Y119.341 E28.63926
G1 X111.245 Y119.805 E28.67425
G1 X110.683 Y120.215 E28.70896
G1 X110.06 Y120.584 E28.74508
G1 X108.816 Y121.169 E28.81367
G1 X108.302 Y121.366 E28.84113
G1 X107.942 Y121.457 E28.85966
G1 X106.743 Y121.696 E28.92065
G1 X106.019 Y121.769 E28.95695
G1 X102.264 Y121.788 E29.14429
G1 X101.719 Y122.679 E29.1964
G1 X101.365 Y123.167 E29.22648
G1 X100.544 Y124.126 E29.28946
G1 X100.129 Y124.541 E29.31874
G1 X99.173 Y125.36 E29.38155
G1 X98.686 Y125.714 E29.41159
G1 X97.625 Y126.364 E29.47366
G1 X96.955 Y126.689 E29.51081
G1 X95.177 Y127.345 E29.60536
G1 X94.648 Y127.498 E29.63284
G1 X94.308 Y127.554 E29.65003
G1 X92.446 Y127.774 E29.74357
G1 X91.895 Y127.799 E29.77109
G1 X91.552 Y127.773 E29.78825
G1 X89.691 Y127.552 E29.88175
G1 X88.969 Y127.394 E29.91862
G1 X87.77 Y127.006 E29.98149
G1 X87.216 Y126.778 E30.01138
G1 X86.098 Y126.209 E30.07397
G1 X85.586 Y125.894 E30.10396
G1 X84.572 Y125.156 E30.16653
G1 X84.121 Y124.771 E30.19611
G1 X83.229 Y123.879 E30.25905
G1 X82.844 Y123.428 E30.28863
G1 X82.106 Y122.414 E30.3512
G1 X81.727 Y121.769 E30.38852
G1 X80.941 Y120.064 E30.48219
G1 X80.734 Y119.501 E30.51212
G1 X80.562 Y118.889 E30.54383
G1 X80.446 Y118.308 E30.57339
G1 X80.226 Y116.451 E30.66668
G1 X80.2 Y116 E30.68922
G1 X80.224 Y95.377 E31.71811
G1 X80.297 Y94.641 E31.75501
G1 X80.665 Y92.787 E31.84931
G1 X80.811 Y92.256 E31.87678
G1 X80.942 Y91.934 E31.89413
G1 X81.733 Y90.221 E31.98826
G1 X82.112 Y89.576 E32.02558
G1 X82.845 Y88.57 E32.08768
G1 X83.229 Y88.121 E32.11716
G1 X84.121 Y87.229 E32.18009
G0 F1800 X84.404 Y87.512
G1 F1200 X84.807 Y87.167 E32.20656
G1 X85.821 Y86.429 E32.26913
G1 X86.399 Y86.09 E32.30256
G1 X88.104 Y85.304 E32.39623
G1 X88.607 Y85.119 E32.42296
G1 X89.219 Y84.947 E32.45468
G1 X89.741 Y84.843 E32.48123
G1 X91.606 Y84.623 E32.57492
G1 X92.004 Y84.6 E32.59481
G1 X96.619 Y84.6 E32.82506
G1 X96.648 Y80.763 E33.01649
G1 X96.692 Y80.244 E33.04248
G1 X96.755 Y79.943 E33.05782
G1 X97.092 Y78.631 E33.1254
G1 X97.26 Y78.138 E33.15138
G1 X97.407 Y77.837 E33.1681
G1 X98.075 Y76.624 E33.23718
G1 X98.36 Y76.188 E33.26317
G1 X98.578 Y75.933 E33.27991
G1 X99.519 Y74.934 E33.34838
G1 X99.904 Y74.583 E33.37437
G1 X100.168 Y74.397 E33.39048
G1 X101.329 Y73.658 E33.45914
G1 X101.789 Y73.412 E33.48517
G1 X102.103 Y73.293 E33.50192
G1 X103.421 Y72.864 E33.57107
G1 X103.858 Y72.753 E33.59356
G1 X104.385 Y72.656 E33.6203
G1 X105.026 Y72.6 E33.6524
G1 X111.156 Y72.647 E33.95824
