;FLAVOR:RepRap
;TIME:2736
;Filament used: 2.35755m
;Layer height: 0.15
;Generated with Cura_SteamEngine 2.5.0-BETA
M190 S55
M104 S210
M109 S210
G21 ;metric values
G90 ;absolute positioning
M82 ;set extruder to absolute mode
M107 ;start with the fan off
;G28 X0 Y0 ;move X/Y to min endstops
;G28 Z0 ;move Z to min endstops
;G1 Z15.0 F9000 ;move the platform down 15mm
G92 E0 ;zero the extruded length
G1 F200 E3 ;extrude 3mm of feed stock
G92 E0 ;zero the extruded length again
G1 F9000
;Put printing message on LCD screen
M117 Printing...
;LAYER_COUNT:106
;LAYER:0
M107
G0 F1800 X86.873 Y78.559 Z0.3
;TYPE:SKIRT
G1 F1200 X87.336 Y78.129 E0.03152
G1 X87.85 Y77.76 E0.06309
G1 X88.406 Y77.46 E0.09461
G1 X88.995 Y77.232 E0.12612
G1 X89.609 Y77.08 E0.15768
G1 X90.501 Y77 E0.20236
G1 X109.501 Y77.002 E1.15027
G1 X110.131 Y77.042 E1.18177
G1 X110.752 Y77.161 E1.21331
G1 X111.353 Y77.358 E1.24487
G1 X111.924 Y77.629 E1.2764
G1 X112.456 Y77.97 E1.30793
G1 X112.942 Y78.375 E1.33949
G1 X113.372 Y78.838 E1.37101
G1 X113.74 Y79.352 E1.40255
G1 X114.04 Y79.908 E1.43407
G1 X114.268 Y80.498 E1.46563
G1 X114.42 Y81.111 E1.49713
G1 X114.5 Y82.002 E1.54177
G1 X114.5 Y118 E3.33771
G1 X114.46 Y118.631 E3.36926
G1 X114.341 Y119.252 E3.4008
G1 X114.144 Y119.852 E3.43231
G1 X113.873 Y120.424 E3.46389
G1 X113.533 Y120.956 E3.49539
G1 X113.127 Y121.441 E3.52694
G1 X112.664 Y121.871 E3.55847
G1 X112.15 Y122.24 E3.59003
G1 X111.594 Y122.54 E3.62155
G1 X111.005 Y122.768 E3.65306
G1 X110.391 Y122.92 E3.68462
G1 X109.5 Y123 E3.72925
G1 X105.5 Y123 E3.92881
G1 X104.869 Y122.96 E3.96036
G1 X104.248 Y122.841 E3.9919
G1 X103.648 Y122.644 E4.02341
G1 X103.076 Y122.373 E4.05499
G1 X102.544 Y122.033 E4.08648
G1 X102.059 Y121.627 E4.11804
G1 X101.629 Y121.164 E4.14957
G1 X101.26 Y120.65 E4.18113
G1 X100.96 Y120.094 E4.21265
G1 X100.732 Y119.505 E4.24416
G1 X100.58 Y118.891 E4.27572
G1 X100.5 Y118 E4.32035
G1 X100.5 Y105.896 E4.92422
G1 X99.5 Y105.897 E4.97411
G1 X99.5 Y117.998 E5.57783
G1 X99.46 Y118.629 E5.60938
G1 X99.341 Y119.25 E5.64092
G1 X99.144 Y119.85 E5.67243
G1 X98.873 Y120.422 E5.70401
G1 X98.533 Y120.954 E5.73551
G1 X98.127 Y121.439 E5.76706
G1 X97.664 Y121.869 E5.79859
G1 X97.15 Y122.238 E5.83015
G1 X96.594 Y122.538 E5.86167
G1 X96.005 Y122.766 E5.89318
G1 X95.391 Y122.918 E5.92474
G1 X94.5 Y122.998 E5.96937
G1 X90.5 Y122.998 E6.16893
G1 X89.869 Y122.958 E6.20048
G1 X89.248 Y122.839 E6.23202
G1 X88.648 Y122.642 E6.26353
G1 X88.076 Y122.371 E6.29511
G1 X87.544 Y122.031 E6.3266
G1 X87.059 Y121.625 E6.35816
G1 X86.629 Y121.162 E6.38968
G1 X86.26 Y120.648 E6.42125
G1 X85.96 Y120.092 E6.45277
G1 X85.732 Y119.503 E6.48428
G1 X85.58 Y118.889 E6.51584
G1 X85.5 Y117.998 E6.56047
G1 X85.5 Y82 E8.35642
G1 X85.54 Y81.369 E8.38796
G1 X85.659 Y80.748 E8.41951
G1 X85.856 Y80.148 E8.45101
G1 X86.127 Y79.576 E8.48259
G1 X86.467 Y79.044 E8.51409
G1 X86.873 Y78.559 E8.54565
G0 F1800 X87.267 Y78.728
G1 F1200 X87.725 Y78.331 E8.57588
G1 X88.232 Y77.998 E8.60615
G1 X88.778 Y77.734 E8.6364
G1 X89.354 Y77.545 E8.66665
G1 X89.95 Y77.433 E8.6969
G1 X90.5 Y77.4 E8.72439
G1 X109.5 Y77.402 E9.67231
G1 X110.105 Y77.442 E9.70256
G1 X110.7 Y77.561 E9.73283
G1 X111.274 Y77.758 E9.7631
G1 X111.816 Y78.028 E9.79331
G1 X112.319 Y78.367 E9.82358
G1 X112.772 Y78.769 E9.85379
G1 X113.169 Y79.228 E9.88407
G1 X113.502 Y79.734 E9.91429
G1 X113.766 Y80.28 E9.94455
G1 X113.955 Y80.856 E9.97479
G1 X114.067 Y81.452 E10.00505
G1 X114.1 Y82.002 E10.03254
G1 X114.1 Y118 E11.82848
G1 X114.06 Y118.605 E11.85873
G1 X113.941 Y119.199 E11.88896
G1 X113.745 Y119.773 E11.91922
G1 X113.474 Y120.316 E11.94949
G1 X113.135 Y120.819 E11.97976
G1 X112.733 Y121.272 E12.00997
G1 X112.275 Y121.669 E12.04021
G1 X111.768 Y122.002 E12.07047
G1 X111.222 Y122.266 E12.10073
G1 X110.646 Y122.455 E12.13097
G1 X110.05 Y122.567 E12.16123
G1 X109.5 Y122.6 E12.18872
G1 X105.5 Y122.6 E12.38828
G1 X104.895 Y122.56 E12.41853
G1 X104.301 Y122.441 E12.44875
G1 X103.727 Y122.245 E12.47901
G1 X103.184 Y121.974 E12.50929
G1 X102.681 Y121.635 E12.53955
G1 X102.228 Y121.233 E12.56977
G1 X101.831 Y120.775 E12.60001
G1 X101.498 Y120.268 E12.63027
G1 X101.234 Y119.722 E12.66053
G1 X101.045 Y119.146 E12.69077
G1 X100.933 Y118.55 E12.72103
G1 X100.9 Y118 E12.74851
G1 X100.9 Y105.496 E13.37234
G1 X99.1 Y105.497 E13.46214
G1 X99.1 Y117.998 E14.08582
G1 X99.06 Y118.603 E14.11607
G1 X98.941 Y119.197 E14.14629
G1 X98.745 Y119.771 E14.17655
G1 X98.474 Y120.314 E14.20683
G1 X98.135 Y120.817 E14.23709
G1 X97.733 Y121.27 E14.26731
G1 X97.275 Y121.667 E14.29755
G1 X96.768 Y122 E14.32781
G1 X96.222 Y122.264 E14.35807
G1 X95.646 Y122.453 E14.38831
G1 X95.05 Y122.565 E14.41857
G1 X94.5 Y122.598 E14.44606
G1 X90.5 Y122.598 E14.64562
G1 X89.895 Y122.558 E14.67587
G1 X89.301 Y122.439 E14.70609
G1 X88.727 Y122.243 E14.73635
G1 X88.184 Y121.972 E14.76663
G1 X87.681 Y121.633 E14.79689
G1 X87.228 Y121.231 E14.82711
G1 X86.831 Y120.773 E14.85734
G1 X86.498 Y120.266 E14.88761
G1 X86.234 Y119.72 E14.91786
G1 X86.045 Y119.144 E14.94811
G1 X85.933 Y118.548 E14.97836
G1 X85.9 Y117.998 E15.00585
G1 X85.9 Y82 E16.8018
G1 X85.94 Y81.395 E16.83205
G1 X86.059 Y80.801 E16.86227
G1 X86.255 Y80.227 E16.89253
G1 X86.526 Y79.684 E16.92281
G1 X86.865 Y79.181 E16.95307
G1 X87.267 Y78.728 E16.98329
G0 F1800 X87.66 Y78.906
G1 F1200 X88.113 Y78.544 E17.01222
G1 X88.611 Y78.249 E17.0411
G1 X89.145 Y78.024 E17.07001
G1 X89.705 Y77.876 E17.0989
G1 X90.5 Y77.8 E17.13875
G1 X109.5 Y77.802 E18.08666
G1 X110.078 Y77.842 E18.11557
G1 X110.645 Y77.961 E18.14447
G1 X111.19 Y78.157 E18.17337
G1 X111.703 Y78.426 E18.20226
G1 X112.174 Y78.764 E18.23119
G1 X112.595 Y79.162 E18.26009
G1 X112.956 Y79.615 E18.28899
G1 X113.251 Y80.113 E18.31787
G1 X113.476 Y80.648 E18.34682
G1 X113.624 Y81.208 E18.37572
G1 X113.7 Y82.002 E18.41551
G1 X113.7 Y118 E20.21146
G1 X113.66 Y118.578 E20.24037
G1 X113.541 Y119.145 E20.26927
G1 X113.345 Y119.69 E20.29817
G1 X113.076 Y120.203 E20.32707
G1 X112.739 Y120.674 E20.35596
G1 X112.34 Y121.094 E20.38486
G1 X111.887 Y121.456 E20.41379
G1 X111.389 Y121.751 E20.44267
G1 X110.855 Y121.976 E20.47158
G1 X110.295 Y122.124 E20.50048
G1 X109.5 Y122.2 E20.54032
G1 X105.5 Y122.2 E20.73988
G1 X104.922 Y122.16 E20.76879
G1 X104.355 Y122.041 E20.79769
G1 X103.81 Y121.845 E20.82658
G1 X103.297 Y121.576 E20.85548
G1 X102.826 Y121.239 E20.88438
G1 X102.406 Y120.84 E20.91328
G1 X102.044 Y120.387 E20.94221
G1 X101.749 Y119.889 E20.97109
G1 X101.524 Y119.355 E21
G1 X101.376 Y118.795 E21.02889
G1 X101.3 Y118 E21.06874
G1 X101.3 Y105.096 E21.71252
G1 X98.7 Y105.097 E21.84223
G1 X98.7 Y117.998 E22.48587
G1 X98.66 Y118.576 E22.51477
G1 X98.541 Y119.143 E22.54368
G1 X98.345 Y119.688 E22.57257
G1 X98.076 Y120.201 E22.60147
G1 X97.739 Y120.672 E22.63037
G1 X97.34 Y121.092 E22.65927
G1 X96.887 Y121.454 E22.6882
G1 X96.389 Y121.749 E22.71707
G1 X95.855 Y121.974 E22.74598
G1 X95.295 Y122.122 E22.77488
G1 X94.5 Y122.198 E22.81473
G1 X90.5 Y122.198 E23.01429
G1 X89.922 Y122.158 E23.04319
G1 X89.355 Y122.039 E23.0721
G1 X88.81 Y121.843 E23.10099
G1 X88.297 Y121.574 E23.12989
G1 X87.826 Y121.237 E23.15878
G1 X87.406 Y120.838 E23.18769
G1 X87.044 Y120.385 E23.21662
G1 X86.749 Y119.887 E23.24549
G1 X86.524 Y119.353 E23.2744
G1 X86.376 Y118.793 E23.3033
G1 X86.3 Y117.998 E23.34314
G1 X86.3 Y82 E25.13909
G1 X86.34 Y81.422 E25.168
G1 X86.459 Y80.855 E25.1969
G1 X86.655 Y80.31 E25.2258
G1 X86.924 Y79.797 E25.2547
G1 X87.261 Y79.326 E25.28359
G1 X87.66 Y78.906 E25.31249
G0 F1800 X88.052 Y79.094
G1 F1200 X88.498 Y78.77 E25.33999
G1 X88.986 Y78.515 E25.36746
G1 X89.506 Y78.332 E25.39497
G1 X90.047 Y78.227 E25.42246
G1 X90.5 Y78.2 E25.4451
G1 X109.5 Y78.202 E26.39301
G1 X110.05 Y78.242 E26.42053
G1 X110.588 Y78.361 E26.44802
G1 X111.103 Y78.557 E26.47551
G1 X111.584 Y78.825 E26.50298
G1 X112.022 Y79.16 E26.53049
G1 X112.407 Y79.554 E26.55797
G1 X112.73 Y80 E26.58545
G1 X112.986 Y80.488 E26.61294
G1 X113.168 Y81.008 E26.64042
G1 X113.273 Y81.549 E26.66792
G1 X113.3 Y82.002 E26.69056
G1 X113.3 Y118 E28.48651
G1 X113.26 Y118.55 E28.51402
G1 X113.141 Y119.088 E28.54151
G1 X112.945 Y119.603 E28.569
G1 X112.677 Y120.084 E28.59647
G1 X112.343 Y120.522 E28.62395
G1 X111.948 Y120.906 E28.65143
G1 X111.502 Y121.23 E28.67894
G1 X111.014 Y121.485 E28.70641
G1 X110.494 Y121.668 E28.73391
G1 X109.953 Y121.773 E28.7614
G1 X109.5 Y121.8 E28.78404
G1 X105.5 Y121.8 E28.98361
G1 X104.95 Y121.76 E29.01112
G1 X104.412 Y121.641 E29.03861
G1 X103.897 Y121.445 E29.0661
G1 X103.416 Y121.177 E29.09357
G1 X102.978 Y120.843 E29.12105
G1 X102.594 Y120.448 E29.14853
G1 X102.27 Y120.002 E29.17604
G1 X102.015 Y119.514 E29.20351
G1 X101.832 Y118.994 E29.23101
G1 X101.727 Y118.453 E29.2585
G1 X101.7 Y118 E29.28114
G1 X101.7 Y104.696 E29.94488
G1 X98.3 Y104.697 E30.11451
G1 X98.3 Y117.998 E30.7781
G1 X98.26 Y118.548 E30.80561
G1 X98.141 Y119.086 E30.8331
G1 X97.945 Y119.601 E30.86059
G1 X97.677 Y120.082 E30.88806
G1 X97.343 Y120.52 E30.91554
G1 X96.948 Y120.904 E30.94303
G1 X96.502 Y121.228 E30.97053
G1 X96.014 Y121.483 E30.998
G1 X95.494 Y121.666 E31.0255
G1 X94.953 Y121.771 E31.053
G1 X94.5 Y121.798 E31.07564
G1 X90.5 Y121.798 E31.2752
G1 X89.95 Y121.758 E31.30271
G1 X89.412 Y121.639 E31.3302
G1 X88.897 Y121.443 E31.35769
G1 X88.416 Y121.175 E31.38516
G1 X87.978 Y120.841 E31.41264
G1 X87.594 Y120.446 E31.44013
G1 X87.27 Y120 E31.46763
G1 X87.015 Y119.512 E31.4951
G1 X86.832 Y118.992 E31.5226
G1 X86.727 Y118.451 E31.5501
G1 X86.7 Y117.998 E31.57274
G1 X86.7 Y82 E33.36868
G1 X86.74 Y81.45 E33.3962
G1 X86.859 Y80.912 E33.42368
G1 X87.055 Y80.397 E33.45118
G1 X87.323 Y79.916 E33.47865
G1 X87.657 Y79.478 E33.50613
G1 X88.052 Y79.094 E33.53361
G0 F1800 X88.442 Y79.294
G1 F1200 X88.88 Y79.011 E33.55963
G1 X89.355 Y78.798 E33.5856
G1 X89.858 Y78.661 E33.61161
G1 X90.5 Y78.6 E33.64378
G1 X109.5 Y78.602 E34.5917
G1 X110.02 Y78.642 E34.61772
G1 X110.527 Y78.761 E34.6437
G1 X111.011 Y78.956 E34.66973
G1 X111.458 Y79.223 E34.69571
G1 X111.86 Y79.555 E34.72172
G1 X112.206 Y79.944 E34.74769
G1 X112.489 Y80.382 E34.77371
G1 X112.702 Y80.858 E34.79972
G1 X112.839 Y81.36 E34.82568
G1 X112.9 Y82.002 E34.85786
G1 X112.9 Y118 E36.65381
G1 X112.86 Y118.52 E36.67983
G1 X112.741 Y119.027 E36.70581
G1 X112.546 Y119.51 E36.73179
G1 X112.28 Y119.958 E36.75779
G1 X111.948 Y120.36 E36.7838
G1 X111.558 Y120.706 E36.80981
G1 X111.12 Y120.989 E36.83583
G1 X110.645 Y121.202 E36.8618
G1 X110.142 Y121.339 E36.88781
G1 X109.5 Y121.4 E36.91998
G1 X105.5 Y121.4 E37.11954
G1 X104.98 Y121.36 E37.14556
G1 X104.473 Y121.241 E37.17154
G1 X103.99 Y121.046 E37.19753
G1 X103.542 Y120.78 E37.22352
G1 X103.14 Y120.448 E37.24953
G1 X102.794 Y120.058 E37.27555
G1 X102.511 Y119.62 E37.30156
G1 X102.298 Y119.145 E37.32753
G1 X102.161 Y118.642 E37.35354
G1 X102.1 Y118 E37.38572
G1 X102.1 Y104.296 E38.06941
G1 X97.9 Y104.297 E38.27895
G1 X97.9 Y117.998 E38.9625
G1 X97.86 Y118.518 E38.98851
G1 X97.741 Y119.025 E39.0145
G1 X97.546 Y119.508 E39.04048
G1 X97.28 Y119.956 E39.06648
G1 X96.948 Y120.358 E39.09249
G1 X96.558 Y120.704 E39.1185
G1 X96.12 Y120.987 E39.14452
G1 X95.645 Y121.2 E39.17049
G1 X95.142 Y121.337 E39.1965
G1 X94.5 Y121.398 E39.22867
G1 X90.5 Y121.398 E39.42823
G1 X89.98 Y121.358 E39.45425
G1 X89.473 Y121.239 E39.48023
G1 X88.99 Y121.044 E39.50622
G1 X88.542 Y120.778 E39.53221
G1 X88.14 Y120.446 E39.55822
G1 X87.794 Y120.056 E39.58423
G1 X87.511 Y119.618 E39.61025
G1 X87.298 Y119.143 E39.63622
G1 X87.161 Y118.64 E39.66223
G1 X87.1 Y117.998 E39.6944
G1 X87.1 Y82 E41.49035
G1 X87.14 Y81.48 E41.51637
G1 X87.259 Y80.973 E41.54235
G1 X87.454 Y80.49 E41.56834
G1 X87.72 Y80.042 E41.59433
G1 X88.052 Y79.64 E41.62034
G1 X88.442 Y79.294 E41.64636
G0 F1800 X88.829 Y79.508
G1 F1200 X89.257 Y79.27 E41.67079
G1 X89.717 Y79.104 E41.69519
G1 X90.198 Y79.015 E41.71959
G1 X90.5 Y79 E41.73468
G1 X109.5 Y79.002 E42.68259
G1 X109.988 Y79.042 E42.70702
G1 X110.463 Y79.161 E42.73145
G1 X110.912 Y79.355 E42.75585
G1 X111.324 Y79.62 E42.78029
G1 X111.687 Y79.948 E42.8047
G1 X111.992 Y80.331 E42.82912
G1 X112.23 Y80.759 E42.85356
G1 X112.396 Y81.219 E42.87796
G1 X112.485 Y81.701 E42.90241
G1 X112.5 Y82.002 E42.91744
G1 X112.5 Y118 E44.71339
G1 X112.46 Y118.488 E44.73782
G1 X112.341 Y118.963 E44.76225
G1 X112.147 Y119.412 E44.78665
G1 X111.882 Y119.824 E44.81109
G1 X111.554 Y120.187 E44.8355
G1 X111.171 Y120.492 E44.85993
G1 X110.743 Y120.73 E44.88436
G1 X110.283 Y120.896 E44.90876
G1 X109.802 Y120.985 E44.93316
G1 X109.5 Y121 E44.94825
G1 X105.5 Y121 E45.14781
G1 X105.012 Y120.96 E45.17224
G1 X104.537 Y120.841 E45.19667
G1 X104.088 Y120.647 E45.22107
G1 X103.676 Y120.382 E45.24551
G1 X103.313 Y120.054 E45.26992
G1 X103.008 Y119.671 E45.29434
G1 X102.77 Y119.243 E45.31877
G1 X102.604 Y118.783 E45.34317
G1 X102.515 Y118.302 E45.36758
G1 X102.5 Y118 E45.38266
G1 X102.5 Y103.896 E46.08631
G1 X97.5 Y103.897 E46.33577
G1 X97.5 Y117.998 E47.03927
G1 X97.46 Y118.486 E47.0637
G1 X97.341 Y118.961 E47.08813
G1 X97.147 Y119.41 E47.11253
G1 X96.882 Y119.822 E47.13697
G1 X96.554 Y120.185 E47.16138
G1 X96.171 Y120.49 E47.1858
G1 X95.743 Y120.728 E47.21023
G1 X95.283 Y120.894 E47.23463
G1 X94.802 Y120.983 E47.25904
G1 X94.5 Y120.998 E47.27412
G1 X90.5 Y120.998 E47.47368
G1 X90.012 Y120.958 E47.49811
G1 X89.537 Y120.839 E47.52254
G1 X89.088 Y120.645 E47.54694
G1 X88.676 Y120.38 E47.57138
G1 X88.313 Y120.052 E47.59579
G1 X88.008 Y119.669 E47.62022
G1 X87.77 Y119.241 E47.64465
G1 X87.604 Y118.781 E47.66905
G1 X87.515 Y118.3 E47.69345
G1 X87.5 Y117.998 E47.70854
G1 X87.5 Y82 E49.50449
G1 X87.54 Y81.512 E49.52891
G1 X87.659 Y81.037 E49.55334
G1 X87.853 Y80.588 E49.57775
G1 X88.118 Y80.176 E49.60219
G1 X88.446 Y79.813 E49.62659
G1 X88.829 Y79.508 E49.65102
G0 F1800 X89.213 Y79.741
G1 F1200 X89.627 Y79.551 E49.67375
G1 X90.068 Y79.436 E49.69648
G1 X90.5 Y79.4 E49.71811
G1 X109.5 Y79.402 E50.66602
G1 X109.954 Y79.442 E50.68876
G1 X110.394 Y79.561 E50.7115
G1 X110.807 Y79.754 E50.73425
G1 X111.179 Y80.017 E50.75698
G1 X111.5 Y80.34 E50.77969
G1 X111.759 Y80.715 E50.80243
G1 X111.949 Y81.129 E50.82516
G1 X112.064 Y81.57 E50.84789
G1 X112.1 Y82.002 E50.86952
G1 X112.1 Y118 E52.66547
G1 X112.06 Y118.454 E52.68821
G1 X111.942 Y118.894 E52.71093
G1 X111.748 Y119.306 E52.73365
G1 X111.485 Y119.679 E52.75642
G1 X111.162 Y120 E52.77914
G1 X110.787 Y120.259 E52.80188
G1 X110.373 Y120.449 E52.82461
G1 X109.932 Y120.564 E52.84734
G1 X109.5 Y120.6 E52.86897
G1 X105.5 Y120.6 E53.06853
G1 X105.046 Y120.56 E53.09127
G1 X104.606 Y120.442 E53.114
G1 X104.194 Y120.248 E53.13672
G1 X103.821 Y119.985 E53.15949
G1 X103.5 Y119.662 E53.18221
G1 X103.241 Y119.287 E53.20494
G1 X103.051 Y118.873 E53.22767
G1 X102.936 Y118.432 E53.25041
G1 X102.9 Y118 E53.27203
G1 X102.9 Y103.496 E53.99564
G1 X97.1 Y103.497 E54.285
G1 X97.1 Y117.998 E55.00846
G1 X97.06 Y118.452 E55.0312
G1 X96.942 Y118.892 E55.05393
G1 X96.748 Y119.304 E55.07665
G1 X96.485 Y119.677 E55.09942
G1 X96.162 Y119.998 E55.12213
G1 X95.787 Y120.257 E55.14487
G1 X95.373 Y120.447 E55.1676
G1 X94.932 Y120.562 E55.19034
G1 X94.5 Y120.598 E55.21196
G1 X90.5 Y120.598 E55.41152
G1 X90.046 Y120.558 E55.43426
G1 X89.606 Y120.44 E55.45699
G1 X89.194 Y120.246 E55.47971
G1 X88.821 Y119.983 E55.50248
G1 X88.5 Y119.66 E55.5252
G1 X88.241 Y119.285 E55.54793
G1 X88.051 Y118.871 E55.57066
G1 X87.936 Y118.43 E55.5934
G1 X87.9 Y117.998 E55.61502
G1 X87.9 Y82 E57.41097
G1 X87.94 Y81.546 E57.43371
G1 X88.058 Y81.106 E57.45644
G1 X88.252 Y80.694 E57.47916
G1 X88.515 Y80.321 E57.50193
G1 X88.838 Y80 E57.52465
G1 X89.213 Y79.741 E57.54738
G0 F1800 X89.227 Y80.206
G1 F1200 X89.59 Y79.997 E57.56828
G1 X89.987 Y79.861 E57.58922
G1 X90.5 Y79.8 E57.61499
G1 X109.5 Y79.802 E58.5629
G1 X109.917 Y79.842 E58.5838
G1 X110.319 Y79.96 E58.60471
G1 X110.692 Y80.153 E58.62566
G1 X111.021 Y80.412 E58.64655
G1 X111.295 Y80.729 E58.66745
G1 X111.503 Y81.093 E58.68837
G1 X111.639 Y81.489 E58.70926
G1 X111.7 Y82.002 E58.73503
G1 X111.7 Y118 E60.53098
G1 X111.66 Y118.417 E60.55188
G1 X111.542 Y118.819 E60.57278
G1 X111.349 Y119.191 E60.59369
G1 X111.09 Y119.52 E60.61458
G1 X110.773 Y119.794 E60.63548
