;FLAVOR:RepRap
;TIME:623
;Filament used: 0.458181m
;Layer height: 0.15
;Generated with Cura_SteamEngine 2.5.0-BETA
M190 S55
M104 S210
M109 S210
G21 ;metric values
G90 ;absolute positioning
M82 ;set extruder to absolute mode
M107 ;start with the fan off
;G28 X0 Y0 ;move X/Y to min endstops
;G28 Z0 ;move Z to min endstops
;G1 Z15.0 F9000 ;move the platform down 15mm
G92 E0 ;zero the extruded length
G1 F200 E3 ;extrude 3mm of feed stock
G92 E0 ;zero the extruded length again
G1 F9000
;Put printing message on LCD screen
M117 Printing...
;LAYER_COUNT:32
;LAYER:0
M107
G0 F1800 X90.691 Y90.953 Z0.3
;TYPE:SKIRT
G1 F1200 X91.942 Y89.822 E0.08414
G1 X92.437 Y89.429 E0.11567
G1 X92.794 Y89.202 E0.13678
G1 X94.241 Y88.366 E0.22015
G1 X94.807 Y88.085 E0.25168
G1 X95.19 Y87.942 E0.27207
G1 X96.779 Y87.423 E0.35547
G1 X97.391 Y87.265 E0.387
G1 X97.81 Y87.203 E0.40814
G1 X99.479 Y87.028 E0.49186
G1 X100.11 Y87.002 E0.52337
G1 X100.521 Y87.028 E0.54391
G1 X102.19 Y87.203 E0.62764
G1 X102.814 Y87.309 E0.65921
G1 X103.221 Y87.423 E0.6803
G1 X104.81 Y87.942 E0.7637
G1 X105.398 Y88.176 E0.79527
G1 X105.759 Y88.366 E0.81562
G1 X107.206 Y89.202 E0.899
G1 X107.851 Y89.645 E0.93803
G1 X108.502 Y90.172 E0.97982
G1 X109.073 Y90.714 E1.0191
G1 X110.186 Y91.951 E1.10212
G1 X110.578 Y92.446 E1.13362
G1 X110.798 Y92.794 E1.15416
G1 X111.634 Y94.241 E1.23753
G1 X111.915 Y94.807 E1.26906
G1 X112.058 Y95.19 E1.28945
G1 X112.577 Y96.779 E1.37285
G1 X112.735 Y97.391 E1.40438
G1 X112.797 Y97.809 E1.42547
G1 X112.972 Y99.477 E1.50914
G1 X112.998 Y100.109 E1.5407
G1 X112.972 Y100.52 E1.56124
G1 X112.797 Y102.19 E1.64502
G1 X112.691 Y102.813 E1.67655
G1 X112.667 Y102.898 E1.68095
G1 X113.516 Y103.175 E1.72551
G1 X114.103 Y103.409 E1.75703
G1 X114.468 Y103.6 E1.77758
G1 X115.908 Y104.433 E1.86058
G1 X116.434 Y104.783 E1.8921
G1 X116.747 Y105.043 E1.9124
G1 X117.996 Y106.166 E1.9962
G1 X118.54 Y106.739 E2.03562
G1 X119.061 Y107.383 E2.07694
G1 X119.503 Y108.027 E2.11591
G1 X120.339 Y109.474 E2.19929
G1 X120.62 Y110.04 E2.23081
G1 X120.763 Y110.423 E2.25121
G1 X121.282 Y112.012 E2.33461
G1 X121.44 Y112.624 E2.36614
G1 X121.502 Y113.042 E2.38722
G1 X121.677 Y114.71 E2.4709
G1 X121.703 Y115.342 E2.50245
G1 X121.677 Y115.753 E2.523
G1 X121.502 Y117.424 E2.60682
G1 X121.396 Y118.047 E2.63835
G1 X121.282 Y118.454 E2.65944
G1 X120.764 Y120.042 E2.74277
G1 X120.465 Y120.763 E2.78171
G1 X120.088 Y121.502 E2.8231
G1 X119.682 Y122.165 E2.86189
G1 X118.709 Y123.507 E2.94459
G1 X118.306 Y123.994 E2.97612
G1 X118.014 Y124.281 E2.99655
G1 X116.763 Y125.412 E3.08069
G1 X116.268 Y125.805 E3.11222
G1 X115.913 Y126.032 E3.13324
G1 X114.467 Y126.868 E3.21657
G1 X113.9 Y127.149 E3.24814
G1 X113.516 Y127.292 E3.26859
G1 X111.926 Y127.811 E3.35203
G1 X111.313 Y127.969 E3.38361
G1 X110.895 Y128.031 E3.4047
G1 X109.226 Y128.206 E3.48842
G1 X108.595 Y128.232 E3.51993
G1 X108.184 Y128.206 E3.54047
G1 X106.514 Y128.031 E3.62425
G1 X105.891 Y127.925 E3.65577
G1 X105.483 Y127.811 E3.67691
G1 X103.894 Y127.292 E3.76031
G1 X103.306 Y127.058 E3.79188
G1 X102.945 Y126.868 E3.81223
G1 X101.498 Y126.032 E3.8956
G1 X100.971 Y125.682 E3.92717
G1 X100.655 Y125.42 E3.94765
G1 X99.418 Y124.307 E4.03066
G1 X98.873 Y123.732 E4.07019
G1 X98.347 Y123.081 E4.11194
G1 X97.908 Y122.443 E4.15058
G1 X97.07 Y120.995 E4.23405
G1 X96.789 Y120.429 E4.26558
G1 X96.644 Y120.039 E4.28633
G1 X96.127 Y118.451 E4.36965
G1 X95.969 Y117.839 E4.40119
G1 X95.908 Y117.424 E4.42211
G1 X95.733 Y115.755 E4.50584
G1 X95.707 Y115.124 E4.53734
G1 X95.733 Y114.713 E4.55789
G1 X95.908 Y113.043 E4.64166
G1 X96.014 Y112.42 E4.67319
G1 X96.038 Y112.335 E4.6776
G1 X95.19 Y112.058 E4.7221
G1 X94.602 Y111.824 E4.75368
G1 X94.241 Y111.634 E4.77403
G1 X92.794 Y110.798 E4.8574
G1 X92.149 Y110.355 E4.89644
G1 X91.498 Y109.828 E4.93823
G1 X90.927 Y109.286 E4.97751
G1 X89.814 Y108.049 E5.06052
G1 X89.422 Y107.554 E5.09202
G1 X89.201 Y107.206 E5.11259
G1 X88.364 Y105.757 E5.19608
G1 X88.083 Y105.191 E5.2276
G1 X87.941 Y104.807 E5.24803
G1 X87.423 Y103.22 E5.33132
G1 X87.265 Y102.608 E5.36285
G1 X87.203 Y102.191 E5.38388
G1 X87.028 Y100.523 E5.46756
G1 X87.002 Y99.891 E5.49911
G1 X87.028 Y99.48 E5.51966
G1 X87.203 Y97.81 E5.60343
G1 X87.309 Y97.187 E5.63496
G1 X87.423 Y96.78 E5.65605
G1 X87.941 Y95.193 E5.73933
G1 X88.175 Y94.605 E5.77091
G1 X88.364 Y94.244 E5.79124
G1 X89.197 Y92.801 E5.87436
G1 X89.64 Y92.156 E5.9134
G1 X90.157 Y91.517 E5.95441
G1 X90.691 Y90.953 E5.99316
G0 F1800 X90.959 Y91.25
G1 F1200 X92.21 Y90.119 E6.07729
G1 X92.686 Y89.743 E6.10756
G1 X92.994 Y89.548 E6.12574
G1 X94.441 Y88.712 E6.20912
G1 X94.985 Y88.444 E6.23937
G1 X95.314 Y88.322 E6.25688
G1 X96.903 Y87.803 E6.34028
G1 X97.49 Y87.653 E6.3705
G1 X97.851 Y87.601 E6.3887
G1 X99.52 Y87.426 E6.47242
G1 X100.126 Y87.403 E6.50268
G1 X100.48 Y87.426 E6.52038
G1 X102.149 Y87.601 E6.6041
G1 X102.746 Y87.704 E6.63432
G1 X103.097 Y87.803 E6.65252
G1 X104.686 Y88.322 E6.73592
G1 X105.249 Y88.548 E6.76618
G1 X105.559 Y88.712 E6.78368
G1 X107.006 Y89.548 E6.86705
G1 X107.599 Y89.956 E6.90296
G1 X108.25 Y90.483 E6.94475
G1 X108.776 Y90.981 E6.98089
G1 X109.889 Y92.218 E7.06391
G1 X110.264 Y92.695 E7.09418
G1 X110.452 Y92.994 E7.1118
G1 X111.288 Y94.441 E7.19517
G1 X111.556 Y94.985 E7.22543
G1 X111.678 Y95.314 E7.24293
G1 X112.197 Y96.903 E7.32633
G1 X112.347 Y97.49 E7.35656
G1 X112.399 Y97.851 E7.37475
G1 X112.574 Y99.519 E7.45843
G1 X112.597 Y100.125 E7.48868
G1 X112.574 Y100.478 E7.50633
G1 X112.399 Y102.148 E7.5901
G1 X112.296 Y102.746 E7.62038
G1 X112.197 Y103.096 E7.63852
G1 X112.177 Y103.159 E7.64182
G1 X113.391 Y103.555 E7.70553
G1 X113.954 Y103.781 E7.73579
G1 X114.267 Y103.946 E7.75345
G1 X115.707 Y104.779 E7.83644
G1 X116.211 Y105.117 E7.86672
G1 X116.48 Y105.34 E7.88415
G1 X117.729 Y106.463 E7.96795
G1 X118.229 Y106.991 E8.00423
G1 X118.75 Y107.635 E8.04555
G1 X119.157 Y108.227 E8.0814
G1 X119.993 Y109.674 E8.16477
G1 X120.261 Y110.218 E8.19502
G1 X120.383 Y110.547 E8.21253
G1 X120.902 Y112.136 E8.29593
G1 X121.052 Y112.723 E8.32615
G1 X121.104 Y113.084 E8.34435
G1 X121.279 Y114.752 E8.42802
G1 X121.302 Y115.358 E8.45828
G1 X121.279 Y115.711 E8.47593
G1 X121.104 Y117.382 E8.55975
G1 X121.001 Y117.98 E8.59002
G1 X120.902 Y118.33 E8.60817
G1 X120.384 Y119.918 E8.6915
G1 X120.109 Y120.581 E8.72731
G1 X119.732 Y121.32 E8.7687
G1 X119.358 Y121.93 E8.8044
G1 X118.385 Y123.272 E8.8871
G1 X117.998 Y123.738 E8.91732
G1 X117.746 Y123.984 E8.93489
G1 X116.495 Y125.115 E9.01903
G1 X116.019 Y125.491 E9.04929
G1 X115.712 Y125.685 E9.06741
G1 X114.266 Y126.521 E9.15074
G1 X113.723 Y126.79 E9.18097
G1 X113.391 Y126.912 E9.19862
G1 X111.801 Y127.431 E9.28206
G1 X111.214 Y127.581 E9.31229
G1 X110.854 Y127.633 E9.33044
G1 X109.185 Y127.808 E9.41416
G1 X108.579 Y127.831 E9.44441
G1 X108.226 Y127.808 E9.46206
G1 X106.556 Y127.633 E9.54584
G1 X105.958 Y127.53 E9.57611
G1 X105.607 Y127.431 E9.5943
G1 X104.018 Y126.912 E9.6777
G1 X103.455 Y126.686 E9.70797
G1 X103.145 Y126.522 E9.72546
G1 X101.698 Y125.686 E9.80884
G1 X101.194 Y125.349 E9.83909
G1 X100.922 Y125.123 E9.85673
G1 X99.685 Y124.01 E9.93975
G1 X99.184 Y123.481 E9.9761
G1 X98.658 Y122.83 E10.01785
G1 X98.255 Y122.243 E10.05337
G1 X97.417 Y120.795 E10.13684
G1 X97.148 Y120.251 E10.16712
G1 X97.024 Y119.915 E10.18499
G1 X96.507 Y118.327 E10.26831
G1 X96.358 Y117.739 E10.29857
G1 X96.306 Y117.383 E10.31652
G1 X96.131 Y115.714 E10.40024
G1 X96.108 Y115.108 E10.4305
G1 X96.131 Y114.755 E10.44814
G1 X96.306 Y113.085 E10.53192
G1 X96.409 Y112.487 E10.56219
G1 X96.507 Y112.139 E10.58023
G1 X96.528 Y112.075 E10.58359
G1 X95.314 Y111.678 E10.64731
G1 X94.751 Y111.452 E10.67758
G1 X94.441 Y111.288 E10.69508
G1 X92.994 Y110.452 E10.77845
G1 X92.401 Y110.044 E10.81436
G1 X91.75 Y109.517 E10.85615
G1 X91.224 Y109.019 E10.89228
G1 X90.111 Y107.782 E10.9753
G1 X89.736 Y107.305 E11.00557
G1 X89.548 Y107.006 E11.02319
G1 X88.711 Y105.557 E11.10668
G1 X88.443 Y105.013 E11.13693
G1 X88.321 Y104.683 E11.15449
G1 X87.803 Y103.096 E11.23777
G1 X87.653 Y102.509 E11.268
G1 X87.601 Y102.149 E11.28615
G1 X87.426 Y100.481 E11.36982
G1 X87.403 Y99.875 E11.40008
G1 X87.426 Y99.522 E11.41772
G1 X87.601 Y97.852 E11.5015
G1 X87.704 Y97.254 E11.53177
G1 X87.803 Y96.904 E11.54992
G1 X88.321 Y95.317 E11.6332
G1 X88.547 Y94.754 E11.66347
G1 X88.71 Y94.444 E11.68094
G1 X89.543 Y93.001 E11.76407
G1 X89.951 Y92.408 E11.79998
G1 X90.468 Y91.769 E11.84099
G1 X90.959 Y91.25 E11.87663
G0 F1800 X91.227 Y91.546
G1 F1200 X92.478 Y90.415 E11.96077
G1 X92.934 Y90.058 E11.98966
G1 X93.194 Y89.894 E12.005
G1 X94.641 Y89.058 E12.08837
G1 X95.161 Y88.804 E12.11725
G1 X95.438 Y88.703 E12.13196
G1 X97.027 Y88.184 E12.21535
G1 X97.589 Y88.042 E12.24427
G1 X97.893 Y87.999 E12.25959
G1 X99.562 Y87.824 E12.34331
G1 X100.141 Y87.803 E12.37222
G1 X100.438 Y87.824 E12.38707
G1 X102.107 Y87.999 E12.4708
G1 X102.678 Y88.099 E12.49972
G1 X102.973 Y88.184 E12.51503
G1 X104.562 Y88.703 E12.59843
G1 X105.099 Y88.92 E12.62733
G1 X105.359 Y89.058 E12.64201
G1 X106.806 Y89.894 E12.72538
G1 X107.348 Y90.267 E12.75821
G1 X107.999 Y90.794 E12.8
G1 X108.478 Y91.249 E12.83296
G1 X109.591 Y92.486 E12.91597
G1 X109.948 Y92.942 E12.94487
G1 X110.106 Y93.194 E12.95971
G1 X110.942 Y94.641 E13.04308
G1 X111.196 Y95.161 E13.07195
G1 X111.297 Y95.438 E13.08666
G1 X111.816 Y97.027 E13.17006
G1 X111.958 Y97.589 E13.19898
G1 X112.001 Y97.893 E13.2143
G1 X112.176 Y99.561 E13.29797
G1 X112.197 Y100.14 E13.32687
G1 X112.176 Y100.437 E13.34173
G1 X112.001 Y102.107 E13.4255
G1 X111.901 Y102.677 E13.45437
G1 X111.817 Y102.972 E13.46968
G1 X111.672 Y103.415 E13.49293
G1 X111.677 Y103.416 E13.49319
G1 X113.267 Y103.935 E13.57663
G1 X113.804 Y104.153 E13.60554
G1 X114.067 Y104.292 E13.62039
G1 X115.507 Y105.125 E13.70338
G1 X115.987 Y105.449 E13.73227
G1 X116.212 Y105.638 E13.74693
G1 X117.461 Y106.761 E13.83073
G1 X117.918 Y107.242 E13.86383
G1 X118.439 Y107.886 E13.90516
G1 X118.811 Y108.427 E13.93791
G1 X119.647 Y109.874 E14.02129
G1 X119.901 Y110.394 E14.05016
G1 X120.002 Y110.671 E14.06487
G1 X120.521 Y112.26 E14.14827
G1 X120.663 Y112.822 E14.17719
G1 X120.706 Y113.126 E14.1925
G1 X120.881 Y114.794 E14.27618
G1 X120.902 Y115.373 E14.30508
G1 X120.881 Y115.669 E14.31989
G1 X120.706 Y117.34 E14.40371
G1 X120.606 Y117.911 E14.43263
G1 X120.522 Y118.205 E14.44789
G1 X120.004 Y119.793 E14.53122
G1 X119.752 Y120.4 E14.56401
G1 X119.375 Y121.139 E14.6054
G1 X119.034 Y121.695 E14.63794
G1 X118.061 Y123.037 E14.72064
G1 X117.69 Y123.482 E14.74954
G1 X117.478 Y123.688 E14.76429
G1 X116.227 Y124.819 E14.84843
G1 X115.771 Y125.176 E14.87732
G1 X115.512 Y125.339 E14.89259
G1 X114.066 Y126.175 E14.97592
G1 X113.546 Y126.43 E15.00481
G1 X113.267 Y126.532 E15.01963
G1 X111.677 Y127.051 E15.10308
G1 X111.115 Y127.192 E15.13199
G1 X110.812 Y127.235 E15.14725
G1 X109.143 Y127.41 E15.23098
G1 X108.564 Y127.431 E15.25988
G1 X108.267 Y127.41 E15.27474
G1 X106.597 Y127.235 E15.35851
G1 X106.027 Y127.135 E15.38738
G1 X105.731 Y127.05 E15.40275
G1 X104.142 Y126.531 E15.48614
G1 X103.605 Y126.314 E15.51504
G1 X103.345 Y126.176 E15.52972
G1 X101.898 Y125.34 E15.6131
G1 X101.417 Y125.016 E15.64203
G1 X101.19 Y124.825 E15.65683
G1 X99.953 Y123.712 E15.73985
G1 X99.495 Y123.23 E15.77302
G1 X98.969 Y122.579 E15.81478
G1 X98.601 Y122.043 E15.84721
G1 X97.763 Y120.595 E15.93068
G1 X97.508 Y120.075 E15.95957
G1 X97.404 Y119.791 E15.97466
G1 X96.887 Y118.203 E16.05798
G1 X96.746 Y117.641 E16.08689
G1 X96.704 Y117.341 E16.102
G1 X96.529 Y115.672 E16.18573
G1 X96.508 Y115.093 E16.21463
G1 X96.529 Y114.796 E16.22949
G1 X96.704 Y113.126 E16.31326
G1 X96.804 Y112.556 E16.34213
G1 X96.888 Y112.263 E16.35734
G1 X97.033 Y111.818 E16.38069
G1 X97.027 Y111.816 E16.381
G1 X95.438 Y111.297 E16.4644
G1 X94.901 Y111.08 E16.4933
G1 X94.641 Y110.942 E16.50798
G1 X93.194 Y110.106 E16.59135
G1 X92.652 Y109.733 E16.62418
G1 X92.001 Y109.206 E16.66597
G1 X91.522 Y108.751 E16.69893
G1 X90.409 Y107.514 E16.78194
G1 X90.052 Y107.058 E16.81084
G1 X89.894 Y106.806 E16.82568
G1 X89.057 Y105.357 E16.90916
G1 X88.803 Y104.836 E16.93808
G1 X88.701 Y104.559 E16.9528
G1 X88.183 Y102.972 E17.03609
G1 X88.042 Y102.41 E17.065
G1 X87.999 Y102.107 E17.08027
G1 X87.824 Y100.439 E17.16394
G1 X87.803 Y99.86 E17.19285
G1 X87.824 Y99.563 E17.2077
G1 X87.999 Y97.893 E17.29147
G1 X88.099 Y97.323 E17.32034
G1 X88.183 Y97.028 E17.33565
G1 X88.701 Y95.441 E17.41893
G1 X88.919 Y94.904 E17.44785
G1 X89.057 Y94.644 E17.46253
G1 X89.89 Y93.201 E17.54566
G1 X90.262 Y92.659 E17.57846
G1 X90.779 Y92.02 E17.61946
G1 X91.227 Y91.546 E17.652
G0 F1800 X91.496 Y91.843
G1 F1200 X92.747 Y90.712 E17.73614
G1 X93.394 Y90.241 E17.77607
G1 X94.841 Y89.405 E17.85944
G1 X95.562 Y89.083 E17.89884
G1 X97.151 Y88.564 E17.98223
G1 X97.935 Y88.397 E18.02222
G1 X99.604 Y88.222 E18.10595
G1 X100.396 Y88.222 E18.14546
G1 X102.065 Y88.397 E18.22918
G1 X102.849 Y88.564 E18.26917
G1 X104.438 Y89.083 E18.35257
G1 X105.159 Y89.405 E18.39197
G1 X106.606 Y90.241 E18.47534
G1 X107.096 Y90.577 E18.50498
G1 X107.747 Y91.104 E18.54677
G1 X108.181 Y91.516 E18.57662
G1 X109.294 Y92.753 E18.65964
G1 X109.759 Y93.394 E18.69915
G1 X110.595 Y94.841 E18.78252
G1 X110.917 Y95.562 E18.82192
G1 X111.436 Y97.151 E18.90532
G1 X111.603 Y97.934 E18.94526
G1 X111.778 Y99.602 E19.02893
G1 X111.778 Y100.395 E19.06849
G1 X111.603 Y102.065 E19.15227
G1 X111.436 Y102.848 E19.19221
G1 X111.154 Y103.712 E19.23755
G1 X111.553 Y103.797 E19.25791
G1 X113.143 Y104.316 E19.34135
G1 X113.867 Y104.639 E19.3809
G1 X115.307 Y105.472 E19.4639
G1 X115.945 Y105.935 E19.50323
G1 X117.194 Y107.058 E19.58702
G1 X117.607 Y107.494 E19.61699
G1 X118.128 Y108.138 E19.65831
G1 X118.464 Y108.627 E19.68791
G1 X119.3 Y110.074 E19.77129
G1 X119.622 Y110.795 E19.81068
G1 X120.141 Y112.384 E19.89408
G1 X120.308 Y113.167 E19.93402
G1 X120.483 Y114.835 E20.01769
G1 X120.483 Y115.628 E20.05726
G1 X120.308 Y117.299 E20.14108
G1 X120.142 Y118.081 E20.18096
G1 X119.624 Y119.669 E20.2643
G1 X119.396 Y120.218 E20.29396
G1 X119.019 Y120.957 E20.33534
G1 X118.71 Y121.461 E20.36484
G1 X117.737 Y122.803 E20.44754
G1 X117.209 Y123.391 E20.48696
G1 X115.958 Y124.522 E20.5711
G1 X115.312 Y124.993 E20.61099
G1 X113.866 Y125.829 E20.69432
G1 X113.143 Y126.151 E20.7338
G1 X111.553 Y126.67 E20.81725
G1 X110.77 Y126.837 E20.85719
G1 X109.101 Y127.012 E20.94091
G1 X108.309 Y127.012 E20.98043
G1 X106.639 Y126.837 E21.0642
G1 X105.855 Y126.67 E21.10419
G1 X104.266 Y126.151 E21.18759
G1 X103.545 Y125.829 E21.22698
G1 X102.098 Y124.993 E21.31036
G1 X101.457 Y124.528 E21.34987
G1 X100.22 Y123.415 E21.43288
G1 X99.806 Y122.978 E21.46292
G1 X99.28 Y122.327 E21.50467
G1 X98.947 Y121.842 E21.53402
G1 X98.109 Y120.394 E21.61749
G1 X97.785 Y119.667 E21.6572
G1 X97.268 Y118.079 E21.74052
G1 X97.102 Y117.299 E21.7803
G1 X96.927 Y115.63 E21.86403
G1 X96.927 Y114.838 E21.90354
G1 X97.102 Y113.168 E21.98731
G1 X97.268 Y112.387 E22.02715
G1 X97.55 Y111.521 E22.07258
G1 X97.151 Y111.436 E22.09294
G1 X95.562 Y110.917 E22.17633
G1 X94.841 Y110.595 E22.21573
G1 X93.394 Y109.759 E22.2991
G1 X92.904 Y109.423 E22.32874
G1 X92.253 Y108.896 E22.37053
G1 X91.819 Y108.484 E22.40039
G1 X90.706 Y107.247 E22.4834
G1 X90.241 Y106.606 E22.52291
G1 X89.404 Y105.157 E22.6064
G1 X89.082 Y104.435 E22.64584
G1 X88.564 Y102.848 E22.72912
G1 X88.397 Y102.066 E22.76902
G1 X88.222 Y100.398 E22.85269
G1 X88.222 Y99.605 E22.89225
G1 X88.397 Y97.935 E22.97603
G1 X88.564 Y97.152 E23.01597
G1 X89.082 Y95.565 E23.09926
G1 X89.403 Y94.844 E23.13863
G1 X90.236 Y93.401 E23.22176
G1 X90.573 Y92.911 E23.25143
G1 X91.09 Y92.272 E23.29243
G1 X91.496 Y91.843 E23.3219
G0 F1800 X91.764 Y92.14
G1 F1200 X93.015 Y91.009 E23.40604
G1 X93.594 Y90.587 E23.44179
G1 X95.041 Y89.751 E23.52516
G1 X95.686 Y89.463 E23.5604
G1 X97.275 Y88.944 E23.6438
G1 X97.976 Y88.795 E23.67955
G1 X99.645 Y88.62 E23.76327
G1 X100.355 Y88.62 E23.7987
G1 X102.024 Y88.795 E23.88242
G1 X102.725 Y88.944 E23.91817
G1 X104.314 Y89.463 E24.00157
G1 X104.959 Y89.751 E24.03681
G1 X106.406 Y90.587 E24.12019
G1 X106.844 Y90.888 E24.1467
G1 X107.495 Y91.415 E24.18849
