;FLAVOR:RepRap
;TIME:5734
;Filament used: 5.32976m
;Layer height: 0.15
;Generated with Cura_SteamEngine 2.5.0-BETA
M190 S55
M104 S210
M109 S210
G21 ;metric values
G90 ;absolute positioning
M82 ;set extruder to absolute mode
M107 ;start with the fan off
;G28 X0 Y0 ;move X/Y to min endstops
;G28 Z0 ;move Z to min endstops
;G1 Z15.0 F9000 ;move the platform down 15mm
G92 E0 ;zero the extruded length
G1 F200 E3 ;extrude 3mm of feed stock
G92 E0 ;zero the extruded length again
G1 F9000
;Put printing message on LCD screen
M117 Printing...
;LAYER_COUNT:106
;LAYER:0
M107
G0 F1800 X77.742 Y50.768 Z0.3
;TYPE:SKIRT
G1 F1200 X78.239 Y50.188 E0.03811
G1 X78.463 Y49.964 E0.05391
G1 X78.938 Y49.547 E0.08545
G1 X79.461 Y49.192 E0.11698
G1 X80.025 Y48.906 E0.14853
G1 X80.62 Y48.694 E0.18004
G1 X81.238 Y48.558 E0.21161
G1 X81.999 Y48.5 E0.24969
G1 X83.202 Y48.5 E0.30971
G1 X83.833 Y48.54 E0.34125
G1 X84.454 Y48.659 E0.3728
G1 X85.054 Y48.856 E0.4043
G1 X85.626 Y49.127 E0.43588
G1 X86.158 Y49.467 E0.46738
G1 X86.738 Y49.965 E0.50552
G1 X92.536 Y55.764 E0.91463
G1 X92.954 Y56.238 E0.94616
G1 X93.308 Y56.761 E0.97767
G1 X93.594 Y57.325 E1.00922
G1 X93.806 Y57.921 E1.04078
G1 X93.942 Y58.538 E1.0723
G1 X94 Y59.299 E1.11038
G1 X94 Y64.16 E1.35289
G1 X95.887 Y67.429 E1.54121
G1 X98.113 Y67.429 E1.65226
G1 X100.668 Y63.001 E1.90731
G1 X101.018 Y62.475 E1.93884
G1 X101.432 Y61.997 E1.97038
G1 X101.902 Y61.574 E2.00193
G1 X102.422 Y61.215 E2.03346
G1 X102.983 Y60.924 E2.06499
G1 X103.577 Y60.706 E2.09655
G1 X104.193 Y60.565 E2.12808
G1 X104.999 Y60.5 E2.16842
G1 X114.001 Y60.5 E2.61753
G1 X114.632 Y60.54 E2.64908
G1 X115.253 Y60.659 E2.68062
G1 X115.853 Y60.856 E2.71213
G1 X116.425 Y61.127 E2.74371
G1 X116.957 Y61.467 E2.77521
G1 X117.537 Y61.964 E2.81331
G1 X122.536 Y66.963 E3.16602
G1 X122.953 Y67.438 E3.19755
G1 X123.308 Y67.961 E3.22909
G1 X123.594 Y68.525 E3.26064
G1 X123.806 Y69.12 E3.29215
G1 X123.942 Y69.738 E3.32372
G1 X124 Y70.499 E3.3618
G1 X124 Y93.501 E4.50937
G1 X123.96 Y94.132 E4.54092
G1 X123.841 Y94.753 E4.57246
G1 X123.644 Y95.353 E4.60397
G1 X123.373 Y95.925 E4.63555
G1 X123.033 Y96.457 E4.66704
G1 X122.536 Y97.037 E4.70515
G1 X119.573 Y100 E4.91421
G1 X122.536 Y102.963 E5.12326
G1 X122.953 Y103.438 E5.1548
G1 X123.308 Y103.961 E5.18633
G1 X123.594 Y104.525 E5.21788
G1 X123.806 Y105.12 E5.24939
G1 X123.942 Y105.738 E5.28096
G1 X124 Y106.499 E5.31904
G1 X124 Y129.501 E6.46662
G1 X123.96 Y130.132 E6.49816
G1 X123.841 Y130.753 E6.5297
G1 X123.644 Y131.353 E6.56121
G1 X123.373 Y131.925 E6.59279
G1 X123.033 Y132.457 E6.62429
G1 X122.536 Y133.037 E6.66239
G1 X117.537 Y138.036 E7.0151
G1 X117.062 Y138.453 E7.04664
G1 X116.539 Y138.808 E7.07817
G1 X115.975 Y139.094 E7.10972
G1 X115.38 Y139.306 E7.14123
G1 X114.762 Y139.442 E7.1728
G1 X114.001 Y139.5 E7.21088
G1 X104.999 Y139.5 E7.65999
G1 X104.368 Y139.46 E7.69153
G1 X103.747 Y139.341 E7.72308
G1 X103.147 Y139.144 E7.75459
G1 X102.575 Y138.873 E7.78616
G1 X102.043 Y138.533 E7.81766
G1 X101.558 Y138.127 E7.84922
G1 X101.128 Y137.664 E7.88074
G1 X100.668 Y136.999 E7.92108
G1 X98.113 Y132.571 E8.17614
G1 X95.886 Y132.571 E8.28724
G1 X94 Y135.838 E8.47544
G1 X94 Y140.701 E8.71806
G1 X93.96 Y141.332 E8.7496
G1 X93.841 Y141.953 E8.78115
G1 X93.644 Y142.553 E8.81265
G1 X93.373 Y143.125 E8.84423
G1 X93.033 Y143.657 E8.87573
G1 X92.536 Y144.236 E8.9138
G1 X86.738 Y150.035 E9.32292
G1 X86.264 Y150.453 E9.35445
G1 X85.74 Y150.808 E9.38602
G1 X85.176 Y151.094 E9.41757
G1 X84.581 Y151.306 E9.44908
G1 X83.964 Y151.442 E9.48061
G1 X83.202 Y151.5 E9.51873
G1 X81.999 Y151.5 E9.57875
G1 X81.368 Y151.46 E9.61029
G1 X80.747 Y151.341 E9.64184
G1 X80.147 Y151.144 E9.67335
G1 X79.575 Y150.873 E9.70492
G1 X79.043 Y150.533 E9.73642
G1 X78.463 Y150.036 E9.77453
G1 X78.238 Y149.811 E9.7904
G1 X77.821 Y149.336 E9.82194
G1 X77.466 Y148.813 E9.85347
G1 X77.18 Y148.249 E9.88502
G1 X76.968 Y147.654 E9.91654
G1 X76.832 Y147.036 E9.94811
G1 X76.774 Y146.275 E9.98618
G1 X76.775 Y110.177 E11.78712
G1 X76.815 Y109.546 E11.81866
G1 X76.934 Y108.925 E11.85021
G1 X77.131 Y108.324 E11.88176
G1 X77.402 Y107.753 E11.9133
G1 X77.693 Y107.29 E11.94058
G1 X82.849 Y100 E12.38605
G1 X77.693 Y92.71 E12.83152
G1 X77.361 Y92.172 E12.86307
G1 X77.1 Y91.596 E12.89461
G1 X76.914 Y90.992 E12.92614
G1 X76.805 Y90.37 E12.95765
G1 X76.775 Y89.823 E12.98498
G1 X76.775 Y53.724 E14.78597
G1 X76.815 Y53.093 E14.81751
G1 X76.934 Y52.472 E14.84906
G1 X77.131 Y51.872 E14.88056
G1 X77.402 Y51.3 E14.91214
G1 X77.742 Y50.768 E14.94364
G0 F1800 X78.14 Y50.905
G1 F1200 X78.522 Y50.471 E14.97248
G1 X78.746 Y50.247 E14.98829
G1 X79.202 Y49.848 E15.01852
G1 X79.707 Y49.512 E15.04878
G1 X80.251 Y49.245 E15.07901
G1 X80.826 Y49.052 E15.10927
G1 X81.421 Y48.936 E15.13952
G1 X81.999 Y48.9 E15.16841
G1 X83.202 Y48.9 E15.22843
G1 X83.807 Y48.94 E15.25868
G1 X84.401 Y49.059 E15.2889
G1 X84.975 Y49.255 E15.31916
G1 X85.518 Y49.526 E15.34944
G1 X86.021 Y49.865 E15.3797
G1 X86.455 Y50.248 E15.40858
G1 X92.253 Y56.047 E15.81769
G1 X92.652 Y56.503 E15.84792
G1 X92.989 Y57.007 E15.87817
G1 X93.255 Y57.552 E15.90843
G1 X93.448 Y58.127 E15.93868
G1 X93.564 Y58.722 E15.96893
G1 X93.6 Y59.299 E15.99777
G1 X93.6 Y64.268 E16.24568
G1 X95.655 Y67.829 E16.45079
G1 X98.345 Y67.829 E16.585
G1 X101.015 Y63.201 E16.85156
G1 X101.352 Y62.697 E16.88181
G1 X101.752 Y62.242 E16.91203
G1 X102.209 Y61.843 E16.9423
G1 X102.714 Y61.508 E16.97253
G1 X103.259 Y61.242 E17.00279
G1 X103.834 Y61.05 E17.03303
G1 X104.429 Y60.935 E17.06327
G1 X104.999 Y60.9 E17.09176
G1 X114.001 Y60.9 E17.54087
G1 X114.606 Y60.94 E17.57112
G1 X115.2 Y61.059 E17.60134
G1 X115.774 Y61.255 E17.6316
G1 X116.317 Y61.526 E17.66188
G1 X116.82 Y61.865 E17.69214
G1 X117.254 Y62.247 E17.72099
G1 X122.253 Y67.246 E18.0737
G1 X122.652 Y67.702 E18.10392
G1 X122.988 Y68.207 E18.13419
G1 X123.255 Y68.751 E18.16442
G1 X123.448 Y69.326 E18.19468
G1 X123.564 Y69.921 E18.22492
G1 X123.6 Y70.499 E18.25381
G1 X123.6 Y93.501 E19.40139
G1 X123.56 Y94.106 E19.43164
G1 X123.441 Y94.7 E19.46186
G1 X123.245 Y95.274 E19.49212
G1 X122.974 Y95.817 E19.5224
G1 X122.635 Y96.32 E19.55266
G1 X122.253 Y96.754 E19.58151
G1 X119.007 Y100 E19.81053
G1 X122.253 Y103.246 E20.03955
G1 X122.652 Y103.702 E20.06978
G1 X122.988 Y104.207 E20.10004
G1 X123.255 Y104.751 E20.13028
G1 X123.448 Y105.326 E20.16054
G1 X123.564 Y105.921 E20.19078
G1 X123.6 Y106.499 E20.21967
G1 X123.6 Y129.501 E21.36725
G1 X123.56 Y130.106 E21.3975
G1 X123.441 Y130.7 E21.42772
G1 X123.245 Y131.274 E21.45798
G1 X122.974 Y131.817 E21.48826
G1 X122.635 Y132.32 E21.51852
G1 X122.253 Y132.754 E21.54736
G1 X117.254 Y137.753 E21.90007
G1 X116.798 Y138.152 E21.9303
G1 X116.293 Y138.488 E21.96056
G1 X115.749 Y138.755 E21.99079
G1 X115.174 Y138.948 E22.02105
G1 X114.579 Y139.064 E22.0513
G1 X114.001 Y139.1 E22.08019
G1 X104.999 Y139.1 E22.5293
G1 X104.394 Y139.06 E22.55955
G1 X103.8 Y138.941 E22.58977
G1 X103.226 Y138.745 E22.62004
G1 X102.683 Y138.474 E22.65031
G1 X102.18 Y138.135 E22.68057
G1 X101.727 Y137.733 E22.71079
G1 X101.33 Y137.275 E22.74103
G1 X101.015 Y136.799 E22.76951
G1 X98.345 Y132.171 E23.03607
G1 X95.655 Y132.171 E23.17027
G1 X93.6 Y135.732 E23.37539
G1 X93.6 Y140.701 E23.6233
G1 X93.56 Y141.306 E23.65355
G1 X93.441 Y141.9 E23.68377
G1 X93.245 Y142.474 E23.71403
G1 X92.974 Y143.017 E23.74431
G1 X92.635 Y143.52 E23.77457
G1 X92.253 Y143.953 E23.80338
G1 X86.455 Y149.752 E24.21249
G1 X85.999 Y150.152 E24.24275
G1 X85.494 Y150.488 E24.27302
G1 X84.95 Y150.755 E24.30325
G1 X84.375 Y150.948 E24.33351
G1 X83.78 Y151.064 E24.36375
G1 X83.202 Y151.1 E24.39264
G1 X81.999 Y151.1 E24.45266
G1 X81.394 Y151.06 E24.48291
G1 X80.8 Y150.941 E24.51314
G1 X80.226 Y150.745 E24.5434
G1 X79.683 Y150.474 E24.57367
G1 X79.18 Y150.135 E24.60393
G1 X78.746 Y149.753 E24.63278
G1 X78.521 Y149.528 E24.64865
G1 X78.122 Y149.072 E24.67888
G1 X77.786 Y148.567 E24.70915
G1 X77.519 Y148.023 E24.73938
G1 X77.326 Y147.448 E24.76964
G1 X77.21 Y146.853 E24.79988
G1 X77.174 Y146.275 E24.82877
G1 X77.175 Y110.177 E26.62971
G1 X77.215 Y109.572 E26.65996
G1 X77.334 Y108.977 E26.69023
G1 X77.531 Y108.404 E26.72046
G1 X77.801 Y107.861 E26.75072
G1 X78.019 Y107.521 E26.77087
G1 X83.338 Y100 E27.23044
G1 X78.019 Y92.479 E27.69002
G1 X77.703 Y91.962 E27.72025
G1 X77.457 Y91.408 E27.75049
G1 X77.286 Y90.826 E27.78076
G1 X77.193 Y90.227 E27.811
G1 X77.175 Y89.823 E27.83118
G1 X77.175 Y53.724 E29.63216
G1 X77.215 Y53.119 E29.66241
G1 X77.334 Y52.525 E29.69264
G1 X77.53 Y51.951 E29.7229
G1 X77.801 Y51.408 E29.75317
G1 X78.14 Y50.905 E29.78343
G0 F1800 X78.805 Y50.754
G1 F1200 X79.029 Y50.53 E29.79924
G1 X79.466 Y50.15 E29.82813
G1 X79.951 Y49.833 E29.85704
G1 X80.475 Y49.586 E29.88594
G1 X81.028 Y49.414 E29.91483
G1 X81.6 Y49.319 E29.94376
G1 X81.999 Y49.3 E29.96369
G1 X83.202 Y49.3 E30.02371
G1 X83.78 Y49.34 E30.05261
G1 X84.347 Y49.459 E30.08152
G1 X84.892 Y49.655 E30.11041
G1 X85.405 Y49.924 E30.13931
G1 X85.876 Y50.261 E30.1682
G1 X86.172 Y50.53 E30.18816
G1 X91.97 Y56.329 E30.59727
G1 X92.35 Y56.766 E30.62617
G1 X92.667 Y57.251 E30.65507
G1 X92.914 Y57.776 E30.68402
G1 X93.086 Y58.329 E30.71291
G1 X93.181 Y58.9 E30.74179
G1 X93.2 Y59.299 E30.76172
G1 X93.2 Y64.375 E31.01496
G1 X95.424 Y68.229 E31.23696
G1 X98.575 Y68.229 E31.39416
G1 X101.361 Y63.401 E31.67226
G1 X101.685 Y62.92 E31.70119
G1 X102.071 Y62.489 E31.73006
G1 X102.513 Y62.115 E31.75894
G1 X103.003 Y61.805 E31.78787
G1 X103.53 Y61.565 E31.81676
G1 X104.086 Y61.401 E31.84568
G1 X104.658 Y61.314 E31.87455
G1 X104.999 Y61.3 E31.89157
G1 X114.001 Y61.3 E32.34069
G1 X114.579 Y61.34 E32.36959
G1 X115.146 Y61.459 E32.3985
G1 X115.691 Y61.655 E32.42739
G1 X116.204 Y61.924 E32.45629
G1 X116.675 Y62.261 E32.48518
G1 X116.971 Y62.53 E32.50514
G1 X121.97 Y67.529 E32.85784
G1 X122.35 Y67.966 E32.88674
G1 X122.667 Y68.451 E32.91564
G1 X122.914 Y68.975 E32.94454
G1 X123.086 Y69.528 E32.97344
G1 X123.181 Y70.1 E33.00236
G1 X123.2 Y70.499 E33.02229
G1 X123.2 Y93.501 E34.16987
G1 X123.16 Y94.079 E34.19877
G1 X123.041 Y94.646 E34.22768
G1 X122.845 Y95.191 E34.25657
G1 X122.576 Y95.704 E34.28547
G1 X122.239 Y96.175 E34.31437
G1 X121.97 Y96.471 E34.33432
G1 X118.441 Y100 E34.58331
G1 X121.97 Y103.529 E34.8323
G1 X122.35 Y103.966 E34.86119
G1 X122.667 Y104.451 E34.8901
G1 X122.914 Y104.975 E34.919
G1 X123.086 Y105.528 E34.94789
G1 X123.181 Y106.1 E34.97682
G1 X123.2 Y106.499 E34.99675
G1 X123.2 Y129.501 E36.14432
G1 X123.16 Y130.079 E36.17323
G1 X123.041 Y130.646 E36.20213
G1 X122.845 Y131.191 E36.23103
G1 X122.576 Y131.704 E36.25993
G1 X122.239 Y132.175 E36.28882
G1 X121.97 Y132.471 E36.30878
G1 X116.971 Y137.47 E36.66148
G1 X116.534 Y137.85 E36.69037
G1 X116.049 Y138.167 E36.71928
G1 X115.525 Y138.414 E36.74818
G1 X114.972 Y138.586 E36.77708
G1 X114.4 Y138.681 E36.806
G1 X114.001 Y138.7 E36.82593
G1 X104.999 Y138.7 E37.27504
G1 X104.421 Y138.66 E37.30395
G1 X103.854 Y138.541 E37.33285
G1 X103.309 Y138.345 E37.36175
G1 X102.796 Y138.076 E37.39065
G1 X102.325 Y137.739 E37.41954
G1 X101.905 Y137.34 E37.44844
G1 X101.543 Y136.887 E37.47737
G1 X101.361 Y136.599 E37.49437
G1 X98.575 Y131.771 E37.77247
G1 X95.425 Y131.771 E37.92962
G1 X93.2 Y135.625 E38.15164
G1 X93.2 Y140.701 E38.40488
G1 X93.16 Y141.279 E38.43379
G1 X93.041 Y141.846 E38.46269
G1 X92.845 Y142.391 E38.49159
G1 X92.576 Y142.904 E38.52049
G1 X92.239 Y143.375 E38.54938
G1 X91.97 Y143.671 E38.56933
G1 X86.172 Y149.47 E38.97845
G1 X85.735 Y149.85 E39.00734
G1 X85.25 Y150.167 E39.03625
G1 X84.726 Y150.414 E39.06515
G1 X84.173 Y150.586 E39.09404
G1 X83.602 Y150.681 E39.12292
G1 X83.202 Y150.7 E39.1429
G1 X81.999 Y150.7 E39.20292
G1 X81.421 Y150.66 E39.23182
G1 X80.854 Y150.541 E39.26073
G1 X80.309 Y150.345 E39.28962
G1 X79.796 Y150.076 E39.31852
G1 X79.325 Y149.739 E39.34742
G1 X79.029 Y149.47 E39.36737
G1 X78.804 Y149.245 E39.38325
G1 X78.424 Y148.808 E39.41214
G1 X78.107 Y148.323 E39.44104
G1 X77.86 Y147.799 E39.46995
G1 X77.688 Y147.246 E39.49884
G1 X77.593 Y146.674 E39.52777
G1 X77.574 Y146.275 E39.54769
G1 X77.575 Y110.177 E41.34863
G1 X77.615 Y109.599 E41.37754
G1 X77.734 Y109.032 E41.40644
G1 X77.93 Y108.487 E41.43534
G1 X78.346 Y107.752 E41.47747
G1 X83.829 Y100 E41.95118
G1 X78.346 Y92.248 E42.4249
G1 X78.045 Y91.753 E42.4538
G1 X77.815 Y91.222 E42.48267
G1 X77.66 Y90.663 E42.51161
G1 X77.575 Y89.823 E42.55373
G1 X77.575 Y53.724 E44.35472
G1 X77.615 Y53.146 E44.38362
G1 X77.734 Y52.579 E44.41253
G1 X77.93 Y52.034 E44.44142
G1 X78.199 Y51.521 E44.47032
G1 X78.536 Y51.05 E44.49921
G1 X78.805 Y50.754 E44.51917
G0 F1800 X79.312 Y50.813
G1 F1200 X79.729 Y50.453 E44.54665
G1 X80.193 Y50.156 E44.57414
G1 X80.696 Y49.93 E44.60165
G1 X81.226 Y49.779 E44.62914
G1 X81.999 Y49.7 E44.66791
G1 X83.202 Y49.7 E44.72793
G1 X83.752 Y49.74 E44.75544
G1 X84.29 Y49.859 E44.78293
G1 X84.805 Y50.055 E44.81042
G1 X85.286 Y50.323 E44.83789
G1 X85.889 Y50.813 E44.87666
G1 X91.687 Y56.612 E45.28577
G1 X92.048 Y57.029 E45.31329
G1 X92.344 Y57.494 E45.34079
G1 X92.57 Y57.996 E45.36826
G1 X92.721 Y58.526 E45.39575
G1 X92.8 Y59.299 E45.43452
G1 X92.8 Y64.483 E45.69315
G1 X95.193 Y68.629 E45.93197
G1 X98.807 Y68.629 E46.11228
G1 X101.708 Y63.601 E46.40188
G1 X102.017 Y63.145 E46.42936
G1 X102.389 Y62.738 E46.45687
G1 X102.816 Y62.39 E46.48435
G1 X103.288 Y62.107 E46.51181
G1 X103.797 Y61.895 E46.53932
G1 X104.331 Y61.759 E46.56681
G1 X104.999 Y61.7 E46.60027
G1 X114.001 Y61.7 E47.04938
G1 X114.551 Y61.74 E47.07689
G1 X115.089 Y61.859 E47.10438
G1 X115.604 Y62.055 E47.13187
G1 X116.085 Y62.323 E47.15934
G1 X116.688 Y62.813 E47.19811
G1 X121.687 Y67.812 E47.55081
G1 X122.047 Y68.229 E47.5783
G1 X122.344 Y68.693 E47.60578
G1 X122.57 Y69.196 E47.63329
G1 X122.721 Y69.726 E47.66079
G1 X122.8 Y70.499 E47.69955
G1 X122.8 Y93.501 E48.84713
G1 X122.76 Y94.051 E48.87464
G1 X122.641 Y94.589 E48.90213
G1 X122.445 Y95.104 E48.92962
G1 X122.177 Y95.585 E48.95709
G1 X121.687 Y96.188 E48.99586
G1 X117.875 Y100 E49.26481
G1 X121.687 Y103.812 E49.53377
G1 X122.047 Y104.229 E49.56126
G1 X122.344 Y104.693 E49.58874
G1 X122.57 Y105.196 E49.61625
G1 X122.721 Y105.726 E49.64375
G1 X122.8 Y106.499 E49.68251
G1 X122.8 Y129.501 E50.83009
G1 X122.76 Y130.051 E50.8576
G1 X122.641 Y130.589 E50.88509
G1 X122.445 Y131.104 E50.91258
G1 X122.177 Y131.585 E50.94005
G1 X121.687 Y132.188 E50.97881
G1 X116.688 Y137.187 E51.33152
G1 X116.271 Y137.547 E51.35901
G1 X115.807 Y137.844 E51.38649
G1 X115.304 Y138.07 E51.414
G1 X114.774 Y138.221 E51.4415
G1 X114.001 Y138.3 E51.48026
G1 X104.999 Y138.3 E51.92937
G1 X104.449 Y138.26 E51.95689
G1 X103.911 Y138.141 E51.98438
G1 X103.396 Y137.945 E52.01187
G1 X102.915 Y137.677 E52.03934
G1 X102.477 Y137.343 E52.06682
G1 X102.093 Y136.948 E52.0943
G1 X101.708 Y136.399 E52.12776
G1 X98.807 Y131.371 E52.41736
G1 X95.193 Y131.371 E52.59766
G1 X92.8 Y135.517 E52.83649
G1 X92.8 Y140.701 E53.09512
G1 X92.76 Y141.251 E53.12263
G1 X92.641 Y141.789 E53.15012
G1 X92.445 Y142.304 E53.17761
G1 X92.177 Y142.785 E53.20509
G1 X91.687 Y143.388 E53.24385
G1 X85.889 Y149.187 E53.65297
G1 X85.472 Y149.547 E53.68045
G1 X85.008 Y149.843 E53.70791
G1 X84.505 Y150.069 E53.73542
G1 X83.975 Y150.22 E53.76291
G1 X83.202 Y150.3 E53.80168
G1 X81.999 Y150.3 E53.8617
G1 X81.449 Y150.26 E53.88921
G1 X80.911 Y150.141 E53.9167
G1 X80.396 Y149.945 E53.9442
G1 X79.915 Y149.677 E53.97167
G1 X79.312 Y149.187 E54.01043
G1 X79.087 Y148.962 E54.02631
G1 X78.727 Y148.545 E54.05379
G1 X78.43 Y148.081 E54.08127
G1 X78.204 Y147.578 E54.10879
G1 X78.053 Y147.048 E54.13628
G1 X77.974 Y146.275 E54.17505
G1 X77.975 Y110.177 E55.97598
G1 X78.015 Y109.627 E56.00349
G1 X78.134 Y109.089 E56.03098
G1 X78.33 Y108.574 E56.05848
G1 X78.673 Y107.983 E56.09257
G1 X84.319 Y100 E56.58038
G1 X78.673 Y92.017 E57.0682
G1 X78.388 Y91.546 E57.09567
G1 X78.174 Y91.038 E57.12317
G1 X78.037 Y90.504 E57.15067
G1 X77.975 Y89.823 E57.18479
G1 X77.975 Y53.724 E58.98577
G1 X78.015 Y53.174 E59.01329
G1 X78.134 Y52.636 E59.04078
G1 X78.33 Y52.121 E59.06827
G1 X78.598 Y51.64 E59.09574
G1 X79.088 Y51.037 E59.1345
G1 X79.312 Y50.813 E59.15031
G0 F1800 X79.595 Y51.096
