;Generated from ARDUINO-WASHER.stl a85e274088de1f3122a96b2937b4d8e0b0e7faa4
;Generated with Cura_SteamEngine 15.04
M140 S55.0
M109 T0 S210.0
T0
M190 S55.0

;Basic settings: Layer height: 0.2 Walls: 1.2 Fill: 20
;Print time: ?print_time?
;Filament used: ?filament_amount?m ?filament_weight?g
;Filament cost: ?filament_cost?
;M190 S55 ;Uncomment to add your own bed temperature line
;M109 S210 ;Uncomment to add your own temperature line
G21        ;metric values
G90        ;absolute positioning
M82        ;set extruder to absolute mode
M107       ;start with the fan off
G28 X0 Y0  ;move X/Y to min endstops
G28 Z0     ;move Z to min endstops
G1 Z5.0 F9000 ;move the platform down 15mm
G92 E0                  ;zero the extruded length
G1 F200 E3              ;extrude 3mm of feed stock
G92 E0                  ;zero the extruded length again
G1 F9000
;Put printing message on LCD screen
M117 Printing...

;Layer count: 17
;LAYER:0
M107
G0 F9000 X95.004 Y93.735 Z0.300
;TYPE:SKIRT
G1 F1200 X98.218 Y92.188 E0.17795
G1 X101.782 Y92.188 E0.35576
G1 X104.996 Y93.735 E0.53372
G1 X107.219 Y96.524 E0.71165
G1 X108.013 Y100.000 E0.88954
G1 X107.219 Y103.476 E1.06742
G1 X104.996 Y106.265 E1.24536
G1 X101.782 Y107.812 E1.42332
G1 X98.218 Y107.812 E1.60112
G1 X95.004 Y106.265 E1.77908
G1 X92.781 Y103.476 E1.95701
G1 X91.987 Y100.000 E2.13490
G1 X92.781 Y96.524 E2.31278
G1 X95.004 Y93.735 E2.49072
G0 F9000 X95.260 Y94.056
G1 F1200 X98.309 Y92.588 E2.65955
G1 X101.691 Y92.588 E2.82828
G1 X104.740 Y94.056 E2.99711
G1 X106.849 Y96.702 E3.16592
G1 X107.603 Y100.000 E3.33470
G1 X106.849 Y103.298 E3.50348
G1 X104.740 Y105.944 E3.67230
G1 X101.691 Y107.412 E3.84112
G1 X98.309 Y107.412 E4.00985
G1 X95.260 Y105.944 E4.17868
G1 X93.151 Y103.298 E4.34749
G1 X92.397 Y100.000 E4.51628
G1 X93.151 Y96.702 E4.68506
G1 X95.260 Y94.056 E4.85387
G0 F9000 X95.516 Y94.377
G1 F1200 X98.400 Y92.988 E5.01357
G1 X101.600 Y92.988 E5.17322
G1 X104.484 Y94.377 E5.33292
G1 X106.480 Y96.880 E5.49264
G1 X107.193 Y100.000 E5.65231
G1 X106.480 Y103.120 E5.81198
G1 X104.484 Y105.623 E5.97170
G1 X101.600 Y107.012 E6.13140
G1 X98.400 Y107.012 E6.29105
G1 X95.516 Y105.623 E6.45075
G1 X93.520 Y103.120 E6.61047
G1 X92.807 Y100.000 E6.77014
G1 X93.520 Y96.880 E6.92981
G1 X95.516 Y94.377 E7.08953
G0 F9000 X95.771 Y94.698
G1 F1200 X98.492 Y93.388 E7.24020
G1 X101.508 Y93.388 E7.39066
G1 X104.229 Y94.698 E7.54133
G1 X106.110 Y97.058 E7.69189
G1 X106.783 Y100.000 E7.84246
G1 X106.110 Y102.942 E7.99303
G1 X104.229 Y105.302 E8.14359
G1 X101.508 Y106.612 E8.29426
G1 X98.492 Y106.612 E8.44473
G1 X95.771 Y105.302 E8.59539
G1 X93.890 Y102.942 E8.74596
G1 X93.217 Y100.000 E8.89652
G1 X93.890 Y97.058 E9.04709
G1 X95.771 Y94.698 E9.19766
G1 F2400 E4.69766
G0 F9000 X98.201 Y97.746
;TYPE:WALL-INNER
G1 F2400 E9.19766
G1 F1200 X99.359 Y97.188 E9.26179
G1 X100.641 Y97.188 E9.32575
G1 X101.799 Y97.746 E9.38988
G1 X102.598 Y98.748 E9.45381
G1 X102.884 Y100.000 E9.51789
G1 X102.598 Y101.252 E9.58196
G1 X101.799 Y102.254 E9.64589
G1 X100.641 Y102.812 E9.71002
G1 X99.359 Y102.812 E9.77398
G1 X98.201 Y102.254 E9.83811
G1 X97.402 Y101.252 E9.90205
G1 X97.116 Y100.000 E9.96612
G1 X97.402 Y98.748 E10.03019
G1 X98.201 Y97.746 E10.09413
G0 F9000 X98.280 Y98.451
G1 F1200 X98.074 Y98.604 E10.10693
G1 X97.702 Y99.748 E10.16695
G1 X97.618 Y99.996 E10.18001
G1 X97.996 Y101.158 E10.24098
G1 X98.078 Y101.401 E10.25377
G1 X99.057 Y102.113 E10.31416
G1 X99.262 Y102.264 E10.32687
G1 X100.735 Y102.264 E10.40036
G1 X101.720 Y101.549 E10.46108
G1 X101.926 Y101.396 E10.47388
G1 X102.298 Y100.252 E10.53390
G1 X102.382 Y100.004 E10.54696
G1 X102.004 Y98.842 E10.60792
G1 X101.922 Y98.599 E10.62072
G1 X100.943 Y97.887 E10.68111
G1 X100.738 Y97.736 E10.69381
G1 X99.265 Y97.736 E10.76730
G1 X98.280 Y98.451 E10.82803
G0 F9000 X98.517 Y98.774
;TYPE:WALL-OUTER
G1 F1200 X98.415 Y98.849 E10.83434
G1 X98.081 Y99.877 E10.88827
G1 X98.039 Y99.999 E10.89471
G1 X98.375 Y101.032 E10.94890
G1 X98.416 Y101.152 E10.95523
G1 X99.291 Y101.788 E11.00919
G1 X99.394 Y101.864 E11.01558
G1 X100.605 Y101.864 E11.07600
G1 X101.483 Y101.226 E11.13014
G1 X101.585 Y101.151 E11.13646
G1 X101.919 Y100.123 E11.19039
G1 X101.961 Y100.001 E11.19682
G1 X101.625 Y98.968 E11.25102
G1 X101.584 Y98.848 E11.25734
G1 X100.708 Y98.211 E11.31138
G1 X100.606 Y98.136 E11.31770
G1 X99.395 Y98.136 E11.37812
G1 X98.517 Y98.774 E11.43226
G0 F9000 X97.946 Y97.424
G1 F1200 X99.267 Y96.788 E11.50541
G1 X100.733 Y96.788 E11.57855
G1 X102.054 Y97.424 E11.65169
G1 X102.968 Y98.571 E11.72486
G1 X103.295 Y100.000 E11.79800
G1 X102.968 Y101.429 E11.87113
G1 X102.054 Y102.576 E11.94431
G1 X100.733 Y103.212 E12.01745
G1 X99.267 Y103.212 E12.09059
G1 X97.946 Y102.576 E12.16374
G1 X97.032 Y101.429 E12.23691
G1 X96.705 Y100.000 E12.31004
G1 X97.032 Y98.571 E12.38318
G1 X97.946 Y97.424 E12.45635
G0 F9000 X98.223 Y97.940
;TYPE:SKIN
G1 F1200 X98.606 Y98.041 E12.47186
G1 X98.762 Y97.630 E12.48590
G1 X99.215 Y97.518 E12.49602
G1 X99.724 Y97.461 E12.51295
G1 X100.290 Y97.461 E12.53180
G1 X100.706 Y97.595 E12.55361
G0 F9000 X101.373 Y97.696
G1 F1200 X102.390 Y98.713 E12.62536
G0 F9000 X102.241 Y99.130
G1 F1200 X102.574 Y99.745 E12.65275
G1 X102.549 Y100.286 E12.66586
G1 X102.426 Y100.729 E12.68019
G1 X102.385 Y101.253 E12.69697
G1 X101.998 Y101.432 E12.70841
G1 X101.900 Y101.900 E12.71849
G1 X101.392 Y101.957 E12.73392
G1 X101.237 Y102.368 E12.74794
G1 X100.783 Y102.480 E12.75815
G1 X100.274 Y102.537 E12.77520
G1 X99.708 Y102.537 E12.79405
G1 X99.291 Y102.403 E12.81591
G0 F9000 X98.625 Y102.302
G1 F1200 X97.609 Y101.285 E12.88762
G0 F9000 X97.757 Y100.868
G1 F1200 X97.424 Y100.252 E12.91496
G1 X97.449 Y99.712 E12.92797
G1 X97.572 Y99.269 E12.94231
G1 X97.613 Y98.744 E12.95912
G1 X98.000 Y98.565 E12.97061
G1 X97.972 Y98.255 E12.98614
;LAYER:1
M106 S255
G0 F9000 X98.332 Y98.414 Z0.500
;TYPE:WALL-INNER
G1 F900 X98.074 Y98.602 E12.99676
G1 X97.719 Y99.694 E13.03495
G1 X97.619 Y99.999 E13.04563
G1 X97.976 Y101.097 E13.08403
G1 X98.076 Y101.400 E13.09464
G1 X99.006 Y102.076 E13.13288
G1 X99.264 Y102.264 E13.14350
G1 X100.735 Y102.264 E13.19242
G1 X101.668 Y101.586 E13.23078
G1 X101.926 Y101.398 E13.24140
G1 X102.281 Y100.306 E13.27959
G1 X102.381 Y100.001 E13.29027
G1 X102.024 Y98.903 E13.32867
G1 X101.924 Y98.600 E13.33928
G1 X100.994 Y97.924 E13.37752
G1 X100.736 Y97.736 E13.38814
G1 X99.265 Y97.736 E13.43706
G1 X98.332 Y98.414 E13.47542
G0 F9000 X98.201 Y97.746
G1 F900 X99.359 Y97.188 E13.51818
G1 X100.641 Y97.188 E13.56082
G1 X101.799 Y97.746 E13.60357
G1 X102.598 Y98.748 E13.64620
G1 X102.884 Y100.000 E13.68891
G1 X102.598 Y101.252 E13.73162
G1 X101.799 Y102.254 E13.77425
G1 X100.641 Y102.812 E13.81700
G1 X99.359 Y102.812 E13.85964
G1 X98.201 Y102.254 E13.90240
G1 X97.402 Y101.252 E13.94502
G1 X97.116 Y100.000 E13.98774
G1 X97.402 Y98.748 E14.03045
G1 X98.201 Y97.746 E14.07307
G0 F9000 X97.946 Y97.424
;TYPE:WALL-OUTER
G1 F900 X99.267 Y96.788 E14.12184
G1 X100.733 Y96.788 E14.17060
G1 X102.054 Y97.424 E14.21936
G1 X102.968 Y98.571 E14.26814
G1 X103.295 Y100.000 E14.31690
G1 X102.968 Y101.429 E14.36566
G1 X102.054 Y102.576 E14.41444
G1 X100.733 Y103.212 E14.46320
G1 X99.267 Y103.212 E14.51196
G1 X97.946 Y102.576 E14.56072
G1 X97.032 Y101.429 E14.60950
G1 X96.705 Y100.000 E14.65826
G1 X97.032 Y98.571 E14.70702
G1 X97.946 Y97.424 E14.75580
G0 F9000 X98.415 Y98.848
G1 F900 X98.040 Y100.000 E14.79609
G1 X98.415 Y101.152 E14.83639
G1 X99.395 Y101.864 E14.87668
G1 X100.605 Y101.864 E14.91692
G1 X101.585 Y101.152 E14.95721
G1 X101.960 Y100.000 E14.99751
G1 X101.585 Y98.848 E15.03780
G1 X100.605 Y98.136 E15.07809
G1 X99.395 Y98.136 E15.11833
G1 X98.415 Y98.848 E15.15862
G0 F9000 X97.903 Y98.671
;TYPE:SKIN
G1 F900 X97.546 Y99.311 E15.17934
G1 X97.294 Y99.847 E15.19904
G0 F9000 X98.343 Y98.231
G1 F900 X99.116 Y97.459 E15.23538
G0 F9000 X99.545 Y97.595
G1 F900 X99.962 Y97.461 E15.24798
G1 X100.528 Y97.461 E15.26054
G1 X100.941 Y97.613 E15.26794
G1 X101.408 Y97.712 E15.27588
G1 X101.539 Y98.147 E15.28638
G1 X102.012 Y98.239 E15.29503
G1 X102.209 Y98.608 E15.30007
G1 X102.357 Y99.025 E15.31005
G1 X102.480 Y99.469 E15.32054
G1 X102.588 Y99.926 E15.32948
G1 X102.474 Y100.605 E15.34483
G1 X102.123 Y101.240 E15.36896
G0 F9000 X101.440 Y101.923
G1 F900 X100.768 Y102.595 E15.40057
G0 F9000 X100.395 Y102.403
G1 F900 X99.977 Y102.537 E15.41320
G1 X99.411 Y102.537 E15.42576
G1 X99.020 Y102.363 E15.43231
G1 X98.550 Y102.267 E15.44057
G1 X98.425 Y101.826 E15.45135
G1 X97.960 Y101.725 E15.45958
G1 X97.765 Y101.355 E15.46480
G1 X97.627 Y100.927 E15.47531
G1 X97.506 Y100.483 E15.48568
G1 X97.530 Y100.176 E15.49592
;LAYER:2
G0 F9000 X97.737 Y99.637 Z0.700
;TYPE:WALL-INNER
G1 F900 X97.619 Y99.999 E15.50858
G1 X97.957 Y101.037 E15.54489
G1 X98.075 Y101.400 E15.55759
G1 X98.955 Y102.038 E15.59374
G1 X99.264 Y102.264 E15.60647
G1 X100.735 Y102.264 E15.65540
G1 X101.619 Y101.623 E15.69171
G1 X101.926 Y101.398 E15.70437
G1 X102.263 Y100.363 E15.74058
G1 X102.381 Y100.001 E15.75324
G1 X102.043 Y98.963 E15.78955
G1 X101.925 Y98.600 E15.80224
G1 X101.042 Y97.960 E15.83852
G1 X100.736 Y97.736 E15.85113
G1 X99.265 Y97.736 E15.90005
G1 X98.381 Y98.377 E15.93637
G1 X98.074 Y98.602 E15.94903
G1 X97.737 Y99.637 E15.98523
G0 F9000 X97.116 Y100.000
G1 F900 X97.402 Y98.748 E16.02795
G1 X98.201 Y97.746 E16.07057
G1 X99.359 Y97.188 E16.11333
G1 X100.641 Y97.188 E16.15597
G1 X101.799 Y97.746 E16.19872
G1 X102.598 Y98.748 E16.24135
G1 X102.884 Y100.000 E16.28406
G1 X102.598 Y101.252 E16.32677
G1 X101.799 Y102.254 E16.36940
G1 X100.641 Y102.812 E16.41215
G1 X99.359 Y102.812 E16.45479
G1 X98.201 Y102.254 E16.49755
G1 X97.402 Y101.252 E16.54017
G1 X97.116 Y100.000 E16.58289
G0 F9000 X96.705 Y100.000
;TYPE:WALL-OUTER
G1 F900 X97.032 Y98.571 E16.63164
G1 X97.946 Y97.424 E16.68042
G1 X99.267 Y96.788 E16.72919
G1 X100.733 Y96.788 E16.77795
G1 X102.054 Y97.424 E16.82671
G1 X102.968 Y98.571 E16.87549
G1 X103.295 Y100.000 E16.92425
G1 X102.968 Y101.429 E16.97300
G1 X102.054 Y102.576 E17.02178
G1 X100.733 Y103.212 E17.07055
G1 X99.267 Y103.212 E17.11931
G1 X97.946 Y102.576 E17.16807
G1 X97.032 Y101.429 E17.21685
G1 X96.705 Y100.000 E17.26561
G0 F9000 X98.040 Y100.000
G1 F900 X98.415 Y101.152 E17.30590
G1 X99.192 Y101.715 E17.33782
G1 X99.395 Y101.864 E17.34619
G1 X100.605 Y101.864 E17.38644
G1 X101.383 Y101.300 E17.41840
G1 X101.585 Y101.151 E17.42675
G1 X101.960 Y100.000 E17.46701
G1 X101.585 Y98.848 E17.50730
G1 X100.807 Y98.284 E17.53927
G1 X100.605 Y98.136 E17.54759
G1 X99.395 Y98.136 E17.58784
G1 X98.617 Y98.700 E17.61980
G1 X98.415 Y98.849 E17.62815
G1 X98.040 Y100.000 E17.66841
G0 F9000 X97.482 Y100.028
;TYPE:SKIN
G1 F900 X97.450 Y99.713 E17.67723
G1 X97.572 Y99.269 E17.68692
G1 X97.613 Y98.744 E17.69817
G1 X97.999 Y98.564 E17.70582
G1 X98.097 Y98.097 E17.71245
G1 X98.606 Y98.040 E17.72271
G1 X98.762 Y97.630 E17.73205
G1 X99.215 Y97.518 E17.73880
G1 X99.724 Y97.461 E17.75008
G1 X100.290 Y97.461 E17.76265
G1 X100.706 Y97.595 E17.77719
G0 F9000 X101.373 Y97.696
G1 F900 X102.390 Y98.713 E17.82502
G0 F9000 X102.244 Y99.133
G1 F900 X102.573 Y99.744 E17.84314
G1 X102.548 Y100.285 E17.85192
G1 X102.425 Y100.728 E17.86159
G1 X102.385 Y101.253 E17.87285
G1 X101.999 Y101.433 E17.88046
G1 X101.900 Y101.900 E17.88709
G1 X101.392 Y101.957 E17.89738
G1 X101.237 Y102.368 E17.90673
G1 X100.783 Y102.480 E17.91353
G1 X100.274 Y102.537 E17.92490
G1 X99.708 Y102.537 E17.93747
G1 X99.291 Y102.403 E17.95204
G0 F9000 X98.625 Y102.302
G1 F900 X97.609 Y101.285 E17.99985
G0 F9000 X97.754 Y100.865
G1 F900 X97.369 Y100.480 E18.01796
;LAYER:3
G0 F9000 X97.618 Y100.446 Z0.900
;TYPE:FILL
G1 F780 X97.284 Y100.112 E18.03367
G0 F9000 X98.084 Y101.392
G0 X98.895 Y101.869
G0 X98.753 Y102.064
G1 F780 X98.550 Y102.267 E18.04322
G0 F9000 X99.574 Y102.403
G1 F780 X99.842 Y102.671 E18.05582
G0 F9000 X101.916 Y101.392
G0 X102.715 Y99.886
G1 F780 X102.380 Y99.552 E18.07156
G0 F9000 X102.107 Y98.710
G1 F780 X102.263 Y98.555 E18.07887
G0 F9000 X100.424 Y97.595
G1 F780 X100.156 Y97.328 E18.09145
G0 F9000 X100.641 Y97.188
;TYPE:WALL-INNER
G1 F780 X101.799 Y97.746 E18.13421
G1 X102.598 Y98.748 E18.17683
G1 X102.884 Y100.000 E18.21955
G1 X102.598 Y101.252 E18.26226
G1 X101.799 Y102.254 E18.30488
G1 X100.641 Y102.812 E18.34764
G1 X99.359 Y102.812 E18.39028
G1 X98.201 Y102.254 E18.43303
G1 X97.402 Y101.252 E18.47566
G1 X97.116 Y100.000 E18.51837
G1 X97.402 Y98.748 E18.56109
G1 X98.201 Y97.746 E18.60371
G1 X99.359 Y97.188 E18.64646
G1 X100.641 Y97.188 E18.68910
G0 F9000 X101.094 Y97.997
G1 F780 X100.736 Y97.736 E18.70384
G1 X99.265 Y97.736 E18.75276
G1 X98.432 Y98.341 E18.78701
G1 X98.074 Y98.602 E18.80174
G1 X97.756 Y99.579 E18.83592
G1 X97.619 Y99.999 E18.85061
G1 X97.938 Y100.979 E18.88489
G1 X98.075 Y101.399 E18.89958
G1 X98.906 Y102.003 E18.93375
G1 X99.264 Y102.264 E18.94849
G1 X100.735 Y102.264 E18.99741
G1 X101.568 Y101.659 E19.03165
G1 X101.926 Y101.398 E19.04639
G1 X102.244 Y100.421 E19.08056
G1 X102.381 Y100.001 E19.09526
G1 X102.062 Y99.021 E19.12953
G1 X101.925 Y98.601 E19.14423
G1 X101.094 Y97.997 E19.17840
G0 F9000 X100.605 Y98.136
;TYPE:WALL-OUTER
G1 F780 X99.395 Y98.136 E19.21864
G1 X98.415 Y98.848 E19.25893
G1 X98.040 Y100.000 E19.29922
G1 X98.415 Y101.152 E19.33952
G1 X99.395 Y101.864 E19.37981
G1 X100.605 Y101.864 E19.42005
G1 X101.585 Y101.152 E19.46034
G1 X101.960 Y100.000 E19.50064
G1 X101.585 Y98.848 E19.54093
G1 X100.605 Y98.136 E19.58122
G0 F9000 X100.733 Y96.788
G1 F780 X102.054 Y97.424 E19.62998
G1 X102.968 Y98.571 E19.67876
G1 X103.295 Y100.000 E19.72752
G1 X102.968 Y101.429 E19.77628
G1 X102.054 Y102.576 E19.82506
G1 X100.733 Y103.212 E19.87382
G1 X99.267 Y103.212 E19.92258
G1 X97.946 Y102.576 E19.97135
G1 X97.032 Y101.429 E20.02013
G1 X96.705 Y100.000 E20.06888
G1 X97.032 Y98.571 E20.11764
G1 X97.946 Y97.424 E20.16642
G1 X99.267 Y96.788 E20.21519
G1 X100.733 Y96.788 E20.26394
G0 F9000 X100.349 Y97.136
;LAYER:4
G0 X100.156 Y97.328 Z1.100
;TYPE:FILL
G1 F780 X100.424 Y97.595 E20.27653
G0 F9000 X102.107 Y98.710
G1 F780 X102.263 Y98.555 E20.28384
G0 F9000 X102.381 Y99.552
G1 F780 X102.715 Y99.886 E20.29955
G0 F9000 X101.916 Y101.392
G0 X100.731 Y102.254
G0 X99.842 Y102.671
G1 F780 X99.574 Y102.403 E20.31216
G0 F9000 X98.753 Y102.064
G1 F780 X98.550 Y102.267 E20.32171
G0 F9000 X97.617 Y100.445
G1 F780 X97.284 Y100.112 E20.33737
G0 F9000 X97.116 Y100.000
;TYPE:WALL-INNER
G1 F780 X97.402 Y98.748 E20.38008
G1 X98.201 Y97.746 E20.42271
G1 X99.359 Y97.188 E20.46546
G1 X100.641 Y97.188 E20.50810
G1 X101.799 Y97.746 E20.55086
G1 X102.598 Y98.748 E20.59348
G1 X102.884 Y100.000 E20.63619
G1 X102.598 Y101.252 E20.67891
G1 X101.799 Y102.254 E20.72153
G1 X100.641 Y102.812 E20.76429
G1 X99.359 Y102.812 E20.80693
G1 X98.201 Y102.254 E20.84968
G1 X97.402 Y101.252 E20.89231
G1 X97.116 Y100.000 E20.93502
G0 F9000 X97.619 Y100.000
G1 F780 X98.075 Y101.399 E20.98396
G1 X99.265 Y102.264 E21.03289
G1 X100.735 Y102.264 E21.08178
G1 X101.925 Y101.399 E21.13071
G1 X102.381 Y100.000 E21.17966
G1 X101.925 Y98.601 E21.22860
G1 X100.735 Y97.736 E21.27753
G1 X99.265 Y97.736 E21.32642
G1 X98.075 Y98.601 E21.37535
G1 X97.619 Y100.000 E21.42429
G0 F9000 X98.040 Y100.000
;TYPE:WALL-OUTER
G1 F780 X98.415 Y101.152 E21.46459
G1 X99.395 Y101.864 E21.50487
G1 X100.605 Y101.864 E21.54512
G1 X101.585 Y101.152 E21.58541
G1 X101.960 Y100.000 E21.62570
G1 X101.585 Y98.848 E21.66600
G1 X100.605 Y98.136 E21.70629
G1 X99.395 Y98.136 E21.74653
G1 X98.415 Y98.848 E21.78682
G1 X98.040 Y100.000 E21.82712
G0 F9000 X96.705 Y100.000
G1 F780 X97.032 Y98.571 E21.87587
G1 X97.946 Y97.424 E21.92465
G1 X99.267 Y96.788 E21.97342
G1 X100.733 Y96.788 E22.02218
G1 X102.054 Y97.424 E22.07094
G1 X102.968 Y98.571 E22.11972
G1 X103.295 Y100.000 E22.16848
G1 X102.968 Y101.429 E22.21723
G1 X102.054 Y102.576 E22.26602
G1 X100.733 Y103.212 E22.31478
G1 X99.267 Y103.212 E22.36354
G1 X97.946 Y102.576 E22.41230
G1 X97.032 Y101.429 E22.46108
G1 X96.705 Y100.000 E22.50984
G0 F9000 X97.105 Y100.360
;LAYER:5
G0 X97.283 Y100.112 Z1.300
;TYPE:FILL
G1 F780 X97.617 Y100.445 E22.52553
G0 F9000 X98.084 Y101.393
G0 X98.895 Y101.869
