;Generated from ENDSTOP-Z-HOLDER-V2.stl dd0e1323f5ab8f9d75e13b00ccb42fa134b9d3cb
;Generated with Cura_SteamEngine 15.04
M140 S55.0
M109 T0 S210.0
T0
M190 S55.0

;Basic settings: Layer height: 0.2 Walls: 1.2 Fill: 20
;Print time: ?print_time?
;Filament used: ?filament_amount?m ?filament_weight?g
;Filament cost: ?filament_cost?
;M190 S55 ;Uncomment to add your own bed temperature line
;M109 S210 ;Uncomment to add your own temperature line
G21        ;metric values
G90        ;absolute positioning
M82        ;set extruder to absolute mode
M107       ;start with the fan off
G28 X0 Y0  ;move X/Y to min endstops
G28 Z0     ;move Z to min endstops
G1 Z5.0 F9000 ;move the platform down 15mm
G92 E0                  ;zero the extruded length
G1 F200 E3              ;extrude 3mm of feed stock
G92 E0                  ;zero the extruded length again
G1 F9000
;Put printing message on LCD screen
M117 Printing...

;Layer count: 82
;LAYER:0
M107
G0 F9000 X74.301 Y70.301 Z0.300
;TYPE:SKIRT
G1 F1200 X119.751 Y70.301 E2.26751
G1 X121.428 Y70.565 E2.35221
G1 X123.168 Y71.452 E2.44964
G1 X124.549 Y72.833 E2.54708
G1 X125.435 Y74.572 E2.64445
G1 X125.701 Y76.249 E2.72916
G1 X125.701 Y84.950 E3.16326
G1 X97.380 Y84.950 E4.57620
G1 X97.101 Y84.999 E4.59033
G1 X97.100 Y84.999 E4.59038
G1 X97.100 Y85.000 E4.59043
G1 X97.386 Y85.050 E4.60492
G1 X125.701 Y85.050 E6.01756
G1 X125.701 Y106.075 E7.06650
G1 X122.277 Y109.500 E7.30811
G1 X125.701 Y112.925 E7.54973
G1 X125.701 Y117.950 E7.80043
G1 X97.381 Y117.949 E9.21332
G1 X97.100 Y117.998 E9.22755
G1 X97.100 Y117.999 E9.22760
G1 X97.385 Y118.049 E9.24204
G1 X125.701 Y118.050 E10.65473
G1 X125.701 Y123.752 E10.93920
G1 X125.435 Y125.429 E11.02391
G1 X124.549 Y127.167 E11.12124
G1 X123.168 Y128.548 E11.21868
G1 X121.428 Y129.435 E11.31611
G1 X119.751 Y129.699 E11.40081
G1 X74.300 Y129.699 E13.66837
G1 X74.300 Y76.148 E16.34004
G1 X74.301 Y75.545 E16.37012
G1 X74.301 Y70.301 E16.63175
G1 F2400 E12.13175
G0 F9000 X78.501 Y74.501
;TYPE:WALL-INNER
G1 F2400 E16.63175
G1 F1200 X119.421 Y74.501 E18.67326
G1 X120.116 Y74.610 E18.70835
G1 X120.669 Y74.892 E18.73932
G1 X121.109 Y75.332 E18.77037
G1 X121.391 Y75.885 E18.80134
G1 X121.501 Y76.581 E18.83649
G1 X121.501 Y80.750 E19.04448
G1 X97.014 Y80.750 E20.26614
G1 X96.037 Y80.921 E20.31563
G1 X95.641 Y80.993 E20.33571
G1 X94.358 Y81.732 E20.40958
G1 X93.406 Y82.868 E20.48352
G1 X93.038 Y83.882 E20.53734
G1 X92.900 Y84.257 E20.55727
G1 X92.900 Y85.740 E20.63126
G1 X93.269 Y86.755 E20.68514
G1 X93.407 Y87.134 E20.70527
G1 X94.358 Y88.267 E20.77906
G1 X95.293 Y88.807 E20.83293
G1 X95.642 Y89.008 E20.85303
G1 X96.705 Y89.195 E20.90687
G1 X97.012 Y89.250 E20.92243
G1 X121.501 Y89.250 E22.14419
G1 X121.501 Y104.336 E22.89684
G1 X116.337 Y109.500 E23.26119
G1 X120.587 Y113.750 E23.56105
G1 X97.013 Y113.749 E24.73716
G1 X96.037 Y113.920 E24.78659
G1 X95.640 Y113.992 E24.80672
G1 X94.707 Y114.531 E24.86048
G1 X94.359 Y114.732 E24.88053
G1 X93.406 Y115.866 E24.95443
G1 X93.039 Y116.878 E25.00814
G1 X92.900 Y117.258 E25.02832
G1 X92.900 Y118.740 E25.10226
G1 X93.269 Y119.755 E25.15614
G1 X93.408 Y120.133 E25.17623
G1 X94.358 Y121.267 E25.25004
G1 X95.642 Y122.007 E25.32398
G1 X96.704 Y122.194 E25.37777
G1 X97.011 Y122.249 E25.39333
G1 X121.501 Y122.250 E26.61514
G1 X121.501 Y123.419 E26.67347
G1 X121.391 Y124.115 E26.70862
G1 X121.109 Y124.668 E26.73959
G1 X120.669 Y125.108 E26.77063
G1 X120.116 Y125.390 E26.80160
G1 X119.421 Y125.499 E26.83670
G1 X78.500 Y125.499 E28.87826
G1 X78.500 Y76.153 E31.34014
G1 X78.501 Y75.551 E31.37017
G1 X78.501 Y74.501 E31.42256
G0 F9000 X78.101 Y74.101
G1 F1200 X119.452 Y74.101 E33.48557
G1 X120.241 Y74.225 E33.52542
G1 X120.908 Y74.565 E33.56277
G1 X121.436 Y75.093 E33.60002
G1 X121.776 Y75.760 E33.63737
G1 X121.901 Y76.551 E33.67732
G1 X121.901 Y81.150 E33.90677
G1 X97.049 Y81.150 E35.14664
G1 X96.107 Y81.315 E35.19435
G1 X95.780 Y81.374 E35.21093
G1 X94.619 Y82.043 E35.27778
G1 X93.758 Y83.071 E35.34468
G1 X93.415 Y84.016 E35.39484
G1 X93.300 Y84.328 E35.41142
G1 X93.300 Y85.670 E35.47838
G1 X93.644 Y86.618 E35.52869
G1 X93.759 Y86.930 E35.54528
G1 X94.619 Y87.956 E35.61207
G1 X95.781 Y88.627 E35.67901
G1 X96.772 Y88.801 E35.72921
G1 X97.048 Y88.850 E35.74320
G1 X121.901 Y88.850 E36.98312
G1 X121.901 Y104.502 E37.76400
G1 X116.902 Y109.500 E38.11667
G1 X121.553 Y114.150 E38.44479
G1 X97.048 Y114.149 E39.66735
G1 X96.107 Y114.314 E39.71501
G1 X95.780 Y114.373 E39.73159
G1 X94.619 Y115.043 E39.79846
G1 X93.758 Y116.069 E39.86529
G1 X93.414 Y117.017 E39.91560
G1 X93.300 Y117.329 E39.93217
G1 X93.300 Y118.670 E39.99908
G1 X93.644 Y119.618 E40.04939
G1 X93.759 Y119.929 E40.06593
G1 X94.619 Y120.956 E40.13276
G1 X95.781 Y121.626 E40.19968
G1 X96.771 Y121.800 E40.24983
G1 X97.047 Y121.849 E40.26381
G1 X121.901 Y121.850 E41.50378
G1 X121.901 Y123.450 E41.58361
G1 X121.776 Y124.240 E41.62351
G1 X121.436 Y124.907 E41.66086
G1 X120.908 Y125.435 E41.69812
G1 X120.241 Y125.775 E41.73547
G1 X119.452 Y125.899 E41.77531
G1 X78.100 Y125.899 E43.83837
G1 X78.101 Y74.101 E46.42259
G0 F9000 X77.701 Y73.701
;TYPE:WALL-OUTER
G1 F1200 X119.483 Y73.701 E48.50710
G1 X120.367 Y73.840 E48.55174
G1 X121.146 Y74.237 E48.59536
G1 X121.764 Y74.855 E48.63897
G1 X122.161 Y75.634 E48.68259
G1 X122.301 Y76.519 E48.72729
G1 X122.301 Y81.550 E48.97829
G1 X97.084 Y81.550 E50.23637
G1 X95.920 Y81.755 E50.29533
G1 X94.880 Y82.354 E50.35521
G1 X94.110 Y83.274 E50.41506
G1 X93.700 Y84.400 E50.47485
G1 X93.700 Y85.599 E50.53467
G1 X94.110 Y86.727 E50.59455
G1 X94.880 Y87.645 E50.65432
G1 X95.920 Y88.245 E50.71422
G1 X97.084 Y88.450 E50.77319
G1 X122.301 Y88.450 E52.03127
G1 X122.301 Y104.668 E52.84039
G1 X117.468 Y109.500 E53.18135
G1 X122.301 Y114.332 E53.52231
G1 X122.301 Y114.550 E53.53318
G1 X97.083 Y114.549 E54.79132
G1 X95.920 Y114.754 E54.85023
G1 X94.880 Y115.354 E54.91013
G1 X94.110 Y116.272 E54.96991
G1 X93.700 Y117.400 E55.02979
G1 X93.700 Y118.599 E55.08961
G1 X94.110 Y119.725 E55.14939
G1 X94.880 Y120.645 E55.20925
G1 X95.920 Y121.244 E55.26912
G1 X97.083 Y121.449 E55.32804
G1 X122.301 Y121.450 E56.58617
G1 X122.301 Y123.482 E56.68755
G1 X122.161 Y124.366 E56.73220
G1 X121.764 Y125.145 E56.77582
G1 X121.146 Y125.763 E56.81942
G1 X120.367 Y126.160 E56.86304
G1 X119.483 Y126.299 E56.90769
G1 X77.700 Y126.299 E58.99225
G1 X77.701 Y73.701 E61.61638
G0 F9000 X78.000 Y73.911
G0 X78.883 Y74.640
;TYPE:SKIN
G1 F1200 X117.852 Y113.609 E64.36585
G0 F9000 X118.417 Y113.609
G1 F1200 X79.449 Y74.640 E67.11529
G0 F9000 X78.640 Y74.963
G1 F1200 X117.286 Y113.609 E69.84197
G0 F9000 X116.720 Y113.609
G1 F1200 X78.640 Y75.528 E72.52876
G0 F9000 X78.640 Y76.094
G1 F1200 X116.155 Y113.609 E75.17564
G0 F9000 X115.589 Y113.609
G1 F1200 X78.640 Y76.660 E77.78259
G0 F9000 X78.640 Y77.225
G1 F1200 X115.023 Y113.609 E80.34965
G0 F9000 X114.457 Y113.609
G1 F1200 X78.640 Y77.791 E82.87676
G0 F9000 X78.640 Y78.357
G1 F1200 X113.892 Y113.609 E85.36398
G0 F9000 X113.326 Y113.609
G1 F1200 X78.640 Y78.923 E87.81127
G0 F9000 X78.640 Y79.488
G1 F1200 X112.760 Y113.609 E90.21865
G0 F9000 X112.195 Y113.609
G1 F1200 X78.640 Y80.054 E92.58614
G0 F9000 X78.640 Y80.620
G1 F1200 X111.629 Y113.609 E94.91369
G0 F9000 X111.063 Y113.609
G1 F1200 X78.640 Y81.185 E97.20135
G0 F9000 X78.640 Y81.751
G1 F1200 X110.498 Y113.609 E99.44910
G0 F9000 X109.932 Y113.609
G1 F1200 X78.640 Y82.317 E101.65692
G0 F9000 X78.640 Y82.882
G1 F1200 X109.366 Y113.609 E103.82484
G0 F9000 X108.801 Y113.609
G1 F1200 X78.640 Y83.448 E105.95286
G0 F9000 X78.640 Y84.014
G1 F1200 X108.234 Y113.608 E108.04088
G0 F9000 X107.669 Y113.608
G1 F1200 X78.640 Y84.579 E110.08903
G0 F9000 X78.640 Y85.145
G1 F1200 X107.103 Y113.608 E112.09725
G0 F9000 X106.537 Y113.608
G1 F1200 X78.640 Y85.711 E114.06553
G0 F9000 X78.640 Y86.276
G1 F1200 X105.971 Y113.608 E115.99392
G0 F9000 X105.406 Y113.608
G1 F1200 X78.640 Y86.842 E117.88240
G0 F9000 X78.640 Y87.408
G1 F1200 X104.840 Y113.608 E119.73096
G0 F9000 X104.274 Y113.608
G1 F1200 X78.640 Y87.973 E121.53961
G0 F9000 X78.640 Y88.539
G1 F1200 X103.709 Y113.608 E123.30836
G0 F9000 X103.143 Y113.608
G1 F1200 X78.640 Y89.105 E125.03718
G0 F9000 X78.640 Y89.671
G1 F1200 X102.577 Y113.608 E126.72606
G0 F9000 X102.012 Y113.608
G1 F1200 X78.640 Y90.236 E128.37509
G0 F9000 X78.640 Y90.802
G1 F1200 X101.446 Y113.608 E129.98417
G0 F9000 X100.880 Y113.608
G1 F1200 X78.640 Y91.368 E131.55332
G0 F9000 X78.640 Y91.933
G1 F1200 X100.315 Y113.608 E133.08261
G0 F9000 X116.354 Y109.283
G1 F1200 X96.346 Y89.275 E134.49428
G0 F9000 X97.027 Y89.390
G1 F1200 X116.637 Y109.000 E135.87788
G0 F9000 X116.920 Y108.717
G1 F1200 X97.592 Y89.390 E137.24154
G0 F9000 X98.158 Y89.390
G1 F1200 X117.202 Y108.434 E138.58519
G0 F9000 X117.485 Y108.151
G1 F1200 X98.724 Y89.390 E139.90888
G0 F9000 X99.289 Y89.390
G1 F1200 X117.768 Y107.869 E141.21268
G0 F9000 X118.051 Y107.586
G1 F1200 X99.855 Y89.390 E142.49650
G0 F9000 X95.659 Y89.154
G1 F1200 X120.114 Y113.609 E144.22193
G0 F9000 X116.985 Y109.500
G0 X120.031 Y105.606
G1 F1200 X103.815 Y89.390 E145.36606
G0 F9000 X104.380 Y89.390
G1 F1200 X120.314 Y105.323 E146.49026
G0 F9000 X120.597 Y105.040
G1 F1200 X104.946 Y89.390 E147.59448
G0 F9000 X105.512 Y89.390
G1 F1200 X120.879 Y104.757 E148.67871
G0 F9000 X121.162 Y104.475
G1 F1200 X106.078 Y89.390 E149.74300
G0 F9000 X106.643 Y89.390
G1 F1200 X121.360 Y104.106 E150.78133
G0 F9000 X121.360 Y103.540
G1 F1200 X107.209 Y89.390 E151.77972
G0 F9000 X107.775 Y89.390
G1 F1200 X121.360 Y102.975 E152.73822
G0 F9000 X121.360 Y102.409
G1 F1200 X108.340 Y89.390 E153.65681
G0 F9000 X108.906 Y89.390
G1 F1200 X121.360 Y101.843 E154.53548
G0 F9000 X121.360 Y101.278
G1 F1200 X109.472 Y89.390 E155.37424
G0 F9000 X110.037 Y89.390
G1 F1200 X121.360 Y100.712 E156.17310
G0 F9000 X121.360 Y100.146
G1 F1200 X110.603 Y89.390 E156.93203
G0 F9000 X111.169 Y89.390
G1 F1200 X121.360 Y99.581 E157.65106
G0 F9000 X121.360 Y99.015
G1 F1200 X111.734 Y89.390 E158.33019
G0 F9000 X112.300 Y89.390
G1 F1200 X121.360 Y98.449 E158.96939
G0 F9000 X121.360 Y97.884
G1 F1200 X112.866 Y89.390 E159.56869
G0 F9000 X113.431 Y89.390
G1 F1200 X121.360 Y97.318 E160.12809
G0 F9000 X121.360 Y96.752
G1 F1200 X113.997 Y89.390 E160.64755
G0 F9000 X114.563 Y89.390
G1 F1200 X121.360 Y96.187 E161.12711
G0 F9000 X121.360 Y95.621
G1 F1200 X115.129 Y89.390 E161.56675
G0 F9000 X115.694 Y89.390
G1 F1200 X121.360 Y95.055 E161.96648
G0 F9000 X121.360 Y94.489
G1 F1200 X116.260 Y89.390 E162.32627
G0 F9000 X116.826 Y89.390
G1 F1200 X121.360 Y93.924 E162.64617
G0 F9000 X121.360 Y93.358
G1 F1200 X117.391 Y89.390 E162.92617
G0 F9000 X117.957 Y89.390
G1 F1200 X121.360 Y92.792 E163.16624
G0 F9000 X121.360 Y92.227
G1 F1200 X118.523 Y89.390 E163.36640
G0 F9000 X119.088 Y89.390
G1 F1200 X121.360 Y91.661 E163.52667
G0 F9000 X121.360 Y91.095
G1 F1200 X119.654 Y89.390 E163.64700
G0 F9000 X95.782 Y88.624
G0 X94.622 Y87.953
G0 X93.645 Y86.617
G0 X93.304 Y84.329
G0 X93.761 Y83.073
G0 X94.622 Y82.046
G0 X96.107 Y81.316
G0 X119.924 Y80.609
G1 F1200 X113.955 Y74.640 E164.06815
G0 F9000 X113.390 Y74.640
G1 F1200 X119.358 Y80.609 E164.48926
G0 F9000 X118.793 Y80.609
G1 F1200 X112.824 Y74.640 E164.91040
G0 F9000 X112.258 Y74.640
G1 F1200 X118.227 Y80.609 E165.33155
G0 F9000 X117.661 Y80.609
G1 F1200 X111.693 Y74.640 E165.75266
G0 F9000 X111.127 Y74.640
G1 F1200 X117.096 Y80.609 E166.17380
G0 F9000 X116.530 Y80.609
G1 F1200 X110.561 Y74.640 E166.59495
G0 F9000 X109.996 Y74.640
G1 F1200 X115.964 Y80.609 E167.01606
G0 F9000 X115.399 Y80.609
G1 F1200 X109.430 Y74.640 E167.43720
G0 F9000 X108.864 Y74.640
G1 F1200 X114.833 Y80.609 E167.85835
G0 F9000 X114.267 Y80.609
G1 F1200 X108.299 Y74.640 E168.27946
G0 F9000 X107.733 Y74.640
G1 F1200 X113.702 Y80.609 E168.70060
G0 F9000 X113.136 Y80.609
G1 F1200 X107.167 Y74.640 E169.12175
G0 F9000 X106.602 Y74.640
G1 F1200 X112.570 Y80.609 E169.54286
G0 F9000 X112.005 Y80.609
G1 F1200 X106.036 Y74.640 E169.96400
G0 F9000 X105.470 Y74.640
G1 F1200 X111.439 Y80.609 E170.38515
G0 F9000 X110.873 Y80.609
G1 F1200 X104.904 Y74.640 E170.80629
G0 F9000 X104.339 Y74.640
G1 F1200 X110.307 Y80.609 E171.22740
G0 F9000 X109.742 Y80.609
G1 F1200 X103.773 Y74.640 E171.64855
G0 F9000 X103.207 Y74.640
G1 F1200 X109.176 Y80.609 E172.06969
G0 F9000 X108.610 Y80.609
G1 F1200 X102.642 Y74.640 E172.49080
G0 F9000 X102.076 Y74.640
G1 F1200 X108.045 Y80.609 E172.91195
G0 F9000 X107.479 Y80.609
G1 F1200 X101.510 Y74.640 E173.33309
G0 F9000 X100.945 Y74.640
G1 F1200 X106.913 Y80.609 E173.75420
G0 F9000 X106.348 Y80.609
G1 F1200 X100.379 Y74.640 E174.17535
G0 F9000 X114.521 Y74.640
G1 F1200 X120.490 Y80.609 E174.59649
G0 F9000 X121.055 Y80.609
G1 F1200 X115.087 Y74.640 E175.01760
G0 F9000 X115.652 Y74.640
G1 F1200 X121.360 Y80.348 E175.42033
G0 F9000 X95.782 Y81.378
G0 X94.622 Y82.046
G0 X93.761 Y83.073
G0 X93.304 Y84.329
G0 X93.645 Y86.617
G0 X94.622 Y87.953
G0 X96.773 Y88.800
G0 X120.785 Y89.390
G1 F1200 X121.360 Y89.964 E175.46087
G0 F9000 X121.360 Y90.530
G1 F1200 X120.220 Y89.390 E175.54130
G0 F9000 X95.782 Y88.624
G0 X94.622 Y87.953
G0 X93.645 Y86.617
G0 X93.304 Y84.329
G0 X93.761 Y83.073
G0 X94.622 Y82.046
G0 X96.107 Y81.316
G0 X121.360 Y79.782
G1 F1200 X116.218 Y74.640 E175.90410
G0 F9000 X116.784 Y74.640
G1 F1200 X121.360 Y79.217 E176.22699
G0 F9000 X121.360 Y78.651
G1 F1200 X117.350 Y74.640 E176.50996
G0 F9000 X117.915 Y74.640
G1 F1200 X121.360 Y78.085 E176.75302
G0 F9000 X121.360 Y77.520
G1 F1200 X118.481 Y74.640 E176.95618
G0 F9000 X119.047 Y74.640
G1 F1200 X121.360 Y76.954 E177.11941
G0 F9000 X121.322 Y76.350
G1 F1200 X119.650 Y74.678 E177.23738
G0 F9000 X120.502 Y74.964
G1 F1200 X121.036 Y75.498 E177.27506
G0 F9000 X105.782 Y80.609
G1 F1200 X99.813 Y74.640 E177.69620
G0 F9000 X99.248 Y74.640
G1 F1200 X105.216 Y80.609 E178.11731
G0 F9000 X104.651 Y80.609
G1 F1200 X98.682 Y74.640 E178.53846
G0 F9000 X98.116 Y74.640
G1 F1200 X104.085 Y80.609 E178.95960
G0 F9000 X103.519 Y80.609
G1 F1200 X97.551 Y74.640 E179.38071
G0 F9000 X96.985 Y74.640
G1 F1200 X102.954 Y80.609 E179.80186
G0 F9000 X102.388 Y80.609
G1 F1200 X96.419 Y74.640 E180.22300
G0 F9000 X95.853 Y74.640
G1 F1200 X101.822 Y80.609 E180.64415
G0 F9000 X101.256 Y80.609
G1 F1200 X95.288 Y74.640 E181.06526
G0 F9000 X94.722 Y74.640
G1 F1200 X100.691 Y80.609 E181.48640
G0 F9000 X100.125 Y80.609
G1 F1200 X94.156 Y74.640 E181.90755
G0 F9000 X93.591 Y74.640
G1 F1200 X99.559 Y80.609 E182.32866
G0 F9000 X98.994 Y80.609
G1 F1200 X93.025 Y74.640 E182.74980
G0 F9000 X92.459 Y74.640
G1 F1200 X98.428 Y80.609 E183.17095
G0 F9000 X97.862 Y80.609
G1 F1200 X91.894 Y74.640 E183.59206
G0 F9000 X91.328 Y74.640
G1 F1200 X97.297 Y80.609 E184.01321
G0 F9000 X96.771 Y80.649
G1 F1200 X90.762 Y74.640 E184.43717
G0 F9000 X90.197 Y74.640
G1 F1200 X96.290 Y80.734 E184.86710
G0 F9000 X95.810 Y80.819
G1 F1200 X89.631 Y74.640 E185.30306
G0 F9000 X89.065 Y74.640
G1 F1200 X95.395 Y80.970 E185.74968
G0 F9000 X95.037 Y81.177
G1 F1200 X88.500 Y74.640 E186.21090
G0 F9000 X87.934 Y74.640
G1 F1200 X94.678 Y81.384 E186.68673
G0 F9000 X94.318 Y81.590
G1 F1200 X87.368 Y74.640 E187.17709
G0 F9000 X86.803 Y74.640
G1 F1200 X94.047 Y81.885 E187.68822
G0 F9000 X93.789 Y82.192
G1 F1200 X86.237 Y74.640 E188.22106
G0 F9000 X85.671 Y74.640
G1 F1200 X93.531 Y82.500 E188.77562
G0 F9000 X93.277 Y82.812
G1 F1200 X85.105 Y74.640 E189.35220
G0 F9000 X84.540 Y74.640
G1 F1200 X93.125 Y83.226 E189.95796
G0 F9000 X92.975 Y83.641
G1 F1200 X83.974 Y74.640 E190.59303
G0 F9000 X83.408 Y74.640
G1 F1200 X92.824 Y84.055 E191.25734
G0 F9000 X92.759 Y84.557
G1 F1200 X82.843 Y74.640 E191.95700
G0 F9000 X82.277 Y74.640
G1 F1200 X92.759 Y85.122 E192.69656
G0 F9000 X92.759 Y85.688
G1 F1200 X81.711 Y74.640 E193.47606
G0 F9000 X81.146 Y74.640
G1 F1200 X93.036 Y86.531 E194.31500
G0 F9000 X93.999 Y88.059
G1 F1200 X80.580 Y74.640 E195.26178
G0 F9000 X80.014 Y74.640
G1 F1200 X118.983 Y113.609 E198.01126
G0 F9000 X119.549 Y113.609
G1 F1200 X94.386 Y88.446 E199.78664
G0 F9000 X100.421 Y89.390
G1 F1200 X118.334 Y107.303 E201.05050
G0 F9000 X118.617 Y107.020
G1 F1200 X100.986 Y89.390 E202.29443
G0 F9000 X101.552 Y89.390
