;Generated from EXTRUDER-IDLER-avec-guide.stl 2ed38771b7333976984f75b435b63965c28a01f4
;Generated with Cura_SteamEngine 15.04
M140 S55.0
M109 T0 S210.0
T0
M190 S55.0

;Basic settings: Layer height: 0.2 Walls: 1.2 Fill: 20
;Print time: ?print_time?
;Filament used: ?filament_amount?m ?filament_weight?g
;Filament cost: ?filament_cost?
;M190 S55 ;Uncomment to add your own bed temperature line
;M109 S210 ;Uncomment to add your own temperature line
G21        ;metric values
G90        ;absolute positioning
M82        ;set extruder to absolute mode
M107       ;start with the fan off
G28 X0 Y0  ;move X/Y to min endstops
G28 Z0     ;move Z to min endstops
G1 Z5.0 F9000 ;move the platform down 15mm
G92 E0                  ;zero the extruded length
G1 F200 E3              ;extrude 3mm of feed stock
G92 E0                  ;zero the extruded length again
G1 F9000
;Put printing message on LCD screen
M117 Printing...

;Layer count: 119
;LAYER:0
M107
G0 F9000 X85.605 Y77.619 Z0.300
;TYPE:SKIRT
G1 F1200 X86.511 Y76.841 E0.05958
G1 X87.527 Y76.216 E0.11909
G1 X88.629 Y75.755 E0.17869
G1 X89.792 Y75.475 E0.23837
G1 X90.842 Y75.389 E0.29093
G1 X109.141 Y75.388 E1.20387
G1 X110.187 Y75.470 E1.25621
G1 X111.349 Y75.748 E1.31582
G1 X112.455 Y76.205 E1.37552
G1 X113.475 Y76.830 E1.43521
G1 X114.381 Y77.606 E1.49472
G1 X115.158 Y78.513 E1.55430
G1 X115.782 Y79.533 E1.61396
G1 X116.239 Y80.636 E1.67352
G1 X116.516 Y81.797 E1.73307
G1 X116.600 Y82.844 E1.78548
G1 X116.600 Y119.777 E3.62807
G1 X111.323 Y119.774 E3.89134
G1 X87.556 Y119.775 E5.07708
G1 X83.400 Y119.768 E5.28443
G1 X83.400 Y82.848 E7.12637
G1 X83.460 Y82.073 E7.16515
G1 X83.489 Y81.771 E7.18029
G1 X83.756 Y80.652 E7.23768
G1 X84.209 Y79.552 E7.29703
G1 X84.829 Y78.531 E7.35663
G1 X85.605 Y77.619 E7.41637
G0 F9000 X85.889 Y77.902
G1 F1200 X86.747 Y77.165 E7.47280
G1 X87.710 Y76.573 E7.52920
G1 X88.754 Y76.136 E7.58566
G1 X89.855 Y75.871 E7.64216
G1 X90.859 Y75.789 E7.69241
G1 X109.125 Y75.788 E8.60371
G1 X110.125 Y75.866 E8.65375
G1 X111.226 Y76.129 E8.71023
G1 X112.273 Y76.563 E8.76677
G1 X113.239 Y77.155 E8.82329
G1 X114.098 Y77.889 E8.87966
G1 X114.833 Y78.749 E8.93610
G1 X115.424 Y79.715 E8.99260
G1 X115.857 Y80.760 E9.04904
G1 X116.120 Y81.860 E9.10546
G1 X116.200 Y82.860 E9.15551
G1 X116.200 Y119.377 E10.97735
G1 X111.323 Y119.374 E11.22067
G1 X87.556 Y119.375 E12.40641
G1 X83.800 Y119.368 E12.59380
G1 X83.800 Y82.864 E14.41499
G1 X83.859 Y82.107 E14.45287
G1 X83.885 Y81.837 E14.46640
G1 X84.138 Y80.775 E14.52087
G1 X84.567 Y79.733 E14.57709
G1 X85.155 Y78.765 E14.63359
G1 X85.889 Y77.902 E14.69011
G1 F2400 E10.19011
G0 F9000 X88.873 Y80.876
;TYPE:WALL-INNER
G1 F2400 E14.69011
G1 F1200 X89.229 Y80.570 E14.71353
G1 X89.637 Y80.319 E14.73743
G1 X90.064 Y80.141 E14.76051
G1 X90.518 Y80.031 E14.78382
G1 X91.033 Y79.989 E14.80960
G1 X108.960 Y79.988 E15.70398
G1 X109.467 Y80.028 E15.72935
G1 X109.929 Y80.138 E15.75305
G1 X110.357 Y80.315 E15.77615
G1 X110.763 Y80.564 E15.79991
G1 X111.119 Y80.868 E15.82327
G1 X111.424 Y81.226 E15.84673
G1 X111.670 Y81.626 E15.87016
G1 X111.849 Y82.060 E15.89358
G1 X111.959 Y82.519 E15.91713
G1 X112.000 Y83.030 E15.94271
G1 X112.000 Y115.175 E17.54643
G1 X88.000 Y115.175 E18.74379
G1 X88.000 Y83.026 E20.34771
G1 X88.039 Y82.522 E20.37293
G1 X88.147 Y82.071 E20.39607
G1 X88.327 Y81.634 E20.41965
G1 X88.573 Y81.229 E20.44329
G1 X88.873 Y80.876 E20.46640
G0 F9000 X89.917 Y81.330
G1 F1200 X89.279 Y82.287 E20.52378
G1 X89.075 Y83.315 E20.57607
G1 X89.075 Y84.511 E20.63574
G1 X89.279 Y85.539 E20.68803
G1 X89.917 Y86.495 E20.74537
G1 X90.873 Y87.133 E20.80271
G1 X92.000 Y87.358 E20.86004
G1 X92.933 Y87.172 E20.90751
G1 X93.139 Y87.124 E20.91806
G1 X93.887 Y86.625 E20.96292
G1 X94.076 Y86.505 E20.97409
G1 X94.609 Y85.706 E21.02201
G1 X94.722 Y85.528 E21.03252
G1 X94.922 Y84.526 E21.08350
G1 X94.925 Y83.432 E21.13808
G1 X94.925 Y83.315 E21.14392
G1 X94.759 Y82.479 E21.18644
G1 X94.711 Y82.273 E21.19699
G1 X94.212 Y81.525 E21.24185
G1 X94.092 Y81.336 E21.25302
G1 X93.293 Y80.803 E21.30094
G1 X93.114 Y80.689 E21.31153
G1 X92.214 Y80.511 E21.35730
G1 X92.016 Y80.465 E21.36744
G1 X90.874 Y80.692 E21.42553
G1 X89.917 Y81.330 E21.48291
G0 F9000 X89.476 Y84.471
G0 X90.209 Y86.203
G0 X92.000 Y86.946
G0 X94.500 Y91.500
G1 F1200 X94.500 Y107.325 E22.27242
G1 X105.500 Y107.324 E22.82122
G1 X105.500 Y91.501 E23.61063
G1 X94.500 Y91.500 E24.15942
G0 F9000 X105.279 Y85.539
G1 F1200 X105.917 Y86.495 E24.21676
G1 X106.873 Y87.133 E24.27410
G1 X108.000 Y87.358 E24.33144
G1 X108.933 Y87.172 E24.37890
G1 X109.139 Y87.124 E24.38945
G1 X109.887 Y86.625 E24.43431
G1 X110.076 Y86.505 E24.44548
G1 X110.609 Y85.706 E24.49340
G1 X110.722 Y85.528 E24.50392
G1 X110.922 Y84.526 E24.55490
G1 X110.925 Y83.432 E24.60948
G1 X110.925 Y83.315 E24.61531
G1 X110.759 Y82.479 E24.65784
G1 X110.711 Y82.273 E24.66839
G1 X110.212 Y81.525 E24.71325
G1 X110.092 Y81.336 E24.72442
G1 X109.293 Y80.803 E24.77234
G1 X109.114 Y80.689 E24.78292
G1 X108.214 Y80.511 E24.82869
G1 X108.016 Y80.465 E24.83884
G1 X106.874 Y80.692 E24.89692
G1 X105.917 Y81.330 E24.95431
G1 X105.279 Y82.287 E25.01169
G1 X105.075 Y83.315 E25.06398
G1 X105.075 Y84.511 E25.12365
G1 X105.279 Y85.539 E25.17593
G0 F9000 X105.656 Y85.383
G1 F1200 X106.205 Y86.207 E25.22533
G1 X107.029 Y86.756 E25.27473
G1 X108.000 Y86.950 E25.32413
G1 X108.849 Y86.781 E25.36732
G1 X108.978 Y86.751 E25.37393
G1 X109.683 Y86.280 E25.41622
G1 X109.790 Y86.212 E25.42255
G1 X110.274 Y85.488 E25.46600
G1 X110.345 Y85.376 E25.47261
G1 X110.522 Y84.486 E25.51789
G1 X110.525 Y83.431 E25.57052
G1 X110.525 Y83.354 E25.57436
G1 X110.368 Y82.563 E25.61460
G1 X110.338 Y82.434 E25.62120
G1 X109.867 Y81.729 E25.66350
G1 X109.799 Y81.622 E25.66983
G1 X109.075 Y81.138 E25.71328
G1 X108.963 Y81.067 E25.71989
G1 X108.141 Y80.904 E25.76170
G1 X108.010 Y80.874 E25.76840
G1 X107.029 Y81.069 E25.81830
G1 X106.205 Y81.618 E25.86770
G1 X105.656 Y82.442 E25.91710
G1 X105.475 Y83.354 E25.96349
G1 X105.475 Y84.472 E26.01927
G1 X105.656 Y85.383 E26.06560
G0 F9000 X105.100 Y91.901
G1 F1200 X94.900 Y91.900 E26.57448
G1 X94.900 Y106.925 E27.32408
G1 X105.100 Y106.924 E27.83296
G1 X105.100 Y91.901 E28.58247
G0 F9000 X112.400 Y83.011
G1 F1200 X112.400 Y115.575 E30.20709
G1 X87.600 Y115.574 E31.44437
G1 X87.600 Y83.008 E33.06909
G1 X87.643 Y82.461 E33.09647
G1 X87.765 Y81.948 E33.12277
G1 X87.970 Y81.451 E33.14959
G1 X88.244 Y80.999 E33.17596
G1 X88.592 Y80.591 E33.20272
G1 X88.996 Y80.243 E33.22932
G1 X89.450 Y79.964 E33.25591
G1 X89.940 Y79.759 E33.28241
G1 X90.457 Y79.634 E33.30894
G1 X91.013 Y79.589 E33.33677
G1 X108.979 Y79.588 E34.23310
G1 X109.528 Y79.631 E34.26057
G1 X110.056 Y79.757 E34.28765
G1 X110.536 Y79.956 E34.31358
G1 X111.000 Y80.240 E34.34072
G1 X111.402 Y80.585 E34.36715
G1 X111.749 Y80.990 E34.39376
G1 X112.028 Y81.447 E34.42047
G1 X112.231 Y81.934 E34.44679
G1 X112.356 Y82.459 E34.47372
G1 X112.400 Y83.011 E34.50134
G0 F9000 X108.961 Y81.071
G0 X107.031 Y81.073
G0 X105.660 Y82.444
G0 X94.525 Y83.431
G1 F1200 X94.525 Y83.354 E34.50518
G1 X94.368 Y82.563 E34.54542
G1 X94.338 Y82.434 E34.55202
G1 X93.867 Y81.729 E34.59432
G1 X93.799 Y81.622 E34.60065
G1 X93.075 Y81.138 E34.64410
G1 X92.963 Y81.067 E34.65071
G1 X92.141 Y80.904 E34.69252
G1 X92.010 Y80.874 E34.69923
G1 X91.029 Y81.069 E34.74913
G1 X90.205 Y81.618 E34.79853
G1 X89.656 Y82.442 E34.84792
G1 X89.475 Y83.354 E34.89431
G1 X89.475 Y84.472 E34.95009
G1 X89.656 Y85.383 E34.99643
G1 X90.205 Y86.207 E35.04582
G1 X91.029 Y86.756 E35.09522
G1 X92.000 Y86.950 E35.14462
G1 X92.849 Y86.781 E35.18781
G1 X92.978 Y86.751 E35.19442
G1 X93.683 Y86.280 E35.23672
G1 X93.790 Y86.212 E35.24304
G1 X94.274 Y85.488 E35.28649
G1 X94.345 Y85.376 E35.29311
G1 X94.522 Y84.486 E35.33838
G1 X94.525 Y83.431 E35.39101
G0 F9000 X94.125 Y83.394
;TYPE:WALL-OUTER
G1 F1200 X93.977 Y82.647 E35.42901
G1 X93.965 Y82.595 E35.43167
G1 X93.534 Y81.951 E35.47033
G1 X93.507 Y81.908 E35.47286
G1 X92.856 Y81.473 E35.51193
G1 X92.812 Y81.445 E35.51453
G1 X92.058 Y81.296 E35.55287
G1 X92.003 Y81.283 E35.55569
G1 X91.185 Y81.446 E35.59730
G1 X90.494 Y81.907 E35.63875
G1 X90.033 Y82.598 E35.68019
G1 X89.875 Y83.393 E35.72063
G1 X89.875 Y84.433 E35.77251
G1 X90.033 Y85.227 E35.81290
G1 X90.494 Y85.918 E35.85434
G1 X91.185 Y86.379 E35.89579
G1 X92.000 Y86.542 E35.93725
G1 X92.765 Y86.390 E35.97616
G1 X92.817 Y86.378 E35.97883
G1 X93.457 Y85.950 E36.01724
G1 X93.504 Y85.920 E36.02002
G1 X93.939 Y85.269 E36.05908
G1 X93.967 Y85.225 E36.06168
G1 X94.122 Y84.446 E36.10131
G1 X94.125 Y83.394 E36.15379
G0 F9000 X94.425 Y83.394
G0 X94.334 Y82.436
G0 X92.961 Y81.071
G0 X91.007 Y79.489
G0 X90.993 Y79.189
G1 F1200 X108.997 Y79.188 E37.05202
G1 X109.589 Y79.234 E37.08164
G1 X110.176 Y79.375 E37.11176
G1 X110.721 Y79.600 E37.14118
G1 X111.236 Y79.916 E37.17132
G1 X111.686 Y80.301 E37.20087
G1 X112.073 Y80.753 E37.23055
G1 X112.384 Y81.262 E37.26031
G1 X112.613 Y81.813 E37.29008
G1 X112.753 Y82.398 E37.32009
G1 X112.800 Y82.988 E37.34962
G1 X112.800 Y115.975 E38.99535
G1 X87.200 Y115.974 E40.27254
G1 X87.200 Y82.988 E41.91822
G1 X87.246 Y82.402 E41.94754
G1 X87.384 Y81.822 E41.97729
G1 X87.610 Y81.273 E42.00691
G1 X87.920 Y80.762 E42.03672
G1 X88.306 Y80.309 E42.06642
G1 X88.759 Y79.919 E42.09624
G1 X89.268 Y79.606 E42.12605
G1 X89.814 Y79.378 E42.15557
G1 X90.394 Y79.238 E42.18534
G1 X90.993 Y79.189 E42.21532
G0 F9000 X91.007 Y79.489
G0 X89.476 Y83.355
G0 X89.660 Y85.381
G0 X91.031 Y86.752
G0 X92.976 Y86.747
G0 X95.301 Y92.001
G0 X95.300 Y92.300
G1 F1200 X95.300 Y106.525 E42.92501
G1 X104.700 Y106.524 E43.39398
G1 X104.700 Y92.301 E44.10356
G1 X95.300 Y92.300 E44.57253
G0 F9000 X95.301 Y92.001
G0 X105.783 Y85.393
G0 X106.033 Y85.227
G1 F1200 X106.494 Y85.918 E44.61397
G1 X107.185 Y86.379 E44.65542
G1 X108.000 Y86.542 E44.69688
G1 X108.765 Y86.390 E44.73579
G1 X108.817 Y86.378 E44.73846
G1 X109.457 Y85.950 E44.77687
G1 X109.504 Y85.920 E44.77965
G1 X109.939 Y85.269 E44.81871
G1 X109.967 Y85.225 E44.82131
G1 X110.122 Y84.446 E44.86094
G1 X110.125 Y83.394 E44.91343
G1 X109.977 Y82.647 E44.95142
G1 X109.965 Y82.595 E44.95408
G1 X109.534 Y81.951 E44.99274
G1 X109.507 Y81.908 E44.99527
G1 X108.856 Y81.473 E45.03434
G1 X108.812 Y81.445 E45.03694
G1 X108.058 Y81.296 E45.07528
G1 X108.003 Y81.283 E45.07810
G1 X107.185 Y81.446 E45.11971
G1 X106.494 Y81.907 E45.16116
G1 X106.033 Y82.598 E45.20260
G1 X105.875 Y83.393 E45.24304
G1 X105.875 Y84.433 E45.29492
G1 X106.033 Y85.227 E45.33531
G0 F9000 X105.221 Y85.704
;TYPE:SKIN
G1 F1200 X99.645 Y80.129 E45.72869
G0 F9000 X99.079 Y80.129
G1 F1200 X111.859 Y92.908 E46.63036
G0 F9000 X111.859 Y92.343
G1 F1200 X106.706 Y87.190 E46.99393
G0 F9000 X107.479 Y87.397
G1 F1200 X111.859 Y91.777 E47.30296
G0 F9000 X111.859 Y91.211
G1 F1200 X108.124 Y87.476 E47.56649
G0 F9000 X108.596 Y87.382
G1 F1200 X111.859 Y90.646 E47.79674
G0 F9000 X111.859 Y90.080
G1 F1200 X109.064 Y87.285 E47.99395
G0 F9000 X109.438 Y87.093
G1 F1200 X111.859 Y89.514 E48.16476
G0 F9000 X111.859 Y88.949
G1 F1200 X109.776 Y86.866 E48.31173
G0 F9000 X110.119 Y86.643
G1 F1200 X111.859 Y88.383 E48.43449
G0 F9000 X111.859 Y87.817
G1 F1200 X110.364 Y86.322 E48.53997
G0 F9000 X110.590 Y85.983
G1 F1200 X111.859 Y87.252 E48.62951
G0 F9000 X111.859 Y86.686
G1 F1200 X110.814 Y85.641 E48.70324
G0 F9000 X110.930 Y85.191
G1 F1200 X111.859 Y86.120 E48.76879
G0 F9000 X111.859 Y85.554
G1 F1200 X111.024 Y84.719 E48.82770
G0 F9000 X111.061 Y84.191
G1 F1200 X111.859 Y84.989 E48.88400
G0 F9000 X111.859 Y84.423
G1 F1200 X111.062 Y83.626 E48.94023
G0 F9000 X111.004 Y83.003
G1 F1200 X111.859 Y83.857 E49.00052
G0 F9000 X111.859 Y83.292
G1 F1200 X110.859 Y82.292 E49.07108
G0 F9000 X111.654 Y81.956
G1 F1200 X110.031 Y80.332 E49.18563
G0 F9000 X109.286 Y80.154
G1 F1200 X111.832 Y82.699 E49.36523
G0 F9000 X109.113 Y80.546
G1 F1200 X108.551 Y80.267 E49.39473
G1 X107.964 Y80.246 E49.41429
G1 X107.446 Y80.293 E49.43090
G1 X106.927 Y80.340 E49.45410
G1 X106.433 Y80.128 E49.48092
G0 F9000 X105.867 Y80.128
G1 F1200 X106.506 Y80.767 E49.52601
G0 F9000 X106.167 Y80.994
G1 F1200 X105.301 Y80.128 E49.58711
G0 F9000 X104.735 Y80.128
G1 F1200 X105.827 Y81.220 E49.66415
G0 F9000 X105.597 Y81.556
G1 F1200 X104.170 Y80.128 E49.76487
G0 F9000 X103.604 Y80.128
G1 F1200 X105.371 Y81.895 E49.88954
G0 F9000 X105.146 Y82.236
G1 F1200 X103.038 Y80.128 E50.03827
G0 F9000 X102.473 Y80.128
G1 F1200 X105.052 Y82.708 E50.22027
G0 F9000 X104.958 Y83.179
G1 F1200 X101.907 Y80.128 E50.43553
G0 F9000 X101.341 Y80.128
G1 F1200 X104.933 Y83.720 E50.68897
G0 F9000 X104.933 Y84.286
G1 F1200 X100.776 Y80.128 E50.98230
G0 F9000 X100.210 Y80.128
G1 F1200 X105.015 Y84.934 E51.32136
G0 F9000 X105.219 Y91.360
G1 F1200 X93.988 Y80.129 E52.11377
G0 F9000 X93.422 Y80.129
G1 F1200 X104.653 Y91.360 E52.90617
G0 F9000 X104.088 Y91.360
G1 F1200 X94.634 Y81.906 E53.57320
G0 F9000 X94.965 Y82.802
G1 F1200 X103.522 Y91.360 E54.17698
G0 F9000 X102.956 Y91.360
G1 F1200 X95.063 Y83.466 E54.73391
G0 F9000 X95.062 Y84.031
G1 F1200 X102.391 Y91.360 E55.25101
G0 F9000 X101.825 Y91.360
G1 F1200 X95.051 Y84.586 E55.72895
G0 F9000 X94.957 Y85.057
G1 F1200 X101.259 Y91.360 E56.17363
G0 F9000 X100.694 Y91.360
G1 F1200 X94.863 Y85.529 E56.58504
G0 F9000 X94.655 Y85.887
G1 F1200 X100.128 Y91.360 E56.97119
G0 F9000 X105.638 Y91.779
G1 F1200 X111.859 Y98.000 E57.41011
G0 F9000 X111.859 Y98.565
G1 F1200 X105.638 Y92.345 E57.84900
G0 F9000 X105.638 Y92.911
G1 F1200 X111.859 Y99.131 E58.28789
G0 F9000 X111.859 Y99.697
G1 F1200 X105.638 Y93.476 E58.72682
G0 F9000 X105.638 Y94.042
G1 F1200 X111.859 Y100.262 E59.16571
G0 F9000 X111.859 Y100.828
G1 F1200 X105.638 Y94.608 E59.60460
G0 F9000 X105.638 Y95.173
G1 F1200 X111.859 Y101.394 E60.04352
G0 F9000 X111.859 Y101.959
G1 F1200 X105.638 Y95.739 E60.48241
G0 F9000 X105.638 Y96.305
G1 F1200 X111.859 Y102.525 E60.92130
G0 F9000 X111.859 Y103.091
G1 F1200 X105.638 Y96.870 E61.36023
G0 F9000 X105.638 Y97.436
G1 F1200 X111.859 Y103.656 E61.79912
G0 F9000 X111.859 Y104.222
G1 F1200 X105.638 Y98.002 E62.23801
G0 F9000 X105.638 Y98.567
G1 F1200 X111.859 Y104.788 E62.67693
G0 F9000 X111.859 Y105.353
G1 F1200 X105.638 Y99.133 E63.11582
G0 F9000 X105.639 Y99.699
G1 F1200 X111.859 Y105.919 E63.55468
G0 F9000 X111.859 Y106.485
G1 F1200 X105.639 Y100.265 E63.99353
G0 F9000 X105.639 Y100.831
G1 F1200 X111.859 Y107.051 E64.43239
G0 F9000 X111.859 Y107.616
G1 F1200 X105.639 Y101.396 E64.87124
G0 F9000 X105.639 Y101.962
G1 F1200 X111.859 Y108.182 E65.31010
G0 F9000 X111.859 Y108.748
G1 F1200 X105.639 Y102.528 E65.74895
G0 F9000 X105.639 Y103.094
G1 F1200 X111.859 Y109.313 E66.18777
G0 F9000 X111.859 Y109.879
G1 F1200 X105.639 Y103.659 E66.62662
G0 F9000 X105.639 Y104.225
G1 F1200 X111.859 Y110.445 E67.06548
G0 F9000 X111.859 Y111.010
G1 F1200 X105.639 Y104.791 E67.50430
G0 F9000 X105.639 Y105.356
G1 F1200 X111.859 Y111.576 E67.94315
G0 F9000 X111.859 Y112.142
G1 F1200 X105.639 Y105.922 E68.38201
G0 F9000 X105.639 Y106.488
G1 F1200 X111.859 Y112.707 E68.82083
G0 F9000 X111.859 Y113.273
G1 F1200 X105.639 Y107.053 E69.25968
G0 F9000 X105.484 Y107.463
G1 F1200 X111.859 Y113.839 E69.70951
G0 F9000 X111.859 Y114.404
G1 F1200 X104.918 Y107.463 E70.19923
G0 F9000 X104.352 Y107.463
G1 F1200 X111.859 Y114.970 E70.72889
G0 F9000 X111.357 Y115.034
G1 F1200 X103.787 Y107.463 E71.26303
G0 F9000 X103.221 Y107.463
G1 F1200 X110.791 Y115.034 E71.79717
G0 F9000 X110.225 Y115.034
G1 F1200 X102.655 Y107.463 E72.33131
G0 F9000 X102.089 Y107.463
G1 F1200 X109.660 Y115.034 E72.86548
G0 F9000 X109.094 Y115.034
G1 F1200 X101.524 Y107.463 E73.39962
G0 F9000 X100.958 Y107.463
G1 F1200 X108.528 Y115.034 E73.93376
G0 F9000 X107.963 Y115.034
G1 F1200 X100.392 Y107.463 E74.46794
G0 F9000 X99.827 Y107.463
G1 F1200 X107.397 Y115.034 E75.00208
G0 F9000 X106.831 Y115.034
G1 F1200 X99.261 Y107.463 E75.53622
G0 F9000 X98.695 Y107.463
G1 F1200 X106.266 Y115.034 E76.07039
G0 F9000 X105.700 Y115.034
G1 F1200 X98.130 Y107.463 E76.60453
G0 F9000 X97.564 Y107.463
G1 F1200 X105.134 Y115.034 E77.13867
G0 F9000 X104.569 Y115.034
G1 F1200 X96.998 Y107.463 E77.67285
