;Generated from WADE-SMALL-GEAR.stl 631a7cbbbe935cc0eb5f0e86db4bfb2bbb38c4e2
;Generated with Cura_SteamEngine 15.04
M140 S55.0
M109 T0 S210.0
T0
M190 S55.0

;Basic settings: Layer height: 0.2 Walls: 1.2 Fill: 20
;Print time: ?print_time?
;Filament used: ?filament_amount?m ?filament_weight?g
;Filament cost: ?filament_cost?
;M190 S55 ;Uncomment to add your own bed temperature line
;M109 S210 ;Uncomment to add your own temperature line
G21        ;metric values
G90        ;absolute positioning
M82        ;set extruder to absolute mode
M107       ;start with the fan off
G28 X0 Y0  ;move X/Y to min endstops
G28 Z0     ;move Z to min endstops
G1 Z5.0 F9000 ;move the platform down 15mm
G92 E0                  ;zero the extruded length
G1 F200 E3              ;extrude 3mm of feed stock
G92 E0                  ;zero the extruded length again
G1 F9000
;Put printing message on LCD screen
M117 Printing...

;Layer count: 90
;LAYER:0
M107
G0 F9000 X90.821 Y91.313 Z0.300
G0 X90.554 Y91.658
;TYPE:SKIRT
G1 F1200 X90.821 Y91.313 E0.02176
G1 X92.560 Y89.835 E0.13563
G1 X92.892 Y89.553 E0.15736
G1 X94.896 Y88.492 E0.27049
G1 X94.896 Y88.491 E0.27054
G1 X95.290 Y88.279 E0.29286
G1 X97.512 Y87.662 E0.40791
G1 X97.918 Y87.546 E0.42897
G1 X100.187 Y87.424 E0.54234
G1 X100.632 Y87.394 E0.56459
G1 X102.916 Y87.769 E0.68006
G1 X103.348 Y87.839 E0.70190
G1 X105.457 Y88.680 E0.81517
G1 X105.457 Y88.679 E0.81522
G1 X105.874 Y88.842 E0.83756
G1 X107.800 Y90.147 E0.95363
G1 X108.158 Y90.396 E0.97539
G1 X109.728 Y92.053 E1.08927
G1 X110.025 Y92.370 E1.11094
G1 X111.199 Y94.319 E1.22445
G1 X111.427 Y94.697 E1.24648
G1 X112.156 Y96.862 E1.36045
G1 X112.299 Y97.280 E1.38249
G1 X112.545 Y99.542 E1.49601
G1 X112.597 Y99.988 E1.51841
G1 X112.299 Y102.713 E1.65517
G1 X111.429 Y105.301 E1.79139
G1 X110.020 Y107.639 E1.92757
G1 X108.144 Y109.620 E2.06369
G1 X105.885 Y111.152 E2.19986
G1 X103.350 Y112.161 E2.33599
G1 X100.658 Y112.603 E2.47209
G1 X97.931 Y112.456 E2.60834
G1 X95.302 Y111.725 E2.74447
G1 X92.891 Y110.447 E2.88061
G1 X90.811 Y108.680 E3.01678
G1 X89.159 Y106.507 E3.15296
G1 X88.014 Y104.031 E3.28906
G1 X87.426 Y101.366 E3.42521
G1 X87.426 Y98.635 E3.56146
G1 X87.924 Y96.375 E3.67692
G1 X88.022 Y95.952 E3.69858
G1 X88.983 Y93.873 E3.81285
G1 X89.170 Y93.480 E3.83456
G1 X90.554 Y91.658 E3.94871
G0 F9000 X90.872 Y91.901
G1 F1200 X91.112 Y91.590 E3.96831
G1 X92.819 Y90.140 E4.08005
G1 X93.118 Y89.886 E4.09962
G1 X95.105 Y88.833 E4.21181
G1 X95.440 Y88.653 E4.23079
G1 X97.596 Y88.054 E4.34242
G1 X97.985 Y87.943 E4.36261
G1 X100.199 Y87.824 E4.47322
G1 X100.613 Y87.796 E4.49392
G1 X102.856 Y88.164 E4.60732
G1 X102.856 Y88.165 E4.60737
G1 X103.240 Y88.227 E4.62678
G1 X105.332 Y89.060 E4.73912
G1 X105.687 Y89.198 E4.75812
G1 X107.574 Y90.477 E4.87185
G1 X107.896 Y90.701 E4.89142
G1 X109.437 Y92.327 E5.00319
G1 X109.704 Y92.613 E5.02271
G1 X110.857 Y94.526 E5.13414
G1 X111.062 Y94.866 E5.15395
G1 X111.777 Y96.991 E5.26581
G1 X111.906 Y97.367 E5.28564
G1 X112.147 Y99.588 E5.39709
G1 X112.148 Y99.588 E5.39714
G1 X112.194 Y99.990 E5.41733
G1 X111.906 Y102.627 E5.54967
G1 X111.063 Y105.132 E5.68154
G1 X109.700 Y107.395 E5.81333
G1 X107.884 Y109.313 E5.94511
G1 X105.696 Y110.796 E6.07698
G1 X103.242 Y111.774 E6.20878
G1 X100.636 Y112.201 E6.34052
G1 X97.996 Y112.059 E6.47242
G1 X95.451 Y111.351 E6.60422
G1 X93.117 Y110.114 E6.73600
G1 X91.103 Y108.403 E6.86785
G1 X89.504 Y106.299 E6.99969
G1 X88.395 Y103.902 E7.13146
G1 X87.826 Y101.323 E7.26322
G1 X87.826 Y98.679 E7.39513
G1 X88.314 Y96.463 E7.50833
G1 X88.403 Y96.082 E7.52785
G1 X89.345 Y94.043 E7.63991
G1 X89.514 Y93.689 E7.65948
G1 X90.872 Y91.901 E7.77150
G1 F2400 E3.27150
G0 F9000 X99.155 Y107.640
;TYPE:FILL
G1 F2400 E7.77150
G1 F1200 X99.295 Y107.780 E7.78137
G0 F9000 X98.676 Y107.889
;TYPE:WALL-INNER
G1 F1200 X97.281 Y107.501 E7.85361
G1 X102.619 Y107.501 E8.11993
G1 X102.113 Y107.702 E8.14709
G1 X100.408 Y107.982 E8.23329
G1 X98.676 Y107.889 E8.31983
G0 F9000 X95.485 Y106.616
G1 F1200 X94.171 Y105.499 E8.40587
G1 X93.126 Y104.124 E8.49203
G1 X92.398 Y102.552 E8.57846
G1 X92.026 Y100.863 E8.66474
G1 X92.026 Y99.138 E8.75080
G1 X92.398 Y97.451 E8.83699
G1 X93.124 Y95.879 E8.92338
G1 X94.170 Y94.503 E9.00961
G1 X95.485 Y93.385 E9.09572
G1 X97.013 Y92.575 E9.18200
G1 X98.681 Y92.112 E9.26836
G1 X100.408 Y92.019 E9.35465
G1 X102.112 Y92.298 E9.44080
G1 X103.718 Y92.938 E9.52705
G1 X105.147 Y93.906 E9.61316
G1 X106.336 Y95.162 E9.69944
G1 X107.229 Y96.643 E9.78572
G1 X107.781 Y98.283 E9.87205
G1 X107.968 Y100.001 E9.95827
G1 X107.781 Y101.717 E10.04439
G1 X107.229 Y103.357 E10.13072
G1 X106.337 Y104.839 E10.21702
G1 X105.148 Y106.093 E10.30323
G1 X103.924 Y106.923 E10.37701
G1 X103.924 Y102.501 E10.59763
G1 X102.576 Y102.501 E10.66488
G1 X102.799 Y102.372 E10.67773
G1 X103.532 Y100.362 E10.78447
G1 X103.664 Y100.003 E10.80355
G1 X102.799 Y97.629 E10.92961
G1 X100.614 Y96.367 E11.05550
G1 X98.129 Y96.805 E11.18138
G1 X96.507 Y98.739 E11.30731
G1 X96.507 Y101.262 E11.43319
G1 X97.546 Y102.501 E11.51386
G1 X96.024 Y102.501 E11.58979
G1 X96.024 Y106.901 E11.80931
G1 X95.485 Y106.616 E11.83973
G0 F9000 X95.260 Y106.950
G1 F1200 X93.880 Y105.778 E11.93005
G1 X92.780 Y104.330 E12.02078
G1 X92.017 Y102.679 E12.11152
G1 X91.626 Y100.908 E12.20200
G1 X91.626 Y99.092 E12.29260
G1 X92.016 Y97.324 E12.38293
G1 X92.779 Y95.673 E12.47367
G1 X93.879 Y94.224 E12.56443
G1 X95.260 Y93.051 E12.65482
G1 X96.866 Y92.200 E12.74550
G1 X98.619 Y91.714 E12.83626
G1 X100.432 Y91.617 E12.92684
G1 X102.221 Y91.911 E13.01729
G1 X103.905 Y92.582 E13.10773
G1 X105.407 Y93.600 E13.19825
G1 X106.658 Y94.920 E13.28898
G1 X107.594 Y96.475 E13.37953
G1 X108.174 Y98.198 E13.47023
G1 X108.371 Y100.003 E13.56082
G1 X108.174 Y101.802 E13.65111
G1 X107.594 Y103.526 E13.74186
G1 X106.658 Y105.080 E13.83236
G1 X105.409 Y106.400 E13.92303
G1 X103.903 Y107.421 E14.01380
G1 X102.221 Y108.090 E14.10411
G1 X100.428 Y108.384 E14.19476
G1 X98.615 Y108.287 E14.28534
G1 X96.865 Y107.800 E14.37596
G1 X95.260 Y106.950 E14.46657
G0 F9000 X96.424 Y107.101
G1 F1200 X103.524 Y107.101 E14.82079
G1 X103.524 Y102.901 E15.03033
G1 X101.083 Y102.901 E15.15211
G1 X102.473 Y102.098 E15.23220
G1 X103.155 Y100.227 E15.33155
G1 X103.238 Y100.002 E15.34352
G1 X102.473 Y97.903 E15.45498
G1 X100.540 Y96.786 E15.56636
G1 X98.342 Y97.174 E15.67771
G1 X96.907 Y98.885 E15.78912
G1 X96.907 Y101.116 E15.90043
G1 X98.176 Y102.630 E15.99899
G1 X98.341 Y102.827 E16.01181
G1 X98.761 Y102.901 E16.03308
G1 X96.424 Y102.901 E16.14968
G1 X96.424 Y107.101 E16.35921
G0 F9000 X96.824 Y106.701
;TYPE:WALL-OUTER
G1 F1200 X103.124 Y106.701 E16.67352
G1 X103.124 Y103.301 E16.84315
G1 X96.824 Y103.301 E17.15746
G1 X96.824 Y106.701 E17.32708
G0 F9000 X96.717 Y108.174
G1 F1200 X95.032 Y107.281 E17.42223
G1 X93.587 Y106.053 E17.51683
G1 X92.436 Y104.539 E17.61172
G1 X91.635 Y102.806 E17.70696
G1 X91.226 Y100.954 E17.80159
G1 X91.226 Y99.047 E17.89673
G1 X91.630 Y97.215 E17.99032
G1 X92.424 Y95.487 E18.08520
G1 X92.435 Y95.463 E18.08652
G1 X93.571 Y93.968 E18.18019
G1 X93.586 Y93.949 E18.18140
G1 X95.032 Y92.720 E18.27608
G1 X96.697 Y91.837 E18.37010
G1 X96.714 Y91.828 E18.37106
G1 X98.529 Y91.324 E18.46504
G1 X100.429 Y91.217 E18.55998
G1 X100.455 Y91.215 E18.56128
G1 X102.325 Y91.522 E18.65583
G1 X104.075 Y92.219 E18.74980
G1 X104.094 Y92.226 E18.75081
G1 X105.652 Y93.282 E18.84471
G1 X105.667 Y93.292 E18.84561
G1 X106.962 Y94.659 E18.93956
G1 X107.958 Y96.302 E19.03541
G1 X108.566 Y98.111 E19.13063
G1 X108.770 Y99.980 E19.22442
G1 X108.772 Y100.002 E19.22553
G1 X108.566 Y101.890 E19.32028
G1 X107.958 Y103.699 E19.41549
G1 X106.979 Y105.323 E19.51009
G1 X105.670 Y106.706 E19.60510
G1 X104.094 Y107.774 E19.70008
G1 X102.325 Y108.479 E19.79508
G1 X100.453 Y108.786 E19.88973
G1 X98.550 Y108.683 E19.98481
G1 X96.717 Y108.174 E20.07972
G0 F9000 X96.828 Y107.895
G0 X96.483 Y107.042
G0 X96.483 Y102.960
G0 X98.502 Y102.753
G0 X98.555 Y102.458
G1 F1200 X100.267 Y102.760 E20.16645
G1 X100.465 Y102.796 E20.17649
G1 X102.147 Y101.825 E20.27338
G1 X102.812 Y100.001 E20.37024
G1 X102.147 Y98.176 E20.46715
G1 X100.466 Y97.205 E20.56400
G1 X98.555 Y97.543 E20.66082
G1 X97.307 Y99.030 E20.75767
G1 X97.307 Y100.971 E20.85451
G1 X98.555 Y102.458 E20.95136
G0 F9000 X98.502 Y102.753
G0 X96.986 Y102.360
;TYPE:SKIN
G1 F1200 X92.457 Y97.831 E21.27090
G0 F9000 X92.581 Y97.389
G1 F1200 X96.366 Y101.174 E21.53796
G0 F9000 X96.366 Y100.609
G1 F1200 X92.759 Y97.002 E21.79245
G0 F9000 X92.938 Y96.615
G1 F1200 X96.366 Y100.043 E22.03431
G0 F9000 X96.420 Y102.360
G1 F1200 X92.354 Y98.294 E22.32119
G0 F9000 X92.251 Y98.757
G1 F1200 X95.884 Y102.389 E22.57748
G0 F9000 X95.884 Y102.955
G1 F1200 X92.165 Y99.236 E22.83988
G0 F9000 X92.165 Y99.802
G1 F1200 X95.884 Y103.521 E23.10228
G0 F9000 X95.884 Y104.086
G1 F1200 X92.165 Y100.368 E23.36464
G0 F9000 X92.189 Y100.957
G1 F1200 X95.884 Y104.652 E23.62534
G0 F9000 X95.884 Y105.218
G1 F1200 X92.348 Y101.682 E23.87482
G0 F9000 X92.508 Y102.408
G1 F1200 X95.884 Y105.783 E24.11298
G0 F9000 X95.884 Y106.349
G1 F1200 X92.952 Y103.417 E24.31985
G0 F9000 X93.962 Y104.993
G1 F1200 X94.922 Y105.953 E24.38758
G0 F9000 X96.366 Y99.477
G1 F1200 X93.116 Y96.228 E24.61685
G0 F9000 X93.313 Y95.858
G1 F1200 X96.366 Y98.912 E24.83229
G0 F9000 X96.522 Y98.502
G1 F1200 X93.558 Y95.537 E25.04146
G0 F9000 X93.801 Y95.216
G1 F1200 X96.780 Y98.195 E25.25164
G0 F9000 X97.039 Y97.887
G1 F1200 X94.045 Y94.894 E25.46285
G0 F9000 X94.295 Y94.578
G1 F1200 X97.297 Y97.580 E25.67465
G0 F9000 X97.555 Y97.272
G1 F1200 X94.601 Y94.318 E25.88308
G0 F9000 X94.907 Y94.059
G1 F1200 X97.813 Y96.964 E26.08807
G0 F9000 X98.084 Y96.670
G1 F1200 X95.213 Y93.799 E26.29064
G0 F9000 X95.519 Y93.539
G1 F1200 X98.565 Y96.585 E26.50555
G0 F9000 X99.046 Y96.500
G1 F1200 X95.880 Y93.334 E26.72893
G0 F9000 X96.249 Y93.138
G1 F1200 X99.527 Y96.416 E26.96021
G0 F9000 X100.008 Y96.331
G1 F1200 X96.619 Y92.942 E27.19932
G0 F9000 X96.989 Y92.746
G1 F1200 X100.489 Y96.246 E27.44627
G0 F9000 X101.559 Y96.751
G1 F1200 X97.416 Y92.608 E27.73858
G0 F9000 X97.859 Y92.485
G1 F1200 X102.898 Y97.524 E28.09411
G0 F9000 X102.915 Y97.541
G1 F1200 X107.495 Y102.121 E28.41725
G0 F9000 X107.637 Y101.698
G1 F1200 X98.301 Y92.362 E29.07595
G0 F9000 X98.753 Y92.248
G1 F1200 X107.696 Y101.191 E29.70693
G0 F9000 X107.752 Y100.681
G1 F1200 X99.290 Y92.219 E30.30397
G0 F9000 X99.827 Y92.191
G1 F1200 X107.807 Y100.170 E30.86697
G0 F9000 X107.353 Y102.545
G1 F1200 X103.239 Y98.431 E31.15723
G0 F9000 X103.564 Y99.321
G1 F1200 X107.211 Y102.968 E31.41455
G0 F9000 X107.053 Y103.376
G1 F1200 X103.776 Y100.099 E31.64576
G0 F9000 X103.625 Y100.513
G1 F1200 X106.841 Y103.729 E31.87266
G0 F9000 X106.628 Y104.082
G1 F1200 X103.473 Y100.928 E32.09523
G0 F9000 X103.322 Y101.342
G1 F1200 X106.416 Y104.436 E32.31353
G0 F9000 X106.196 Y104.782
G1 F1200 X104.063 Y102.649 E32.46402
G0 F9000 X103.774 Y102.360
G1 F1200 X103.171 Y101.756 E32.50661
G0 F9000 X103.019 Y102.171
G1 F1200 X103.209 Y102.360 E32.51998
G0 F9000 X104.063 Y103.214
G1 F1200 X105.921 Y105.072 E32.65107
G0 F9000 X105.645 Y105.363
G1 F1200 X104.063 Y103.780 E32.76272
G0 F9000 X104.063 Y104.346
G1 F1200 X105.370 Y105.653 E32.85494
G0 F9000 X105.095 Y105.944
G1 F1200 X104.063 Y104.912 E32.92775
G0 F9000 X104.063 Y105.477
G1 F1200 X104.766 Y106.180 E32.97735
G0 F9000 X104.429 Y106.408
G1 F1200 X104.063 Y106.043 E33.00314
G0 F9000 X107.780 Y99.577
G1 F1200 X100.364 Y92.162 E33.52634
G0 F9000 X101.031 Y92.263
G1 F1200 X107.710 Y98.942 E33.99758
G0 F9000 X107.638 Y98.304
G1 F1200 X101.707 Y92.373 E34.41605
G0 F9000 X102.506 Y92.606
G1 F1200 X107.352 Y97.453 E34.75799
G0 F9000 X107.000 Y96.535
G1 F1200 X103.447 Y92.982 E35.00868
G0 F9000 X105.023 Y93.992
G1 F1200 X105.261 Y94.230 E35.02547
;LAYER:1
M106 S255
G0 F9000 X102.463 Y102.090 Z0.500
G0 X103.465 Y102.960
G0 X103.465 Y107.042
G0 X99.155 Y107.640
;TYPE:FILL
G1 F1500 X99.295 Y107.780 E35.03205
G0 F9000 X98.676 Y107.889
;TYPE:WALL-INNER
G1 F1500 X97.281 Y107.501 E35.08021
G1 X102.619 Y107.501 E35.25776
G1 X102.113 Y107.702 E35.27586
G1 X100.408 Y107.982 E35.33333
G1 X98.676 Y107.889 E35.39102
G0 F9000 X95.485 Y106.616
G1 F1500 X94.171 Y105.499 E35.44838
G1 X93.126 Y104.124 E35.50582
G1 X92.398 Y102.552 E35.56344
G1 X92.026 Y100.863 E35.62097
G1 X92.026 Y99.138 E35.67834
G1 X92.398 Y97.450 E35.73583
G1 X93.124 Y95.879 E35.79339
G1 X94.167 Y94.506 E35.85074
G1 X95.488 Y93.384 E35.90839
G1 X97.013 Y92.575 E35.96580
G1 X98.683 Y92.112 E36.02344
G1 X100.405 Y92.018 E36.08080
G1 X102.113 Y92.298 E36.13837
G1 X103.720 Y92.940 E36.19592
G1 X105.150 Y93.909 E36.25338
G1 X106.337 Y95.163 E36.31081
G1 X107.229 Y96.643 E36.36828
G1 X107.781 Y98.284 E36.42587
G1 X107.968 Y100.006 E36.48348
G1 X107.781 Y101.717 E36.54072
G1 X107.229 Y103.357 E36.59828
G1 X106.337 Y104.839 E36.65581
G1 X105.148 Y106.093 E36.71329
G1 X103.924 Y106.923 E36.76247
G1 X103.924 Y102.501 E36.90955
G1 X102.576 Y102.501 E36.95438
G1 X102.799 Y102.372 E36.96295
G1 X103.525 Y100.381 E37.03344
G1 X103.664 Y100.003 E37.04683
G1 X102.799 Y97.629 E37.13087
G1 X100.614 Y96.367 E37.21480
G1 X98.129 Y96.805 E37.29872
G1 X96.507 Y98.739 E37.38267
G1 X96.507 Y101.262 E37.46659
G1 X97.546 Y102.501 E37.52037
G1 X96.024 Y102.501 E37.57099
G1 X96.024 Y106.901 E37.71734
G1 X95.485 Y106.616 E37.73762
G0 F9000 X95.260 Y106.950
G1 F1500 X93.880 Y105.778 E37.79783
G1 X92.780 Y104.330 E37.85832
G1 X92.017 Y102.679 E37.91881
G1 X91.626 Y100.908 E37.97913
G1 X91.626 Y99.092 E38.03953
G1 X92.012 Y97.343 E38.09910
G1 X92.770 Y95.692 E38.15953
G1 X92.776 Y95.676 E38.16009
G1 X93.863 Y94.245 E38.21986
G1 X93.876 Y94.228 E38.22058
G1 X95.263 Y93.050 E38.28110
G1 X96.846 Y92.211 E38.34069
G1 X98.596 Y91.721 E38.40113
G1 X98.619 Y91.714 E38.40193
G1 X100.407 Y91.618 E38.46149
G1 X100.429 Y91.617 E38.46222
G1 X102.221 Y91.911 E38.52262
G1 X103.887 Y92.575 E38.58227
G1 X103.905 Y92.582 E38.58291
G1 X105.390 Y93.588 E38.64257
G1 X105.410 Y93.602 E38.64338
G1 X106.643 Y94.904 E38.70302
G1 X107.583 Y96.456 E38.76337
G1 X108.167 Y98.177 E38.82382
G1 X108.174 Y98.199 E38.82459
G1 X108.368 Y99.982 E38.88424
G1 X108.371 Y100.004 E38.88498
G1 X108.174 Y101.802 E38.94514
G1 X107.594 Y103.526 E39.00564
G1 X106.658 Y105.080 E39.06597
G1 X105.409 Y106.400 E39.12642
G1 X103.903 Y107.421 E39.18693
G1 X102.221 Y108.090 E39.24714
G1 X100.428 Y108.384 E39.30757
G1 X98.615 Y108.287 E39.36796
G1 X96.865 Y107.800 E39.42837
G1 X95.260 Y106.950 E39.48878
G0 F9000 X96.424 Y107.101
G1 F1500 X103.524 Y107.101 E39.72493
G1 X103.524 Y102.901 E39.86462
G1 X101.083 Y102.901 E39.94581
G1 X102.473 Y102.098 E39.99920
G1 X103.148 Y100.246 E40.06476
G1 X103.238 Y100.002 E40.07341
G1 X102.473 Y97.903 E40.14772
G1 X100.540 Y96.786 E40.22197
G1 X98.342 Y97.174 E40.29621
G1 X96.907 Y98.885 E40.37048
G1 X96.907 Y101.116 E40.44468
G1 X98.152 Y102.602 E40.50916
G1 X98.343 Y102.827 E40.51898
G1 X98.763 Y102.901 E40.53316
G1 X96.424 Y102.901 E40.61096
G1 X96.424 Y107.101 E40.75065
G0 F9000 X96.824 Y106.701
;TYPE:WALL-OUTER
G1 F1500 X103.124 Y106.701 E40.96019
G1 X103.124 Y103.301 E41.07327
G1 X96.824 Y103.301 E41.28281
G1 X96.824 Y106.701 E41.39590
G0 F9000 X96.717 Y108.174
G1 F1500 X95.032 Y107.281 E41.45932
G1 X93.587 Y106.053 E41.52240
G1 X92.436 Y104.539 E41.58565
G1 X91.635 Y102.806 E41.64915
G1 X91.226 Y100.954 E41.71223
G1 X91.226 Y99.047 E41.77566
G1 X91.635 Y97.195 E41.83874
G1 X92.436 Y95.462 E41.90224
G1 X93.546 Y94.002 E41.96324
G1 X93.587 Y93.948 E41.96550
G1 X95.034 Y92.719 E42.02864
G1 X96.718 Y91.827 E42.09202
G1 X98.487 Y91.336 E42.15308
G1 X98.549 Y91.318 E42.15523
G1 X100.453 Y91.215 E42.21865
G1 X102.325 Y91.522 E42.28175
G1 X104.094 Y92.227 E42.34508
G1 X105.673 Y93.297 E42.40852
G1 X106.978 Y94.675 E42.47165
G1 X107.958 Y96.302 E42.53482
G1 X108.566 Y98.111 E42.59829
G1 X108.765 Y99.937 E42.65939
G1 X108.772 Y100.002 E42.66156
G1 X108.566 Y101.890 E42.72473
G1 X107.958 Y103.699 E42.78820
G1 X106.979 Y105.323 E42.85127
G1 X105.670 Y106.706 E42.91461
G1 X104.094 Y107.774 E42.97793
G1 X102.325 Y108.479 E43.04127
