;Generated from Y-BELT-HOLDER.stl 0d31c4890f9b35f535285a5e891f03ed069bdb14
;Generated with Cura_SteamEngine 15.04
M140 S55.0
M109 T0 S210.0
T0
M190 S55.0

;Basic settings: Layer height: 0.2 Walls: 1.2 Fill: 20
;Print time: ?print_time?
;Filament used: ?filament_amount?m ?filament_weight?g
;Filament cost: ?filament_cost?
;M190 S55 ;Uncomment to add your own bed temperature line
;M109 S210 ;Uncomment to add your own temperature line
G21        ;metric values
G90        ;absolute positioning
M82        ;set extruder to absolute mode
M107       ;start with the fan off
G28 X0 Y0  ;move X/Y to min endstops
G28 Z0     ;move Z to min endstops
G1 Z5.0 F9000 ;move the platform down 15mm
G92 E0                  ;zero the extruded length
G1 F200 E3              ;extrude 3mm of feed stock
G92 E0                  ;zero the extruded length again
G1 F9000
;Put printing message on LCD screen
M117 Printing...

;Layer count: 80
;LAYER:0
M107
G0 F9000 X82.300 Y71.801 Z0.300
;TYPE:SKIRT
G1 F1200 X92.700 Y71.801 E0.51886
G1 X92.700 Y80.301 E0.94292
G1 X117.700 Y80.301 E2.19018
G1 X117.700 Y115.778 E3.96013
G1 X117.699 Y116.325 E3.98742
G1 X117.699 Y119.700 E4.15580
G1 X92.699 Y119.700 E5.40306
G1 X92.699 Y128.200 E5.82713
G1 X82.299 Y128.200 E6.34598
G1 X82.300 Y71.801 E9.15974
G1 F2400 E4.65974
G0 F9000 X86.500 Y76.001
;TYPE:WALL-INNER
G1 F2400 E9.15974
G1 F1200 X88.500 Y76.001 E9.25952
G1 X88.500 Y84.501 E9.68359
G1 X113.500 Y84.501 E10.93084
G1 X113.500 Y115.500 E12.47739
G1 X88.499 Y115.500 E13.72469
G1 X88.499 Y124.000 E14.14876
G1 X86.499 Y124.000 E14.24854
G1 X86.500 Y76.001 E16.64322
G0 F9000 X86.100 Y75.601
G1 F1200 X88.900 Y75.601 E16.78291
G1 X88.900 Y84.101 E17.20698
G1 X113.900 Y84.101 E18.45424
G1 X113.900 Y115.900 E20.04069
G1 X88.899 Y115.900 E21.28800
G1 X88.899 Y124.400 E21.71207
G1 X86.099 Y124.400 E21.85176
G1 X86.100 Y75.601 E24.28635
G0 F9000 X85.700 Y75.201
;TYPE:WALL-OUTER
G1 F1200 X89.300 Y75.201 E24.46596
G1 X89.300 Y83.701 E24.89002
G1 X114.300 Y83.701 E26.13728
G1 X114.299 Y116.300 E27.76365
G1 X89.299 Y116.300 E29.01090
G1 X89.299 Y124.800 E29.43497
G1 X85.699 Y124.800 E29.61457
G1 X85.700 Y75.201 E32.08908
G0 F9000 X86.638 Y76.173
;TYPE:SKIN
G1 F1200 X88.359 Y77.894 E32.21050
G0 F9000 X88.359 Y78.459
G1 F1200 X86.638 Y76.739 E32.33190
G0 F9000 X86.638 Y77.305
G1 F1200 X88.359 Y79.025 E32.45329
G0 F9000 X88.359 Y79.591
G1 F1200 X86.638 Y77.870 E32.57471
G0 F9000 X86.638 Y78.436
G1 F1200 X88.359 Y80.156 E32.69610
G0 F9000 X88.359 Y80.722
G1 F1200 X86.638 Y79.002 E32.81749
G0 F9000 X86.638 Y79.567
G1 F1200 X88.359 Y81.288 E32.93892
G0 F9000 X88.359 Y81.853
G1 F1200 X86.638 Y80.133 E33.06031
G0 F9000 X86.638 Y80.699
G1 F1200 X88.359 Y82.419 E33.18170
G0 F9000 X88.359 Y82.985
G1 F1200 X86.638 Y81.264 E33.30313
G0 F9000 X86.638 Y81.830
G1 F1200 X88.359 Y83.551 E33.42455
G0 F9000 X88.359 Y84.116
G1 F1200 X86.638 Y82.396 E33.54594
G0 F9000 X86.638 Y82.962
G1 F1200 X113.359 Y109.682 E35.43122
G0 F9000 X113.359 Y109.117
G1 F1200 X88.884 Y84.641 E37.15810
G0 F9000 X89.449 Y84.641
G1 F1200 X113.359 Y108.551 E38.84508
G0 F9000 X113.359 Y107.985
G1 F1200 X90.015 Y84.641 E40.49212
G0 F9000 X90.581 Y84.641
G1 F1200 X113.359 Y107.420 E42.09927
G0 F9000 X113.359 Y106.854
G1 F1200 X91.146 Y84.641 E43.66651
G0 F9000 X91.712 Y84.641
G1 F1200 X113.359 Y106.288 E45.19383
G0 F9000 X113.359 Y105.723
G1 F1200 X92.278 Y84.641 E46.68124
G0 F9000 X92.843 Y84.641
G1 F1200 X113.359 Y105.157 E48.12876
G0 F9000 X113.359 Y104.591
G1 F1200 X93.409 Y84.641 E49.53634
G0 F9000 X93.975 Y84.641
G1 F1200 X113.359 Y104.026 E50.90402
G0 F9000 X113.359 Y103.460
G1 F1200 X94.540 Y84.641 E52.23180
G0 F9000 X95.106 Y84.641
G1 F1200 X113.359 Y102.894 E53.51965
G0 F9000 X113.359 Y102.328
G1 F1200 X95.672 Y84.641 E54.76756
G0 F9000 X96.237 Y84.641
G1 F1200 X113.359 Y101.763 E55.97561
G0 F9000 X113.359 Y101.197
G1 F1200 X96.803 Y84.641 E57.14373
G0 F9000 X97.369 Y84.641
G1 F1200 X113.359 Y100.631 E58.27191
G0 F9000 X113.359 Y100.066
G1 F1200 X97.934 Y84.641 E59.36022
G0 F9000 X98.500 Y84.641
G1 F1200 X113.359 Y99.500 E60.40861
G0 F9000 X113.359 Y98.934
G1 F1200 X99.066 Y84.641 E61.41705
G0 F9000 X99.632 Y84.641
G1 F1200 X113.359 Y98.369 E62.38560
G0 F9000 X113.359 Y97.803
G1 F1200 X100.197 Y84.641 E63.31425
G0 F9000 X100.763 Y84.641
G1 F1200 X113.359 Y97.237 E64.20297
G0 F9000 X113.359 Y96.672
G1 F1200 X101.329 Y84.641 E65.05179
G0 F9000 X101.894 Y84.641
G1 F1200 X113.359 Y96.106 E65.86070
G0 F9000 X113.359 Y95.540
G1 F1200 X102.460 Y84.641 E66.62969
G0 F9000 X103.026 Y84.641
G1 F1200 X113.359 Y94.975 E67.35877
G0 F9000 X113.359 Y94.409
G1 F1200 X103.591 Y84.641 E68.04796
G0 F9000 X104.157 Y84.641
G1 F1200 X113.359 Y93.843 E68.69721
G0 F9000 X113.359 Y93.277
G1 F1200 X104.723 Y84.641 E69.30652
G0 F9000 X105.288 Y84.641
G1 F1200 X113.359 Y92.712 E69.87598
G0 F9000 X113.359 Y92.146
G1 F1200 X105.854 Y84.641 E70.40549
G0 F9000 X106.420 Y84.641
G1 F1200 X113.359 Y91.580 E70.89508
G0 F9000 X113.359 Y91.015
G1 F1200 X106.985 Y84.641 E71.34480
G0 F9000 X107.551 Y84.641
G1 F1200 X113.359 Y90.449 E71.75458
G0 F9000 X113.359 Y89.883
G1 F1200 X108.117 Y84.641 E72.12444
G0 F9000 X108.683 Y84.641
G1 F1200 X113.359 Y89.318 E72.45439
G0 F9000 X113.359 Y88.752
G1 F1200 X109.248 Y84.641 E72.74444
G0 F9000 X109.814 Y84.641
G1 F1200 X113.359 Y88.186 E72.99456
G0 F9000 X113.359 Y87.621
G1 F1200 X110.380 Y84.641 E73.20478
G0 F9000 X110.945 Y84.641
G1 F1200 X113.359 Y87.055 E73.37510
G0 F9000 X113.359 Y86.489
G1 F1200 X111.511 Y84.641 E73.50549
G0 F9000 X112.077 Y84.641
G1 F1200 X113.359 Y85.924 E73.59597
G0 F9000 X113.359 Y85.358
G1 F1200 X112.642 Y84.641 E73.64656
G0 F9000 X113.208 Y84.641
G1 F1200 X113.359 Y84.792 E73.65722
G0 F9000 X113.359 Y110.248
G1 F1200 X86.638 Y83.527 E75.54253
G0 F9000 X86.638 Y84.093
G1 F1200 X113.359 Y110.814 E77.42784
G0 F9000 X113.359 Y111.379
G1 F1200 X86.638 Y84.659 E79.31311
G0 F9000 X86.638 Y85.224
G1 F1200 X113.359 Y111.945 E81.19843
G0 F9000 X113.359 Y112.511
G1 F1200 X86.638 Y85.790 E83.08374
G0 F9000 X86.638 Y86.356
G1 F1200 X113.359 Y113.076 E84.96901
G0 F9000 X113.359 Y113.642
G1 F1200 X86.638 Y86.921 E86.85432
G0 F9000 X86.638 Y87.487
G1 F1200 X113.359 Y114.208 E88.73963
G0 F9000 X113.359 Y114.774
G1 F1200 X86.638 Y88.053 E90.62494
G0 F9000 X86.638 Y88.618
G1 F1200 X113.359 Y115.339 E92.51026
G0 F9000 X112.813 Y115.359
G1 F1200 X86.638 Y89.184 E94.35704
G0 F9000 X86.638 Y89.750
G1 F1200 X112.248 Y115.359 E96.16393
G0 F9000 X111.682 Y115.359
G1 F1200 X86.638 Y90.315 E97.93092
G0 F9000 X86.638 Y90.881
G1 F1200 X111.116 Y115.359 E99.65798
G0 F9000 X110.551 Y115.359
G1 F1200 X86.638 Y91.447 E101.34513
G0 F9000 X86.638 Y92.012
G1 F1200 X109.985 Y115.359 E102.99239
G0 F9000 X109.419 Y115.359
G1 F1200 X86.638 Y92.578 E104.59971
G0 F9000 X86.638 Y93.144
G1 F1200 X108.854 Y115.359 E106.16713
G0 F9000 X108.288 Y115.359
G1 F1200 X86.638 Y93.710 E107.69462
G0 F9000 X86.638 Y94.275
G1 F1200 X107.722 Y115.359 E109.18221
G0 F9000 X107.157 Y115.359
G1 F1200 X86.638 Y94.841 E110.62991
G0 F9000 X86.638 Y95.407
G1 F1200 X106.591 Y115.359 E112.03766
G0 F9000 X106.025 Y115.359
G1 F1200 X86.638 Y95.972 E113.40552
G0 F9000 X86.638 Y96.538
G1 F1200 X105.460 Y115.359 E114.73348
G0 F9000 X104.894 Y115.359
G1 F1200 X86.638 Y97.104 E116.02150
G0 F9000 X86.638 Y97.669
G1 F1200 X104.328 Y115.359 E117.26963
G0 F9000 X103.762 Y115.359
G1 F1200 X86.638 Y98.235 E118.47782
G0 F9000 X86.638 Y98.801
G1 F1200 X103.197 Y115.359 E119.64611
G0 F9000 X102.631 Y115.359
G1 F1200 X86.638 Y99.366 E120.77450
G0 F9000 X86.638 Y99.932
G1 F1200 X102.065 Y115.359 E121.86296
G0 F9000 X101.500 Y115.359
G1 F1200 X86.638 Y100.498 E122.91152
G0 F9000 X86.638 Y101.063
G1 F1200 X100.934 Y115.359 E123.92018
G0 F9000 X100.368 Y115.359
G1 F1200 X86.638 Y101.629 E124.88890
G0 F9000 X86.638 Y102.195
G1 F1200 X99.803 Y115.359 E125.81773
G0 F9000 X99.237 Y115.359
G1 F1200 X86.638 Y102.761 E126.70662
G0 F9000 X86.638 Y103.326
G1 F1200 X98.671 Y115.359 E127.55562
G0 F9000 X98.106 Y115.359
G1 F1200 X86.638 Y103.892 E128.36471
G0 F9000 X86.638 Y104.458
G1 F1200 X97.540 Y115.359 E129.13387
G0 F9000 X96.974 Y115.359
G1 F1200 X86.638 Y105.023 E129.86313
G0 F9000 X86.638 Y105.589
G1 F1200 X96.409 Y115.359 E130.55249
G0 F9000 X95.843 Y115.359
G1 F1200 X86.638 Y106.155 E131.20192
G0 F9000 X86.638 Y106.720
G1 F1200 X95.277 Y115.359 E131.81145
G0 F9000 X94.712 Y115.359
G1 F1200 X86.638 Y107.286 E132.38108
G0 F9000 X86.638 Y107.852
G1 F1200 X94.146 Y115.359 E132.91077
G0 F9000 X93.580 Y115.359
G1 F1200 X86.638 Y108.417 E133.40057
G0 F9000 X86.638 Y108.983
G1 F1200 X93.014 Y115.359 E133.85043
G0 F9000 X92.449 Y115.359
G1 F1200 X86.638 Y109.549 E134.26039
G0 F9000 X86.638 Y110.114
G1 F1200 X91.883 Y115.359 E134.63045
G0 F9000 X91.317 Y115.359
G1 F1200 X86.638 Y110.680 E134.96058
G0 F9000 X86.638 Y111.246
G1 F1200 X90.752 Y115.359 E135.25081
G0 F9000 X90.186 Y115.359
G1 F1200 X86.638 Y111.811 E135.50114
G0 F9000 X86.638 Y112.377
G1 F1200 X89.620 Y115.359 E135.71154
G0 F9000 X89.055 Y115.359
G1 F1200 X86.638 Y112.943 E135.88204
G0 F9000 X86.638 Y113.509
G1 F1200 X88.489 Y115.359 E136.01260
G0 F9000 X88.359 Y115.795
G1 F1200 X86.638 Y114.074 E136.13402
G0 F9000 X86.638 Y114.640
G1 F1200 X88.359 Y116.360 E136.25542
G0 F9000 X88.359 Y116.926
G1 F1200 X86.638 Y115.206 E136.37681
G0 F9000 X86.638 Y115.771
G1 F1200 X88.359 Y117.492 E136.49823
G0 F9000 X88.359 Y118.057
G1 F1200 X86.638 Y116.337 E136.61962
G0 F9000 X86.638 Y116.903
G1 F1200 X88.359 Y118.623 E136.74101
G0 F9000 X88.359 Y119.189
G1 F1200 X86.638 Y117.468 E136.86244
G0 F9000 X86.638 Y118.034
G1 F1200 X88.359 Y119.754 E136.98383
G0 F9000 X88.359 Y120.320
G1 F1200 X86.638 Y118.600 E137.10522
G0 F9000 X86.638 Y119.165
G1 F1200 X88.359 Y120.886 E137.22665
G0 F9000 X88.359 Y121.451
G1 F1200 X86.638 Y119.731 E137.34804
G0 F9000 X86.638 Y120.297
G1 F1200 X88.359 Y122.017 E137.46943
G0 F9000 X88.359 Y122.583
G1 F1200 X86.638 Y120.862 E137.59085
G0 F9000 X86.638 Y121.428
G1 F1200 X88.359 Y123.149 E137.71228
G0 F9000 X88.359 Y123.714
G1 F1200 X86.638 Y121.994 E137.83367
G0 F9000 X86.638 Y122.559
G1 F1200 X87.937 Y123.858 E137.92532
G0 F9000 X87.372 Y123.858
G1 F1200 X86.638 Y123.125 E137.97707
G0 F9000 X86.638 Y123.691
G1 F1200 X86.806 Y123.858 E137.98889
G0 F9000 X88.359 Y77.328
G1 F1200 X87.172 Y76.141 E138.07264
G0 F9000 X87.737 Y76.141
G1 F1200 X88.359 Y76.762 E138.11649
;LAYER:1
M106 S255
G0 F9000 X88.500 Y76.001 Z0.500
;TYPE:WALL-INNER
G1 F1500 X88.500 Y84.501 E138.39920
G1 X113.500 Y84.501 E139.23070
G1 X113.499 Y115.500 E140.26174
G1 X88.499 Y115.500 E141.09324
G1 X88.499 Y124.000 E141.37595
G1 X86.499 Y124.000 E141.44247
G1 X86.500 Y76.001 E143.03892
G1 X88.500 Y76.001 E143.10544
G0 F9000 X88.900 Y75.601
G1 F1500 X88.900 Y84.101 E143.38816
G1 X113.900 Y84.101 E144.21966
G1 X113.899 Y115.900 E145.27730
G1 X88.899 Y115.900 E146.10880
G1 X88.899 Y124.400 E146.39151
G1 X86.099 Y124.400 E146.48464
G1 X86.100 Y75.601 E148.10770
G1 X88.900 Y75.601 E148.20083
G0 F9000 X89.300 Y75.201
;TYPE:WALL-OUTER
G1 F1500 X89.300 Y83.701 E148.48354
G1 X114.300 Y83.701 E149.31504
G1 X114.299 Y116.300 E150.39929
G1 X89.299 Y116.300 E151.23080
G1 X89.299 Y124.800 E151.51351
G1 X85.699 Y124.800 E151.63324
G1 X85.700 Y75.201 E153.28291
G1 X89.300 Y75.201 E153.40265
G0 F9000 X88.191 Y76.140
;TYPE:SKIN
G1 F1500 X86.638 Y77.692 E153.47567
G0 F9000 X86.638 Y78.258
G1 F1500 X88.359 Y76.537 E153.55662
G0 F9000 X88.359 Y77.103
G1 F1500 X86.638 Y78.824 E153.63757
G0 F9000 X86.638 Y79.389
G1 F1500 X88.359 Y77.669 E153.71850
G0 F9000 X88.359 Y78.235
G1 F1500 X86.638 Y79.955 E153.79943
G0 F9000 X86.638 Y80.521
G1 F1500 X88.359 Y78.800 E153.88038
G0 F9000 X88.359 Y79.366
G1 F1500 X86.638 Y81.086 E153.96131
G0 F9000 X86.638 Y81.652
G1 F1500 X88.359 Y79.932 E154.04223
G0 F9000 X86.638 Y77.126
G1 F1500 X87.625 Y76.140 E154.08864
G0 F9000 X87.059 Y76.140
G1 F1500 X86.638 Y76.561 E154.10844
G0 F9000 X88.359 Y80.497
G1 F1500 X86.638 Y82.218 E154.18939
G0 F9000 X86.638 Y82.783
G1 F1500 X88.359 Y81.063 E154.27032
G0 F9000 X88.359 Y81.629
G1 F1500 X86.638 Y83.349 E154.35124
G0 F9000 X86.638 Y83.915
G1 F1500 X88.359 Y82.194 E154.43219
G0 F9000 X88.359 Y82.760
G1 F1500 X86.638 Y84.480 E154.51312
G0 F9000 X86.638 Y85.046
G1 F1500 X88.359 Y83.326 E154.59405
G0 F9000 X88.359 Y83.891
G1 F1500 X86.638 Y85.612 E154.67500
G0 F9000 X86.638 Y86.177
G1 F1500 X88.359 Y84.457 E154.75593
G0 F9000 X88.741 Y84.640
G1 F1500 X86.638 Y86.743 E154.85484
G0 F9000 X86.638 Y87.309
G1 F1500 X89.307 Y84.640 E154.98039
G0 F9000 X89.873 Y84.640
G1 F1500 X86.638 Y87.874 E155.13253
G0 F9000 X86.638 Y88.440
G1 F1500 X90.438 Y84.640 E155.31127
G0 F9000 X91.004 Y84.640
G1 F1500 X86.638 Y89.006 E155.51663
G0 F9000 X86.638 Y89.572
G1 F1500 X91.570 Y84.640 E155.74862
G0 F9000 X92.136 Y84.640
G1 F1500 X86.638 Y90.137 E156.00720
G0 F9000 X86.638 Y90.703
G1 F1500 X92.701 Y84.640 E156.29239
G0 F9000 X93.267 Y84.640
G1 F1500 X86.638 Y91.269 E156.60419
G0 F9000 X86.638 Y91.834
G1 F1500 X93.833 Y84.640 E156.94260
G0 F9000 X94.398 Y84.640
G1 F1500 X86.638 Y92.400 E157.30761
G0 F9000 X86.638 Y92.966
G1 F1500 X94.964 Y84.640 E157.69924
G0 F9000 X95.530 Y84.640
G1 F1500 X86.638 Y93.531 E158.11747
G0 F9000 X86.638 Y94.097
G1 F1500 X96.095 Y84.640 E158.56229
G0 F9000 X96.661 Y84.640
G1 F1500 X86.638 Y94.663 E159.03375
G0 F9000 X86.638 Y95.228
G1 F1500 X97.227 Y84.640 E159.53180
G0 F9000 X97.792 Y84.640
G1 F1500 X86.638 Y95.794 E160.05645
G0 F9000 X86.638 Y96.360
G1 F1500 X98.358 Y84.640 E160.60772
G0 F9000 X98.924 Y84.640
G1 F1500 X86.638 Y96.925 E161.18559
G0 F9000 X86.638 Y97.491
G1 F1500 X99.489 Y84.640 E161.79006
G0 F9000 X100.055 Y84.640
G1 F1500 X86.638 Y98.057 E162.42116
G0 F9000 X86.638 Y98.623
G1 F1500 X100.621 Y84.640 E163.07888
G0 F9000 X101.186 Y84.640
G1 F1500 X86.638 Y99.188 E163.76317
G0 F9000 X86.638 Y99.754
G1 F1500 X101.752 Y84.640 E164.47408
G0 F9000 X102.318 Y84.640
G1 F1500 X86.638 Y100.320 E165.21162
G0 F9000 X86.638 Y100.885
G1 F1500 X102.884 Y84.640 E165.97576
G0 F9000 X103.449 Y84.640
G1 F1500 X86.638 Y101.451 E166.76650
G0 F9000 X86.638 Y102.017
G1 F1500 X104.015 Y84.640 E167.58386
G0 F9000 X104.581 Y84.640
G1 F1500 X86.638 Y102.582 E168.42782
G0 F9000 X86.638 Y103.148
G1 F1500 X105.146 Y84.640 E169.29838
G0 F9000 X105.712 Y84.640
G1 F1500 X86.638 Y103.714 E170.19556
G0 F9000 X86.638 Y104.279
G1 F1500 X106.278 Y84.640 E171.11935
G0 F9000 X106.843 Y84.640
G1 F1500 X86.638 Y104.845 E172.06973
G0 F9000 X86.638 Y105.411
G1 F1500 X107.409 Y84.640 E173.04673
G0 F9000 X107.975 Y84.640
G1 F1500 X86.638 Y105.976 E174.05033
G0 F9000 X86.638 Y106.542
G1 F1500 X108.540 Y84.640 E175.08054
G0 F9000 X109.106 Y84.640
G1 F1500 X86.638 Y107.108 E176.13736
G0 F9000 X86.638 Y107.673
G1 F1500 X109.672 Y84.640 E177.22079
G0 F9000 X110.237 Y84.640
G1 F1500 X86.638 Y108.239 E178.33081
G0 F9000 X86.638 Y108.805
G1 F1500 X110.803 Y84.640 E179.46746
G0 F9000 X111.369 Y84.640
G1 F1500 X86.638 Y109.371 E180.63073
G0 F9000 X86.638 Y109.936
G1 F1500 X111.935 Y84.640 E181.82060
G0 F9000 X112.500 Y84.640
G1 F1500 X86.638 Y110.502 E183.03707
G0 F9000 X86.638 Y111.068
G1 F1500 X113.066 Y84.640 E184.28016
G0 F9000 X113.359 Y84.913
G1 F1500 X86.638 Y111.633 E185.53701
G0 F9000 X86.638 Y112.199
G1 F1500 X113.359 Y85.479 E186.79386
G0 F9000 X113.359 Y86.044
G1 F1500 X86.638 Y112.765 E188.05074
G0 F9000 X86.638 Y113.330
G1 F1500 X113.359 Y86.610 E189.30759
G0 F9000 X113.359 Y87.176
G1 F1500 X86.638 Y113.896 E190.56444
G0 F9000 X86.638 Y114.462
G1 F1500 X113.359 Y87.742 E191.82129
G0 F9000 X113.359 Y88.307
G1 F1500 X86.638 Y115.027 E193.07814
G0 F9000 X86.638 Y115.593
G1 F1500 X113.359 Y88.873 E194.33499
G0 F9000 X113.359 Y89.439
G1 F1500 X86.638 Y116.159 E195.59184
G0 F9000 X86.638 Y116.724
G1 F1500 X113.359 Y90.004 E196.84869
G0 F9000 X113.359 Y90.570
G1 F1500 X88.570 Y115.359 E198.01469
G0 F9000 X88.359 Y115.570
G1 F1500 X86.638 Y117.290 E198.09562
G0 F9000 X86.638 Y117.856
G1 F1500 X88.359 Y116.135 E198.17657
G0 F9000 X88.359 Y116.701
G1 F1500 X86.638 Y118.422 E198.25752
G0 F9000 X86.638 Y118.987
G1 F1500 X88.359 Y117.267 E198.33844
