;Generated from Y-IDLER.stl 93f78ab7aee285e502956c98ed7fbc4f237b2936
;Generated with Cura_SteamEngine 15.04
M140 S55.0
M109 T0 S210.0
T0
M190 S55.0

;Basic settings: Layer height: 0.2 Walls: 1.2 Fill: 20
;Print time: ?print_time?
;Filament used: ?filament_amount?m ?filament_weight?g
;Filament cost: ?filament_cost?
;M190 S55 ;Uncomment to add your own bed temperature line
;M109 S210 ;Uncomment to add your own temperature line
G21        ;metric values
G90        ;absolute positioning
M82        ;set extruder to absolute mode
M107       ;start with the fan off
G28 X0 Y0  ;move X/Y to min endstops
G28 Z0     ;move Z to min endstops
G1 Z5.0 F9000 ;move the platform down 15mm
G92 E0                  ;zero the extruded length
G1 F200 E3              ;extrude 3mm of feed stock
G92 E0                  ;zero the extruded length again
G1 F9000
;Put printing message on LCD screen
M117 Printing...

;Layer count: 112
;LAYER:0
M107
G0 F9000 X88.300 Y65.050 Z0.300
;TYPE:SKIRT
G1 F1200 X111.700 Y65.050 E1.16743
G1 X111.700 Y134.950 E4.65476
G1 X102.300 Y134.950 E5.12372
G1 X102.300 Y103.450 E6.69527
G1 X97.700 Y103.450 E6.92476
G1 X97.700 Y134.950 E8.49630
G1 X88.300 Y134.950 E8.96527
G1 X88.300 Y65.050 E12.45259
G1 F2400 E7.95259
G0 F9000 X92.500 Y69.250
;TYPE:WALL-INNER
G1 F2400 E12.45259
G1 F1200 X107.500 Y69.250 E13.20095
G1 X107.500 Y130.750 E16.26920
G1 X106.500 Y130.750 E16.31909
G1 X106.500 Y99.250 E17.89063
G1 X93.500 Y99.250 E18.53920
G1 X93.500 Y130.750 E20.11074
G1 X92.500 Y130.750 E20.16063
G1 X92.500 Y69.250 E23.22888
G0 F9000 X92.100 Y68.850
G1 F1200 X107.900 Y68.850 E24.01714
G1 X107.900 Y131.150 E27.12530
G1 X106.100 Y131.150 E27.21511
G1 X106.100 Y99.650 E28.78665
G1 X93.900 Y99.650 E29.39531
G1 X93.900 Y131.150 E30.96685
G1 X92.100 Y131.150 E31.05665
G1 X92.100 Y68.850 E34.16481
G0 F9000 X91.700 Y68.450
;TYPE:WALL-OUTER
G1 F1200 X108.300 Y68.450 E34.99299
G1 X108.300 Y131.550 E38.14106
G1 X105.700 Y131.550 E38.27077
G1 X105.700 Y100.050 E39.84232
G1 X94.300 Y100.050 E40.41106
G1 X94.300 Y131.550 E41.98261
G1 X91.700 Y131.550 E42.11232
G1 X91.700 Y68.450 E45.26039
G0 F9000 X92.866 Y69.390
;TYPE:SKIN
G1 F1200 X107.360 Y83.884 E46.28302
G0 F9000 X107.360 Y84.449
G1 F1200 X92.639 Y69.729 E47.32163
G0 F9000 X92.639 Y70.294
G1 F1200 X107.360 Y85.015 E48.36028
G0 F9000 X107.360 Y85.581
G1 F1200 X92.639 Y70.860 E49.39892
G0 F9000 X92.639 Y71.426
G1 F1200 X107.360 Y86.146 E50.43754
G0 F9000 X107.360 Y86.712
G1 F1200 X92.639 Y71.991 E51.47618
G0 F9000 X92.639 Y72.557
G1 F1200 X107.360 Y87.278 E52.51483
G0 F9000 X107.360 Y87.843
G1 F1200 X92.639 Y73.123 E53.55344
G0 F9000 X92.639 Y73.689
G1 F1200 X107.360 Y88.409 E54.59205
G0 F9000 X107.360 Y88.975
G1 F1200 X92.639 Y74.254 E55.63070
G0 F9000 X92.639 Y74.820
G1 F1200 X107.360 Y89.540 E56.66931
G0 F9000 X107.360 Y90.106
G1 F1200 X92.639 Y75.386 E57.70792
G0 F9000 X92.639 Y75.951
G1 F1200 X107.360 Y90.672 E58.74656
G0 F9000 X107.360 Y91.237
G1 F1200 X92.639 Y76.517 E59.78517
G0 F9000 X92.639 Y77.083
G1 F1200 X107.360 Y91.803 E60.82378
G0 F9000 X107.360 Y92.369
G1 F1200 X92.639 Y77.648 E61.86243
G0 F9000 X92.639 Y78.214
G1 F1200 X107.360 Y92.935 E62.90108
G0 F9000 X107.360 Y93.500
G1 F1200 X92.639 Y78.780 E63.93969
G0 F9000 X92.639 Y79.345
G1 F1200 X107.360 Y94.066 E64.97833
G0 F9000 X107.360 Y94.632
G1 F1200 X92.639 Y79.911 E66.01698
G0 F9000 X93.432 Y69.390
G1 F1200 X107.360 Y83.318 E66.99968
G0 F9000 X107.360 Y82.752
G1 F1200 X93.997 Y69.390 E67.94247
G0 F9000 X94.563 Y69.390
G1 F1200 X107.360 Y82.187 E68.84537
G0 F9000 X107.360 Y81.621
G1 F1200 X95.129 Y69.390 E69.70833
G0 F9000 X95.694 Y69.390
G1 F1200 X107.360 Y81.055 E70.53140
G0 F9000 X107.360 Y80.489
G1 F1200 X96.260 Y69.390 E71.31453
G0 F9000 X96.826 Y69.390
G1 F1200 X107.360 Y79.924 E72.05776
G0 F9000 X107.360 Y79.358
G1 F1200 X97.391 Y69.390 E72.76109
G0 F9000 X97.957 Y69.390
G1 F1200 X107.360 Y78.792 E73.42449
G0 F9000 X107.360 Y78.227
G1 F1200 X98.523 Y69.390 E74.04798
G0 F9000 X99.088 Y69.390
G1 F1200 X107.360 Y77.661 E74.63158
G0 F9000 X107.360 Y77.095
G1 F1200 X99.654 Y69.390 E75.17525
G0 F9000 X100.220 Y69.390
G1 F1200 X107.360 Y76.530 E75.67901
G0 F9000 X107.360 Y75.964
G1 F1200 X100.786 Y69.390 E76.14284
G0 F9000 X101.351 Y69.390
G1 F1200 X107.360 Y75.398 E76.56678
G0 F9000 X107.360 Y74.833
G1 F1200 X101.917 Y69.390 E76.95081
G0 F9000 X102.483 Y69.390
G1 F1200 X107.360 Y74.267 E77.29491
G0 F9000 X107.360 Y73.701
G1 F1200 X103.048 Y69.390 E77.59911
G0 F9000 X103.614 Y69.390
G1 F1200 X107.360 Y73.136 E77.86341
G0 F9000 X107.360 Y72.570
G1 F1200 X104.180 Y69.390 E78.08777
G0 F9000 X104.745 Y69.390
G1 F1200 X107.360 Y72.004 E78.27224
G0 F9000 X107.360 Y71.438
G1 F1200 X105.311 Y69.390 E78.41677
G0 F9000 X105.877 Y69.390
G1 F1200 X107.360 Y70.873 E78.52141
G0 F9000 X107.360 Y70.307
G1 F1200 X106.442 Y69.390 E78.58614
G0 F9000 X107.008 Y69.390
G1 F1200 X107.360 Y69.741 E78.61094
G0 F9000 X92.639 Y80.477
G1 F1200 X107.360 Y95.197 E79.64955
G0 F9000 X107.360 Y95.763
G1 F1200 X92.639 Y81.042 E80.68820
G0 F9000 X92.639 Y81.608
G1 F1200 X107.360 Y96.329 E81.72685
G0 F9000 X107.360 Y96.894
G1 F1200 X92.639 Y82.174 E82.76546
G0 F9000 X92.639 Y82.739
G1 F1200 X107.360 Y97.460 E83.80410
G0 F9000 X107.360 Y98.026
G1 F1200 X92.639 Y83.305 E84.84275
G0 F9000 X92.639 Y83.871
G1 F1200 X107.360 Y98.591 E85.88136
G0 F9000 X107.360 Y99.157
G1 F1200 X92.639 Y84.437 E86.91997
G0 F9000 X92.639 Y85.002
G1 F1200 X107.360 Y99.723 E87.95862
G0 F9000 X107.360 Y100.288
G1 F1200 X106.639 Y99.568 E88.00945
G0 F9000 X106.180 Y99.109
G1 F1200 X92.639 Y85.568 E88.96484
G0 F9000 X92.639 Y86.134
G1 F1200 X105.614 Y99.109 E89.88030
G0 F9000 X105.049 Y99.109
G1 F1200 X92.639 Y86.699 E90.75589
G0 F9000 X92.639 Y87.265
G1 F1200 X104.483 Y99.109 E91.59155
G0 F9000 X103.917 Y99.109
G1 F1200 X92.639 Y87.831 E92.38727
G0 F9000 X92.639 Y88.396
G1 F1200 X103.352 Y99.109 E93.14313
G0 F9000 X102.786 Y99.109
G1 F1200 X92.639 Y88.962 E93.85906
G0 F9000 X92.639 Y89.528
G1 F1200 X102.220 Y99.109 E94.53505
G0 F9000 X101.655 Y99.109
G1 F1200 X92.639 Y90.093 E95.17118
G0 F9000 X92.639 Y90.659
G1 F1200 X101.089 Y99.109 E95.76737
G0 F9000 X100.523 Y99.109
G1 F1200 X92.639 Y91.225 E96.32363
G0 F9000 X92.639 Y91.790
G1 F1200 X99.957 Y99.108 E96.83995
G0 F9000 X99.391 Y99.108
G1 F1200 X92.639 Y92.356 E97.31634
G0 F9000 X92.639 Y92.922
G1 F1200 X98.825 Y99.108 E97.75280
G0 F9000 X98.260 Y99.108
G1 F1200 X92.639 Y93.488 E98.14936
G0 F9000 X92.639 Y94.053
G1 F1200 X97.694 Y99.108 E98.50601
G0 F9000 X97.128 Y99.108
G1 F1200 X92.639 Y94.619 E98.82274
G0 F9000 X92.639 Y95.185
G1 F1200 X96.563 Y99.108 E99.09956
G0 F9000 X95.997 Y99.108
G1 F1200 X92.639 Y95.750 E99.33649
G0 F9000 X92.639 Y96.316
G1 F1200 X95.431 Y99.108 E99.53348
G0 F9000 X94.866 Y99.108
G1 F1200 X92.639 Y96.882 E99.69057
G0 F9000 X92.639 Y97.447
G1 F1200 X94.300 Y99.108 E99.80776
G0 F9000 X93.734 Y99.108
G1 F1200 X92.639 Y98.013 E99.88502
G0 F9000 X92.639 Y98.579
G1 F1200 X93.360 Y99.299 E99.93585
G0 F9000 X93.360 Y99.865
G1 F1200 X92.639 Y99.144 E99.98672
G0 F9000 X92.639 Y99.710
G1 F1200 X93.360 Y100.431 E100.03759
G0 F9000 X93.360 Y100.996
G1 F1200 X92.639 Y100.276 E100.08843
G0 F9000 X92.639 Y100.841
G1 F1200 X93.360 Y101.562 E100.13930
G0 F9000 X93.360 Y102.128
G1 F1200 X92.639 Y101.407 E100.19017
G0 F9000 X92.639 Y101.973
G1 F1200 X93.360 Y102.693 E100.24101
G0 F9000 X93.360 Y103.259
G1 F1200 X92.639 Y102.538 E100.29188
G0 F9000 X92.639 Y103.104
G1 F1200 X93.360 Y103.825 E100.34275
G0 F9000 X93.360 Y104.390
G1 F1200 X92.639 Y103.670 E100.39358
G0 F9000 X92.639 Y104.236
G1 F1200 X93.360 Y104.956 E100.44442
G0 F9000 X93.360 Y105.522
G1 F1200 X92.639 Y104.801 E100.49529
G0 F9000 X92.639 Y105.367
G1 F1200 X93.360 Y106.087 E100.54612
G0 F9000 X93.360 Y106.653
G1 F1200 X92.639 Y105.933 E100.59696
G0 F9000 X92.639 Y106.498
G1 F1200 X93.360 Y107.219 E100.64783
G0 F9000 X93.360 Y107.784
G1 F1200 X92.639 Y107.064 E100.69866
G0 F9000 X92.639 Y107.630
G1 F1200 X93.360 Y108.350 E100.74950
G0 F9000 X93.360 Y108.916
G1 F1200 X92.639 Y108.195 E100.80037
G0 F9000 X92.639 Y108.761
G1 F1200 X93.360 Y109.482 E100.85124
G0 F9000 X93.360 Y110.047
G1 F1200 X92.639 Y109.327 E100.90207
G0 F9000 X92.639 Y109.892
G1 F1200 X93.360 Y110.613 E100.95295
G0 F9000 X93.360 Y111.179
G1 F1200 X92.639 Y110.458 E101.00382
G0 F9000 X92.639 Y111.024
G1 F1200 X93.360 Y111.744 E101.05465
G0 F9000 X93.360 Y112.310
G1 F1200 X92.639 Y111.589 E101.10552
G0 F9000 X92.639 Y112.155
G1 F1200 X93.360 Y112.876 E101.15639
G0 F9000 X93.360 Y113.441
G1 F1200 X92.639 Y112.721 E101.20723
G0 F9000 X92.639 Y113.286
G1 F1200 X93.360 Y114.007 E101.25810
G0 F9000 X93.360 Y114.573
G1 F1200 X92.639 Y113.852 E101.30897
G0 F9000 X92.639 Y114.418
G1 F1200 X93.360 Y115.138 E101.35980
G0 F9000 X93.360 Y115.704
G1 F1200 X92.639 Y114.984 E101.41064
G0 F9000 X92.639 Y115.549
G1 F1200 X93.360 Y116.270 E101.46151
G0 F9000 X93.360 Y116.835
G1 F1200 X92.639 Y116.115 E101.51234
G0 F9000 X92.639 Y116.681
G1 F1200 X93.360 Y117.401 E101.56318
G0 F9000 X93.360 Y117.967
G1 F1200 X92.639 Y117.246 E101.61405
G0 F9000 X92.639 Y117.812
G1 F1200 X93.360 Y118.533 E101.66492
G0 F9000 X93.360 Y119.098
G1 F1200 X92.639 Y118.378 E101.71575
G0 F9000 X92.639 Y118.943
G1 F1200 X93.360 Y119.664 E101.76663
G0 F9000 X93.360 Y120.230
G1 F1200 X92.639 Y119.509 E101.81750
G0 F9000 X92.639 Y120.075
G1 F1200 X93.360 Y120.795 E101.86833
G0 F9000 X93.360 Y121.361
G1 F1200 X92.639 Y120.640 E101.91920
G0 F9000 X92.639 Y121.206
G1 F1200 X93.360 Y121.927 E101.97007
G0 F9000 X93.360 Y122.492
G1 F1200 X92.639 Y121.772 E102.02091
G0 F9000 X92.639 Y122.337
G1 F1200 X93.360 Y123.058 E102.07178
G0 F9000 X93.360 Y123.624
G1 F1200 X92.639 Y122.903 E102.12265
G0 F9000 X92.639 Y123.469
G1 F1200 X93.360 Y124.189 E102.17348
G0 F9000 X93.360 Y124.755
G1 F1200 X92.639 Y124.035 E102.22432
G0 F9000 X92.639 Y124.600
G1 F1200 X93.360 Y125.321 E102.27519
G0 F9000 X93.360 Y125.886
G1 F1200 X92.639 Y125.166 E102.32602
G0 F9000 X92.639 Y125.732
G1 F1200 X93.360 Y126.452 E102.37686
G0 F9000 X93.360 Y127.018
G1 F1200 X92.639 Y126.297 E102.42773
G0 F9000 X92.639 Y126.863
G1 F1200 X93.360 Y127.583 E102.47856
G0 F9000 X93.360 Y128.149
G1 F1200 X92.639 Y127.429 E102.52940
G0 F9000 X92.639 Y127.994
G1 F1200 X93.360 Y128.715 E102.58027
G0 F9000 X93.360 Y129.281
G1 F1200 X92.639 Y128.560 E102.63114
G0 F9000 X92.639 Y129.126
G1 F1200 X93.360 Y129.846 E102.68198
G0 F9000 X93.360 Y130.412
G1 F1200 X92.639 Y129.691 E102.73285
G0 F9000 X92.639 Y130.257
G1 F1200 X92.990 Y130.608 E102.75761
G0 F9000 X93.959 Y99.709
G0 X106.041 Y99.709
G0 X106.639 Y130.115
G1 F1200 X107.133 Y130.609 E102.79247
G0 F9000 X107.360 Y130.270
G1 F1200 X106.639 Y129.549 E102.84334
G0 F9000 X106.639 Y128.984
G1 F1200 X107.360 Y129.704 E102.89417
G0 F9000 X107.360 Y129.138
G1 F1200 X106.639 Y128.418 E102.94501
G0 F9000 X106.639 Y127.852
G1 F1200 X107.360 Y128.573 E102.99588
G0 F9000 X107.360 Y128.007
G1 F1200 X106.639 Y127.286 E103.04675
G0 F9000 X106.639 Y126.721
G1 F1200 X107.360 Y127.441 E103.09758
G0 F9000 X107.360 Y126.876
G1 F1200 X106.639 Y126.155 E103.14845
G0 F9000 X106.639 Y125.589
G1 F1200 X107.360 Y126.310 E103.19932
G0 F9000 X107.360 Y125.744
G1 F1200 X106.639 Y125.024 E103.25016
G0 F9000 X106.639 Y124.458
G1 F1200 X107.360 Y125.179 E103.30103
G0 F9000 X107.360 Y124.613
G1 F1200 X106.639 Y123.892 E103.35190
G0 F9000 X106.639 Y123.327
G1 F1200 X107.360 Y124.047 E103.40273
G0 F9000 X107.360 Y123.482
G1 F1200 X106.639 Y122.761 E103.45361
G0 F9000 X106.639 Y122.195
G1 F1200 X107.360 Y122.916 E103.50448
G0 F9000 X107.360 Y122.350
G1 F1200 X106.639 Y121.630 E103.55531
G0 F9000 X106.639 Y121.064
G1 F1200 X107.360 Y121.785 E103.60618
G0 F9000 X107.360 Y121.219
G1 F1200 X106.639 Y120.498 E103.65705
G0 F9000 X106.639 Y119.933
G1 F1200 X107.360 Y120.653 E103.70789
G0 F9000 X107.360 Y120.087
G1 F1200 X106.639 Y119.367 E103.75872
G0 F9000 X106.639 Y118.801
G1 F1200 X107.360 Y119.522 E103.80959
G0 F9000 X107.360 Y118.956
G1 F1200 X106.639 Y118.236 E103.86043
G0 F9000 X106.639 Y117.670
G1 F1200 X107.360 Y118.390 E103.91126
G0 F9000 X107.360 Y117.825
G1 F1200 X106.639 Y117.104 E103.96213
G0 F9000 X106.639 Y116.538
G1 F1200 X107.360 Y117.259 E104.01300
G0 F9000 X107.360 Y116.693
G1 F1200 X106.639 Y115.973 E104.06384
G0 F9000 X106.639 Y115.407
G1 F1200 X107.360 Y116.128 E104.11471
G0 F9000 X107.360 Y115.562
G1 F1200 X106.639 Y114.841 E104.16558
G0 F9000 X106.639 Y114.276
G1 F1200 X107.360 Y114.996 E104.21641
G0 F9000 X107.360 Y114.431
G1 F1200 X106.639 Y113.710 E104.26729
G0 F9000 X106.639 Y113.144
G1 F1200 X107.360 Y113.865 E104.31816
G0 F9000 X107.360 Y113.299
G1 F1200 X106.639 Y112.579 E104.36899
G0 F9000 X106.639 Y112.013
G1 F1200 X107.360 Y112.734 E104.41986
G0 F9000 X107.360 Y112.168
G1 F1200 X106.639 Y111.447 E104.47073
G0 F9000 X106.639 Y110.882
G1 F1200 X107.360 Y111.602 E104.52157
G0 F9000 X107.360 Y111.036
G1 F1200 X106.639 Y110.316 E104.57240
G0 F9000 X106.639 Y109.750
G1 F1200 X107.360 Y110.471 E104.62327
G0 F9000 X107.360 Y109.905
G1 F1200 X106.639 Y109.185 E104.67411
G0 F9000 X106.639 Y108.619
G1 F1200 X107.360 Y109.339 E104.72494
G0 F9000 X107.360 Y108.774
G1 F1200 X106.639 Y108.053 E104.77581
G0 F9000 X106.639 Y107.488
G1 F1200 X107.360 Y108.208 E104.82665
G0 F9000 X107.360 Y107.642
G1 F1200 X106.639 Y106.922 E104.87748
G0 F9000 X106.639 Y106.356
G1 F1200 X107.360 Y107.077 E104.92835
G0 F9000 X107.360 Y106.511
G1 F1200 X106.639 Y105.790 E104.97922
G0 F9000 X106.639 Y105.225
G1 F1200 X107.360 Y105.945 E105.03006
G0 F9000 X107.360 Y105.380
G1 F1200 X106.639 Y104.659 E105.08093
G0 F9000 X106.639 Y104.093
G1 F1200 X107.360 Y104.814 E105.13180
G0 F9000 X107.360 Y104.248
G1 F1200 X106.639 Y103.528 E105.18264
G0 F9000 X106.639 Y102.962
G1 F1200 X107.360 Y103.683 E105.23351
G0 F9000 X107.360 Y103.117
G1 F1200 X106.639 Y102.396 E105.28438
G0 F9000 X106.639 Y101.831
G1 F1200 X107.360 Y102.551 E105.33521
G0 F9000 X107.360 Y101.986
G1 F1200 X106.639 Y101.265 E105.38608
G0 F9000 X106.639 Y100.699
G1 F1200 X107.360 Y101.420 E105.43695
G0 F9000 X107.360 Y100.854
G1 F1200 X106.639 Y100.134 E105.48779
;LAYER:1
M106 S255
G0 F9000 X106.500 Y99.250 Z0.500
;TYPE:WALL-INNER
G1 F1500 X93.500 Y99.250 E105.92017
G1 X93.500 Y130.750 E106.96786
G1 X92.500 Y130.750 E107.00112
G1 X92.500 Y69.250 E109.04662
G1 X107.500 Y69.250 E109.54552
G1 X107.500 Y130.750 E111.59102
G1 X106.500 Y130.750 E111.62428
G1 X106.500 Y99.250 E112.67198
G0 F9000 X106.100 Y99.650
G1 F1500 X93.900 Y99.650 E113.07775
G1 X93.900 Y131.150 E114.12545
G1 X92.100 Y131.150 E114.18531
G1 X92.100 Y68.850 E116.25742
G1 X107.900 Y68.850 E116.78293
G1 X107.900 Y131.150 E118.85504
G1 X106.100 Y131.150 E118.91490
G1 X106.100 Y99.650 E119.96260
G0 F9000 X105.700 Y100.050
;TYPE:WALL-OUTER
G1 F1500 X94.300 Y100.050 E120.34176
G1 X94.300 Y131.550 E121.38946
G1 X91.700 Y131.550 E121.47594
G1 X91.700 Y68.450 E123.57465
G1 X108.300 Y68.450 E124.12677
G1 X108.300 Y131.550 E126.22548
G1 X105.700 Y131.550 E126.31196
G1 X105.700 Y100.050 E127.35965
G0 F9000 X106.640 Y100.117
;TYPE:SKIN
G1 F1500 X107.359 Y99.398 E127.39347
G0 F9000 X107.359 Y98.833
G1 F1500 X106.640 Y99.552 E127.42729
G0 F9000 X106.516 Y99.110
G1 F1500 X107.359 Y98.267 E127.46694
G0 F9000 X107.359 Y97.701
G1 F1500 X105.950 Y99.110 E127.53322
G0 F9000 X105.385 Y99.110
G1 F1500 X107.359 Y97.135 E127.62609
G0 F9000 X107.359 Y96.570
G1 F1500 X104.819 Y99.110 E127.74557
G0 F9000 X104.253 Y99.110
G1 F1500 X107.359 Y96.004 E127.89166
G0 F9000 X107.359 Y95.438
G1 F1500 X103.688 Y99.110 E128.06436
G0 F9000 X103.122 Y99.110
G1 F1500 X107.359 Y94.873 E128.26366
G0 F9000 X107.359 Y94.307
G1 F1500 X102.556 Y99.110 E128.48957
G0 F9000 X101.990 Y99.110
G1 F1500 X107.359 Y93.741 E128.74212
G0 F9000 X107.359 Y93.176
G1 F1500 X101.425 Y99.110 E129.02123
G0 F9000 X100.859 Y99.110
G1 F1500 X107.359 Y92.610 E129.32697
G0 F9000 X107.359 Y92.044
G1 F1500 X100.293 Y99.110 E129.65934
G0 F9000 X99.728 Y99.109
G1 F1500 X107.359 Y91.479 E130.01825
G0 F9000 X107.359 Y90.913
G1 F1500 X99.163 Y99.109 E130.40377
G0 F9000 X98.597 Y99.109
G1 F1500 X107.359 Y90.347 E130.81590
