;Generated from Y-MOTOR.stl cb1c63449d5e46e2768f0ba78ab38d7f37c30878
;Generated with Cura_SteamEngine 15.04
M140 S55.0
M109 T0 S210.0
T0
M190 S55.0

;Basic settings: Layer height: 0.2 Walls: 1.2 Fill: 20
;Print time: ?print_time?
;Filament used: ?filament_amount?m ?filament_weight?g
;Filament cost: ?filament_cost?
;M190 S55 ;Uncomment to add your own bed temperature line
;M109 S210 ;Uncomment to add your own temperature line
G21        ;metric values
G90        ;absolute positioning
M82        ;set extruder to absolute mode
M107       ;start with the fan off
G28 X0 Y0  ;move X/Y to min endstops
G28 Z0     ;move Z to min endstops
G1 Z5.0 F9000 ;move the platform down 15mm
G92 E0                  ;zero the extruded length
G1 F200 E3              ;extrude 3mm of feed stock
G92 E0                  ;zero the extruded length again
G1 F9000
;Put printing message on LCD screen
M117 Printing...

;Layer count: 50
;LAYER:0
M107
G0 F9000 X50.211 Y81.056 Z0.300
;TYPE:SKIRT
G1 F1200 X52.255 Y80.094 E0.11271
G1 X54.255 Y79.799 E0.21357
G1 X104.990 Y79.799 E2.74474
G1 X105.074 Y79.186 E2.77561
G1 X105.986 Y77.038 E2.89204
G1 X107.437 Y75.209 E3.00851
G1 X109.321 Y73.830 E3.12499
G1 X111.501 Y73.000 E3.24137
G1 X113.824 Y72.776 E3.35780
G1 X116.123 Y73.176 E3.47422
G1 X118.234 Y74.171 E3.59066
G1 X120.006 Y75.690 E3.70710
G1 X121.313 Y77.626 E3.82363
G1 X122.059 Y79.836 E3.94000
G1 X122.194 Y82.165 E4.05639
G1 X121.706 Y84.448 E4.17287
G1 X120.630 Y86.520 E4.28935
G1 X120.190 Y86.995 E4.32165
G1 X120.190 Y105.796 E5.25963
G1 X138.994 Y105.799 E6.19777
G1 X139.469 Y105.359 E6.23007
G1 X141.541 Y104.283 E6.34655
G1 X143.824 Y103.795 E6.46302
G1 X146.153 Y103.930 E6.57941
G1 X148.363 Y104.676 E6.69578
G1 X150.299 Y105.983 E6.81232
G1 X151.818 Y107.755 E6.92876
G1 X152.813 Y109.866 E7.04519
G1 X153.213 Y112.166 E7.16166
G1 X152.989 Y114.487 E7.27800
G1 X152.159 Y116.669 E7.39447
G1 X150.780 Y118.552 E7.51091
G1 X148.951 Y120.003 E7.62738
G1 X146.803 Y120.916 E7.74383
G1 X144.705 Y121.199 E7.84945
G1 X107.272 Y121.199 E9.71699
G1 X107.163 Y121.411 E9.72888
G1 X105.599 Y123.371 E9.85398
G1 X103.682 Y124.985 E9.97900
G1 X101.486 Y126.192 E10.10402
G1 X99.094 Y126.946 E10.22915
G1 X96.602 Y127.213 E10.35418
G1 X94.106 Y126.989 E10.47921
G1 X91.703 Y126.278 E10.60423
G1 X89.485 Y125.111 E10.72927
G1 X87.538 Y123.530 E10.85440
G1 X85.941 Y121.598 E10.97945
G1 X84.753 Y119.391 E11.10450
G1 X84.022 Y116.993 E11.22957
G1 X83.790 Y114.657 E11.34669
G1 X83.790 Y101.598 E11.99821
G1 X52.660 Y94.982 E13.58598
G1 X50.763 Y94.276 E13.68696
G1 X48.964 Y92.910 E13.79965
G1 X47.635 Y91.083 E13.91237
G1 X46.893 Y88.947 E14.02518
G1 X46.798 Y86.690 E14.13788
G1 X47.360 Y84.502 E14.25058
G1 X48.531 Y82.568 E14.36338
G1 X50.211 Y81.056 E14.47614
G1 F2400 E9.97614
G0 F9000 X52.558 Y84.594
;TYPE:WALL-INNER
G1 F2400 E14.47614
G1 F1200 X53.484 Y84.158 E14.52721
G1 X54.562 Y83.999 E14.58157
G1 X106.588 Y83.999 E17.17716
G1 X107.270 Y83.864 E17.21184
G1 X107.475 Y83.813 E17.22238
G1 X108.105 Y83.393 E17.26016
G1 X108.279 Y83.271 E17.27076
G1 X108.701 Y82.638 E17.30871
G1 X108.816 Y82.474 E17.31871
G1 X108.974 Y81.675 E17.35934
G1 X109.160 Y80.308 E17.42817
G1 X109.629 Y79.204 E17.48801
G1 X110.375 Y78.264 E17.54788
G1 X111.344 Y77.554 E17.60781
G1 X112.470 Y77.126 E17.66791
G1 X113.662 Y77.011 E17.72766
G1 X114.843 Y77.216 E17.78746
G1 X115.932 Y77.730 E17.84754
G1 X116.841 Y78.509 E17.90726
G1 X117.514 Y79.505 E17.96723
G1 X117.899 Y80.646 E18.02731
G1 X117.968 Y81.841 E18.08703
G1 X117.717 Y83.018 E18.14707
G1 X117.164 Y84.081 E18.20685
G1 X115.990 Y85.349 E18.29306
G1 X115.990 Y107.597 E19.40302
G1 X116.125 Y108.279 E19.43771
G1 X116.176 Y108.484 E19.44824
G1 X116.598 Y109.115 E19.48612
G1 X116.718 Y109.287 E19.49658
G1 X117.350 Y109.710 E19.53452
G1 X117.515 Y109.825 E19.54455
G1 X118.380 Y109.996 E19.58854
G1 X140.640 Y109.999 E20.69910
G1 X141.908 Y108.825 E20.78531
G1 X142.971 Y108.272 E20.84509
G1 X144.148 Y108.021 E20.90513
G1 X145.343 Y108.090 E20.96485
G1 X146.484 Y108.475 E21.02493
G1 X147.480 Y109.148 E21.08490
G1 X148.259 Y110.057 E21.14463
G1 X148.773 Y111.146 E21.20470
G1 X148.978 Y112.328 E21.26456
G1 X148.863 Y113.519 E21.32425
G1 X148.435 Y114.646 E21.38440
G1 X147.725 Y115.614 E21.44429
G1 X146.784 Y116.360 E21.50420
G1 X145.682 Y116.829 E21.56395
G1 X144.423 Y116.999 E21.62733
G1 X104.713 Y116.999 E23.60847
G1 X103.622 Y119.115 E23.72724
G1 X102.574 Y120.427 E23.81102
G1 X101.294 Y121.505 E23.89451
G1 X99.829 Y122.310 E23.97790
G1 X98.227 Y122.815 E24.06170
G1 X96.567 Y122.993 E24.14500
G1 X94.898 Y122.843 E24.22860
G1 X93.291 Y122.368 E24.31220
G1 X91.807 Y121.587 E24.39587
G1 X90.511 Y120.534 E24.47918
G1 X89.441 Y119.240 E24.56295
G1 X88.650 Y117.771 E24.64618
G1 X88.160 Y116.163 E24.73005
G1 X87.990 Y114.450 E24.81593
G1 X87.990 Y98.197 E25.62680
G1 X53.835 Y90.938 E27.36886
G1 X52.809 Y90.556 E27.42348
G1 X51.998 Y89.940 E27.47429
G1 X51.397 Y89.114 E27.52525
G1 X51.063 Y88.153 E27.57601
G1 X51.020 Y87.136 E27.62679
G1 X51.275 Y86.144 E27.67789
G1 X51.801 Y85.275 E27.72857
G1 X52.558 Y84.594 E27.77937
G0 F9000 X52.564 Y85.636
G1 F1200 X52.359 Y85.798 E27.79240
G1 X51.953 Y86.646 E27.83931
G1 X51.833 Y86.885 E27.85265
G1 X51.833 Y88.105 E27.91352
G1 X52.249 Y88.971 E27.96145
G1 X52.365 Y89.203 E27.97439
G1 X53.107 Y89.795 E28.02175
G1 X53.310 Y89.956 E28.03467
G1 X54.347 Y90.192 E28.08773
G1 X74.603 Y90.199 E29.09831
G1 X75.423 Y90.011 E29.14028
G1 X75.675 Y89.953 E29.15318
G1 X76.416 Y89.362 E29.20047
G1 X76.620 Y89.200 E29.21346
G1 X77.035 Y88.339 E29.26115
G1 X77.148 Y88.113 E29.27375
G1 X77.148 Y86.893 E29.33462
G1 X76.731 Y86.026 E29.38262
G1 X76.615 Y85.795 E29.39551
G1 X75.874 Y85.203 E29.44283
G1 X75.671 Y85.042 E29.45576
G1 X74.632 Y84.806 E29.50892
G1 X54.378 Y84.799 E30.51939
G1 X53.558 Y84.986 E30.56135
G1 X53.306 Y85.044 E30.57425
G1 X52.564 Y85.636 E30.62161
G0 F9000 X54.423 Y85.201
G0 X74.587 Y85.208
G0 X75.625 Y85.517
G0 X76.371 Y86.203
G0 X76.743 Y86.986
G0 X76.671 Y88.171
G0 X90.203 Y90.817
G1 F1200 X90.004 Y92.333 E30.69789
G1 X89.981 Y92.496 E30.70610
G1 X90.183 Y94.027 E30.78315
G1 X90.205 Y94.186 E30.79116
G1 X90.790 Y95.599 E30.86745
G1 X90.852 Y95.751 E30.87564
G1 X91.792 Y96.977 E30.95272
G1 X91.892 Y97.104 E30.96078
G1 X93.101 Y98.032 E31.03682
G1 X93.231 Y98.134 E31.04506
G1 X94.660 Y98.725 E31.12221
G1 X94.809 Y98.786 E31.13025
G1 X96.324 Y98.985 E31.20648
G1 X96.487 Y99.008 E31.21469
G1 X98.019 Y98.806 E31.29179
G1 X98.178 Y98.784 E31.29979
G1 X99.596 Y98.197 E31.37636
G1 X99.742 Y98.137 E31.38424
G1 X100.968 Y97.197 E31.46131
G1 X101.095 Y97.097 E31.46937
G1 X102.023 Y95.888 E31.54541
G1 X102.125 Y95.758 E31.55366
G1 X102.717 Y94.329 E31.63082
G1 X102.778 Y94.180 E31.63886
G1 X102.976 Y92.665 E31.71508
G1 X102.999 Y92.502 E31.72330
G1 X102.798 Y90.971 E31.80033
G1 X102.776 Y90.811 E31.80839
G1 X102.188 Y89.393 E31.88498
G1 X102.128 Y89.247 E31.89285
G1 X101.188 Y88.021 E31.96993
G1 X101.088 Y87.894 E31.97799
G1 X99.879 Y86.966 E32.05403
G1 X99.749 Y86.865 E32.06224
G1 X98.321 Y86.272 E32.13938
G1 X98.172 Y86.211 E32.14742
G1 X96.649 Y86.011 E32.22405
G1 X96.493 Y85.990 E32.23190
G1 X94.963 Y86.191 E32.30889
G1 X94.803 Y86.213 E32.31695
G1 X93.384 Y86.801 E32.39358
G1 X93.238 Y86.861 E32.40146
G1 X92.012 Y87.801 E32.47853
G1 X91.885 Y87.901 E32.48659
G1 X90.957 Y89.110 E32.56263
G1 X90.855 Y89.240 E32.57088
G1 X90.264 Y90.668 E32.64798
G1 X90.203 Y90.817 E32.65601
G0 F9000 X90.596 Y94.079
G0 X94.963 Y108.191
G1 F1200 X94.803 Y108.213 E32.66407
G1 X93.384 Y108.801 E32.74070
G1 X93.238 Y108.861 E32.74858
G1 X92.012 Y109.801 E32.82565
G1 X91.885 Y109.901 E32.83372
G1 X90.957 Y111.110 E32.90975
G1 X90.855 Y111.240 E32.91800
G1 X90.264 Y112.668 E32.99510
G1 X90.203 Y112.817 E33.00313
G1 X90.004 Y114.333 E33.07942
G1 X89.981 Y114.496 E33.08763
G1 X90.183 Y116.027 E33.16467
G1 X90.205 Y116.186 E33.17268
G1 X90.790 Y117.599 E33.24898
G1 X90.852 Y117.751 E33.25717
G1 X91.792 Y118.977 E33.33424
G1 X91.892 Y119.104 E33.34231
G1 X93.101 Y120.032 E33.41834
G1 X93.231 Y120.134 E33.42659
G1 X94.660 Y120.725 E33.50374
G1 X94.809 Y120.786 E33.51177
G1 X96.324 Y120.985 E33.58800
G1 X96.487 Y121.008 E33.59622
G1 X98.019 Y120.806 E33.67331
G1 X98.178 Y120.784 E33.68132
G1 X99.596 Y120.197 E33.75788
G1 X99.742 Y120.137 E33.76576
G1 X100.968 Y119.197 E33.84283
G1 X101.095 Y119.097 E33.85090
G1 X102.023 Y117.888 E33.92694
G1 X102.125 Y117.758 E33.93518
G1 X102.717 Y116.329 E34.01235
G1 X102.778 Y116.180 E34.02038
G1 X102.976 Y114.665 E34.09661
G1 X102.999 Y114.502 E34.10482
G1 X102.798 Y112.971 E34.18186
G1 X102.776 Y112.811 E34.18991
G1 X102.188 Y111.393 E34.26650
G1 X102.128 Y111.247 E34.27437
G1 X101.188 Y110.021 E34.35145
G1 X101.088 Y109.894 E34.35951
G1 X99.879 Y108.966 E34.43555
G1 X99.749 Y108.865 E34.44376
G1 X98.321 Y108.272 E34.52091
G1 X98.172 Y108.211 E34.52894
G1 X96.649 Y108.011 E34.60557
G1 X96.493 Y107.990 E34.61343
G1 X94.963 Y108.191 E34.69041
G0 F9000 X98.169 Y108.642
G0 X110.900 Y111.805
G1 F1200 X110.806 Y112.032 E34.70267
G1 X110.854 Y112.996 E34.75083
G1 X110.868 Y113.242 E34.76312
G1 X111.333 Y114.094 E34.81154
G1 X111.454 Y114.309 E34.82385
G1 X112.234 Y114.868 E34.87173
G1 X112.429 Y115.011 E34.88379
G1 X113.366 Y115.174 E34.93124
G1 X113.606 Y115.228 E34.94351
G1 X114.555 Y114.959 E34.99273
G1 X114.795 Y114.893 E35.00514
G1 X115.509 Y114.260 E35.05275
G1 X115.702 Y114.094 E35.06545
G1 X116.081 Y113.193 E35.11422
G1 X116.175 Y112.965 E35.12652
G1 X116.126 Y112.001 E35.17468
G1 X116.112 Y111.755 E35.18697
G1 X115.647 Y110.903 E35.23539
G1 X115.526 Y110.688 E35.24770
G1 X114.746 Y110.129 E35.29558
G1 X114.550 Y109.986 E35.30768
G1 X113.618 Y109.824 E35.35488
G1 X113.374 Y109.770 E35.36734
G1 X112.425 Y110.039 E35.41656
G1 X112.185 Y110.105 E35.42897
G1 X111.460 Y110.747 E35.47729
G1 X111.279 Y110.903 E35.48921
G1 X110.900 Y111.805 E35.53802
G0 F9000 X113.606 Y84.228
G1 F1200 X114.555 Y83.959 E35.58723
G1 X114.795 Y83.893 E35.59965
G1 X115.509 Y83.260 E35.64725
G1 X115.702 Y83.094 E35.65996
G1 X116.081 Y82.193 E35.70872
G1 X116.175 Y81.965 E35.72103
G1 X116.126 Y81.001 E35.76918
G1 X116.112 Y80.755 E35.78147
G1 X115.647 Y79.903 E35.82990
G1 X115.526 Y79.688 E35.84221
G1 X114.746 Y79.129 E35.89008
G1 X114.550 Y78.986 E35.90219
G1 X113.618 Y78.824 E35.94938
G1 X113.374 Y78.770 E35.96185
G1 X112.425 Y79.039 E36.01106
G1 X112.185 Y79.105 E36.02348
G1 X111.460 Y79.747 E36.07179
G1 X111.279 Y79.903 E36.08371
G1 X110.900 Y80.805 E36.13253
G1 X110.806 Y81.032 E36.14478
G1 X110.854 Y81.996 E36.19294
G1 X110.868 Y82.242 E36.20523
G1 X111.333 Y83.094 E36.25366
G1 X111.454 Y83.309 E36.26596
G1 X112.234 Y83.868 E36.31384
G1 X112.429 Y84.011 E36.32590
G1 X113.366 Y84.174 E36.37335
G1 X113.606 Y84.228 E36.38563
G0 F9000 X116.550 Y108.318
G0 X117.678 Y109.445
G0 X142.279 Y110.903
G1 F1200 X141.900 Y111.805 E36.43444
G1 X141.806 Y112.032 E36.44670
G1 X141.854 Y112.996 E36.49485
G1 X141.868 Y113.242 E36.50714
G1 X142.333 Y114.094 E36.55557
G1 X142.454 Y114.309 E36.56788
G1 X143.234 Y114.868 E36.61575
G1 X143.429 Y115.011 E36.62782
G1 X144.366 Y115.174 E36.67527
G1 X144.606 Y115.228 E36.68754
G1 X145.555 Y114.959 E36.73675
G1 X145.795 Y114.893 E36.74917
G1 X146.509 Y114.260 E36.79677
G1 X146.702 Y114.094 E36.80947
G1 X147.081 Y113.193 E36.85824
G1 X147.175 Y112.965 E36.87054
G1 X147.126 Y112.001 E36.91870
G1 X147.112 Y111.755 E36.93099
G1 X146.647 Y110.903 E36.97942
G1 X146.526 Y110.688 E36.99173
G1 X145.746 Y110.129 E37.03960
G1 X145.550 Y109.986 E37.05171
G1 X144.618 Y109.824 E37.09890
G1 X144.374 Y109.770 E37.11137
G1 X143.425 Y110.039 E37.16058
G1 X143.185 Y110.105 E37.17300
G1 X142.460 Y110.747 E37.22131
G1 X142.279 Y110.903 E37.23323
G0 F9000 X142.733 Y111.040
G1 F1200 X142.611 Y111.145 E37.24126
G1 X142.269 Y111.959 E37.28531
G1 X142.210 Y112.102 E37.29303
G1 X142.254 Y112.975 E37.33664
G1 X142.262 Y113.130 E37.34438
G1 X142.683 Y113.900 E37.38817
G1 X142.759 Y114.035 E37.39589
G1 X143.467 Y114.543 E37.43937
G1 X143.590 Y114.633 E37.44697
G1 X144.435 Y114.780 E37.48976
G1 X144.595 Y114.816 E37.49794
G1 X145.448 Y114.574 E37.54218
G1 X145.599 Y114.532 E37.55000
G1 X146.248 Y113.957 E37.59326
G1 X146.370 Y113.852 E37.60129
G1 X146.712 Y113.040 E37.64525
G1 X146.771 Y112.896 E37.65301
G1 X146.726 Y112.022 E37.69667
G1 X146.718 Y111.867 E37.70442
G1 X146.297 Y111.097 E37.74820
G1 X146.221 Y110.962 E37.75593
G1 X145.513 Y110.454 E37.79940
G1 X145.389 Y110.364 E37.80705
G1 X144.548 Y110.218 E37.84963
G1 X144.385 Y110.182 E37.85796
G1 X143.532 Y110.424 E37.90219
G1 X143.381 Y110.466 E37.91001
G1 X142.733 Y111.040 E37.95320
G0 F9000 X140.483 Y109.599
G1 F1200 X141.676 Y108.495 E38.03430
G1 X142.835 Y107.892 E38.09948
G1 X144.117 Y107.619 E38.16487
G1 X145.421 Y107.694 E38.23003
G1 X146.664 Y108.114 E38.29549
G1 X147.747 Y108.845 E38.36068
G1 X148.598 Y109.838 E38.42592
G1 X149.157 Y111.024 E38.49134
G1 X149.381 Y112.312 E38.55656
G1 X149.256 Y113.613 E38.62177
G1 X148.790 Y114.837 E38.68711
G1 X148.016 Y115.894 E38.75247
G1 X146.991 Y116.707 E38.81774
G1 X145.789 Y117.218 E38.88290
G1 X144.447 Y117.399 E38.95046
G1 X104.956 Y117.399 E40.92067
G1 X103.958 Y119.335 E41.02934
G1 X102.864 Y120.707 E41.11688
G1 X101.524 Y121.835 E41.20427
G1 X99.983 Y122.682 E41.29200
G1 X98.316 Y123.207 E41.37919
G1 X96.569 Y123.395 E41.46685
G1 X94.818 Y123.237 E41.55457
G1 X93.141 Y122.741 E41.64182
G1 X91.589 Y121.924 E41.72932
G1 X90.224 Y120.816 E41.81703
G1 X89.109 Y119.467 E41.90435
G1 X88.278 Y117.925 E41.99174
G1 X87.766 Y116.243 E42.07945
G1 X87.590 Y114.470 E42.16834
G1 X87.590 Y98.521 E42.96404
G1 X53.719 Y91.322 E44.69162
G1 X52.616 Y90.912 E44.75033
G1 X51.707 Y90.222 E44.80726
G1 X51.040 Y89.304 E44.86388
G1 X50.665 Y88.226 E44.92082
G1 X50.618 Y87.092 E44.97744
G1 X50.901 Y85.990 E45.03421
G1 X51.490 Y85.016 E45.09099
G1 X52.335 Y84.256 E45.14769
G1 X53.363 Y83.772 E45.20438
G1 X54.537 Y83.599 E45.26358
G1 X106.549 Y83.599 E47.85847
G1 X107.183 Y83.474 E47.89071
G1 X107.310 Y83.442 E47.89725
G1 X107.879 Y83.062 E47.93138
G1 X107.988 Y82.987 E47.93798
G1 X108.361 Y82.427 E47.97155
G1 X108.440 Y82.313 E47.97847
G1 X108.579 Y81.610 E48.01422
G1 X108.771 Y80.201 E48.08517
G1 X109.282 Y78.998 E48.15038
G1 X110.097 Y77.971 E48.21579
G1 X111.151 Y77.200 E48.28094
G1 X112.376 Y76.733 E48.34634
G1 X113.678 Y76.608 E48.41160
G1 X114.965 Y76.832 E48.47677
G1 X116.151 Y77.391 E48.54219
G1 X117.144 Y78.242 E48.60743
G1 X117.875 Y79.325 E48.67262
G1 X118.295 Y80.568 E48.73808
G1 X118.370 Y81.872 E48.80324
G1 X118.097 Y83.154 E48.86863
G1 X117.494 Y84.313 E48.93381
G1 X116.390 Y85.506 E49.01491
G1 X116.390 Y107.558 E50.11509
G1 X116.515 Y108.192 E50.14733
G1 X116.547 Y108.320 E50.15391
G1 X116.928 Y108.889 E50.18807
G1 X117.003 Y108.996 E50.19459
G1 X117.562 Y109.370 E50.22815
G1 X117.676 Y109.449 E50.23507
G1 X118.419 Y109.596 E50.27285
G1 X140.483 Y109.599 E51.37363
G0 F9000 X115.726 Y112.022
G1 F1200 X115.718 Y111.867 E51.38137
G1 X115.297 Y111.097 E51.42516
G1 X115.221 Y110.962 E51.43289
G1 X114.513 Y110.454 E51.47636
G1 X114.389 Y110.364 E51.48400
G1 X113.548 Y110.218 E51.52659
G1 X113.385 Y110.182 E51.53492
G1 X112.532 Y110.424 E51.57915
G1 X112.381 Y110.466 E51.58697
G1 X111.733 Y111.040 E51.63016
G1 X111.611 Y111.145 E51.63819
G1 X111.269 Y111.959 E51.68224
G1 X111.210 Y112.102 E51.68996
G1 X111.254 Y112.975 E51.73357
G1 X111.262 Y113.130 E51.74131
G1 X111.683 Y113.900 E51.78509
G1 X111.759 Y114.035 E51.79282
G1 X112.467 Y114.543 E51.83630
G1 X112.590 Y114.633 E51.84390
G1 X113.435 Y114.780 E51.88669
G1 X113.595 Y114.816 E51.89487
G1 X114.448 Y114.574 E51.93911
G1 X114.599 Y114.532 E51.94693
G1 X115.248 Y113.957 E51.99019
G1 X115.370 Y113.852 E51.99822
G1 X115.712 Y113.040 E52.04217
G1 X115.771 Y112.896 E52.04994
G1 X115.726 Y112.022 E52.09360
G0 F9000 X115.711 Y113.039
G0 X115.249 Y113.955
G0 X114.555 Y114.501
G0 X113.452 Y114.783
G0 X112.403 Y114.468
G0 X111.684 Y113.900
G0 X102.402 Y113.024
G1 F1200 X102.387 Y112.916 E52.09904
G1 X101.818 Y111.546 E52.17305
G1 X101.778 Y111.448 E52.17833
