;Generated from Z-AXIS-BOTTOM-LEFT-V2.stl c4318df4271a32786cd40695c10498fe7bdd5c5c
;Generated with Cura_SteamEngine 15.04
M140 S55.0
M109 T0 S210.0
T0
M190 S55.0

;Basic settings: Layer height: 0.2 Walls: 1.2 Fill: 20
;Print time: ?print_time?
;Filament used: ?filament_amount?m ?filament_weight?g
;Filament cost: ?filament_cost?
;M190 S55 ;Uncomment to add your own bed temperature line
;M109 S210 ;Uncomment to add your own temperature line
G21        ;metric values
G90        ;absolute positioning
M82        ;set extruder to absolute mode
M107       ;start with the fan off
G28 X0 Y0  ;move X/Y to min endstops
G28 Z0     ;move Z to min endstops
G1 Z5.0 F9000 ;move the platform down 15mm
G92 E0                  ;zero the extruded length
G1 F200 E3              ;extrude 3mm of feed stock
G92 E0                  ;zero the extruded length again
G1 F9000
;Put printing message on LCD screen
M117 Printing...

;Layer count: 205
;LAYER:0
M107
G0 F9000 X71.800 Y76.675 Z0.300
;TYPE:SKIRT
G1 F1200 X76.675 Y71.800 E0.34396
G1 X120.324 Y71.800 E2.52162
G1 X128.199 Y79.675 E3.07724
G1 X128.199 Y88.325 E3.50879
G1 X120.324 Y96.200 E4.06441
G1 X93.200 Y96.200 E5.41763
G1 X93.200 Y123.325 E6.77091
G1 X88.325 Y128.200 E7.11486
G1 X79.675 Y128.200 E7.54641
G1 X71.800 Y120.325 E8.10204
G1 X71.800 Y76.675 E10.27975
G1 F2400 E5.77975
G0 F9000 X76.000 Y78.414
;TYPE:WALL-INNER
G1 F2400 E10.27975
G1 F1200 X78.414 Y76.000 E10.45007
G1 X118.585 Y76.000 E12.45421
G1 X123.999 Y81.414 E12.83619
G1 X123.999 Y86.586 E13.09422
G1 X118.585 Y92.000 E13.47621
G1 X89.000 Y92.000 E14.95221
G1 X89.000 Y102.000 E15.45112
G1 X88.533 Y102.000 E15.47441
G1 X88.325 Y101.514 E15.50079
G1 X88.251 Y101.348 E15.50986
G1 X87.272 Y100.203 E15.58501
G1 X85.986 Y99.397 E15.66073
G1 X84.559 Y99.025 E15.73430
G1 X84.377 Y99.019 E15.74339
G1 X83.003 Y99.088 E15.81203
G1 X81.580 Y99.611 E15.88766
G1 X80.420 Y100.504 E15.96070
G1 X80.300 Y100.643 E15.96986
G1 X79.554 Y101.715 E16.03502
G1 X79.473 Y101.878 E16.04410
G1 X79.051 Y103.225 E16.11452
G1 X79.045 Y104.656 E16.18591
G1 X79.070 Y104.837 E16.19503
G1 X79.472 Y106.120 E16.26211
G1 X79.553 Y106.283 E16.27119
G1 X80.299 Y107.355 E16.33635
G1 X80.418 Y107.493 E16.34544
G1 X81.550 Y108.368 E16.41682
G1 X82.862 Y108.861 E16.48674
G1 X83.040 Y108.912 E16.49598
G1 X84.342 Y108.977 E16.56102
G1 X84.524 Y108.983 E16.57010
G1 X85.819 Y108.647 E16.63685
G1 X85.994 Y108.597 E16.64593
G1 X87.140 Y107.881 E16.71335
G1 X87.289 Y107.775 E16.72247
G1 X88.145 Y106.776 E16.78810
G1 X88.259 Y106.636 E16.79711
G1 X88.532 Y106.000 E16.83164
G1 X89.000 Y106.000 E16.85499
G1 X89.000 Y121.586 E17.63258
G1 X86.586 Y124.000 E17.80290
G1 X81.414 Y124.000 E18.06093
G1 X76.000 Y118.586 E18.44292
G1 X76.000 Y78.414 E20.44711
G0 F9000 X83.854 Y86.204
G1 F1200 X83.204 Y86.940 E20.49610
G1 X83.025 Y87.132 E20.50919
G1 X82.751 Y88.100 E20.55938
G1 X82.677 Y88.346 E20.57220
G1 X82.854 Y89.360 E20.62355
G1 X82.903 Y89.603 E20.63592
G1 X83.479 Y90.408 E20.68530
G1 X83.625 Y90.614 E20.69790
G1 X84.507 Y91.096 E20.74805
G1 X84.729 Y91.219 E20.76071
G1 X85.722 Y91.269 E20.81031
G1 X85.965 Y91.293 E20.82249
G1 X87.147 Y90.795 E20.88648
G1 X87.797 Y90.059 E20.93547
G1 X87.976 Y89.867 E20.94857
G1 X88.250 Y88.899 E20.99876
G1 X88.324 Y88.653 E21.01158
G1 X88.147 Y87.639 E21.06293
G1 X88.098 Y87.396 E21.07530
G1 X87.518 Y86.586 E21.12500
G1 X87.376 Y86.385 E21.13728
G1 X86.487 Y85.899 E21.18783
G1 X86.272 Y85.780 E21.20009
G1 X85.279 Y85.730 E21.24969
G1 X85.036 Y85.706 E21.26187
G1 X83.854 Y86.204 E21.32586
G0 F9000 X83.094 Y88.372
G0 X83.283 Y89.438
G0 X79.453 Y103.288
G0 X79.462 Y104.749
G0 X80.617 Y107.109
G0 X81.749 Y108.012
G0 X83.106 Y108.513
G0 X85.036 Y116.706
G1 F1200 X83.854 Y117.204 E21.38985
G1 X83.204 Y117.940 E21.43884
G1 X83.025 Y118.132 E21.45194
G1 X82.751 Y119.100 E21.50213
G1 X82.677 Y119.346 E21.51494
G1 X82.854 Y120.360 E21.56630
G1 X82.903 Y120.603 E21.57867
G1 X83.479 Y121.408 E21.62805
G1 X83.625 Y121.614 E21.64065
G1 X84.507 Y122.096 E21.69079
G1 X84.729 Y122.219 E21.70345
G1 X85.722 Y122.269 E21.75306
G1 X85.965 Y122.293 E21.76524
G1 X87.147 Y121.795 E21.82923
G1 X87.797 Y121.059 E21.87822
G1 X87.976 Y120.867 E21.89131
G1 X88.250 Y119.899 E21.94151
G1 X88.324 Y119.653 E21.95432
G1 X88.147 Y118.639 E22.00568
G1 X88.098 Y118.396 E22.01804
G1 X87.518 Y117.586 E22.06775
G1 X87.376 Y117.385 E22.08002
G1 X86.487 Y116.899 E22.13057
G1 X86.272 Y116.780 E22.14283
G1 X85.279 Y116.730 E22.19243
G1 X85.036 Y116.706 E22.20462
G0 F9000 X89.450 Y112.812
G0 X86.758 Y124.416
G0 X75.584 Y118.758
G0 X78.242 Y75.584
G0 X114.624 Y90.614
G1 F1200 X115.506 Y91.096 E22.25476
G1 X115.728 Y91.219 E22.26742
G1 X116.721 Y91.269 E22.31703
G1 X116.964 Y91.293 E22.32921
G1 X118.146 Y90.795 E22.39320
G1 X118.796 Y90.059 E22.44219
G1 X118.975 Y89.867 E22.45529
G1 X119.249 Y88.899 E22.50548
G1 X119.323 Y88.653 E22.51829
G1 X119.146 Y87.639 E22.56965
G1 X119.097 Y87.396 E22.58201
G1 X118.517 Y86.586 E22.63172
G1 X118.375 Y86.385 E22.64399
G1 X117.486 Y85.899 E22.69454
G1 X117.271 Y85.780 E22.70680
G1 X116.278 Y85.730 E22.75641
G1 X116.035 Y85.706 E22.76859
G1 X114.853 Y86.204 E22.83258
G1 X114.203 Y86.940 E22.88157
G1 X114.024 Y87.132 E22.89466
G1 X113.750 Y88.100 E22.94485
G1 X113.676 Y88.346 E22.95767
G1 X113.853 Y89.360 E23.00902
G1 X113.902 Y89.603 E23.02139
G1 X114.478 Y90.408 E23.07078
G1 X114.624 Y90.614 E23.08337
G0 F9000 X114.805 Y90.177
G1 F1200 X114.897 Y90.308 E23.09136
G1 X115.704 Y90.749 E23.13724
G1 X115.841 Y90.824 E23.14503
G1 X116.740 Y90.869 E23.18994
G1 X116.902 Y90.885 E23.19806
G1 X117.907 Y90.462 E23.25246
G1 X118.504 Y89.786 E23.29746
G1 X118.617 Y89.665 E23.30571
G1 X118.866 Y88.784 E23.35139
G1 X118.912 Y88.629 E23.35946
G1 X118.753 Y87.713 E23.40584
G1 X118.722 Y87.559 E23.41368
G1 X118.192 Y86.819 E23.45909
G1 X118.102 Y86.691 E23.46689
G1 X117.295 Y86.250 E23.51277
G1 X117.158 Y86.175 E23.52057
G1 X116.259 Y86.130 E23.56547
G1 X116.097 Y86.114 E23.57360
G1 X115.092 Y86.537 E23.62800
G1 X114.495 Y87.213 E23.67299
G1 X114.382 Y87.334 E23.68125
G1 X114.133 Y88.215 E23.72693
G1 X114.087 Y88.370 E23.73499
G1 X114.246 Y89.286 E23.78137
G1 X114.277 Y89.440 E23.78921
G1 X114.805 Y90.177 E23.83444
G0 F9000 X118.751 Y92.400
G1 F1200 X89.400 Y92.400 E25.29877
G1 X89.400 Y102.400 E25.79767
G1 X88.269 Y102.400 E25.85410
G1 X87.958 Y101.674 E25.89350
G1 X87.909 Y101.563 E25.89956
G1 X87.007 Y100.509 E25.96877
G1 X85.825 Y99.769 E26.03834
G1 X84.501 Y99.424 E26.10660
G1 X84.380 Y99.419 E26.11264
G1 X83.084 Y99.484 E26.17738
G1 X81.776 Y99.966 E26.24693
G1 X80.696 Y100.797 E26.31491
G1 X79.899 Y101.920 E26.38362
G1 X79.845 Y102.028 E26.38964
G1 X79.450 Y103.287 E26.45547
G1 X79.445 Y104.629 E26.52242
G1 X79.461 Y104.750 E26.52851
G1 X79.844 Y105.970 E26.59231
G1 X79.898 Y106.078 E26.59833
G1 X80.615 Y107.109 E26.66098
G1 X80.694 Y107.201 E26.66703
G1 X81.747 Y108.015 E26.73343
G1 X82.988 Y108.481 E26.79957
G1 X83.105 Y108.515 E26.80565
G1 X84.359 Y108.577 E26.86829
G1 X84.479 Y108.582 E26.87428
G1 X85.714 Y108.261 E26.93794
G1 X85.830 Y108.228 E26.94396
G1 X86.919 Y107.548 E27.00801
G1 X87.017 Y107.478 E27.01402
G1 X87.838 Y106.519 E27.07700
G1 X87.914 Y106.426 E27.08299
G1 X88.268 Y105.600 E27.12783
G1 X89.400 Y105.600 E27.18430
G1 X89.400 Y121.752 E27.99013
G1 X86.752 Y124.400 E28.17696
G1 X81.248 Y124.400 E28.45156
G1 X75.600 Y118.752 E28.85005
G1 X75.600 Y78.248 E30.87081
G1 X78.248 Y75.600 E31.05764
G1 X118.751 Y75.600 E33.07834
G1 X124.399 Y81.248 E33.47684
G1 X124.399 Y86.752 E33.75143
G1 X118.751 Y92.400 E34.14993
G0 F9000 X87.913 Y88.629
G1 F1200 X87.754 Y87.713 E34.19631
G1 X87.723 Y87.559 E34.20415
G1 X87.193 Y86.819 E34.24956
G1 X87.103 Y86.691 E34.25737
G1 X86.296 Y86.250 E34.30325
G1 X86.159 Y86.175 E34.31104
G1 X85.260 Y86.130 E34.35595
G1 X85.098 Y86.114 E34.36407
G1 X84.093 Y86.537 E34.41847
G1 X83.496 Y87.213 E34.46346
G1 X83.383 Y87.334 E34.47172
G1 X83.134 Y88.215 E34.51740
G1 X83.088 Y88.370 E34.52546
G1 X83.247 Y89.286 E34.57185
G1 X83.278 Y89.440 E34.57968
G1 X83.806 Y90.177 E34.62492
G1 X83.898 Y90.308 E34.63290
G1 X84.705 Y90.749 E34.67878
G1 X84.842 Y90.824 E34.68658
G1 X85.741 Y90.869 E34.73148
G1 X85.903 Y90.885 E34.73960
G1 X86.908 Y90.462 E34.79400
G1 X87.505 Y89.786 E34.83900
G1 X87.618 Y89.665 E34.84726
G1 X87.867 Y88.784 E34.89293
G1 X87.913 Y88.629 E34.90100
G0 F9000 X118.757 Y92.416
G0 X75.584 Y78.242
G0 X81.242 Y124.416
G0 X89.416 Y121.758
G0 X86.109 Y108.004
G0 X85.260 Y117.130
G1 F1200 X85.098 Y117.114 E34.90912
G1 X84.093 Y117.537 E34.96352
G1 X83.496 Y118.213 E35.00852
G1 X83.383 Y118.334 E35.01678
G1 X83.134 Y119.215 E35.06245
G1 X83.088 Y119.370 E35.07052
G1 X83.247 Y120.286 E35.11690
G1 X83.278 Y120.440 E35.12474
G1 X83.806 Y121.177 E35.16997
G1 X83.898 Y121.308 E35.17796
G1 X84.705 Y121.749 E35.22384
G1 X84.842 Y121.824 E35.23163
G1 X85.741 Y121.869 E35.27654
G1 X85.903 Y121.885 E35.28466
G1 X86.908 Y121.462 E35.33906
G1 X87.505 Y120.786 E35.38405
G1 X87.618 Y120.665 E35.39231
G1 X87.867 Y119.784 E35.43799
G1 X87.913 Y119.629 E35.44605
G1 X87.754 Y118.713 E35.49244
G1 X87.723 Y118.559 E35.50027
G1 X87.193 Y117.819 E35.54568
G1 X87.103 Y117.691 E35.55349
G1 X86.296 Y117.250 E35.59937
G1 X86.159 Y117.175 E35.60716
G1 X85.260 Y117.130 E35.65207
G0 F9000 X85.220 Y117.528
;TYPE:WALL-OUTER
G1 F1200 X85.159 Y117.522 E35.65513
G1 X84.332 Y117.870 E35.69989
G1 X83.789 Y118.486 E35.74086
G1 X83.742 Y118.536 E35.74428
G1 X83.518 Y119.330 E35.78544
G1 X83.498 Y119.395 E35.78884
G1 X83.640 Y120.213 E35.83026
G1 X83.653 Y120.277 E35.83351
G1 X84.133 Y120.947 E35.87463
G1 X84.171 Y121.001 E35.87793
G1 X84.897 Y121.398 E35.91921
G1 X84.955 Y121.429 E35.92249
G1 X85.781 Y121.471 E35.96375
G1 X85.842 Y121.477 E35.96681
G1 X86.669 Y121.129 E36.01157
G1 X87.212 Y120.513 E36.05254
G1 X87.259 Y120.463 E36.05597
G1 X87.483 Y119.669 E36.09713
G1 X87.503 Y119.604 E36.10052
G1 X87.361 Y118.786 E36.14194
G1 X87.348 Y118.722 E36.14520
G1 X86.868 Y118.052 E36.18632
G1 X86.830 Y117.998 E36.18961
G1 X86.104 Y117.601 E36.23089
G1 X86.046 Y117.570 E36.23417
G1 X85.220 Y117.528 E36.27544
G0 F9000 X85.229 Y117.228
G0 X86.296 Y117.251
G0 X87.194 Y117.821
G0 X87.753 Y118.713
G0 X89.523 Y121.771
G0 X89.800 Y121.918
G1 F1200 X86.918 Y124.800 E36.47878
G1 X81.082 Y124.800 E36.76994
G1 X75.200 Y118.918 E37.18494
G1 X75.200 Y78.082 E39.22226
G1 X78.082 Y75.200 E39.42560
G1 X118.917 Y75.200 E41.46287
G1 X124.799 Y81.082 E41.87787
G1 X124.799 Y86.918 E42.16903
G1 X118.917 Y92.800 E42.58404
G1 X89.800 Y92.800 E44.03669
G1 X89.800 Y102.800 E44.53559
G1 X88.005 Y102.800 E44.62515
G1 X87.591 Y101.834 E44.67758
G1 X87.567 Y101.779 E44.68057
G1 X86.743 Y100.816 E44.74381
G1 X85.665 Y100.140 E44.80729
G1 X84.443 Y99.822 E44.87028
G1 X84.383 Y99.820 E44.87328
G1 X83.165 Y99.881 E44.93412
G1 X81.971 Y100.320 E44.99759
G1 X80.972 Y101.089 E45.06049
G1 X80.244 Y102.125 E45.12366
G1 X80.217 Y102.178 E45.12662
G1 X79.850 Y103.349 E45.18785
G1 X79.845 Y104.602 E45.25036
G1 X79.853 Y104.662 E45.25338
G1 X80.216 Y105.820 E45.31393
G1 X80.243 Y105.873 E45.31689
G1 X80.932 Y106.864 E45.37711
G1 X80.971 Y106.909 E45.38008
G1 X81.944 Y107.662 E45.44146
G1 X83.113 Y108.101 E45.50376
G1 X83.171 Y108.118 E45.50678
G1 X84.376 Y108.178 E45.56697
G1 X84.435 Y108.180 E45.56991
G1 X85.609 Y107.875 E45.63043
G1 X85.666 Y107.859 E45.63338
G1 X86.697 Y107.215 E45.69403
G1 X86.746 Y107.180 E45.69703
G1 X87.531 Y106.262 E45.75729
G1 X87.569 Y106.217 E45.76023
G1 X88.005 Y105.200 E45.81544
G1 X89.800 Y105.200 E45.90499
G1 X89.800 Y121.918 E46.73905
G0 F9000 X89.523 Y121.771
G0 X81.242 Y124.416
G0 X75.584 Y78.242
G0 X118.757 Y92.416
G0 X89.459 Y92.459
G0 X85.772 Y90.771
G0 X85.781 Y90.471
G1 F1200 X85.842 Y90.477 E46.74211
G1 X86.669 Y90.129 E46.78688
G1 X87.212 Y89.513 E46.82784
G1 X87.259 Y89.463 E46.83127
G1 X87.483 Y88.669 E46.87243
G1 X87.503 Y88.604 E46.87582
G1 X87.361 Y87.786 E46.91724
G1 X87.348 Y87.722 E46.92050
G1 X86.868 Y87.052 E46.96162
G1 X86.830 Y86.998 E46.96491
G1 X86.104 Y86.601 E47.00619
G1 X86.046 Y86.570 E47.00947
G1 X85.220 Y86.528 E47.05074
G1 X85.159 Y86.522 E47.05380
G1 X84.332 Y86.870 E47.09856
G1 X83.789 Y87.486 E47.13953
G1 X83.742 Y87.536 E47.14295
G1 X83.518 Y88.330 E47.18411
G1 X83.498 Y88.395 E47.18750
G1 X83.640 Y89.213 E47.22892
G1 X83.653 Y89.277 E47.23218
G1 X84.133 Y89.947 E47.27330
G1 X84.171 Y90.001 E47.27659
G1 X84.897 Y90.398 E47.31788
G1 X84.955 Y90.429 E47.32116
G1 X85.781 Y90.471 E47.36242
G0 F9000 X85.772 Y90.771
G0 X114.227 Y88.253
G0 X114.517 Y88.330
G1 F1200 X114.497 Y88.395 E47.36581
G1 X114.639 Y89.213 E47.40723
G1 X114.652 Y89.277 E47.41049
G1 X115.132 Y89.947 E47.45161
G1 X115.170 Y90.001 E47.45491
G1 X115.896 Y90.398 E47.49619
G1 X115.954 Y90.429 E47.49947
G1 X116.780 Y90.471 E47.54073
G1 X116.841 Y90.477 E47.54379
G1 X117.668 Y90.129 E47.58855
G1 X118.211 Y89.513 E47.62952
G1 X118.258 Y89.463 E47.63294
G1 X118.482 Y88.669 E47.67410
G1 X118.502 Y88.604 E47.67750
G1 X118.360 Y87.786 E47.71892
G1 X118.347 Y87.722 E47.72217
G1 X117.867 Y87.052 E47.76329
G1 X117.829 Y86.998 E47.76659
G1 X117.103 Y86.601 E47.80787
G1 X117.045 Y86.570 E47.81115
G1 X116.219 Y86.528 E47.85241
G1 X116.158 Y86.522 E47.85547
G1 X115.331 Y86.870 E47.90023
G1 X114.788 Y87.486 E47.94120
G1 X114.741 Y87.536 E47.94463
G1 X114.517 Y88.330 E47.98578
G0 F9000 X113.656 Y87.917
;TYPE:SKIN
G1 F1200 X101.879 Y76.140 E48.81672
G0 F9000 X102.444 Y76.140
G1 F1200 X113.781 Y87.476 E49.61657
G0 F9000 X113.914 Y87.044
G1 F1200 X103.010 Y76.140 E50.38590
G0 F9000 X103.576 Y76.140
G1 F1200 X114.185 Y86.749 E51.13443
G0 F9000 X114.450 Y86.448
G1 F1200 X104.141 Y76.140 E51.86175
G0 F9000 X104.707 Y76.140
G1 F1200 X114.715 Y86.148 E52.56786
G0 F9000 X115.085 Y85.952
G1 F1200 X105.273 Y76.140 E53.26015
G0 F9000 X105.839 Y76.140
G1 F1200 X115.483 Y85.784 E53.94059
G0 F9000 X115.881 Y85.617
G1 F1200 X106.404 Y76.140 E54.60924
G0 F9000 X106.970 Y76.140
G1 F1200 X116.427 Y85.597 E55.27649
G0 F9000 X117.023 Y85.627
G1 F1200 X107.536 Y76.140 E55.94585
G0 F9000 X108.101 Y76.140
G1 F1200 X117.960 Y85.999 E56.64145
G0 F9000 X119.047 Y87.085
G1 F1200 X121.174 Y89.212 E56.79152
G0 F9000 X121.456 Y88.929
G1 F1200 X108.667 Y76.140 E57.69386
G0 F9000 X109.233 Y76.140
G1 F1200 X121.739 Y88.647 E58.57626
G0 F9000 X122.022 Y88.364
G1 F1200 X109.798 Y76.140 E59.43873
G0 F9000 X110.364 Y76.140
G1 F1200 X122.305 Y88.081 E60.28123
G0 F9000 X122.588 Y87.798
G1 F1200 X110.930 Y76.140 E61.10376
G0 F9000 X111.495 Y76.140
G1 F1200 X122.871 Y87.515 E61.90637
G0 F9000 X123.153 Y87.232
G1 F1200 X112.061 Y76.140 E62.68897
G0 F9000 X112.627 Y76.140
G1 F1200 X123.436 Y86.950 E63.45163
G0 F9000 X123.719 Y86.667
G1 F1200 X113.192 Y76.140 E64.19437
G0 F9000 X113.758 Y76.140
G1 F1200 X123.858 Y86.240 E64.90698
G0 F9000 X123.858 Y85.674
G1 F1200 X114.324 Y76.140 E65.57966
G0 F9000 X114.890 Y76.140
G1 F1200 X123.858 Y85.108 E66.21240
G0 F9000 X123.858 Y84.543
G1 F1200 X115.455 Y76.140 E66.80527
G0 F9000 X116.021 Y76.140
G1 F1200 X123.858 Y83.977 E67.35822
G0 F9000 X123.858 Y83.411
G1 F1200 X116.587 Y76.140 E67.87122
G0 F9000 X117.152 Y76.140
G1 F1200 X123.858 Y82.846 E68.34437
G0 F9000 X123.858 Y82.280
G1 F1200 X117.718 Y76.140 E68.77758
G0 F9000 X118.284 Y76.140
G1 F1200 X123.858 Y81.714 E69.17086
G0 F9000 X119.341 Y87.945
G1 F1200 X120.891 Y89.495 E69.28022
G0 F9000 X120.608 Y89.778
G1 F1200 X119.460 Y88.630 E69.36121
G0 F9000 X119.342 Y89.078
G1 F1200 X120.325 Y90.061 E69.43057
G0 F9000 X120.042 Y90.344
G1 F1200 X119.217 Y89.519 E69.48878
G0 F9000 X119.085 Y89.952
G1 F1200 X119.759 Y90.627 E69.53637
G0 F9000 X119.477 Y90.909
G1 F1200 X118.814 Y90.247 E69.58311
G0 F9000 X118.549 Y90.547
G1 F1200 X119.194 Y91.192 E69.62862
G0 F9000 X118.911 Y91.475
G1 F1200 X118.284 Y90.848 E69.67286
G0 F9000 X117.915 Y91.044
G1 F1200 X118.628 Y91.758 E69.72320
G0 F9000 X118.163 Y91.859
G1 F1200 X117.516 Y91.212 E69.76885
G0 F9000 X117.119 Y91.380
G1 F1200 X117.315 Y91.859 E69.80261
G1 X116.520 Y91.630 E69.83480
G1 X115.978 Y91.371 E69.86477
G0 F9000 X115.901 Y91.859
G1 F1200 X115.046 Y91.005 E69.92506
