;Generated from Z-AXIS-TOP-RIGHT-V2.stl 4fd33ce008b990f375994a4b41c41eace072043c
;Generated with Cura_SteamEngine 15.04
M140 S55.0
M109 T0 S210.0
T0
M190 S55.0

;Basic settings: Layer height: 0.2 Walls: 1.2 Fill: 20
;Print time: ?print_time?
;Filament used: ?filament_amount?m ?filament_weight?g
;Filament cost: ?filament_cost?
;M190 S55 ;Uncomment to add your own bed temperature line
;M109 S210 ;Uncomment to add your own temperature line
G21        ;metric values
G90        ;absolute positioning
M82        ;set extruder to absolute mode
M107       ;start with the fan off
G28 X0 Y0  ;move X/Y to min endstops
G28 Z0     ;move Z to min endstops
G1 Z5.0 F9000 ;move the platform down 15mm
G92 E0                  ;zero the extruded length
G1 F200 E3              ;extrude 3mm of feed stock
G92 E0                  ;zero the extruded length again
G1 F9000
;Put printing message on LCD screen
M117 Printing...

;Layer count: 80
;LAYER:0
M107
G0 F9000 X82.675 Y104.300 Z0.300
;TYPE:SKIRT
G1 F1200 X107.800 Y104.300 E1.25349
G1 X107.800 Y83.175 E2.30742
G1 X118.000 Y72.975 E3.02709
G1 X122.200 Y77.175 E3.32342
G1 X122.200 Y117.825 E5.35146
G1 X114.325 Y125.700 E5.90708
G1 X84.675 Y125.700 E7.38632
G1 X77.800 Y118.825 E7.87139
G1 X77.800 Y109.175 E8.35283
G1 X82.675 Y104.300 E8.69679
G1 F2400 E4.19679
G0 F9000 X84.414 Y108.500
;TYPE:WALL-INNER
G1 F2400 E8.69679
G1 F1200 X89.918 Y108.500 E8.97139
G1 X88.772 Y108.681 E9.02927
G1 X88.495 Y108.718 E9.04321
G1 X87.070 Y109.434 E9.12278
G1 X86.059 Y110.437 E9.19383
G1 X85.932 Y110.578 E9.20329
G1 X85.312 Y111.794 E9.27139
G1 X85.230 Y111.964 E9.28081
G1 X85.017 Y113.314 E9.34899
G1 X84.987 Y113.495 E9.35814
G1 X85.202 Y114.863 E9.42723
G1 X85.233 Y115.051 E9.43674
G1 X85.862 Y116.287 E9.50593
G1 X85.951 Y116.455 E9.51541
G1 X87.053 Y117.556 E9.59313
G1 X88.282 Y118.181 E9.66192
G1 X88.440 Y118.266 E9.67087
G1 X89.813 Y118.483 E9.74022
G1 X89.998 Y118.513 E9.74957
G1 X91.362 Y118.298 E9.81846
G1 X91.550 Y118.267 E9.82796
G1 X92.786 Y117.638 E9.89715
G1 X92.954 Y117.549 E9.90664
G1 X94.055 Y116.447 E9.98436
G1 X94.670 Y115.237 E10.05207
G1 X94.765 Y115.060 E10.06210
G1 X94.983 Y113.687 E10.13145
G1 X95.013 Y113.501 E10.14085
G1 X94.796 Y112.135 E10.20986
G1 X94.765 Y111.949 E10.21926
G1 X94.058 Y110.558 E10.29711
G1 X92.951 Y109.449 E10.37529
G1 X91.570 Y108.743 E10.45267
G1 X90.283 Y108.529 E10.51776
G1 X90.069 Y108.500 E10.52853
G1 X112.000 Y108.500 E11.62267
G1 X112.000 Y84.914 E12.79938
G1 X118.000 Y78.914 E13.22272
G1 X118.000 Y116.086 E15.07723
G1 X112.586 Y121.500 E15.45922
G1 X86.414 Y121.500 E16.76495
G1 X82.000 Y117.086 E17.07638
G1 X82.000 Y110.914 E17.38430
G1 X84.414 Y108.500 E17.55462
G0 F9000 X84.248 Y108.100
G1 F1200 X111.600 Y108.100 E18.91922
G1 X111.600 Y84.748 E20.08426
G1 X118.000 Y78.348 E20.53581
G1 X118.400 Y78.748 E20.56403
G1 X118.400 Y116.252 E22.43511
G1 X112.752 Y121.900 E22.83361
G1 X86.248 Y121.900 E24.15590
G1 X81.600 Y117.252 E24.48384
G1 X81.600 Y110.748 E24.80833
G1 X84.248 Y108.100 E24.99516
G0 F9000 X86.348 Y110.714
G1 F1200 X86.264 Y110.807 E25.00141
G1 X85.670 Y111.972 E25.06665
G1 X85.616 Y112.084 E25.07286
G1 X85.413 Y113.371 E25.13786
G1 X85.392 Y113.497 E25.14423
G1 X85.597 Y114.800 E25.21004
G1 X85.618 Y114.925 E25.21636
G1 X86.216 Y116.102 E25.28223
G1 X86.276 Y116.214 E25.28857
G1 X87.291 Y117.229 E25.36018
G1 X88.463 Y117.825 E25.42578
G1 X88.569 Y117.882 E25.43178
G1 X89.876 Y118.088 E25.49779
G1 X89.999 Y118.108 E25.50401
G1 X91.299 Y117.903 E25.56967
G1 X91.424 Y117.882 E25.57599
G1 X92.601 Y117.284 E25.64186
G1 X92.713 Y117.224 E25.64820
G1 X93.728 Y116.209 E25.71981
G1 X94.318 Y115.048 E25.78478
G1 X94.381 Y114.931 E25.79141
G1 X94.588 Y113.625 E25.85738
G1 X94.608 Y113.501 E25.86365
G1 X94.401 Y112.199 E25.92942
G1 X94.381 Y112.075 E25.93569
G1 X93.730 Y110.795 E26.00733
G1 X92.713 Y109.776 E26.07916
G1 X91.443 Y109.127 E26.15031
G1 X90.223 Y108.925 E26.21201
G1 X89.993 Y108.894 E26.22358
G1 X88.848 Y109.074 E26.28141
G1 X88.615 Y109.106 E26.29314
G1 X87.306 Y109.763 E26.36621
G1 X86.348 Y110.714 E26.43356
G0 F9000 X86.637 Y110.991
;TYPE:WALL-OUTER
G1 F1200 X86.596 Y111.036 E26.43660
G1 X86.029 Y112.149 E26.49892
G1 X86.002 Y112.205 E26.50202
G1 X85.807 Y113.439 E26.56435
G1 X85.797 Y113.499 E26.56738
G1 X86.002 Y114.799 E26.63304
G1 X86.571 Y115.917 E26.69562
G1 X86.601 Y115.973 E26.69879
G1 X87.529 Y116.901 E26.76427
G1 X88.644 Y117.468 E26.82668
G1 X88.698 Y117.497 E26.82973
G1 X90.000 Y117.702 E26.89549
G1 X91.298 Y117.498 E26.96104
G1 X92.416 Y116.929 E27.02363
G1 X92.472 Y116.899 E27.02680
G1 X93.400 Y115.971 E27.09227
G1 X93.965 Y114.859 E27.15450
G1 X93.996 Y114.802 E27.15774
G1 X94.202 Y113.500 E27.22350
G1 X94.006 Y112.263 E27.28599
G1 X93.996 Y112.202 E27.28907
G1 X93.402 Y111.033 E27.35449
G1 X92.474 Y110.103 E27.42004
G1 X91.316 Y109.512 E27.48490
G1 X90.164 Y109.320 E27.54317
G1 X89.998 Y109.298 E27.55152
G1 X88.897 Y109.471 E27.60712
G1 X88.734 Y109.493 E27.61533
G1 X87.543 Y110.092 E27.68184
G1 X86.637 Y110.991 E27.74552
G0 F9000 X86.413 Y110.792
G0 X84.176 Y108.000
G0 X84.082 Y107.700
G1 F1200 X111.200 Y107.700 E29.09844
G1 X111.200 Y84.582 E30.25180
G1 X118.000 Y77.782 E30.73158
G1 X118.800 Y78.582 E30.78802
G1 X118.800 Y116.418 E32.67567
G1 X112.918 Y122.300 E33.09067
G1 X86.082 Y122.300 E34.42953
G1 X81.200 Y117.418 E34.77398
G1 X81.200 Y110.582 E35.11503
G1 X84.082 Y107.700 E35.31837
G0 F9000 X84.598 Y108.639
;TYPE:SKIN
G1 F1200 X86.128 Y110.170 E35.42635
G0 F9000 X85.851 Y110.458
G1 F1200 X84.251 Y108.859 E35.53921
G0 F9000 X83.968 Y109.141
G1 F1200 X85.649 Y110.822 E35.65781
G0 F9000 X85.458 Y111.197
G1 F1200 X83.686 Y109.424 E35.78287
G0 F9000 X83.403 Y109.707
G1 F1200 X85.267 Y111.572 E35.91442
G0 F9000 X85.088 Y111.959
G1 F1200 X83.120 Y109.990 E36.05331
G0 F9000 X82.837 Y110.273
G1 F1200 X85.011 Y112.447 E36.20670
G0 F9000 X84.934 Y112.936
G1 F1200 X82.554 Y110.556 E36.37462
G0 F9000 X82.271 Y110.838
G1 F1200 X84.857 Y113.424 E36.55708
G0 F9000 X84.936 Y114.069
G1 F1200 X82.139 Y111.272 E36.75442
G0 F9000 X82.139 Y111.838
G1 F1200 X85.043 Y114.741 E36.95928
G0 F9000 X85.376 Y115.640
G1 F1200 X82.139 Y112.403 E37.18766
G0 F9000 X82.139 Y112.969
G1 F1200 X90.529 Y121.359 E37.77962
G0 F9000 X89.963 Y121.359
G1 F1200 X82.139 Y113.535 E38.33165
G0 F9000 X82.139 Y114.100
G1 F1200 X89.398 Y121.359 E38.84381
G0 F9000 X88.832 Y121.359
G1 F1200 X82.139 Y114.666 E39.31604
G0 F9000 X82.139 Y115.232
G1 F1200 X88.266 Y121.359 E39.74833
G0 F9000 X87.701 Y121.359
G1 F1200 X82.139 Y115.797 E40.14076
G0 F9000 X82.139 Y116.363
G1 F1200 X87.135 Y121.359 E40.49326
G0 F9000 X86.569 Y121.359
G1 F1200 X82.139 Y116.929 E40.80582
G0 F9000 X87.858 Y118.122
G1 F1200 X91.095 Y121.359 E41.03420
G0 F9000 X91.660 Y121.359
G1 F1200 X88.759 Y118.458 E41.23888
G0 F9000 X89.432 Y118.564
G1 F1200 X92.226 Y121.359 E41.43605
G0 F9000 X92.792 Y121.359
G1 F1200 X90.074 Y118.641 E41.62782
G0 F9000 X90.563 Y118.564
G1 F1200 X93.357 Y121.359 E41.82499
G0 F9000 X93.923 Y121.359
G1 F1200 X91.051 Y118.487 E42.02762
G0 F9000 X91.539 Y118.409
G1 F1200 X94.489 Y121.359 E42.23576
G0 F9000 X95.054 Y121.359
G1 F1200 X91.927 Y118.231 E42.45642
G0 F9000 X92.302 Y118.040
G1 F1200 X95.620 Y121.359 E42.69056
G0 F9000 X96.186 Y121.359
G1 F1200 X92.677 Y117.850 E42.93814
G0 F9000 X93.046 Y117.654
G1 F1200 X96.752 Y121.359 E43.19958
G0 F9000 X97.317 Y121.359
G1 F1200 X93.329 Y117.371 E43.48096
G0 F9000 X93.612 Y117.088
G1 F1200 X97.883 Y121.359 E43.78230
G0 F9000 X98.449 Y121.359
G1 F1200 X93.895 Y116.805 E44.10361
G0 F9000 X94.175 Y116.519
G1 F1200 X99.014 Y121.359 E44.44506
G0 F9000 X99.580 Y121.359
G1 F1200 X94.365 Y116.144 E44.81301
G0 F9000 X94.556 Y115.769
G1 F1200 X100.146 Y121.359 E45.20741
G0 F9000 X100.711 Y121.359
G1 F1200 X94.746 Y115.394 E45.62828
G0 F9000 X94.915 Y114.997
G1 F1200 X101.277 Y121.359 E46.07715
G0 F9000 X101.843 Y121.359
G1 F1200 X94.994 Y114.510 E46.56039
G0 F9000 X95.071 Y114.022
G1 F1200 X102.408 Y121.359 E47.07805
G0 F9000 X102.974 Y121.359
G1 F1200 X95.150 Y113.535 E47.63008
G0 F9000 X95.054 Y112.874
G1 F1200 X103.540 Y121.359 E48.22877
G0 F9000 X104.105 Y121.359
G1 F1200 X94.946 Y112.199 E48.87503
G0 F9000 X94.571 Y111.259
G1 F1200 X104.671 Y121.359 E49.58764
G0 F9000 X105.237 Y121.359
G1 F1200 X92.517 Y108.639 E50.48510
G0 F9000 X92.239 Y108.927
G1 F1200 X91.952 Y108.639 E50.50538
G0 F9000 X93.083 Y108.639
G1 F1200 X105.802 Y121.359 E51.40281
G0 F9000 X106.368 Y121.359
G1 F1200 X93.649 Y108.639 E52.30024
G0 F9000 X94.214 Y108.639
G1 F1200 X106.934 Y121.359 E53.19771
G0 F9000 X107.500 Y121.359
G1 F1200 X94.780 Y108.639 E54.09517
G0 F9000 X95.346 Y108.639
G1 F1200 X108.065 Y121.359 E54.99260
G0 F9000 X108.631 Y121.359
G1 F1200 X95.911 Y108.639 E55.89007
G0 F9000 X96.477 Y108.639
G1 F1200 X109.197 Y121.359 E56.78753
G0 F9000 X109.762 Y121.359
G1 F1200 X97.043 Y108.639 E57.68496
G0 F9000 X97.609 Y108.639
G1 F1200 X110.328 Y121.359 E58.58239
G0 F9000 X110.894 Y121.359
G1 F1200 X98.174 Y108.639 E59.47986
G0 F9000 X98.740 Y108.639
G1 F1200 X111.459 Y121.359 E60.37728
G0 F9000 X112.025 Y121.359
G1 F1200 X99.306 Y108.639 E61.27471
G0 F9000 X99.871 Y108.639
G1 F1200 X112.560 Y121.328 E62.16999
G0 F9000 X112.842 Y121.045
G1 F1200 X100.437 Y108.639 E63.04527
G0 F9000 X101.003 Y108.639
G1 F1200 X113.125 Y120.762 E63.90057
G0 F9000 X113.408 Y120.479
G1 F1200 X101.568 Y108.639 E64.73595
G0 F9000 X102.135 Y108.640
G1 F1200 X113.691 Y120.196 E65.55129
G0 F9000 X113.974 Y119.913
G1 F1200 X102.700 Y108.640 E66.34669
G0 F9000 X103.266 Y108.640
G1 F1200 X114.257 Y119.631 E67.12217
G0 F9000 X114.539 Y119.348
G1 F1200 X103.832 Y108.640 E67.87764
G0 F9000 X104.397 Y108.640
G1 F1200 X114.822 Y119.065 E68.61318
G0 F9000 X115.105 Y118.782
G1 F1200 X104.963 Y108.640 E69.32875
G0 F9000 X105.529 Y108.640
G1 F1200 X115.388 Y118.499 E70.02436
G0 F9000 X115.671 Y118.216
G1 F1200 X106.095 Y108.640 E70.70000
G0 F9000 X106.660 Y108.640
G1 F1200 X115.954 Y117.934 E71.35574
G0 F9000 X116.237 Y117.651
G1 F1200 X107.226 Y108.640 E71.99151
G0 F9000 X107.792 Y108.640
G1 F1200 X116.519 Y117.368 E72.60729
G0 F9000 X116.802 Y117.085
G1 F1200 X108.357 Y108.640 E73.20313
G0 F9000 X108.923 Y108.640
G1 F1200 X117.085 Y116.802 E73.77900
G0 F9000 X117.368 Y116.519
G1 F1200 X109.489 Y108.640 E74.33491
G0 F9000 X110.054 Y108.640
G1 F1200 X117.651 Y116.237 E74.87092
G0 F9000 X117.859 Y115.879
G1 F1200 X110.620 Y108.640 E75.38167
G0 F9000 X111.186 Y108.640
G1 F1200 X117.859 Y115.313 E75.85248
G0 F9000 X117.859 Y114.747
G1 F1200 X111.751 Y108.640 E76.28340
G0 F9000 X112.139 Y108.462
G1 F1200 X117.859 Y114.182 E76.68698
G0 F9000 X117.859 Y113.616
G1 F1200 X112.139 Y107.896 E77.09055
G0 F9000 X112.139 Y107.331
G1 F1200 X117.859 Y113.050 E77.49410
G0 F9000 X117.859 Y112.485
G1 F1200 X112.139 Y106.765 E77.89767
G0 F9000 X112.139 Y106.199
G1 F1200 X117.859 Y111.919 E78.30125
G0 F9000 X117.859 Y111.353
G1 F1200 X112.139 Y105.633 E78.70483
G0 F9000 X112.139 Y105.068
G1 F1200 X117.859 Y110.788 E79.10840
G0 F9000 X117.859 Y110.222
G1 F1200 X112.139 Y104.502 E79.51198
G0 F9000 X112.139 Y103.936
G1 F1200 X117.859 Y109.656 E79.91556
G0 F9000 X117.859 Y109.091
G1 F1200 X112.139 Y103.371 E80.31913
G0 F9000 X112.139 Y102.805
G1 F1200 X117.859 Y108.525 E80.72271
G0 F9000 X117.859 Y107.959
G1 F1200 X112.139 Y102.239 E81.12629
G0 F9000 X112.139 Y101.674
G1 F1200 X117.859 Y107.393 E81.52983
G0 F9000 X117.859 Y106.828
G1 F1200 X112.139 Y101.108 E81.93341
G0 F9000 X112.139 Y100.542
G1 F1200 X117.859 Y106.262 E82.33698
G0 F9000 X117.859 Y105.696
G1 F1200 X112.139 Y99.977 E82.74052
G0 F9000 X112.139 Y99.411
G1 F1200 X117.859 Y105.131 E83.14410
G0 F9000 X117.859 Y104.565
G1 F1200 X112.139 Y98.845 E83.54768
G0 F9000 X112.139 Y98.280
G1 F1200 X117.859 Y103.999 E83.95122
G0 F9000 X117.859 Y103.434
G1 F1200 X112.139 Y97.714 E84.35480
G0 F9000 X112.139 Y97.148
G1 F1200 X117.859 Y102.868 E84.75837
G0 F9000 X117.859 Y102.302
G1 F1200 X112.139 Y96.583 E85.16192
G0 F9000 X112.139 Y96.017
G1 F1200 X117.859 Y101.737 E85.56549
G0 F9000 X117.859 Y101.171
G1 F1200 X112.139 Y95.451 E85.96907
G0 F9000 X112.139 Y94.885
G1 F1200 X117.859 Y100.605 E86.37265
G0 F9000 X117.859 Y100.040
G1 F1200 X112.139 Y94.320 E86.77622
G0 F9000 X112.139 Y93.754
G1 F1200 X117.859 Y99.474 E87.17980
G0 F9000 X117.859 Y98.908
G1 F1200 X112.139 Y93.188 E87.58338
G0 F9000 X112.139 Y92.623
G1 F1200 X117.859 Y98.342 E87.98692
G0 F9000 X117.859 Y97.777
G1 F1200 X112.139 Y92.057 E88.39050
G0 F9000 X112.139 Y91.491
G1 F1200 X117.859 Y97.211 E88.79407
G0 F9000 X117.859 Y96.645
G1 F1200 X112.139 Y90.926 E89.19761
G0 F9000 X112.139 Y90.360
G1 F1200 X117.859 Y96.080 E89.60119
G0 F9000 X117.859 Y95.514
G1 F1200 X112.139 Y89.794 E90.00477
G0 F9000 X112.139 Y89.229
G1 F1200 X117.859 Y94.948 E90.40831
G0 F9000 X117.859 Y94.383
G1 F1200 X112.139 Y88.663 E90.81189
G0 F9000 X112.139 Y88.097
G1 F1200 X117.859 Y93.817 E91.21546
G0 F9000 X117.859 Y93.251
G1 F1200 X112.139 Y87.532 E91.61900
G0 F9000 X112.139 Y86.966
G1 F1200 X117.859 Y92.686 E92.02258
G0 F9000 X117.859 Y92.120
G1 F1200 X112.139 Y86.400 E92.42616
G0 F9000 X112.139 Y85.834
G1 F1200 X117.859 Y91.554 E92.82974
G0 F9000 X117.859 Y90.989
G1 F1200 X112.139 Y85.269 E93.23331
G0 F9000 X112.273 Y84.837
G1 F1200 X117.859 Y90.423 E93.62743
G0 F9000 X117.859 Y89.857
G1 F1200 X112.555 Y84.554 E94.00163
G0 F9000 X112.838 Y84.271
G1 F1200 X117.859 Y89.292 E94.35588
G0 F9000 X117.859 Y88.726
G1 F1200 X113.121 Y83.988 E94.69018
G0 F9000 X113.404 Y83.705
G1 F1200 X117.859 Y88.160 E95.00450
G0 F9000 X117.859 Y87.594
G1 F1200 X113.687 Y83.423 E95.29882
G0 F9000 X113.970 Y83.140
G1 F1200 X117.859 Y87.029 E95.57321
G0 F9000 X117.859 Y86.463
G1 F1200 X114.252 Y82.857 E95.82767
G0 F9000 X114.535 Y82.574
G1 F1200 X117.859 Y85.897 E96.06216
G0 F9000 X117.859 Y85.332
G1 F1200 X114.818 Y82.291 E96.27672
G0 F9000 X115.101 Y82.008
G1 F1200 X117.859 Y84.766 E96.47131
G0 F9000 X117.859 Y84.200
G1 F1200 X115.384 Y81.725 E96.64594
G0 F9000 X115.667 Y81.443
G1 F1200 X117.859 Y83.635 E96.80059
G0 F9000 X117.859 Y83.069
G1 F1200 X115.949 Y81.160 E96.93532
G0 F9000 X116.232 Y80.877
G1 F1200 X117.859 Y82.503 E97.05008
G0 F9000 X117.859 Y81.938
G1 F1200 X116.515 Y80.594 E97.14490
G0 F9000 X116.798 Y80.311
G1 F1200 X117.859 Y81.372 E97.21976
G0 F9000 X117.859 Y80.806
G1 F1200 X117.081 Y80.028 E97.27465
G0 F9000 X117.364 Y79.746
G1 F1200 X117.859 Y79.958 E97.30958
G1 X117.647 Y79.463 E97.33644
G0 F9000 X111.541 Y108.041
G0 X88.106 Y108.754
G1 F1200 X87.861 Y108.791 E97.34448
G1 X87.390 Y108.886 E97.36587
G1 X86.860 Y108.639 E97.39505
G0 F9000 X86.295 Y108.639
G1 F1200 X86.980 Y109.325 E97.44341
G0 F9000 X86.696 Y109.607
G1 F1200 X85.729 Y108.639 E97.51168
G0 F9000 X85.163 Y108.639
G1 F1200 X86.412 Y109.888 E97.59980
;LAYER:1
M106 S255
G0 F9000 X85.935 Y110.569 Z0.500
;TYPE:WALL-INNER
G1 F1500 X85.322 Y111.773 E97.64474
G1 X85.230 Y111.969 E97.65194
G1 X85.021 Y113.287 E97.69632
G1 X84.988 Y113.502 E97.70356
G1 X85.197 Y114.832 E97.74833
G1 X85.233 Y115.051 E97.75572
G1 X85.844 Y116.253 E97.80056
G1 X85.946 Y116.449 E97.80791
G1 X87.053 Y117.556 E97.85998
G1 X88.247 Y118.164 E97.90455
G1 X88.447 Y118.268 E97.91205
G1 X89.782 Y118.478 E97.95699
G1 X89.998 Y118.513 E97.96427
G1 X91.331 Y118.303 E98.00915
G1 X91.550 Y118.267 E98.01654
G1 X92.752 Y117.656 E98.06138
G1 X92.948 Y117.554 E98.06873
G1 X94.055 Y116.447 E98.12080
G1 X94.663 Y115.253 E98.16537
G1 X94.766 Y115.053 E98.17285
G1 X94.978 Y113.718 E98.21781
G1 X95.013 Y113.501 E98.22512
G1 X94.801 Y112.166 E98.27008
G1 X94.765 Y111.950 E98.27736
G1 X94.060 Y110.560 E98.32920
G1 X92.956 Y109.452 E98.38122
G1 X91.663 Y108.789 E98.42955
G1 X91.416 Y108.704 E98.43824
G1 X90.410 Y108.545 E98.47211
G1 X90.064 Y108.500 E98.48372
G1 X112.000 Y108.500 E99.21331
G1 X112.000 Y84.914 E99.99779
G1 X118.000 Y78.914 E100.28001
G1 X118.000 Y116.086 E101.51635
G1 X112.586 Y121.500 E101.77101
G1 X86.414 Y121.500 E102.64150
G1 X82.000 Y117.086 E102.84912
G1 X82.000 Y110.914 E103.05440
G1 X84.414 Y108.500 E103.16795
G1 X89.923 Y108.500 E103.35118
G1 X88.959 Y108.651 E103.38363
