; G-Code generated by Simplify3D(R) Version 3.1.0
; 4 10, 2017 at 2:52:04 ODP.
; Settings Summary
;   processName,thick
;   applyToModels,cessna_152_nose_LG_spring
;   profileName,Default (modified)
;   profileVersion,2016-04-14 15:44:02
;   baseProfile,Default
;   printMaterial,
;   printQuality,
;   printExtruders,
;   extruderName,Primary Extruder
;   extruderToolheadNumber,0
;   extruderDiameter,0.4
;   extruderAutoWidth,0
;   extruderWidth,0.42
;   extrusionMultiplier,1.02
;   extruderUseRetract,1
;   extruderRetractionDistance,0.8
;   extruderExtraRestartDistance,0
;   extruderRetractionZLift,0
;   extruderRetractionSpeed,1800
;   extruderUseCoasting,1
;   extruderCoastingDistance,0.2
;   extruderUseWipe,1
;   extruderWipeDistance,2
;   primaryExtruder,0
;   layerHeight,0.25
;   topSolidLayers,4
;   bottomSolidLayers,4
;   perimeterOutlines,3
;   printPerimetersInsideOut,1
;   startPointOption,2
;   startPointOriginX,200
;   startPointOriginY,0
;   startPointOriginZ,-300
;   sequentialIslands,0
;   spiralVaseMode,0
;   firstLayerHeightPercentage,90
;   firstLayerWidthPercentage,103
;   firstLayerUnderspeed,0.5
;   useRaft,0
;   raftExtruder,0
;   raftLayers,3
;   raftOffset,3
;   raftSeparationDistance,0.14
;   raftInfill,85
;   disableRaftBaseLayers,0
;   useSkirt,1
;   skirtExtruder,0
;   skirtLayers,1
;   skirtOutlines,1
;   skirtOffset,1.4
;   usePrimePillar,0
;   primePillarExtruder,999
;   primePillarWidth,12
;   primePillarLocation,7
;   primePillarSpeedMultiplier,1
;   useOozeShield,0
;   oozeShieldExtruder,999
;   oozeShieldOffset,2
;   oozeShieldOutlines,1
;   oozeShieldSidewallShape,1
;   oozeShieldSidewallAngle,30
;   oozeShieldSpeedMultiplier,1
;   infillExtruder,0
;   internalInfillPattern,Rectilinear
;   externalInfillPattern,Rectilinear
;   infillPercentage,5
;   outlineOverlapPercentage,15
;   infillExtrusionWidthPercentage,100
;   minInfillLength,5
;   infillLayerInterval,1
;   infillAngles,45,-45
;   overlapInfillAngles,0
;   generateSupport,1
;   supportExtruder,0
;   supportInfillPercentage,30
;   supportExtraInflation,0
;   denseSupportLayers,0
;   denseSupportInfillPercentage,70
;   supportLayerInterval,1
;   supportHorizontalPartOffset,0.3
;   supportUpperSeparationLayers,1
;   supportLowerSeparationLayers,1
;   supportType,0
;   supportGridSpacing,1
;   maxOverhangAngle,45
;   supportAngles,0
;   temperatureName,Primary Extruder,Heated Bed
;   temperatureNumber,0,1
;   temperatureSetpointCount,1,1
;   temperatureSetpointLayers,1,1
;   temperatureSetpointTemperatures,230,50
;   temperatureStabilizeAtStartup,1,1
;   temperatureHeatedBed,0,1
;   temperatureRelayBetweenLayers,0,0
;   temperatureRelayBetweenLoops,0,0
;   fanLayers,1,2
;   fanSpeeds,0,40
;   blipFanToFullPower,1
;   adjustSpeedForCooling,1
;   minSpeedLayerTime,15
;   minCoolingSpeedSlowdown,30
;   increaseFanForCooling,0
;   minFanLayerTime,45
;   maxCoolingFanSpeed,100
;   increaseFanForBridging,0
;   bridgingFanSpeed,100
;   use5D,1
;   relativeEdistances,0
;   allowEaxisZeroing,1
;   independentExtruderAxes,0
;   includeM10123,0
;   stickySupport,1
;   applyToolheadOffsets,0
;   gcodeXoffset,0
;   gcodeYoffset,0
;   gcodeZoffset,0
;   overrideMachineDefinition,1
;   machineTypeOverride,0
;   strokeXoverride,195
;   strokeYoverride,195
;   strokeZoverride,150
;   originOffsetXoverride,0
;   originOffsetYoverride,0
;   originOffsetZoverride,0
;   homeXdirOverride,-1
;   homeYdirOverride,-1
;   homeZdirOverride,-1
;   flipXoverride,1
;   flipYoverride,-1
;   flipZoverride,1
;   toolheadOffsets,0,0|0,0|0,0|0,0|0,0|0,0
;   overrideFirmwareConfiguration,1
;   firmwareTypeOverride,RepRap (Marlin/Repetier/Sprinter)
;   GPXconfigOverride,r2
;   baudRateOverride,115200
;   overridePrinterModels,0
;   printerModelsOverride
;   startingGcode,G28,
;   layerChangeGcode,
;   retractionGcode,
;   toolChangeGcode,
;   endingGcode,M104 S0 ; turn off extruder,M140 S0 ; turn off bed,G28 X0 ; home X axis,M84 ; disable motors,M107 ; turn off fan
;   exportFileFormat,gcode
;   celebration,0
;   celebrationSong,Random Song
;   postProcessing,
;   defaultSpeed,3600
;   outlineUnderspeed,0.7
;   solidInfillUnderspeed,0.8
;   supportUnderspeed,0.8
;   rapidXYspeed,7800
;   rapidZspeed,1002
;   minBridgingArea,5
;   bridgingExtraInflation,0
;   bridgingExtrusionMultiplier,1
;   bridgingSpeedMultiplier,0.3
;   filamentDiameter,1.75
;   filamentPricePerKg,1000
;   filamentDensity,1.25
;   useMinPrintHeight,0
;   minPrintHeight,0
;   useMaxPrintHeight,0
;   maxPrintHeight,1
;   useDiaphragm,0
;   diaphragmLayerInterval,20
;   robustSlicing,1
;   mergeAllIntoSolid,0
;   onlyRetractWhenCrossingOutline,0
;   retractBetweenLayers,0
;   useRetractionMinTravel,0
;   retractionMinTravel,3
;   retractWhileWiping,0
;   onlyWipeOutlines,1
;   avoidCrossingOutline,0
;   maxMovementDetourFactor,3
;   toolChangeRetractionDistance,0
;   toolChangeExtraRestartDistance,0
;   toolChangeRetractionSpeed,360
;   allowThinWallGapFill,1
;   thinWallAllowedOverlapPercentage,10
;   horizontalSizeCompensation,0
G90
M82
M106 S0
M140 S50
M190 S50
M104 S230 T0
M109 S230 T0
G28
G92 E0
G1 E-0.8000 F1800
G1 Z0.225 F1002
; layer 1, Z = 0.225
T0
; tool H0.250 W0.433
; skirt
G1 X106.458 Y93.076 F7800
G1 E0.0000 F540
G92 E0
G1 X106.668 Y92.866 E0.0136 F1080
G1 X106.684 Y92.853 E0.0145
G1 X108.741 Y91.478 E0.1280
G1 X108.759 Y91.469 E0.1290
G1 X109.033 Y91.355 E0.1426
G1 X109.053 Y91.349 E0.1435
G1 X111.479 Y90.867 E0.2570
G1 X111.500 Y90.865 E0.2579
G1 X111.796 Y90.865 E0.2715
G1 X111.817 Y90.867 E0.2725
G1 X114.243 Y91.349 E0.3859
G1 X114.263 Y91.355 E0.3869
G1 X114.537 Y91.469 E0.4005
G1 X114.555 Y91.478 E0.4014
G1 X116.613 Y92.853 E0.5149
G1 X116.629 Y92.866 E0.5158
G1 X116.838 Y93.076 E0.5294
G1 X116.851 Y93.092 E0.5304
G1 X118.226 Y95.149 E0.6439
G1 X118.236 Y95.167 E0.6448
G1 X118.349 Y95.441 E0.6584
G1 X118.355 Y95.461 E0.6594
G1 X118.838 Y97.887 E0.7728
G1 X118.840 Y97.908 E0.7738
G1 X118.840 Y98.204 E0.7874
G1 X118.838 Y98.225 E0.7883
G1 X118.355 Y100.652 E0.9018
G1 X118.349 Y100.671 E0.9027
G1 X118.236 Y100.945 E0.9163
G1 X118.226 Y100.963 E0.9173
G1 X116.851 Y103.021 E1.0308
G1 X116.838 Y103.037 E1.0317
G1 X116.628 Y103.246 E1.0453
G1 X116.613 Y103.259 E1.0462
G1 X114.555 Y104.634 E1.1597
G1 X114.537 Y104.644 E1.1607
G1 X114.263 Y104.757 E1.1743
G1 X114.243 Y104.763 E1.1752
G1 X111.817 Y105.246 E1.2887
G1 X111.796 Y105.248 E1.2896
G1 X111.500 Y105.248 E1.3032
G1 X111.479 Y105.246 E1.3042
G1 X109.053 Y104.763 E1.4176
G1 X109.033 Y104.757 E1.4186
G1 X108.759 Y104.644 E1.4322
G1 X108.741 Y104.634 E1.4331
G1 X106.684 Y103.259 E1.5466
G1 X106.668 Y103.246 E1.5475
G1 X106.458 Y103.037 E1.5611
G1 X106.445 Y103.021 E1.5621
G1 X105.070 Y100.963 E1.6756
G1 X105.061 Y100.945 E1.6765
G1 X104.947 Y100.671 E1.6901
G1 X104.941 Y100.652 E1.6910
G1 X104.459 Y98.225 E1.8045
G1 X104.456 Y98.204 E1.8055
G1 X104.456 Y97.908 E1.8191
G1 X104.459 Y97.887 E1.8200
G1 X104.941 Y95.461 E1.9335
G1 X104.947 Y95.441 E1.9344
G1 X105.061 Y95.167 E1.9480
G1 X105.070 Y95.149 E1.9490
G1 X106.345 Y93.241 E2.0542
G1 X106.445 Y93.092 F1080
G1 X106.458 Y93.076 F1080
G92 E0
G1 E-0.8000 F1800
; inner perimeter
G1 X108.481 Y94.889 F7800
G1 E0.0000 F1800
G92 E0
G1 X109.934 Y93.918 E0.0801 F972
G1 X111.648 Y93.577 E0.1603
G1 X113.362 Y93.918 E0.2404
G1 X114.815 Y94.889 E0.3206
G1 X115.786 Y96.342 E0.4007
G1 X116.127 Y98.056 E0.4809
G1 X115.786 Y99.770 E0.5610
G1 X114.815 Y101.223 E0.6412
G1 X113.362 Y102.194 E0.7213
G1 X111.648 Y102.535 E0.8015
G1 X109.934 Y102.194 E0.8816
G1 X108.481 Y101.223 E0.9618
G1 X107.510 Y99.770 E1.0419
G1 X107.169 Y98.056 E1.1221
G1 X107.510 Y96.342 E1.2022
G1 X108.370 Y95.055 E1.2732
G1 X108.481 Y94.889 F972
G92 E0
G1 E-0.8000 F1800
; inner perimeter
G1 X108.169 Y94.577 F7800
G1 E0.0000 F1800
G92 E0
G1 X109.765 Y93.511 E0.0880 F864
G1 X111.648 Y93.136 E0.1761
G1 X113.531 Y93.511 E0.2641
G1 X115.127 Y94.577 E0.3522
G1 X116.194 Y96.173 E0.4402
G1 X116.568 Y98.056 E0.5282
G1 X116.194 Y99.939 E0.6163
G1 X115.127 Y101.535 E0.7043
G1 X113.531 Y102.602 E0.7924
G1 X111.648 Y102.976 E0.8804
G1 X109.765 Y102.602 E0.9685
G1 X108.169 Y101.535 E1.0565
G1 X107.103 Y99.939 E1.1445
G1 X106.728 Y98.056 E1.2326
G1 X107.103 Y96.173 E1.3206
G1 X108.058 Y94.743 E1.3995
G1 X108.169 Y94.577 F864
G92 E0
G1 E-0.8000 F1800
; outer perimeter
G1 X107.857 Y94.265 F7800
G1 E0.0000 F1800
G92 E0
G1 X109.597 Y93.103 E0.0959 F756
G1 X111.648 Y92.695 E0.1919
G1 X113.700 Y93.103 E0.2878
G1 X115.439 Y94.265 E0.3837
G1 X116.601 Y96.005 E0.4797
G1 X117.009 Y98.056 E0.5756
G1 X116.601 Y100.108 E0.6715
G1 X115.439 Y101.847 E0.7675
G1 X113.700 Y103.009 E0.8634
G1 X111.648 Y103.417 E0.9593
G1 X109.597 Y103.009 E1.0553
G1 X107.857 Y101.847 E1.1512
G1 X106.695 Y100.108 E1.2472
G1 X106.287 Y98.056 E1.3431
G1 X106.695 Y96.005 E1.4390
G1 X107.746 Y94.432 E1.5258
G1 X107.857 Y94.265 F756
G92 E0
G1 E-0.8000 F1800
G1 X109.520 Y93.154 F3600
; inner perimeter
G1 X108.864 Y95.273 F7800
G1 E0.0000 F1800
G92 E0
G1 X108.011 Y96.550 E0.0704 F972
G1 X107.712 Y98.056 E0.1409
G1 X108.011 Y99.562 E0.2113
G1 X108.864 Y100.839 E0.2817
G1 X110.141 Y101.693 E0.3522
G1 X111.647 Y101.992 E0.4226
G1 X113.154 Y101.693 E0.4930
G1 X114.431 Y100.839 E0.5635
G1 X115.284 Y99.562 E0.6339
G1 X115.583 Y98.056 E0.7043
G1 X115.284 Y96.550 E0.7748
G1 X114.431 Y95.273 E0.8452
G1 X113.154 Y94.420 E0.9156
G1 X111.647 Y94.120 E0.9861
G1 X110.141 Y94.420 E1.0565
G1 X109.031 Y95.162 E1.1178
G1 X108.864 Y95.273 F972
G92 E0
G1 E-0.8000 F1800
; inner perimeter
G1 X109.176 Y95.585 F7800
G1 E0.0000 F1800
G92 E0
G1 X108.419 Y96.719 E0.0625 F864
G1 X108.153 Y98.056 E0.1251
G1 X108.419 Y99.394 E0.1876
G1 X109.176 Y100.527 E0.2502
G1 X110.310 Y101.285 E0.3127
G1 X111.647 Y101.551 E0.3752
G1 X112.985 Y101.285 E0.4378
G1 X114.119 Y100.527 E0.5003
G1 X114.876 Y99.394 E0.5629
G1 X115.142 Y98.056 E0.6254
G1 X114.876 Y96.719 E0.6880
G1 X114.119 Y95.585 E0.7505
G1 X112.985 Y94.827 E0.8130
G1 X111.647 Y94.561 E0.8756
G1 X110.310 Y94.827 E0.9381
G1 X109.342 Y95.474 E0.9915
G1 X109.176 Y95.585 F864
G92 E0
G1 E-0.8000 F1800
; outer perimeter
G1 X109.488 Y95.897 F7800
G1 E0.0000 F1800
G92 E0
G1 X108.826 Y96.887 E0.0546 F756
G1 X108.594 Y98.056 E0.1093
G1 X108.826 Y99.225 E0.1639
G1 X109.488 Y100.216 E0.2186
G1 X110.479 Y100.878 E0.2732
G1 X111.647 Y101.110 E0.3279
G1 X112.816 Y100.878 E0.3825
G1 X113.807 Y100.216 E0.4372
G1 X114.469 Y99.225 E0.4918
G1 X114.701 Y98.056 E0.5465
G1 X114.469 Y96.887 E0.6011
G1 X113.807 Y95.897 E0.6558
G1 X112.816 Y95.235 E0.7104
G1 X111.647 Y95.002 E0.7651
G1 X110.479 Y95.235 E0.8197
G1 X109.654 Y95.786 E0.8652
G1 X109.488 Y95.897 F756
G92 E0
G1 E-0.8000 F1800
G1 X108.826 Y96.887 F3600
G1 X108.668 Y97.680 F3600
; layer 2, Z = 0.475
M106 S255
G4 P500
M106 S102
; tool H0.250 W0.420
; inner perimeter
G1 X107.137 Y98.056 F7800
G1 Z0.475 F1002
G1 E0.0000 F1800
G92 E0
G1 X107.480 Y96.330 E0.0784 F972
G1 X108.458 Y94.866 E0.1567
G1 X109.922 Y93.889 E0.2351
G1 X111.648 Y93.545 E0.3135
G1 X113.374 Y93.889 E0.3919
G1 X114.838 Y94.866 E0.4702
G1 X115.816 Y96.330 E0.5486
G1 X116.159 Y98.056 E0.6270
G1 X115.816 Y99.782 E0.7054
G1 X114.838 Y101.246 E0.7837
G1 X113.374 Y102.224 E0.8621
G1 X111.648 Y102.567 E0.9405
G1 X109.922 Y102.224 E1.0188
G1 X108.458 Y101.246 E1.0972
G1 X107.480 Y99.782 E1.1756
G1 X107.176 Y98.252 E1.2451
G1 X107.137 Y98.056 F972
G92 E0
G1 E-0.8000 F1800
; inner perimeter
G1 X106.709 Y98.056 F7800
G1 E0.0000 F1800
G92 E0
G1 X107.085 Y96.166 E0.0858 F864
G1 X108.156 Y94.564 E0.1716
G1 X109.758 Y93.493 E0.2574
G1 X111.648 Y93.117 E0.3432
G1 X113.538 Y93.493 E0.4291
G1 X115.141 Y94.564 E0.5149
G1 X116.211 Y96.166 E0.6007
G1 X116.587 Y98.056 E0.6865
G1 X116.211 Y99.946 E0.7723
G1 X115.141 Y101.549 E0.8581
G1 X113.538 Y102.619 E0.9439
G1 X111.648 Y102.995 E1.0297
G1 X109.758 Y102.619 E1.1156
G1 X108.156 Y101.549 E1.2014
G1 X107.085 Y99.946 E1.2872
G1 X106.748 Y98.252 E1.3641
G1 X106.709 Y98.056 F864
G92 E0
G1 E-0.8000 F1800
; outer perimeter
G1 X106.281 Y98.056 F7800
G1 E0.0000 F1800
G92 E0
G1 X106.689 Y96.002 E0.0933 F756
G1 X107.853 Y94.261 E0.1865
G1 X109.594 Y93.097 E0.2798
G1 X111.648 Y92.689 E0.3730
G1 X113.702 Y93.097 E0.4663
G1 X115.443 Y94.261 E0.5595
G1 X116.607 Y96.002 E0.6528
G1 X117.016 Y98.056 E0.7460
G1 X116.607 Y100.110 E0.8393
G1 X115.443 Y101.852 E0.9325
G1 X113.702 Y103.015 E1.0258
G1 X111.648 Y103.424 E1.1190
G1 X109.594 Y103.015 E1.2123
G1 X107.853 Y101.852 E1.3055
G1 X106.689 Y100.110 E1.3988
G1 X106.320 Y98.252 E1.4831
G1 X106.281 Y98.056 F756
G92 E0
G1 E-0.8000 F1800
G1 X106.671 Y96.095 F3600
; inner perimeter
G1 X107.886 Y98.056 F7800
G1 E0.0000 F1800
G92 E0
G1 X108.173 Y99.495 E0.0653 F972
G1 X108.988 Y100.716 E0.1307
G1 X110.208 Y101.531 E0.1960
G1 X111.647 Y101.817 E0.2614
G1 X113.087 Y101.531 E0.3267
G1 X114.307 Y100.716 E0.3921
G1 X115.122 Y99.495 E0.4574
G1 X115.409 Y98.056 E0.5228
G1 X115.122 Y96.617 E0.5881
G1 X114.307 Y95.397 E0.6534
G1 X113.087 Y94.581 E0.7188
G1 X111.647 Y94.295 E0.7841
G1 X110.208 Y94.581 E0.8495
G1 X108.988 Y95.397 E0.9148
G1 X108.173 Y96.617 E0.9802
G1 X107.925 Y97.860 E1.0366
G1 X107.886 Y98.056 F972
G92 E0
G1 E-0.8000 F1800
; inner perimeter
G1 X108.315 Y98.056 F7800
G1 E0.0000 F1800
G92 E0
G1 X108.568 Y99.332 E0.0579 F864
G1 X109.291 Y100.413 E0.1158
G1 X110.372 Y101.135 E0.1737
G1 X111.647 Y101.389 E0.2316
G1 X112.923 Y101.135 E0.2895
G1 X114.004 Y100.413 E0.3474
G1 X114.727 Y99.332 E0.4053
G1 X114.980 Y98.056 E0.4632
G1 X114.727 Y96.781 E0.5211
G1 X114.004 Y95.699 E0.5790
G1 X112.923 Y94.977 E0.6370
G1 X111.647 Y94.723 E0.6949
G1 X110.372 Y94.977 E0.7528
G1 X109.291 Y95.699 E0.8107
G1 X108.568 Y96.781 E0.8686
G1 X108.354 Y97.860 E0.9176
G1 X108.315 Y98.056 F864
G92 E0
G1 E-0.8000 F1800
; outer perimeter
G1 X108.743 Y98.056 F7800
G1 E0.0000 F1800
G92 E0
G1 X108.964 Y99.168 E0.0505 F756
G1 X109.594 Y100.110 E0.1009
G1 X110.536 Y100.740 E0.1514
G1 X111.647 Y100.961 E0.2019
G1 X112.759 Y100.740 E0.2523
G1 X113.701 Y100.110 E0.3028
G1 X114.331 Y99.168 E0.3533
G1 X114.552 Y98.056 E0.4037
G1 X114.331 Y96.945 E0.4542
G1 X113.701 Y96.002 E0.5046
G1 X112.759 Y95.373 E0.5551
G1 X111.647 Y95.151 E0.6056
G1 X110.536 Y95.373 E0.6560
G1 X109.594 Y96.002 E0.7065
G1 X108.964 Y96.945 E0.7570
G1 X108.782 Y97.860 E0.7985
G1 X108.743 Y98.056 F756
G92 E0
G1 E-0.8000 F1800
G1 X108.964 Y99.168 F3600
G1 X109.445 Y99.888 F3600
; solid layer
G1 X107.799 Y96.560 F7800
G1 E0.0000 F1800
G92 E0
G1 X107.825 Y96.533 E0.0017 F864
G1 X107.678 Y97.275 E0.0353
G1 X107.651 Y97.301 E0.0370
G1 X107.504 Y98.043 E0.0707
G1 X107.530 Y98.016 E0.0723
G1 X107.522 Y98.056 E0.0742
G1 X107.616 Y98.525 E0.0954
G1 X107.598 Y98.543 E0.0966
G1 X107.696 Y99.038 E0.1191
G1 X107.714 Y99.020 E0.1202
G1 X107.813 Y99.516 E0.1427
G1 X107.795 Y99.533 E0.1438
G1 X107.817 Y99.643 E0.1488
G1 X108.002 Y99.920 E0.1636
G1 X108.017 Y99.905 E0.1646
G1 X108.255 Y100.261 E0.1836
G1 X108.240 Y100.276 E0.1846
G1 X108.478 Y100.632 E0.2036
G1 X108.493 Y100.617 E0.2046
G1 X108.731 Y100.973 E0.2236
G1 X108.716 Y100.989 E0.2246
G1 X109.072 Y101.226 E0.2437
G1 X109.087 Y101.211 E0.2446
G1 X109.443 Y101.449 E0.2637
G1 X109.428 Y101.464 E0.2647
G1 X109.784 Y101.702 E0.2837
G1 X109.799 Y101.687 E0.2847
G1 X110.069 Y101.867 E0.2991
G1 X110.189 Y101.891 E0.3046
G1 X110.171 Y101.909 E0.3057
G1 X110.666 Y102.008 E0.3282
G1 X110.684 Y101.990 E0.3294
G1 X111.180 Y102.088 E0.3519
G1 X111.162 Y102.106 E0.3530
G1 X111.648 Y102.203 E0.3751
G1 X111.662 Y102.200 E0.3757
G1 X111.689 Y102.173 E0.3774
G1 X112.431 Y102.026 E0.4111
G1 X112.403 Y102.053 E0.4128
G1 X113.145 Y101.905 E0.4465
G1 X113.172 Y101.878 E0.4482
G1 X113.226 Y101.867 E0.4507
G1 X114.564 Y100.973 E0.5223
G1 X115.459 Y99.635 E0.5940
G1 X115.469 Y99.581 E0.5965
G1 X115.497 Y99.553 E0.5982
G1 X115.645 Y98.811 E0.6319
G1 X115.617 Y98.839 E0.6337
G1 X115.764 Y98.098 E0.6673
G1 X115.792 Y98.070 E0.6691
G1 X115.795 Y98.056 E0.6697
G1 X115.698 Y97.570 E0.6918
G1 X115.680 Y97.588 E0.6930
G1 X115.581 Y97.093 E0.7155
G1 X115.600 Y97.074 E0.7166
G1 X115.501 Y96.579 E0.7391
G1 X115.483 Y96.598 E0.7403
