;FLAVOR:RepRap
;TIME:955
;Filament used: 0.554285m
;Layer height: 0.15
;Generated with Cura_SteamEngine 2.6.2
M190 S60
M104 S220
M109 S220
G21 ;metric values
G90 ;absolute positioning
M82 ;set extruder to absolute mode
M107 ;start with the fan off
G92 E0 ;zero the extruded length
G1 F200 E3 ;extrude 3mm of feed stock
G92 E0 ;zero the extruded length again
G1 F9000
M117 Printing...
;LAYER_COUNT:128
;LAYER:0
M107
M204 S5000
G0 F2400 X80.477 Y83.956 Z0.3
G0 X81.107 Y83.423
M204 S200
;TYPE:SKIRT
G1 F1200 X81.208 Y83.355 E0.00606
G1 X81.685 Y83.082 E0.03341
G1 X82.198 Y82.881 E0.06083
G1 X82.734 Y82.755 E0.08823
G1 X83.332 Y82.709 E0.11808
G1 X97.55 Y82.735 E0.82565
G1 X98.136 Y82.782 E0.8549
G1 X98.944 Y82.91 E0.89561
G1 X99.615 Y83.08 E0.93006
G1 X100.887 Y83.53 E0.99721
G1 X101.578 Y83.856 E1.03523
G1 X102.497 Y84.409 E1.08861
G1 X103.051 Y84.815 E1.12279
G1 X103.864 Y85.533 E1.17677
G1 X104.382 Y86.093 E1.21473
G1 X105.196 Y87.173 E1.28203
G1 X105.495 Y87.636 E1.30946
G1 X105.632 Y87.913 E1.32484
G1 X106.182 Y89.148 E1.39212
G1 X106.403 Y89.794 E1.4261
G1 X106.597 Y90.592 E1.46697
G1 X106.692 Y91.186 E1.4969
G1 X106.778 Y92.263 E1.55067
G1 X106.77 Y92.95 E1.58486
G1 X106.659 Y94.036 E1.63919
G1 X106.528 Y94.709 E1.67331
G1 X106.228 Y95.741 E1.72679
G1 X105.978 Y96.38 E1.76094
G1 X105.489 Y97.357 E1.81531
G1 X105.128 Y97.939 E1.84939
G1 X104.478 Y98.803 E1.9032
G1 X104.024 Y99.307 E1.93696
G1 X103.234 Y100.038 E1.99052
G1 X102.689 Y100.457 E2.02473
G1 X101.771 Y101.039 E2.07883
G1 X101.163 Y101.351 E2.11283
G1 X100.167 Y101.754 E2.1663
G1 X99.514 Y101.952 E2.20026
G1 X98.447 Y102.173 E2.25449
G1 X97.688 Y102.252 E2.29247
G1 X83.334 Y102.291 E3.0068
G1 X82.785 Y102.253 E3.03419
G1 X82.248 Y102.135 E3.06155
G1 X81.733 Y101.941 E3.08894
G1 X81.221 Y101.654 E3.11815
G1 X81.119 Y101.586 E3.12425
G1 X80.685 Y101.249 E3.15159
G1 X80.304 Y100.852 E3.17898
G1 X79.984 Y100.403 E3.20641
G1 X79.733 Y99.914 E3.23377
G1 X79.628 Y99.638 E3.24846
G1 X78.84 Y97.289 E3.37177
G1 X78.707 Y96.779 E3.398
G1 X78.394 Y95.102 E3.48289
G1 X78.34 Y94.675 E3.50431
G1 X78.22 Y92.986 E3.58858
G1 X78.216 Y92.503 E3.61262
G1 X78.336 Y90.381 E3.71839
G1 X78.395 Y89.899 E3.74255
G1 X78.709 Y88.219 E3.82761
G1 X78.842 Y87.707 E3.85393
G1 X79.631 Y85.36 E3.97715
G1 X79.843 Y84.852 E4.00455
G1 X80.127 Y84.381 E4.03192
G1 X80.477 Y83.956 E4.05932
G1 X80.884 Y83.585 E4.08673
G1 X81.107 Y83.423 E4.10044
M204 S5000
G0 F2400 X81.431 Y83.686
M204 S200
G1 F1200 X81.883 Y83.43 E4.12629
G1 X82.37 Y83.245 E4.15222
G1 X82.879 Y83.137 E4.17811
G1 X83.331 Y83.108 E4.20065
G1 X97.549 Y83.134 E4.90822
G1 X98.074 Y83.176 E4.93443
G1 X98.882 Y83.304 E4.97514
G1 X99.482 Y83.456 E5.00595
G1 X100.754 Y83.906 E5.07309
G1 X101.372 Y84.198 E5.10711
G1 X102.291 Y84.751 E5.16048
G1 X102.787 Y85.115 E5.1911
G1 X103.6 Y85.833 E5.24508
G1 X104.064 Y86.333 E5.27903
G1 X104.878 Y87.413 E5.34633
G1 X105.268 Y88.075 E5.38457
G1 X105.818 Y89.31 E5.45185
G1 X106.015 Y89.889 E5.48228
G1 X106.209 Y90.687 E5.52315
G1 X106.294 Y91.218 E5.54991
G1 X106.38 Y92.295 E5.60368
G1 X106.373 Y92.91 E5.63429
G1 X106.262 Y93.996 E5.68862
G1 X106.145 Y94.598 E5.71913
G1 X105.845 Y95.63 E5.77262
G1 X105.621 Y96.201 E5.80314
G1 X105.132 Y97.178 E5.85751
G1 X104.81 Y97.699 E5.88799
G1 X104.16 Y98.563 E5.9418
G1 X103.753 Y99.014 E5.97203
G1 X102.963 Y99.745 E6.0256
G1 X102.475 Y100.12 E6.05622
G1 X101.557 Y100.702 E6.11032
G1 X101.013 Y100.981 E6.14074
G1 X100.017 Y101.384 E6.19421
G1 X99.433 Y101.562 E6.2246
G1 X98.366 Y101.783 E6.27882
G1 X97.687 Y101.853 E6.31279
G1 X83.333 Y101.892 E7.02713
G1 X82.814 Y101.853 E7.05303
G1 X82.307 Y101.736 E7.07892
G1 X81.824 Y101.542 E7.10483
G1 X81.442 Y101.322 E7.12676
G1 X81.34 Y101.254 E7.13286
G1 X80.931 Y100.933 E7.15874
G1 X80.575 Y100.553 E7.18465
G1 X80.282 Y100.123 E7.21055
G1 X80.006 Y99.511 E7.24396
G1 X79.218 Y97.162 E7.36726
G1 X79.1 Y96.705 E7.39075
G1 X78.787 Y95.028 E7.47565
G1 X78.738 Y94.646 E7.49481
G1 X78.618 Y92.957 E7.57908
G1 X78.614 Y92.525 E7.60058
G1 X78.734 Y90.403 E7.70635
G1 X78.787 Y89.972 E7.72796
G1 X79.101 Y88.292 E7.81301
G1 X79.22 Y87.834 E7.83656
G1 X80.009 Y85.487 E7.95978
G1 X80.212 Y85.008 E7.98567
G1 X80.486 Y84.565 E8.0116
G1 X80.825 Y84.17 E8.0375
G1 X81.33 Y83.754 E8.07006
G1 X81.431 Y83.686 E8.07612
M204 S5000
G0 F2400 X81.653 Y84.017
M204 S200
G1 F1200 X82.08 Y83.778 E8.10047
G1 X82.54 Y83.612 E8.12481
G1 X83.02 Y83.523 E8.1491
G1 X83.33 Y83.507 E8.16455
G1 X97.548 Y83.533 E8.87212
G1 X98.011 Y83.57 E8.89523
G1 X98.819 Y83.698 E8.93595
G1 X99.349 Y83.832 E8.96315
G1 X100.621 Y84.282 E9.0303
G1 X101.166 Y84.539 E9.06028
G1 X102.085 Y85.092 E9.11366
G1 X102.523 Y85.414 E9.14071
G1 X103.336 Y86.132 E9.19469
G1 X103.745 Y86.574 E9.22466
G1 X104.559 Y87.654 E9.29196
G1 X104.903 Y88.237 E9.32565
G1 X105.453 Y89.472 E9.39293
G1 X105.627 Y89.983 E9.4198
G1 X105.821 Y90.781 E9.46067
G1 X105.897 Y91.25 E9.48431
G1 X105.983 Y92.327 E9.53808
G1 X105.976 Y92.869 E9.56505
G1 X105.865 Y93.955 E9.61938
G1 X105.762 Y94.486 E9.6463
G1 X105.462 Y95.518 E9.69978
G1 X105.264 Y96.023 E9.72678
G1 X104.775 Y97 E9.78115
G1 X104.491 Y97.459 E9.80801
G1 X103.841 Y98.323 E9.86181
G1 X103.482 Y98.721 E9.88849
G1 X102.692 Y99.452 E9.94205
G1 X102.262 Y99.783 E9.96906
G1 X101.344 Y100.365 E10.02315
G1 X100.864 Y100.611 E10.04999
G1 X99.868 Y101.014 E10.10346
G1 X99.352 Y101.171 E10.1303
G1 X98.285 Y101.392 E10.18453
G1 X97.686 Y101.454 E10.2145
G1 X83.332 Y101.493 E10.92883
G1 X82.845 Y101.454 E10.95315
G1 X82.37 Y101.337 E10.97749
G1 X81.921 Y101.144 E11.00181
G1 X81.664 Y100.99 E11.01672
G1 X81.562 Y100.922 E11.02283
G1 X81.178 Y100.619 E11.04717
G1 X80.85 Y100.257 E11.07148
G1 X80.584 Y99.846 E11.09584
G1 X80.384 Y99.384 E11.1209
G1 X79.596 Y97.035 E11.2442
G1 X79.492 Y96.632 E11.26491
G1 X79.179 Y94.955 E11.34981
G1 X79.136 Y94.618 E11.36671
G1 X79.016 Y92.929 E11.45098
G1 X79.013 Y92.548 E11.46994
G1 X79.133 Y90.426 E11.57571
G1 X79.179 Y90.045 E11.59481
G1 X79.493 Y88.365 E11.67986
G1 X79.598 Y87.961 E11.70064
G1 X80.387 Y85.614 E11.82386
G1 X80.58 Y85.165 E11.84818
G1 X80.844 Y84.753 E11.87253
G1 X81.171 Y84.39 E11.89685
G1 X81.552 Y84.085 E11.92113
G1 X81.653 Y84.017 E11.92719
M204 S5000
G0 F2400 X81.775 Y84.416
M204 S200
G1 F1200 X81.876 Y84.348 E11.93325
G1 X82.275 Y84.128 E11.95593
G1 X82.705 Y83.981 E11.97854
G1 X83.33 Y83.906 E12.00987
G1 X97.548 Y83.932 E12.71744
G1 X97.949 Y83.964 E12.73746
G1 X98.757 Y84.092 E12.77817
G1 X99.216 Y84.209 E12.80174
G1 X100.488 Y84.659 E12.86889
G1 X100.96 Y84.881 E12.89484
G1 X101.879 Y85.434 E12.94822
G1 X102.259 Y85.713 E12.97168
G1 X103.072 Y86.431 E13.02566
G1 X103.427 Y86.814 E13.05165
G1 X104.241 Y87.894 E13.11895
G1 X104.539 Y88.4 E13.14818
G1 X105.089 Y89.635 E13.21546
G1 X105.24 Y90.077 E13.2387
G1 X105.434 Y90.875 E13.27957
G1 X105.499 Y91.282 E13.30008
G1 X105.585 Y92.359 E13.35385
G1 X105.58 Y92.829 E13.37724
G1 X105.469 Y93.915 E13.43157
G1 X105.379 Y94.375 E13.45489
G1 X105.079 Y95.407 E13.50838
G1 X104.908 Y95.844 E13.53173
G1 X104.419 Y96.821 E13.5861
G1 X104.172 Y97.219 E13.60941
G1 X103.522 Y98.083 E13.66322
G1 X103.211 Y98.428 E13.68633
G1 X102.421 Y99.159 E13.7399
G1 X102.048 Y99.446 E13.76332
G1 X101.13 Y100.028 E13.81741
G1 X100.714 Y100.242 E13.84069
G1 X99.718 Y100.645 E13.89416
G1 X99.271 Y100.78 E13.9174
G1 X98.204 Y101.001 E13.97163
G1 X97.685 Y101.055 E13.99759
G1 X83.331 Y101.094 E14.71193
G1 X82.878 Y101.055 E14.73456
G1 X82.438 Y100.938 E14.75722
G1 X81.885 Y100.658 E14.78806
G1 X81.783 Y100.59 E14.79416
G1 X81.428 Y100.306 E14.81679
G1 X81.128 Y99.963 E14.83946
G1 X80.893 Y99.574 E14.86208
G1 X80.763 Y99.257 E14.87913
G1 X79.975 Y96.908 E15.00243
G1 X79.884 Y96.559 E15.02038
G1 X79.571 Y94.882 E15.10528
G1 X79.534 Y94.59 E15.11993
G1 X79.414 Y92.901 E15.20419
G1 X79.411 Y92.571 E15.22062
G1 X79.531 Y90.449 E15.32639
G1 X79.571 Y90.118 E15.34298
G1 X79.885 Y88.438 E15.42803
G1 X79.976 Y88.088 E15.44603
G1 X80.765 Y85.741 E15.56925
G1 X80.948 Y85.324 E15.59192
G1 X81.2 Y84.946 E15.61453
G1 X81.515 Y84.617 E15.63719
G1 X81.775 Y84.416 E15.65355
M204 S5000
G0 F2400 X82.099 Y84.679
M204 S200
G1 F1200 X82.467 Y84.48 E15.67437
G1 X82.866 Y84.353 E15.69521
G1 X83.329 Y84.305 E15.71837
G1 X97.547 Y84.331 E16.42594
G1 X97.886 Y84.358 E16.44286
G1 X98.694 Y84.486 E16.48357
G1 X99.083 Y84.585 E16.50355
G1 X100.355 Y85.035 E16.57069
G1 X100.755 Y85.223 E16.59269
G1 X101.674 Y85.776 E16.64607
G1 X101.995 Y86.012 E16.66589
G1 X102.808 Y86.73 E16.71987
G1 X103.108 Y87.054 E16.74185
G1 X103.922 Y88.134 E16.80915
G1 X104.174 Y88.562 E16.83387
G1 X104.724 Y89.797 E16.90115
G1 X104.852 Y90.171 E16.92082
G1 X105.046 Y90.969 E16.96169
G1 X105.101 Y91.313 E16.97903
G1 X105.187 Y92.39 E17.03279
G1 X105.183 Y92.788 E17.0526
G1 X105.072 Y93.874 E17.10693
G1 X104.996 Y94.264 E17.1267
G1 X104.696 Y95.296 E17.18019
G1 X104.551 Y95.665 E17.19992
G1 X104.062 Y96.642 E17.25429
G1 X103.853 Y96.98 E17.27406
G1 X103.203 Y97.844 E17.32787
G1 X102.94 Y98.135 E17.34739
G1 X102.15 Y98.866 E17.40095
G1 X101.834 Y99.109 E17.42079
G1 X100.916 Y99.691 E17.47488
G1 X100.564 Y99.872 E17.49458
G1 X99.568 Y100.275 E17.54805
G1 X99.19 Y100.389 E17.5677
G1 X98.123 Y100.61 E17.62193
G1 X97.684 Y100.656 E17.64389
G1 X83.33 Y100.695 E18.35823
G1 X82.913 Y100.656 E18.37907
G1 X82.511 Y100.539 E18.39991
G1 X82.106 Y100.326 E18.42268
G1 X82.004 Y100.258 E18.42878
G1 X81.68 Y99.994 E18.44958
G1 X81.411 Y99.673 E18.47042
G1 X81.141 Y99.13 E18.5006
G1 X80.353 Y96.781 E18.6239
G1 X80.276 Y96.486 E18.63908
G1 X79.963 Y94.809 E18.72397
G1 X79.932 Y94.562 E18.73636
G1 X79.812 Y92.873 E18.82063
G1 X79.81 Y92.593 E18.83456
G1 X79.93 Y90.471 E18.94033
G1 X79.963 Y90.192 E18.95431
G1 X80.277 Y88.512 E19.03937
G1 X80.354 Y88.216 E19.05459
G1 X81.143 Y85.869 E19.17781
G1 X81.314 Y85.486 E19.19869
G1 X81.554 Y85.143 E19.21952
G1 X81.998 Y84.747 E19.24913
G1 X82.099 Y84.679 E19.25519
M204 S5000
G0 F2400 X82.322 Y85.01
M204 S200
G1 F1200 X82.656 Y84.833 E19.274
G1 X83.021 Y84.73 E19.29287
G1 X83.328 Y84.704 E19.3082
G1 X97.546 Y84.73 E20.01577
G1 X97.824 Y84.752 E20.02965
G1 X98.632 Y84.88 E20.07036
G1 X98.95 Y84.961 E20.08669
G1 X100.222 Y85.411 E20.15384
G1 X100.549 Y85.565 E20.17182
G1 X101.468 Y86.118 E20.2252
G1 X101.731 Y86.311 E20.24144
G1 X102.544 Y87.029 E20.29541
G1 X102.789 Y87.294 E20.31337
G1 X103.603 Y88.374 E20.38068
G1 X103.81 Y88.724 E20.40091
G1 X104.36 Y89.959 E20.46819
G1 X104.464 Y90.266 E20.48432
G1 X104.658 Y91.064 E20.52519
G1 X104.703 Y91.345 E20.53936
G1 X104.789 Y92.422 E20.59312
G1 X104.786 Y92.748 E20.60935
G1 X104.675 Y93.834 E20.66368
G1 X104.613 Y94.152 E20.6798
G1 X104.313 Y95.184 E20.73328
G1 X104.194 Y95.487 E20.74948
G1 X103.705 Y96.464 E20.80385
G1 X103.534 Y96.74 E20.82001
G1 X102.884 Y97.604 E20.87382
G1 X102.669 Y97.842 E20.88978
G1 X101.879 Y98.573 E20.94334
G1 X101.621 Y98.772 E20.95956
G1 X100.703 Y99.354 E21.01365
G1 X100.415 Y99.502 E21.02976
G1 X99.419 Y99.905 E21.08323
G1 X99.109 Y99.999 E21.09936
G1 X98.042 Y100.22 E21.15358
G1 X97.683 Y100.257 E21.17154
G1 X83.329 Y100.296 E21.88588
G1 X82.952 Y100.257 E21.90474
G1 X82.592 Y100.14 E21.92358
G1 X82.328 Y99.994 E21.93859
G1 X82.226 Y99.926 E21.94469
G1 X81.935 Y99.684 E21.96353
G1 X81.701 Y99.387 E21.98234
G1 X81.519 Y99.003 E22.00349
G1 X80.731 Y96.654 E22.12679
G1 X80.668 Y96.413 E22.13919
G1 X80.355 Y94.736 E22.22409
G1 X80.33 Y94.533 E22.23427
G1 X80.21 Y92.844 E22.31853
G1 X80.208 Y92.616 E22.32988
G1 X80.328 Y90.494 E22.43565
G1 X80.356 Y90.265 E22.44713
G1 X80.67 Y88.585 E22.53219
G1 X80.733 Y88.343 E22.54463
G1 X81.522 Y85.996 E22.66785
G1 X81.679 Y85.652 E22.68667
G1 X81.906 Y85.348 E22.70555
G1 X82.221 Y85.078 E22.7262
G1 X82.322 Y85.01 E22.73226
M204 S5000
G0 F2400 X82.444 Y85.409
M204 S200
G1 F1200 X82.545 Y85.341 E22.73832
G1 X82.842 Y85.189 E22.75492
G1 X83.328 Y85.103 E22.77948
G1 X97.546 Y85.129 E23.48705
G1 X97.762 Y85.146 E23.49783
G1 X98.57 Y85.274 E23.53854
G1 X98.817 Y85.337 E23.55123
G1 X100.089 Y85.787 E23.61838
G1 X100.343 Y85.907 E23.63236
G1 X101.262 Y86.46 E23.68573
G1 X101.467 Y86.61 E23.69837
G1 X102.28 Y87.328 E23.75235
G1 X102.471 Y87.534 E23.76633
G1 X103.285 Y88.614 E23.83364
G1 X103.445 Y88.887 E23.84938
G1 X103.995 Y90.122 E23.91666
G1 X104.076 Y90.36 E23.92917
G1 X104.27 Y91.158 E23.97004
G1 X104.306 Y91.377 E23.98109
G1 X104.392 Y92.454 E24.03486
G1 X104.389 Y92.707 E24.04745
G1 X104.278 Y93.793 E24.10177
G1 X104.229 Y94.041 E24.11436
G1 X103.929 Y95.073 E24.16784
G1 X103.837 Y95.308 E24.1804
G1 X103.348 Y96.285 E24.23477
G1 X103.215 Y96.5 E24.24735
G1 X102.565 Y97.364 E24.30116
G1 X102.398 Y97.549 E24.31356
G1 X101.608 Y98.28 E24.36712
G1 X101.407 Y98.435 E24.37975
G1 X100.489 Y99.017 E24.43385
G1 X100.265 Y99.132 E24.44638
G1 X99.269 Y99.535 E24.49985
G1 X99.028 Y99.608 E24.51238
G1 X97.961 Y99.829 E24.56661
G1 X97.682 Y99.858 E24.58057
G1 X83.328 Y99.897 E25.2949
G1 X82.996 Y99.858 E25.31154
G1 X82.549 Y99.662 E25.33583
G1 X82.447 Y99.594 E25.34193
G1 X82.194 Y99.377 E25.35852
G1 X81.999 Y99.107 E25.37509
G1 X81.898 Y98.876 E25.38764
G1 X81.11 Y96.527 E25.51094
G1 X81.061 Y96.339 E25.52061
G1 X80.748 Y94.662 E25.6055
G1 X80.728 Y94.505 E25.61338
G1 X80.608 Y92.816 E25.69765
G1 X80.606 Y92.638 E25.70651
G1 X80.726 Y90.516 E25.81228
G1 X80.748 Y90.338 E25.8212
G1 X81.062 Y88.658 E25.90626
G1 X81.111 Y88.47 E25.91592
G1 X81.9 Y86.123 E26.03915
G1 X82.043 Y85.821 E26.05578
G1 X82.254 Y85.563 E26.07236
G1 X82.444 Y85.409 E26.08453
M204 S5000
G0 F2400 X82.768 Y85.672
M204 S200
G1 F1200 X83.021 Y85.549 E26.09853
G1 X83.327 Y85.502 E26.11394
G1 X97.545 Y85.528 E26.82151
G1 X97.699 Y85.54 E26.82919
G1 X98.507 Y85.668 E26.86991
G1 X98.684 Y85.713 E26.879
G1 X99.956 Y86.163 E26.94614
G1 X100.138 Y86.249 E26.95616
G1 X101.057 Y86.802 E27.00954
G1 X101.203 Y86.909 E27.01854
G1 X102.016 Y87.627 E27.07252
G1 X102.152 Y87.774 E27.08249
G1 X102.966 Y88.854 E27.14979
G1 X103.081 Y89.049 E27.16106
G1 X103.631 Y90.284 E27.22834
G1 X103.689 Y90.454 E27.23728
G1 X103.883 Y91.252 E27.27815
G1 X103.908 Y91.409 E27.28606
G1 X103.994 Y92.486 E27.33983
G1 X103.992 Y92.666 E27.34878
G1 X103.881 Y93.752 E27.40311
G1 X103.846 Y93.93 E27.41214
G1 X103.546 Y94.962 E27.46562
G1 X103.48 Y95.13 E27.4746
G1 X102.991 Y96.107 E27.52898
G1 X102.897 Y96.26 E27.53791
G1 X102.247 Y97.124 E27.59172
G1 X102.127 Y97.257 E27.60063
G1 X101.337 Y97.988 E27.6542
G1 X101.193 Y98.098 E27.66321
G1 X100.275 Y98.68 E27.71731
G1 X100.115 Y98.762 E27.72625
G1 X99.119 Y99.165 E27.77972
G1 X98.947 Y99.217 E27.78867
G1 X97.88 Y99.438 E27.84289
G1 X97.681 Y99.459 E27.85285
G1 X83.327 Y99.498 E28.56719
G1 X83.048 Y99.459 E28.58121
G1 X82.77 Y99.33 E28.59646
G1 X82.668 Y99.262 E28.60256
G1 X82.458 Y99.074 E28.61659
G1 X82.276 Y98.749 E28.63512
G1 X81.488 Y96.4 E28.75843
G1 X81.453 Y96.266 E28.76532
G1 X81.14 Y94.589 E28.85022
G1 X81.126 Y94.477 E28.85583
G1 X81.006 Y92.788 E28.9401
G1 X81.005 Y92.661 E28.94642
G1 X81.125 Y90.539 E29.05219
G1 X81.14 Y90.412 E29.05855
G1 X81.454 Y88.732 E29.14361
G1 X81.489 Y88.597 E29.15055
G1 X82.278 Y86.25 E29.27377
G1 X82.405 Y85.998 E29.28781
G1 X82.667 Y85.74 E29.30611
G1 X82.768 Y85.672 E29.31217
M204 S5000
G0 F2400 X83.326 Y85.901
M204 S200
G1 F1200 X97.544 Y85.927 E30.01974
G1 X97.637 Y85.934 E30.02438
G1 X98.445 Y86.062 E30.06509
G1 X98.551 Y86.089 E30.07054
G1 X99.823 Y86.539 E30.13768
G1 X99.932 Y86.591 E30.14369
G1 X100.851 Y87.144 E30.19707
G1 X100.939 Y87.208 E30.20248
G1 X101.752 Y87.926 E30.25646
G1 X101.833 Y88.014 E30.26241
G1 X102.647 Y89.094 E30.32972
G1 X102.716 Y89.211 E30.33648
G1 X103.266 Y90.446 E30.40376
G1 X103.301 Y90.548 E30.40912
G1 X103.495 Y91.346 E30.44999
G1 X103.51 Y91.44 E30.45473
G1 X103.596 Y92.517 E30.5085
G1 X103.595 Y92.626 E30.51392
G1 X103.484 Y93.712 E30.56825
G1 X103.463 Y93.818 E30.57363
G1 X103.163 Y94.85 E30.62711
G1 X103.124 Y94.951 E30.6325
G1 X102.635 Y95.928 E30.68687
G1 X102.578 Y96.02 E30.69226
G1 X101.928 Y96.884 E30.74606
G1 X101.856 Y96.964 E30.75142
G1 X101.066 Y97.695 E30.80498
G1 X100.98 Y97.761 E30.81038
G1 X100.062 Y98.343 E30.86447
