;FLAVOR:RepRap
;TIME:2612
;Filament used: 1.45928m
;Layer height: 0.15
;Generated with Cura_SteamEngine 2.6.2
M190 S60
M104 S220
M109 S220
G21 ;metric values
G90 ;absolute positioning
M82 ;set extruder to absolute mode
M107 ;start with the fan off
G92 E0 ;zero the extruded length
G1 F200 E3 ;extrude 3mm of feed stock
G92 E0 ;zero the extruded length again
G1 F9000
M117 Printing...
;LAYER_COUNT:90
;LAYER:0
M107
M204 S5000
G0 F2400 X81.572 Y80.097 Z0.3
G0 X80.486 Y81.65
M204 S200
;TYPE:SKIRT
G1 F1200 X80.505 Y81.589 E0.00318
G1 X80.744 Y81.093 E0.03058
G1 X81.052 Y80.637 E0.05796
G1 X81.572 Y80.097 E0.09527
G1 X82.004 Y79.729 E0.12351
G1 X82.447 Y79.404 E0.15086
G1 X82.934 Y79.146 E0.17828
G1 X83.452 Y78.961 E0.20566
G1 X83.704 Y78.911 E0.21844
G1 X83.734 Y78.863 E0.22126
G1 X84.093 Y78.446 E0.24864
G1 X84.508 Y78.085 E0.27601
G1 X85.153 Y77.695 E0.31352
G1 X85.668 Y77.45 E0.34191
G1 X86.181 Y77.25 E0.36931
G1 X86.718 Y77.127 E0.39672
G1 X87.266 Y77.082 E0.42409
G1 X87.531 Y77.096 E0.43729
G1 X87.794 Y76.888 E0.45398
G1 X88.27 Y76.613 E0.48134
G1 X88.782 Y76.41 E0.50875
G1 X89.241 Y76.296 E0.53228
G1 X89.8 Y76.194 E0.56056
G1 X90.348 Y76.134 E0.588
G1 X90.898 Y76.155 E0.61539
G1 X91.439 Y76.255 E0.64277
G1 X91.671 Y76.334 E0.65496
G1 X92.137 Y76.155 E0.67981
G1 X92.674 Y76.033 E0.70721
G1 X93.223 Y75.991 E0.73461
G1 X93.879 Y76.045 E0.76737
G1 X94.539 Y76.158 E0.80069
G1 X95.073 Y76.29 E0.82807
G1 X95.583 Y76.498 E0.85548
G1 X95.877 Y76.672 E0.87248
G1 X95.943 Y76.657 E0.87585
G1 X96.492 Y76.615 E0.90325
G1 X97.041 Y76.653 E0.93063
G1 X97.783 Y76.836 E0.96867
G1 X98.318 Y77.027 E0.99694
G1 X98.821 Y77.249 E1.0243
G1 X99.287 Y77.542 E1.05169
G1 X99.706 Y77.899 E1.07909
G1 X99.873 Y78.085 E1.09153
G1 X100.37 Y78.165 E1.11658
G1 X100.896 Y78.329 E1.144
G1 X101.391 Y78.568 E1.17135
G1 X101.658 Y78.737 E1.18708
G1 X102.125 Y79.06 E1.21534
G1 X102.554 Y79.405 E1.24273
G1 X102.928 Y79.809 E1.27013
G1 X103.24 Y80.262 E1.2975
G1 X103.353 Y80.491 E1.31021
G1 X103.705 Y80.635 E1.32914
G1 X104.179 Y80.916 E1.35656
G1 X104.607 Y81.261 E1.38392
G1 X104.903 Y81.572 E1.40528
G1 X105.271 Y82.004 E1.43353
G1 X105.596 Y82.447 E1.46087
G1 X105.854 Y82.934 E1.4883
G1 X106.039 Y83.452 E1.51567
G1 X106.089 Y83.704 E1.52845
G1 X106.137 Y83.734 E1.53127
G1 X106.554 Y84.093 E1.55865
G1 X106.915 Y84.508 E1.58603
G1 X107.305 Y85.153 E1.62354
G1 X107.55 Y85.668 E1.65192
G1 X107.75 Y86.181 E1.67932
G1 X107.873 Y86.718 E1.70674
G1 X107.918 Y87.266 E1.7341
G1 X107.902 Y87.517 E1.74662
G1 X108.199 Y87.928 E1.77185
G1 X108.454 Y88.416 E1.79925
G1 X108.635 Y88.936 E1.82665
G1 X108.704 Y89.241 E1.84222
G1 X108.806 Y89.8 E1.87049
G1 X108.866 Y90.348 E1.89793
G1 X108.845 Y90.898 E1.92532
G1 X108.745 Y91.439 E1.9527
G1 X108.668 Y91.674 E1.96501
G1 X108.847 Y92.142 E1.98994
G1 X108.967 Y92.679 E2.01732
G1 X109.009 Y93.228 E2.04473
G1 X108.955 Y93.878 E2.07718
G1 X108.842 Y94.539 E2.11056
G1 X108.71 Y95.073 E2.13793
G1 X108.502 Y95.583 E2.16534
G1 X108.33 Y95.876 E2.18225
G1 X108.383 Y96.396 E2.20826
G1 X108.36 Y96.946 E2.23566
G1 X108.257 Y97.487 E2.26306
G1 X108.164 Y97.783 E2.2785
G1 X107.973 Y98.318 E2.30677
G1 X107.751 Y98.821 E2.33414
G1 X107.458 Y99.287 E2.36153
G1 X107.101 Y99.706 E2.38892
G1 X106.915 Y99.872 E2.40133
G1 X106.833 Y100.378 E2.42684
G1 X106.668 Y100.903 E2.45423
G1 X106.428 Y101.399 E2.48165
G1 X106.263 Y101.658 E2.49693
G1 X105.94 Y102.125 E2.52519
G1 X105.595 Y102.554 E2.55259
G1 X105.191 Y102.928 E2.57998
G1 X104.738 Y103.24 E2.60736
G1 X104.509 Y103.353 E2.62006
G1 X104.365 Y103.705 E2.63899
G1 X104.084 Y104.179 E2.66641
G1 X103.739 Y104.607 E2.69377
G1 X103.428 Y104.903 E2.71514
G1 X102.996 Y105.271 E2.74338
G1 X102.553 Y105.596 E2.77072
G1 X102.066 Y105.854 E2.79815
G1 X101.548 Y106.039 E2.82552
G1 X101.296 Y106.089 E2.83831
G1 X101.267 Y106.135 E2.84101
G1 X100.908 Y106.553 E2.86843
G1 X100.493 Y106.914 E2.89581
G1 X99.847 Y107.305 E2.93339
G1 X99.332 Y107.55 E2.96177
G1 X98.819 Y107.75 E2.98917
G1 X98.282 Y107.873 E3.01659
G1 X97.734 Y107.918 E3.04395
G1 X97.469 Y107.904 E3.05715
G1 X97.206 Y108.112 E3.07384
G1 X96.73 Y108.387 E3.1012
G1 X96.218 Y108.59 E3.12861
G1 X95.759 Y108.704 E3.15215
G1 X95.2 Y108.806 E3.18042
G1 X94.652 Y108.866 E3.20786
G1 X94.102 Y108.845 E3.23525
G1 X93.561 Y108.745 E3.26263
G1 X93.329 Y108.666 E3.27482
G1 X92.863 Y108.845 E3.29967
G1 X92.326 Y108.967 E3.32707
G1 X91.777 Y109.009 E3.35447
G1 X91.122 Y108.955 E3.38718
G1 X90.461 Y108.842 E3.42055
G1 X89.927 Y108.71 E3.44793
G1 X89.417 Y108.502 E3.47534
G1 X89.121 Y108.328 E3.49242
G1 X89.05 Y108.344 E3.49605
G1 X88.502 Y108.385 E3.52339
G1 X87.953 Y108.346 E3.55078
G1 X87.217 Y108.164 E3.58851
G1 X86.682 Y107.973 E3.61679
G1 X86.179 Y107.751 E3.64415
G1 X85.713 Y107.458 E3.67154
G1 X85.294 Y107.101 E3.69893
G1 X85.128 Y106.915 E3.71134
G1 X84.63 Y106.835 E3.73644
G1 X84.104 Y106.671 E3.76386
G1 X83.609 Y106.432 E3.79122
G1 X83.334 Y106.258 E3.80741
G1 X82.868 Y105.934 E3.83566
G1 X82.44 Y105.587 E3.86308
G1 X82.067 Y105.183 E3.89044
G1 X81.756 Y104.729 E3.91783
G1 X81.644 Y104.508 E3.93016
G1 X81.295 Y104.365 E3.94893
G1 X80.821 Y104.084 E3.97635
G1 X80.393 Y103.739 E4.00371
G1 X80.097 Y103.428 E4.02507
G1 X79.729 Y102.996 E4.05332
G1 X79.404 Y102.553 E4.08066
G1 X79.146 Y102.066 E4.10808
G1 X78.961 Y101.548 E4.13546
G1 X78.911 Y101.296 E4.14824
G1 X78.863 Y101.266 E4.15106
G1 X78.446 Y100.907 E4.17844
G1 X78.085 Y100.492 E4.20582
G1 X77.695 Y99.847 E4.24333
G1 X77.45 Y99.332 E4.27171
G1 X77.25 Y98.819 E4.29911
G1 X77.127 Y98.282 E4.32653
G1 X77.082 Y97.734 E4.35389
G1 X77.095 Y97.479 E4.3666
G1 X76.801 Y97.072 E4.39158
G1 X76.546 Y96.584 E4.41898
G1 X76.365 Y96.064 E4.44638
G1 X76.296 Y95.759 E4.46195
G1 X76.194 Y95.2 E4.49022
G1 X76.134 Y94.652 E4.51766
G1 X76.155 Y94.102 E4.54505
G1 X76.255 Y93.561 E4.57243
G1 X76.334 Y93.329 E4.58463
G1 X76.153 Y92.857 E4.60978
G1 X76.032 Y92.32 E4.63718
G1 X75.991 Y91.771 E4.66457
G1 X76.045 Y91.122 E4.69698
G1 X76.158 Y90.461 E4.73036
G1 X76.29 Y89.927 E4.75773
G1 X76.498 Y89.417 E4.78514
G1 X76.67 Y89.125 E4.80201
G1 X76.617 Y88.599 E4.82832
G1 X76.641 Y88.049 E4.85571
G1 X76.745 Y87.509 E4.88308
G1 X76.836 Y87.217 E4.8983
G1 X77.027 Y86.682 E4.92657
G1 X77.249 Y86.179 E4.95393
G1 X77.542 Y85.713 E4.98133
G1 X77.899 Y85.294 E5.00872
G1 X78.084 Y85.129 E5.02106
G1 X78.168 Y84.616 E5.04693
G1 X78.335 Y84.091 E5.07434
G1 X78.575 Y83.596 E5.10172
G1 X78.737 Y83.342 E5.11671
G1 X79.06 Y82.875 E5.14497
G1 X79.405 Y82.446 E5.17237
G1 X79.809 Y82.072 E5.19976
G1 X80.262 Y81.76 E5.22714
G1 X80.486 Y81.65 E5.23956
M204 S5000
G0 F2400 X80.814 Y81.936
M204 S200
G1 F1200 X80.919 Y81.631 E5.25561
G1 X81.162 Y81.171 E5.2815
G1 X81.473 Y80.754 E5.30739
G1 X81.83 Y80.401 E5.33237
G1 X82.262 Y80.033 E5.36061
G1 X82.683 Y79.727 E5.38652
G1 X83.146 Y79.489 E5.41242
G1 X83.64 Y79.324 E5.43834
G1 X83.948 Y79.272 E5.45389
G1 X84.124 Y79.011 E5.46955
G1 X84.477 Y78.629 E5.49544
G1 X84.885 Y78.306 E5.52133
G1 X85.325 Y78.055 E5.54654
G1 X85.84 Y77.81 E5.57492
G1 X86.326 Y77.623 E5.60084
G1 X86.834 Y77.513 E5.62671
G1 X87.354 Y77.481 E5.65263
G1 X87.658 Y77.501 E5.66779
G1 X88.041 Y77.202 E5.69197
G1 X88.495 Y76.948 E5.71786
G1 X88.983 Y76.766 E5.74378
G1 X89.313 Y76.688 E5.76066
G1 X89.872 Y76.586 E5.78894
G1 X90.39 Y76.532 E5.81486
G1 X90.91 Y76.558 E5.84077
G1 X91.42 Y76.663 E5.86668
G1 X91.702 Y76.768 E5.88165
G1 X91.871 Y76.678 E5.89118
G1 X92.362 Y76.505 E5.91709
G1 X92.873 Y76.41 E5.94295
G1 X93.394 Y76.394 E5.96889
G1 X93.811 Y76.439 E5.98977
G1 X94.471 Y76.552 E6.02309
G1 X94.976 Y76.679 E6.049
G1 X95.456 Y76.881 E6.07492
G1 X95.805 Y77.097 E6.09535
G1 X96.114 Y77.037 E6.11101
G1 X96.634 Y77.016 E6.13691
G1 X97.151 Y77.076 E6.16281
G1 X97.648 Y77.211 E6.18844
G1 X98.183 Y77.402 E6.21671
G1 X98.659 Y77.615 E6.24266
G1 X99.096 Y77.897 E6.26855
G1 X99.485 Y78.243 E6.29446
G1 X99.69 Y78.478 E6.30997
G1 X99.877 Y78.484 E6.31929
G1 X100.388 Y78.581 E6.34517
G1 X100.879 Y78.755 E6.37109
G1 X101.432 Y79.065 E6.40264
G1 X101.899 Y79.388 E6.4309
G1 X102.303 Y79.716 E6.4568
G1 X102.652 Y80.102 E6.48269
G1 X102.938 Y80.537 E6.5086
G1 X103.059 Y80.802 E6.5231
G1 X103.072 Y80.806 E6.52378
G1 X103.552 Y81.005 E6.54964
G1 X103.997 Y81.276 E6.57557
G1 X104.395 Y81.611 E6.60145
G1 X104.599 Y81.83 E6.61635
G1 X104.967 Y82.262 E6.64459
G1 X105.273 Y82.683 E6.67049
G1 X105.511 Y83.146 E6.6964
G1 X105.676 Y83.64 E6.72232
G1 X105.728 Y83.948 E6.73786
G1 X105.989 Y84.124 E6.75353
G1 X106.371 Y84.477 E6.77941
G1 X106.694 Y84.885 E6.80531
G1 X106.945 Y85.325 E6.83052
G1 X107.19 Y85.84 E6.8589
G1 X107.377 Y86.326 E6.88481
G1 X107.487 Y86.834 E6.91068
G1 X107.519 Y87.354 E6.93661
G1 X107.49 Y87.66 E6.95191
G1 X107.625 Y87.805 E6.96176
G1 X107.918 Y88.235 E6.98766
G1 X108.141 Y88.705 E7.01355
G1 X108.312 Y89.313 E7.04498
G1 X108.414 Y89.872 E7.07326
G1 X108.468 Y90.39 E7.09918
G1 X108.442 Y90.91 E7.12509
G1 X108.337 Y91.42 E7.151
G1 X108.236 Y91.712 E7.16638
G1 X108.324 Y91.875 E7.17559
G1 X108.496 Y92.366 E7.20148
G1 X108.591 Y92.878 E7.2274
G1 X108.606 Y93.398 E7.25329
G1 X108.561 Y93.811 E7.27396
G1 X108.448 Y94.472 E7.30734
G1 X108.322 Y94.976 E7.33319
G1 X108.119 Y95.456 E7.35912
G1 X107.903 Y95.806 E7.37959
G1 X107.948 Y96.001 E7.38955
G1 X107.986 Y96.521 E7.4155
G1 X107.944 Y97.039 E7.44136
G1 X107.789 Y97.648 E7.47264
G1 X107.598 Y98.183 E7.50091
G1 X107.385 Y98.659 E7.52686
G1 X107.103 Y99.096 E7.55274
G1 X106.757 Y99.485 E7.57865
G1 X106.522 Y99.69 E7.59417
G1 X106.515 Y99.884 E7.60383
G1 X106.417 Y100.395 E7.62972
G1 X106.242 Y100.886 E7.65566
G1 X105.935 Y101.432 E7.68684
G1 X105.612 Y101.899 E7.71509
G1 X105.284 Y102.303 E7.74099
G1 X104.898 Y102.652 E7.76689
G1 X104.463 Y102.938 E7.7928
G1 X104.198 Y103.059 E7.80729
G1 X104.194 Y103.072 E7.80797
G1 X103.995 Y103.552 E7.83383
G1 X103.724 Y103.997 E7.85976
G1 X103.389 Y104.395 E7.88565
G1 X103.17 Y104.599 E7.90054
G1 X102.738 Y104.967 E7.92878
G1 X102.317 Y105.273 E7.95468
G1 X101.854 Y105.511 E7.98059
G1 X101.36 Y105.676 E8.00651
G1 X101.052 Y105.728 E8.02205
G1 X100.877 Y105.988 E8.03765
G1 X100.524 Y106.37 E8.06354
G1 X100.116 Y106.693 E8.08943
G1 X99.675 Y106.945 E8.11471
G1 X99.16 Y107.19 E8.14309
G1 X98.674 Y107.377 E8.16901
G1 X98.166 Y107.487 E8.19487
G1 X97.646 Y107.519 E8.2208
G1 X97.342 Y107.499 E8.23596
G1 X96.959 Y107.798 E8.26014
G1 X96.505 Y108.052 E8.28603
G1 X96.017 Y108.234 E8.31195
G1 X95.687 Y108.312 E8.32883
G1 X95.128 Y108.414 E8.3571
G1 X94.61 Y108.468 E8.38302
G1 X94.09 Y108.442 E8.40893
G1 X93.58 Y108.337 E8.43485
G1 X93.298 Y108.232 E8.44982
G1 X93.129 Y108.322 E8.45935
G1 X92.638 Y108.495 E8.48526
G1 X92.127 Y108.59 E8.51112
G1 X91.606 Y108.606 E8.53706
G1 X91.189 Y108.561 E8.55793
G1 X90.528 Y108.448 E8.59131
G1 X90.024 Y108.322 E8.61716
G1 X89.544 Y108.119 E8.6431
G1 X89.194 Y107.903 E8.66356
G1 X88.88 Y107.964 E8.67948
G1 X88.36 Y107.983 E8.70538
G1 X87.843 Y107.923 E8.73128
G1 X87.352 Y107.789 E8.75661
G1 X86.817 Y107.598 E8.78488
G1 X86.341 Y107.385 E8.81083
G1 X85.904 Y107.103 E8.83671
G1 X85.515 Y106.757 E8.86262
G1 X85.311 Y106.523 E8.87807
G1 X85.123 Y106.516 E8.88743
G1 X84.612 Y106.419 E8.91332
G1 X84.121 Y106.245 E8.93924
G1 X83.562 Y105.93 E8.97117
G1 X83.096 Y105.606 E8.99942
G1 X82.692 Y105.277 E9.02535
G1 X82.344 Y104.89 E9.05125
G1 X82.059 Y104.454 E9.07717
G1 X81.931 Y104.195 E9.09155
G1 X81.928 Y104.194 E9.0917
G1 X81.448 Y103.995 E9.11756
G1 X81.003 Y103.724 E9.14349
G1 X80.605 Y103.389 E9.16938
G1 X80.401 Y103.17 E9.18428
G1 X80.033 Y102.738 E9.21252
G1 X79.727 Y102.317 E9.23842
G1 X79.489 Y101.854 E9.26433
G1 X79.324 Y101.36 E9.29024
G1 X79.272 Y101.052 E9.30579
G1 X79.011 Y100.876 E9.32146
G1 X78.629 Y100.523 E9.34734
G1 X78.306 Y100.115 E9.37324
G1 X78.055 Y99.675 E9.39845
G1 X77.81 Y99.16 E9.42683
G1 X77.623 Y98.674 E9.45274
G1 X77.513 Y98.166 E9.47861
G1 X77.481 Y97.646 E9.50454
G1 X77.502 Y97.331 E9.52025
G1 X77.375 Y97.195 E9.52951
G1 X77.082 Y96.765 E9.5554
G1 X76.859 Y96.295 E9.58129
G1 X76.688 Y95.687 E9.61272
G1 X76.586 Y95.128 E9.641
G1 X76.532 Y94.61 E9.66692
G1 X76.558 Y94.09 E9.69283
G1 X76.663 Y93.58 E9.71874
G1 X76.769 Y93.297 E9.73378
G1 X76.676 Y93.124 E9.74356
G1 X76.504 Y92.633 E9.76945
G1 X76.409 Y92.121 E9.79536
G1 X76.394 Y91.601 E9.82125
G1 X76.439 Y91.189 E9.84187
G1 X76.552 Y90.528 E9.87525
G1 X76.678 Y90.024 E9.9011
G1 X76.881 Y89.544 E9.92704
G1 X77.097 Y89.194 E9.9475
G1 X77.051 Y88.994 E9.95772
G1 X77.014 Y88.475 E9.98361
G1 X77.057 Y87.956 E10.00953
G1 X77.211 Y87.352 E10.04055
G1 X77.402 Y86.817 E10.06882
G1 X77.615 Y86.341 E10.09477
G1 X77.897 Y85.904 E10.12065
G1 X78.243 Y85.515 E10.14656
G1 X78.478 Y85.31 E10.16208
G1 X78.485 Y85.11 E10.17204
G1 X78.584 Y84.599 E10.19794
G1 X78.76 Y84.11 E10.22381
G1 X79.065 Y83.568 E10.25476
G1 X79.388 Y83.101 E10.28301
G1 X79.716 Y82.697 E10.30891
G1 X80.102 Y82.348 E10.33481
G1 X80.537 Y82.062 E10.36072
G1 X80.814 Y81.936 E10.37586
M204 S5000
G0 F2400 X81.139 Y82.232
M204 S200
G1 F1200 X81.159 Y82.138 E10.38064
G1 X81.334 Y81.682 E10.40495
G1 X81.582 Y81.261 E10.42927
G1 X81.895 Y80.885 E10.45361
G1 X82.089 Y80.705 E10.46678
G1 X82.521 Y80.337 E10.49502
G1 X82.918 Y80.051 E10.51937
G1 X83.356 Y79.834 E10.5437
G1 X83.824 Y79.691 E10.56805
G1 X84.185 Y79.642 E10.58618
G1 X84.225 Y79.563 E10.59059
G1 X84.512 Y79.167 E10.61493
G1 X84.86 Y78.824 E10.63925
G1 X85.259 Y78.542 E10.66356
G1 X85.496 Y78.415 E10.67694
G1 X86.011 Y78.17 E10.70532
G1 X86.468 Y77.997 E10.72964
G1 X86.948 Y77.9 E10.75401
G1 X87.636 Y77.899 E10.78825
G1 X87.75 Y77.912 E10.79396
G1 X87.792 Y77.92 E10.79609
G1 X87.818 Y77.894 E10.79792
G1 X87.901 Y77.818 E10.80352
G1 X88.287 Y77.518 E10.82785
G1 X88.717 Y77.285 E10.85219
G1 X89.385 Y77.081 E10.88694
G1 X89.944 Y76.979 E10.91522
G1 X90.43 Y76.93 E10.93953
G1 X90.918 Y76.962 E10.96387
G1 X91.394 Y77.073 E10.98819
G1 X91.719 Y77.208 E11.00571
G1 X92.114 Y77.009 E11.02772
G1 X92.58 Y76.862 E11.05204
G1 X93.064 Y76.794 E11.07636
G1 X93.744 Y76.832 E11.11025
G1 X94.404 Y76.945 E11.14357
G1 X94.878 Y77.067 E11.16793
G1 X95.325 Y77.264 E11.19224
G1 X95.723 Y77.524 E11.2159
G1 X95.796 Y77.499 E11.21974
G1 X96.279 Y77.422 E11.24408
G1 X96.768 Y77.424 E11.26842
G1 X97.25 Y77.506 E11.29275
G1 X97.514 Y77.587 E11.30649
G1 X98.049 Y77.778 E11.33476
G1 X98.495 Y77.98 E11.35913
G1 X98.902 Y78.251 E11.38346
G1 X99.393 Y78.743 E11.41805
G1 X99.464 Y78.833 E11.42376
G1 X99.486 Y78.866 E11.42573
G1 X99.921 Y78.892 E11.44742
G1 X100.398 Y78.999 E11.47174
G1 X100.851 Y79.183 E11.49608
G1 X101.205 Y79.393 E11.51656
G1 X101.672 Y79.716 E11.54482
G1 X102.05 Y80.026 E11.56915
G1 X102.372 Y80.394 E11.59348
G1 X102.631 Y80.809 E11.61783
G1 X102.764 Y81.129 E11.63507
G1 X102.841 Y81.15 E11.63904
G1 X102.948 Y81.185 E11.64465
G1 X103.398 Y81.375 E11.66896
G1 X103.812 Y81.635 E11.69328
G1 X104.295 Y82.089 E11.72627
G1 X104.663 Y82.521 E11.75451
G1 X104.949 Y82.918 E11.77886
G1 X105.166 Y83.356 E11.80319
G1 X105.309 Y83.824 E11.82754
G1 X105.358 Y84.185 E11.84567
G1 X105.437 Y84.225 E11.85008
G1 X105.833 Y84.512 E11.87442
G1 X106.176 Y84.86 E11.89873
G1 X106.459 Y85.259 E11.92308
G1 X106.585 Y85.496 E11.93644
G1 X106.83 Y86.011 E11.96482
G1 X107.003 Y86.468 E11.98914
G1 X107.1 Y86.948 E12.01351
G1 X107.117 Y87.436 E12.03781
G1 X107.071 Y87.79 E12.05557
G1 X107.368 Y88.124 E12.07781
G1 X107.629 Y88.538 E12.10217
G1 X107.819 Y88.988 E12.12648
G1 X107.919 Y89.385 E12.14685
G1 X108.021 Y89.944 E12.17513
G1 X108.07 Y90.43 E12.19944
G1 X108.038 Y90.918 E12.22378
G1 X107.858 Y91.588 E12.2583
G1 X107.815 Y91.696 E12.26409
G1 X107.798 Y91.73 E12.26598
G1 X107.993 Y92.117 E12.28754
G1 X108.138 Y92.584 E12.31188
G1 X108.206 Y93.068 E12.3362
G1 X108.168 Y93.743 E12.36985
G1 X108.055 Y94.404 E12.40322
G1 X107.934 Y94.878 E12.42757
G1 X107.737 Y95.325 E12.45188
G1 X107.478 Y95.723 E12.47551
G1 X107.565 Y96.149 E12.49714
G1 X107.584 Y96.638 E12.5215
G1 X107.523 Y97.123 E12.54582
G1 X107.413 Y97.514 E12.56604
G1 X107.222 Y98.049 E12.59431
G1 X107.02 Y98.495 E12.61867
G1 X106.749 Y98.902 E12.64301
G1 X106.257 Y99.393 E12.6776
G1 X106.167 Y99.464 E12.6833
