;FLAVOR:RepRap
;TIME:1372
;Filament used: 0.863125m
;Layer height: 0.15
;Generated with Cura_SteamEngine 2.6.2
M190 S60
M104 S220
M109 S220
G21 ;metric values
G90 ;absolute positioning
M82 ;set extruder to absolute mode
M107 ;start with the fan off
G92 E0 ;zero the extruded length
G1 F200 E3 ;extrude 3mm of feed stock
G92 E0 ;zero the extruded length again
G1 F9000
M117 Printing...
;LAYER_COUNT:101
;LAYER:0
M107
M204 S5000
G0 F2400 X78.657 Y79.889 Z0.3
M204 S200
;TYPE:SKIRT
G1 F1200 X80.129 Y78.443 E0.10269
G1 X80.525 Y78.104 E0.12863
G1 X82.179 Y76.875 E0.23118
G1 X82.62 Y76.592 E0.25725
G1 X84.435 Y75.599 E0.36021
G1 X84.91 Y75.38 E0.38624
G1 X86.829 Y74.652 E0.48838
G1 X87.206 Y74.532 E0.50807
G1 X88.202 Y74.269 E0.55934
G1 X88.52 Y74.199 E0.57554
G1 X90.043 Y73.934 E0.65247
G1 X90.364 Y73.892 E0.66858
G1 X91.397 Y73.802 E0.72019
G1 X91.726 Y73.788 E0.73657
G1 X93.267 Y73.788 E0.81326
G1 X93.592 Y73.802 E0.82945
G1 X94.625 Y73.891 E0.88105
G1 X95.016 Y73.945 E0.90069
G1 X97.034 Y74.333 E1.00296
G1 X97.539 Y74.467 E1.02896
G1 X99.497 Y75.133 E1.13188
G1 X99.978 Y75.335 E1.15785
G1 X101.813 Y76.257 E1.26005
G1 X102.263 Y76.523 E1.28606
G1 X103.968 Y77.699 E1.38914
G1 X104.38 Y78.028 E1.41537
G1 X105.897 Y79.421 E1.51787
G1 X106.255 Y79.798 E1.54374
G1 X107.565 Y81.383 E1.64607
G1 X107.87 Y81.808 E1.67211
G1 X108.95 Y83.559 E1.77449
G1 X109.193 Y84.023 E1.80055
G1 X110.027 Y85.919 E1.90363
G1 X110.204 Y86.411 E1.92966
G1 X110.766 Y88.393 E2.03218
G1 X110.874 Y88.907 E2.05832
G1 X111.156 Y90.943 E2.16061
G1 X111.192 Y91.461 E2.18645
G1 X111.193 Y93.527 E2.28926
G1 X111.157 Y94.05 E2.31535
G1 X110.875 Y96.084 E2.41754
G1 X110.768 Y96.595 E2.44353
G1 X110.206 Y98.581 E2.54624
G1 X110.055 Y99.013 E2.56901
G1 X109.455 Y100.446 E2.64633
G1 X109.252 Y100.859 E2.66923
G1 X108.233 Y102.647 E2.77165
G1 X107.942 Y103.083 E2.79773
G1 X106.681 Y104.72 E2.90057
G1 X106.336 Y105.111 E2.92652
G1 X104.868 Y106.554 E3.02896
G1 X104.471 Y106.893 E3.05494
G1 X102.818 Y108.121 E3.15741
G1 X102.375 Y108.405 E3.1836
G1 X100.56 Y109.397 E3.28654
G1 X100.087 Y109.615 E3.31246
G1 X98.16 Y110.346 E3.41502
G1 X97.785 Y110.466 E3.43462
G1 X96.795 Y110.728 E3.48558
G1 X96.476 Y110.798 E3.50183
G1 X94.955 Y111.063 E3.57867
G1 X94.629 Y111.105 E3.59502
G1 X93.595 Y111.194 E3.64667
G1 X93.27 Y111.208 E3.66286
G1 X91.729 Y111.208 E3.73955
G1 X91.273 Y111.181 E3.76228
G1 X89.225 Y110.933 E3.86495
G1 X88.712 Y110.834 E3.89095
G1 X86.712 Y110.305 E3.9939
G1 X86.212 Y110.135 E4.02018
G1 X84.313 Y109.337 E4.12269
G1 X83.962 Y109.168 E4.14208
G1 X83.061 Y108.675 E4.19319
G1 X82.783 Y108.507 E4.20936
G1 X81.499 Y107.654 E4.28607
G1 X81.133 Y107.377 E4.30891
G1 X79.568 Y106.039 E4.41138
G1 X79.196 Y105.674 E4.43732
G1 X77.825 Y104.129 E4.54011
G1 X77.504 Y103.712 E4.5663
G1 X76.362 Y101.995 E4.66892
G1 X76.103 Y101.54 E4.69498
G1 X75.208 Y99.681 E4.79765
G1 X75.015 Y99.197 E4.82358
G1 X74.382 Y97.227 E4.92656
G1 X74.256 Y96.715 E4.9528
G1 X73.904 Y94.685 E5.05533
G1 X73.85 Y94.168 E5.0812
G1 X73.779 Y92.114 E5.18348
G1 X73.797 Y91.592 E5.20947
G1 X74.01 Y89.538 E5.31224
G1 X74.1 Y89.022 E5.3383
G1 X74.592 Y87.026 E5.44061
G1 X74.752 Y86.529 E5.46659
G1 X75.517 Y84.61 E5.5694
G1 X75.745 Y84.136 E5.59558
G1 X76.767 Y82.344 E5.69824
G1 X77.056 Y81.91 E5.72419
G1 X78.31 Y80.281 E5.8265
G1 X78.657 Y79.889 E5.85255
M204 S5000
G0 F2400 X78.937 Y80.173
M204 S200
G1 F1200 X80.409 Y78.727 E5.95524
G1 X80.763 Y78.424 E5.97843
G1 X82.417 Y77.195 E6.08097
G1 X82.812 Y76.942 E6.10432
G1 X84.627 Y75.949 E6.20728
G1 X85.052 Y75.754 E6.23055
G1 X86.971 Y75.026 E6.33269
G1 X87.308 Y74.917 E6.35031
G1 X88.304 Y74.654 E6.40158
G1 X88.589 Y74.592 E6.41609
G1 X90.112 Y74.327 E6.49303
G1 X90.399 Y74.29 E6.50743
G1 X91.432 Y74.2 E6.55903
G1 X91.726 Y74.187 E6.57367
G1 X93.267 Y74.187 E6.65036
G1 X93.558 Y74.2 E6.66486
G1 X94.591 Y74.289 E6.71646
G1 X94.94 Y74.337 E6.73399
G1 X96.958 Y74.725 E6.83625
G1 X97.41 Y74.845 E6.85953
G1 X99.368 Y75.511 E6.96245
G1 X99.799 Y75.691 E6.9857
G1 X101.634 Y76.613 E7.08789
G1 X102.037 Y76.852 E7.11121
G1 X103.742 Y78.028 E7.21429
G1 X104.11 Y78.322 E7.23773
G1 X105.627 Y79.715 E7.34022
G1 X105.948 Y80.052 E7.36338
G1 X107.258 Y81.637 E7.46572
G1 X107.53 Y82.017 E7.48897
G1 X108.61 Y83.768 E7.59135
G1 X108.828 Y84.183 E7.61468
G1 X109.662 Y86.079 E7.71776
G1 X109.82 Y86.52 E7.74108
G1 X110.382 Y88.502 E7.8436
G1 X110.479 Y88.962 E7.86699
G1 X110.761 Y90.998 E7.96928
G1 X110.793 Y91.461 E7.99238
G1 X110.794 Y93.527 E8.0952
G1 X110.762 Y93.995 E8.11854
G1 X110.48 Y96.029 E8.22073
G1 X110.384 Y96.487 E8.24402
G1 X109.822 Y98.473 E8.34674
G1 X109.687 Y98.859 E8.36709
G1 X109.087 Y100.292 E8.4444
G1 X108.905 Y100.662 E8.46492
G1 X107.886 Y102.45 E8.56734
G1 X107.626 Y102.84 E8.59066
G1 X106.365 Y104.477 E8.6935
G1 X106.056 Y104.826 E8.71669
G1 X104.588 Y106.269 E8.81913
G1 X104.233 Y106.573 E8.84239
G1 X102.58 Y107.801 E8.94487
G1 X102.184 Y108.054 E8.96826
G1 X100.369 Y109.046 E9.07119
G1 X99.945 Y109.241 E9.09442
G1 X98.018 Y109.972 E9.19698
G1 X97.683 Y110.08 E9.2145
G1 X96.693 Y110.342 E9.26546
G1 X96.407 Y110.405 E9.28004
G1 X94.886 Y110.67 E9.35687
G1 X94.595 Y110.708 E9.37148
G1 X93.561 Y110.797 E9.42312
G1 X93.27 Y110.809 E9.43762
G1 X91.729 Y110.809 E9.51431
G1 X91.321 Y110.784 E9.53465
G1 X89.273 Y110.536 E9.63731
G1 X88.814 Y110.448 E9.66057
G1 X86.814 Y109.919 E9.76353
G1 X86.367 Y109.767 E9.78702
G1 X84.468 Y108.969 E9.88953
G1 X84.154 Y108.818 E9.90687
G1 X83.253 Y108.325 E9.95798
G1 X83.004 Y108.174 E9.97247
G1 X81.72 Y107.321 E10.04919
G1 X81.393 Y107.074 E10.06958
G1 X79.828 Y105.736 E10.17205
G1 X79.495 Y105.409 E10.19528
G1 X78.124 Y103.864 E10.29807
G1 X77.837 Y103.492 E10.32145
G1 X76.695 Y101.775 E10.42407
G1 X76.463 Y101.367 E10.44743
G1 X75.568 Y99.508 E10.55011
G1 X75.395 Y99.075 E10.57331
G1 X74.762 Y97.105 E10.67629
G1 X74.649 Y96.647 E10.69976
G1 X74.297 Y94.617 E10.8023
G1 X74.249 Y94.154 E10.82546
G1 X74.178 Y92.1 E10.92774
G1 X74.194 Y91.633 E10.95099
G1 X74.407 Y89.579 E11.05376
G1 X74.488 Y89.117 E11.0771
G1 X74.98 Y87.121 E11.17941
G1 X75.122 Y86.677 E11.20261
G1 X75.887 Y84.758 E11.30541
G1 X76.092 Y84.334 E11.32885
G1 X77.114 Y82.542 E11.43152
G1 X77.372 Y82.153 E11.45475
G1 X78.626 Y80.524 E11.55705
G1 X78.937 Y80.173 E11.58039
M204 S5000
G0 F2400 X79.217 Y80.458
M204 S200
G1 F1200 X80.689 Y79.012 E11.68308
G1 X81.001 Y78.745 E11.70351
G1 X82.655 Y77.516 E11.80606
G1 X83.003 Y77.292 E11.82666
G1 X84.818 Y76.299 E11.92962
G1 X85.193 Y76.127 E11.95015
G1 X87.112 Y75.399 E12.05229
G1 X87.41 Y75.303 E12.06787
G1 X88.406 Y75.04 E12.11913
G1 X88.657 Y74.985 E12.13192
G1 X90.18 Y74.72 E12.20885
G1 X90.433 Y74.687 E12.22155
G1 X91.466 Y74.597 E12.27315
G1 X91.726 Y74.586 E12.2861
G1 X93.267 Y74.586 E12.36279
G1 X93.524 Y74.597 E12.37559
G1 X94.557 Y74.686 E12.42719
G1 X94.865 Y74.729 E12.44267
G1 X96.883 Y75.117 E12.54493
G1 X97.282 Y75.222 E12.56547
G1 X99.24 Y75.888 E12.66839
G1 X99.62 Y76.048 E12.68891
G1 X101.455 Y76.97 E12.79111
G1 X101.81 Y77.18 E12.81163
G1 X103.515 Y78.356 E12.91471
G1 X103.84 Y78.615 E12.93539
G1 X105.357 Y80.008 E13.03789
G1 X105.64 Y80.306 E13.05834
G1 X106.95 Y81.891 E13.16067
G1 X107.19 Y82.227 E13.18122
G1 X108.27 Y83.978 E13.2836
G1 X108.463 Y84.344 E13.30419
G1 X109.297 Y86.24 E13.40727
G1 X109.436 Y86.629 E13.42783
G1 X109.998 Y88.611 E13.53035
G1 X110.084 Y89.016 E13.55096
G1 X110.366 Y91.052 E13.65325
G1 X110.394 Y91.462 E13.6737
G1 X110.395 Y93.528 E13.77651
G1 X110.367 Y93.94 E13.79706
G1 X110.085 Y95.974 E13.89926
G1 X110 Y96.378 E13.9198
G1 X109.438 Y98.364 E14.02252
G1 X109.319 Y98.705 E14.04049
G1 X108.719 Y100.138 E14.1178
G1 X108.558 Y100.464 E14.1359
G1 X107.539 Y102.252 E14.23831
G1 X107.31 Y102.596 E14.25888
G1 X106.049 Y104.233 E14.36171
G1 X105.776 Y104.541 E14.3822
G1 X104.308 Y105.984 E14.48464
G1 X103.995 Y106.253 E14.50517
G1 X102.342 Y107.481 E14.60765
G1 X101.992 Y107.704 E14.62831
G1 X100.177 Y108.696 E14.73124
G1 X99.804 Y108.868 E14.75168
G1 X97.877 Y109.599 E14.85425
G1 X97.581 Y109.694 E14.86972
G1 X96.591 Y109.956 E14.92068
G1 X96.339 Y110.012 E14.93353
G1 X94.818 Y110.277 E15.01036
G1 X94.561 Y110.31 E15.02326
G1 X93.527 Y110.399 E15.07491
G1 X93.27 Y110.41 E15.08771
G1 X91.729 Y110.41 E15.1644
G1 X91.369 Y110.388 E15.18234
G1 X89.321 Y110.14 E15.28501
G1 X88.916 Y110.062 E15.30553
G1 X86.916 Y109.533 E15.40849
G1 X86.521 Y109.399 E15.42925
G1 X84.622 Y108.601 E15.53176
G1 X84.345 Y108.468 E15.54705
G1 X83.444 Y107.975 E15.59816
G1 X83.225 Y107.842 E15.61091
G1 X81.941 Y106.989 E15.68762
G1 X81.652 Y106.771 E15.70564
G1 X80.087 Y105.433 E15.80811
G1 X79.793 Y105.145 E15.82859
G1 X78.422 Y103.6 E15.93138
G1 X78.169 Y103.271 E15.95204
G1 X77.027 Y101.554 E16.05466
G1 X76.822 Y101.194 E16.07528
G1 X75.927 Y99.335 E16.17795
G1 X75.774 Y98.953 E16.19843
G1 X75.141 Y96.983 E16.30141
G1 X75.042 Y96.578 E16.32215
G1 X74.69 Y94.548 E16.42469
G1 X74.648 Y94.14 E16.4451
G1 X74.577 Y92.086 E16.54738
G1 X74.591 Y91.674 E16.56789
G1 X74.804 Y89.62 E16.67066
G1 X74.875 Y89.213 E16.69122
G1 X75.367 Y87.217 E16.79352
G1 X75.493 Y86.825 E16.81401
G1 X76.258 Y84.906 E16.91682
G1 X76.438 Y84.531 E16.93752
G1 X77.46 Y82.739 E17.04019
G1 X77.688 Y82.396 E17.06068
G1 X78.942 Y80.767 E17.16299
G1 X79.217 Y80.458 E17.18358
M204 S5000
G0 F2400 X79.496 Y80.742
M204 S200
G1 F1200 X80.968 Y79.296 E17.28626
G1 X81.239 Y79.065 E17.30398
G1 X82.893 Y77.836 E17.40653
G1 X83.195 Y77.642 E17.42439
G1 X85.01 Y76.649 E17.52735
G1 X85.335 Y76.5 E17.54515
G1 X87.254 Y75.772 E17.64729
G1 X87.512 Y75.689 E17.66077
G1 X88.508 Y75.426 E17.71204
G1 X88.725 Y75.378 E17.7231
G1 X90.248 Y75.113 E17.80003
G1 X90.468 Y75.085 E17.81107
G1 X91.501 Y74.995 E17.86267
G1 X91.726 Y74.985 E17.87388
G1 X93.267 Y74.985 E17.95057
G1 X93.49 Y74.995 E17.96168
G1 X94.523 Y75.084 E18.01327
G1 X94.79 Y75.121 E18.02669
G1 X96.808 Y75.509 E18.12896
G1 X97.153 Y75.6 E18.14671
G1 X99.111 Y76.266 E18.24964
G1 X99.441 Y76.404 E18.26744
G1 X101.276 Y77.326 E18.36963
G1 X101.584 Y77.509 E18.38746
G1 X103.289 Y78.685 E18.49054
G1 X103.57 Y78.909 E18.50842
G1 X105.087 Y80.302 E18.61092
G1 X105.332 Y80.56 E18.62862
G1 X106.642 Y82.145 E18.73096
G1 X106.851 Y82.436 E18.74879
G1 X107.931 Y84.187 E18.85117
G1 X108.097 Y84.505 E18.86902
G1 X108.931 Y86.401 E18.9721
G1 X109.053 Y86.737 E18.98989
G1 X109.615 Y88.719 E19.09241
G1 X109.688 Y89.071 E19.1103
G1 X109.97 Y91.107 E19.21259
G1 X109.995 Y91.462 E19.2303
G1 X109.996 Y93.528 E19.33312
G1 X109.971 Y93.885 E19.35093
G1 X109.689 Y95.919 E19.45312
G1 X109.616 Y96.269 E19.47091
G1 X109.054 Y98.255 E19.57363
G1 X108.951 Y98.551 E19.58922
G1 X108.351 Y99.984 E19.66654
G1 X108.212 Y100.266 E19.68218
G1 X107.193 Y102.054 E19.7846
G1 X106.994 Y102.353 E19.80247
G1 X105.733 Y103.99 E19.90531
G1 X105.496 Y104.257 E19.92308
G1 X104.028 Y105.7 E20.02552
G1 X103.757 Y105.932 E20.04327
G1 X102.104 Y107.16 E20.14575
G1 X101.801 Y107.354 E20.16365
G1 X99.986 Y108.346 E20.26659
G1 X99.662 Y108.495 E20.28433
G1 X97.735 Y109.226 E20.3869
G1 X97.479 Y109.309 E20.40029
G1 X96.489 Y109.571 E20.45126
G1 X96.27 Y109.619 E20.46241
G1 X94.749 Y109.884 E20.53925
G1 X94.526 Y109.912 E20.55043
G1 X93.492 Y110.001 E20.60208
G1 X93.27 Y110.011 E20.61314
G1 X91.729 Y110.011 E20.68983
G1 X91.417 Y109.992 E20.70538
G1 X89.369 Y109.744 E20.80805
G1 X89.018 Y109.677 E20.82583
G1 X87.018 Y109.148 E20.92879
G1 X86.676 Y109.031 E20.94677
G1 X84.777 Y108.233 E21.04928
G1 X84.537 Y108.118 E21.06253
G1 X83.636 Y107.625 E21.11364
G1 X83.446 Y107.51 E21.12469
G1 X82.162 Y106.657 E21.20141
G1 X81.911 Y106.468 E21.21704
G1 X80.346 Y105.13 E21.31951
G1 X80.092 Y104.88 E21.33725
G1 X78.721 Y103.335 E21.44004
G1 X78.501 Y103.05 E21.45796
G1 X77.359 Y101.333 E21.56058
G1 X77.182 Y101.021 E21.57843
G1 X76.287 Y99.162 E21.68111
G1 X76.154 Y98.831 E21.69886
G1 X75.521 Y96.861 E21.80183
G1 X75.435 Y96.51 E21.81982
G1 X75.083 Y94.48 E21.92235
G1 X75.047 Y94.127 E21.94001
G1 X74.976 Y92.073 E22.04229
G1 X74.988 Y91.715 E22.06011
G1 X75.201 Y89.661 E22.16288
G1 X75.262 Y89.308 E22.18071
G1 X75.754 Y87.312 E22.28301
G1 X75.863 Y86.972 E22.30078
G1 X76.628 Y85.053 E22.40359
G1 X76.785 Y84.729 E22.42151
G1 X77.807 Y82.937 E22.52417
G1 X78.004 Y82.64 E22.54191
G1 X79.258 Y81.011 E22.64421
G1 X79.496 Y80.742 E22.66209
M204 S5000
G0 F2400 X79.776 Y81.027
M204 S200
G1 F1200 X81.248 Y79.581 E22.76478
G1 X81.477 Y79.385 E22.77978
G1 X83.131 Y78.156 E22.88232
G1 X83.386 Y77.992 E22.89741
G1 X85.201 Y76.999 E23.00037
G1 X85.476 Y76.873 E23.01542
G1 X87.395 Y76.145 E23.11757
G1 X87.614 Y76.075 E23.12901
G1 X88.61 Y75.812 E23.18027
G1 X88.794 Y75.771 E23.18965
G1 X90.317 Y75.506 E23.26659
G1 X90.502 Y75.482 E23.27587
G1 X91.535 Y75.392 E23.32747
G1 X91.726 Y75.384 E23.33699
G1 X93.267 Y75.384 E23.41367
G1 X93.455 Y75.392 E23.42304
G1 X94.488 Y75.481 E23.47464
G1 X94.714 Y75.512 E23.48599
G1 X96.732 Y75.9 E23.58825
G1 X97.025 Y75.978 E23.60334
G1 X98.983 Y76.644 E23.70627
G1 X99.261 Y76.761 E23.72128
G1 X101.096 Y77.683 E23.82348
G1 X101.357 Y77.837 E23.83856
G1 X103.062 Y79.013 E23.94163
G1 X103.301 Y79.203 E23.95683
G1 X104.818 Y80.596 E24.05932
G1 X105.025 Y80.815 E24.07432
G1 X106.335 Y82.4 E24.17665
G1 X106.511 Y82.646 E24.1917
G1 X107.591 Y84.397 E24.29409
G1 X107.732 Y84.665 E24.30916
G1 X108.566 Y86.561 E24.41224
G1 X108.669 Y86.846 E24.42732
G1 X109.231 Y88.828 E24.52984
G1 X109.293 Y89.126 E24.54499
G1 X109.575 Y91.162 E24.64728
G1 X109.596 Y91.462 E24.66224
G1 X109.597 Y93.528 E24.76506
G1 X109.576 Y93.83 E24.78013
G1 X109.294 Y95.864 E24.88232
G1 X109.232 Y96.161 E24.89742
G1 X108.67 Y98.147 E25.00013
G1 X108.583 Y98.397 E25.0133
G1 X107.983 Y99.83 E25.09062
G1 X107.865 Y100.069 E25.10388
G1 X106.846 Y101.857 E25.2063
G1 X106.678 Y102.109 E25.22137
G1 X105.417 Y103.746 E25.3242
G1 X105.217 Y103.972 E25.33922
G1 X103.749 Y105.415 E25.44166
G1 X103.519 Y105.612 E25.45673
G1 X101.866 Y106.84 E25.55921
G1 X101.61 Y107.004 E25.57434
G1 X99.795 Y107.996 E25.67728
G1 X99.521 Y108.122 E25.69229
G1 X97.594 Y108.853 E25.79485
G1 X97.377 Y108.923 E25.8062
G1 X96.387 Y109.185 E25.85716
G1 X96.202 Y109.225 E25.86658
G1 X94.681 Y109.49 E25.94342
G1 X94.492 Y109.515 E25.9529
G1 X93.458 Y109.604 E26.00455
G1 X93.27 Y109.612 E26.01392
G1 X91.729 Y109.612 E26.0906
G1 X91.465 Y109.596 E26.10377
G1 X89.417 Y109.348 E26.20643
G1 X89.12 Y109.291 E26.22148
G1 X87.12 Y108.762 E26.32443
G1 X86.831 Y108.664 E26.33962
G1 X84.932 Y107.866 E26.44213
G1 X84.728 Y107.768 E26.45339
G1 X83.827 Y107.275 E26.50451
G1 X83.666 Y107.177 E26.51389
G1 X82.382 Y106.324 E26.5906
G1 X82.171 Y106.164 E26.60378
G1 X80.606 Y104.826 E26.70624
G1 X80.39 Y104.615 E26.72127
G1 X79.019 Y103.07 E26.82407
G1 X78.833 Y102.829 E26.83922
G1 X77.691 Y101.112 E26.94184
G1 X77.541 Y100.848 E26.95695
G1 X76.646 Y98.989 E27.05963
G1 X76.534 Y98.708 E27.07468
G1 X75.901 Y96.738 E27.17766
G1 X75.828 Y96.442 E27.19283
G1 X75.476 Y94.412 E27.29536
G1 X75.445 Y94.113 E27.31032
G1 X75.374 Y92.059 E27.4126
G1 X75.385 Y91.757 E27.42764
G1 X75.598 Y89.703 E27.5304
G1 X75.65 Y89.404 E27.54551
G1 X76.142 Y87.408 E27.64781
G1 X76.234 Y87.12 E27.66286
G1 X76.999 Y85.201 E27.76567
G1 X77.131 Y84.927 E27.7808
G1 X78.153 Y83.135 E27.88346
G1 X78.321 Y82.883 E27.89854
G1 X79.575 Y81.254 E28.00084
G1 X79.776 Y81.027 E28.01593
M204 S5000
G0 F2400 X80.055 Y81.312
M204 S200
G1 F1200 X81.527 Y79.866 E28.11862
G1 X81.715 Y79.705 E28.13094
G1 X83.369 Y78.476 E28.23348
G1 X83.578 Y78.342 E28.24584
G1 X85.393 Y77.349 E28.3488
G1 X85.618 Y77.246 E28.36111
G1 X87.537 Y76.518 E28.46325
G1 X87.715 Y76.461 E28.47256
G1 X88.711 Y76.198 E28.52382
G1 X88.862 Y76.165 E28.53151
G1 X90.385 Y75.9 E28.60844
G1 X90.537 Y75.88 E28.61607
G1 X91.57 Y75.79 E28.66768
G1 X91.726 Y75.783 E28.67545
G1 X93.267 Y75.783 E28.75214
G1 X93.421 Y75.79 E28.75981
G1 X94.454 Y75.879 E28.81141
G1 X94.639 Y75.904 E28.8207
G1 X96.657 Y76.292 E28.92296
G1 X96.896 Y76.356 E28.93528
G1 X98.854 Y77.022 E29.0382
G1 X99.082 Y77.117 E29.05049
G1 X100.917 Y78.039 E29.15269
G1 X101.131 Y78.166 E29.16507
G1 X102.836 Y79.342 E29.26815
