;FLAVOR:RepRap
;TIME:567
;Filament used: 0.381714m
;Layer height: 0.15
;Generated with Cura_SteamEngine 2.6.2
M190 S60
M104 S220
M109 S220
G21 ;metric values
G90 ;absolute positioning
M82 ;set extruder to absolute mode
M107 ;start with the fan off
G92 E0 ;zero the extruded length
G1 F200 E3 ;extrude 3mm of feed stock
G92 E0 ;zero the extruded length again
G1 F9000
M117 Printing...
;LAYER_COUNT:32
;LAYER:0
M107
M204 S5000
G0 F2400 X75.6 Y86.459 Z0.3
M204 S200
;TYPE:SKIRT
G1 F1200 X76.032 Y86.119 E0.02736
G1 X76.296 Y85.956 E0.0428
G1 X77.09 Y85.509 E0.08814
G1 X77.588 Y85.274 E0.11555
G1 X78 Y85.142 E0.13708
G1 X79.116 Y84.853 E0.19445
G1 X79.657 Y84.754 E0.22182
G1 X80.062 Y84.732 E0.242
G1 X104.495 Y84.709 E1.45792
G1 X104.935 Y84.734 E1.47986
G1 X105.842 Y84.839 E1.52529
G1 X106.383 Y84.942 E1.5527
G1 X106.668 Y85.03 E1.56755
G1 X107.518 Y85.33 E1.6124
G1 X108.022 Y85.55 E1.63977
G1 X108.305 Y85.715 E1.65607
G1 X109.085 Y86.216 E1.70221
G1 X109.525 Y86.547 E1.72961
G1 X109.756 Y86.765 E1.74542
G1 X110.389 Y87.417 E1.79064
G1 X110.743 Y87.839 E1.81805
G1 X110.912 Y88.095 E1.83332
G1 X111.378 Y88.865 E1.87811
G1 X111.628 Y89.355 E1.90548
G1 X111.739 Y89.653 E1.92131
G1 X112.024 Y90.527 E1.96706
G1 X112.156 Y91.061 E1.99443
G1 X112.205 Y91.486 E2.01572
G1 X112.27 Y92.623 E2.0724
G1 X112.261 Y93.173 E2.09977
G1 X112.201 Y93.59 E2.12074
G1 X112.019 Y94.49 E2.16643
G1 X111.871 Y95.02 E2.19382
G1 X111.706 Y95.41 E2.21489
G1 X111.205 Y96.43 E2.27145
G1 X110.927 Y96.905 E2.29884
G1 X110.665 Y97.244 E2.32016
G1 X110.067 Y97.933 E2.36556
G1 X109.677 Y98.321 E2.39294
G1 X109.436 Y98.512 E2.40824
G1 X108.707 Y99.043 E2.45312
G1 X108.24 Y99.334 E2.48051
G1 X107.953 Y99.47 E2.49631
G1 X107.105 Y99.829 E2.54214
G1 X106.584 Y100.006 E2.56952
G1 X106.273 Y100.074 E2.58536
G1 X105.377 Y100.229 E2.63062
G1 X104.731 Y100.284 E2.66288
G1 X80.282 Y100.285 E3.8796
G1 X79.522 Y100.208 E3.91761
G1 X78.383 Y99.975 E3.97547
G1 X77.853 Y99.826 E4.00287
G1 X77.459 Y99.658 E4.02418
G1 X76.644 Y99.254 E4.06945
G1 X76.17 Y98.974 E4.09685
G1 X75.928 Y98.792 E4.11192
G1 X75.226 Y98.218 E4.15705
G1 X74.684 Y97.673 E4.1953
G1 X74.251 Y97.14 E4.22947
G1 X73.935 Y96.689 E4.25688
G1 X73.785 Y96.411 E4.2726
G1 X73.283 Y95.381 E4.32962
G1 X73.079 Y94.87 E4.357
G1 X72.953 Y94.35 E4.38363
G1 X72.764 Y93.228 E4.44025
G1 X72.712 Y92.68 E4.46764
G1 X72.738 Y92.146 E4.49425
G1 X72.875 Y91.006 E4.55139
G1 X72.98 Y90.465 E4.57882
G1 X73.114 Y90.063 E4.59991
G1 X73.448 Y89.219 E4.64508
G1 X73.687 Y88.723 E4.67248
G1 X73.856 Y88.457 E4.68816
G1 X74.373 Y87.71 E4.73337
G1 X74.718 Y87.281 E4.76077
G1 X74.934 Y87.067 E4.7759
G1 X75.6 Y86.459 E4.82078
M204 S5000
G0 F2400 X75.869 Y86.754
M204 S200
G1 F1200 X76.492 Y86.303 E4.85905
G1 X77.286 Y85.856 E4.9044
G1 X77.758 Y85.636 E4.93031
G1 X78.1 Y85.528 E4.94816
G1 X79.216 Y85.239 E5.00553
G1 X79.728 Y85.148 E5.03141
G1 X80.063 Y85.131 E5.0481
G1 X104.496 Y85.108 E6.26402
G1 X104.889 Y85.131 E6.28361
G1 X105.796 Y85.236 E6.32905
G1 X106.535 Y85.406 E6.36679
G1 X107.385 Y85.706 E6.41165
G1 X107.861 Y85.917 E6.43756
G1 X108.089 Y86.051 E6.45072
G1 X108.869 Y86.552 E6.49686
G1 X109.47 Y87.043 E6.53548
G1 X110.103 Y87.695 E6.5807
G1 X110.571 Y88.302 E6.61884
G1 X111.037 Y89.072 E6.66363
G1 X111.36 Y89.776 E6.70218
G1 X111.645 Y90.65 E6.74793
G1 X111.768 Y91.156 E6.77384
G1 X111.806 Y91.508 E6.79146
G1 X111.871 Y92.645 E6.84814
G1 X111.861 Y93.166 E6.87407
G1 X111.81 Y93.511 E6.89143
G1 X111.628 Y94.411 E6.93712
G1 X111.486 Y94.912 E6.96304
G1 X111.348 Y95.234 E6.98047
G1 X110.847 Y96.254 E7.03703
G1 X110.582 Y96.703 E7.06297
G1 X110.364 Y96.982 E7.08059
G1 X109.766 Y97.671 E7.12599
G1 X109.201 Y98.19 E7.16417
G1 X108.472 Y98.721 E7.20906
G1 X107.797 Y99.103 E7.24765
G1 X106.949 Y99.462 E7.29348
G1 X106.205 Y99.68 E7.33206
G1 X105.309 Y99.835 E7.37732
G1 X104.731 Y99.885 E7.40619
G1 X80.282 Y99.886 E8.6229
G1 X79.602 Y99.817 E8.65692
G1 X78.463 Y99.584 E8.71477
G1 X77.963 Y99.441 E8.74066
G1 X77.637 Y99.3 E8.75833
G1 X76.822 Y98.896 E8.8036
G1 X76.181 Y98.483 E8.84155
G1 X75.479 Y97.909 E8.88667
G1 X74.993 Y97.422 E8.92091
G1 X74.56 Y96.889 E8.95509
G1 X74.144 Y96.236 E8.99362
G1 X73.642 Y95.206 E9.05064
G1 X73.45 Y94.722 E9.07655
G1 X73.346 Y94.283 E9.09901
G1 X73.157 Y93.161 E9.15563
G1 X73.11 Y92.643 E9.18151
G1 X73.134 Y92.193 E9.20394
G1 X73.271 Y91.053 E9.26108
G1 X73.373 Y90.543 E9.28696
G1 X73.485 Y90.21 E9.30445
G1 X73.819 Y89.366 E9.34962
G1 X74.184 Y88.684 E9.38811
G1 X74.701 Y87.937 E9.43332
G1 X75.203 Y87.362 E9.47131
G1 X75.869 Y86.754 E9.51619
M204 S5000
G0 F2400 X76.138 Y87.049
M204 S200
G1 F1200 X76.688 Y86.651 E9.54997
G1 X77.482 Y86.204 E9.59532
G1 X77.926 Y86 E9.61964
G1 X78.2 Y85.915 E9.63391
G1 X79.316 Y85.626 E9.69128
G1 X79.797 Y85.542 E9.71558
G1 X80.063 Y85.53 E9.72883
G1 X104.496 Y85.507 E10.94475
G1 X104.843 Y85.527 E10.96205
G1 X105.75 Y85.632 E11.00749
G1 X106.402 Y85.783 E11.0408
G1 X107.252 Y86.083 E11.08565
G1 X107.874 Y86.387 E11.12011
G1 X108.654 Y86.888 E11.16624
G1 X109.183 Y87.321 E11.20026
G1 X109.816 Y87.973 E11.24549
G1 X110.23 Y88.508 E11.27915
G1 X110.696 Y89.278 E11.32394
G1 X110.981 Y89.9 E11.35799
G1 X111.266 Y90.774 E11.40374
G1 X111.379 Y91.25 E11.42809
G1 X111.408 Y91.531 E11.44214
G1 X111.473 Y92.668 E11.49882
G1 X111.461 Y93.157 E11.52316
G1 X111.419 Y93.432 E11.53701
G1 X111.237 Y94.332 E11.5827
G1 X111.101 Y94.802 E11.60705
G1 X110.989 Y95.059 E11.621
G1 X110.488 Y96.079 E11.67756
G1 X110.238 Y96.498 E11.70184
G1 X110.062 Y96.721 E11.71598
G1 X109.464 Y97.41 E11.76138
G1 X108.966 Y97.867 E11.79501
G1 X108.237 Y98.398 E11.8399
G1 X107.642 Y98.735 E11.87393
G1 X106.794 Y99.094 E11.91975
G1 X106.137 Y99.287 E11.95383
G1 X105.241 Y99.442 E11.99908
G1 X104.731 Y99.486 E12.02456
G1 X80.282 Y99.487 E13.24128
G1 X79.682 Y99.426 E13.27129
G1 X78.543 Y99.193 E13.32915
G1 X78.074 Y99.056 E13.35346
G1 X77.814 Y98.943 E13.36757
G1 X76.999 Y98.539 E13.41284
G1 X76.433 Y98.174 E13.44635
G1 X75.731 Y97.6 E13.49148
G1 X75.303 Y97.17 E13.52167
G1 X74.87 Y96.637 E13.55585
G1 X74.503 Y96.061 E13.58984
G1 X74.001 Y95.031 E13.64686
G1 X73.823 Y94.576 E13.67117
G1 X73.74 Y94.217 E13.68951
G1 X73.551 Y93.095 E13.74613
G1 X73.509 Y92.608 E13.77046
G1 X73.53 Y92.241 E13.78875
G1 X73.667 Y91.101 E13.84589
G1 X73.765 Y90.622 E13.87023
G1 X73.856 Y90.357 E13.88417
G1 X74.19 Y89.513 E13.92934
G1 X74.512 Y88.911 E13.96332
G1 X75.029 Y88.164 E14.00853
G1 X75.472 Y87.657 E14.04203
G1 X76.138 Y87.049 E14.08691
M204 S5000
G0 F2400 X76.407 Y87.343
M204 S200
G1 F1200 X76.883 Y86.999 E14.11614
G1 X77.677 Y86.552 E14.16148
G1 X78.3 Y86.301 E14.19491
G1 X79.416 Y86.012 E14.25228
G1 X80.064 Y85.929 E14.28479
G1 X104.497 Y85.906 E15.50071
G1 X104.797 Y85.923 E15.51566
G1 X105.704 Y86.028 E15.5611
G1 X106.269 Y86.159 E15.58997
G1 X107.119 Y86.459 E15.63482
G1 X107.658 Y86.722 E15.66467
G1 X108.438 Y87.223 E15.7108
G1 X108.897 Y87.599 E15.74033
G1 X109.53 Y88.251 E15.78556
G1 X109.888 Y88.715 E15.81472
G1 X110.354 Y89.485 E15.85951
G1 X110.601 Y90.024 E15.88902
G1 X110.886 Y90.898 E15.93477
G1 X111.01 Y91.554 E15.96799
G1 X111.075 Y92.691 E16.02467
G1 X111.028 Y93.353 E16.05769
G1 X110.846 Y94.253 E16.10339
G1 X110.631 Y94.883 E16.13652
G1 X110.13 Y95.903 E16.19307
G1 X109.761 Y96.459 E16.22628
G1 X109.163 Y97.148 E16.27168
G1 X108.731 Y97.545 E16.30088
G1 X108.002 Y98.076 E16.34576
G1 X107.486 Y98.368 E16.37527
G1 X106.638 Y98.727 E16.4211
G1 X106.069 Y98.894 E16.45061
G1 X105.173 Y99.049 E16.49586
G1 X104.731 Y99.087 E16.51794
G1 X80.282 Y99.088 E17.73465
G1 X79.762 Y99.035 E17.76066
G1 X78.623 Y98.802 E17.81852
G1 X77.991 Y98.585 E17.85178
G1 X77.176 Y98.181 E17.89704
G1 X76.686 Y97.865 E17.92606
G1 X75.984 Y97.291 E17.97119
G1 X75.613 Y96.919 E17.99733
G1 X75.18 Y96.386 E18.03151
G1 X74.861 Y95.886 E18.06102
G1 X74.359 Y94.856 E18.11805
G1 X74.196 Y94.431 E18.1407
G1 X74.133 Y94.151 E18.15498
G1 X73.944 Y93.029 E18.2116
G1 X73.908 Y92.575 E18.23427
G1 X73.927 Y92.288 E18.24858
G1 X74.064 Y91.148 E18.30572
G1 X74.227 Y90.503 E18.33883
G1 X74.561 Y89.659 E18.384
G1 X74.84 Y89.138 E18.41341
G1 X75.357 Y88.391 E18.45862
G1 X75.741 Y87.951 E18.48769
G1 X76.407 Y87.343 E18.53257
M204 S5000
G0 F2400 X76.676 Y87.638
M204 S200
G1 F1200 X77.079 Y87.346 E18.55733
G1 X77.873 Y86.899 E18.60268
G1 X78.4 Y86.687 E18.63095
G1 X79.516 Y86.398 E18.68832
G1 X80.064 Y86.328 E18.71581
G1 X104.497 Y86.305 E19.93173
G1 X104.751 Y86.32 E19.94439
G1 X105.658 Y86.425 E19.98983
G1 X106.137 Y86.535 E20.01429
G1 X106.987 Y86.835 E20.05915
G1 X107.442 Y87.058 E20.08436
G1 X108.222 Y87.559 E20.1305
G1 X108.611 Y87.877 E20.1555
G1 X109.244 Y88.529 E20.20073
G1 X109.547 Y88.922 E20.22542
G1 X110.013 Y89.692 E20.27021
G1 X110.222 Y90.148 E20.29518
G1 X110.507 Y91.022 E20.34092
G1 X110.611 Y91.577 E20.36902
G1 X110.676 Y92.714 E20.4257
G1 X110.636 Y93.274 E20.45364
G1 X110.454 Y94.174 E20.49934
G1 X110.273 Y94.707 E20.52735
G1 X109.772 Y95.727 E20.5839
G1 X109.46 Y96.198 E20.61202
G1 X108.862 Y96.887 E20.65742
G1 X108.496 Y97.222 E20.68211
G1 X107.767 Y97.753 E20.72699
G1 X107.331 Y98 E20.75193
G1 X106.483 Y98.359 E20.79776
G1 X106.001 Y98.501 E20.82277
G1 X105.105 Y98.656 E20.86802
G1 X104.731 Y98.688 E20.8867
G1 X80.282 Y98.689 E22.10341
G1 X79.842 Y98.644 E22.12542
G1 X78.703 Y98.411 E22.18328
G1 X78.168 Y98.228 E22.21142
G1 X77.353 Y97.824 E22.25669
G1 X76.939 Y97.556 E22.28123
G1 X76.237 Y96.982 E22.32636
G1 X75.922 Y96.667 E22.34853
G1 X75.489 Y96.134 E22.3827
G1 X75.22 Y95.712 E22.40761
G1 X74.718 Y94.682 E22.46463
G1 X74.571 Y94.29 E22.48547
G1 X74.526 Y94.085 E22.49591
G1 X74.337 Y92.963 E22.55253
G1 X74.308 Y92.545 E22.57339
G1 X74.323 Y92.336 E22.58381
G1 X74.46 Y91.196 E22.64095
G1 X74.598 Y90.65 E22.66898
G1 X74.932 Y89.806 E22.71415
G1 X75.168 Y89.365 E22.73904
G1 X75.685 Y88.618 E22.78425
G1 X76.01 Y88.246 E22.80884
G1 X76.676 Y87.638 E22.85371
M204 S5000
G0 F2400 X76.945 Y87.933
M204 S200
G1 F1200 X77.275 Y87.694 E22.87399
G1 X78.069 Y87.247 E22.91934
G1 X78.5 Y87.073 E22.94247
G1 X79.616 Y86.784 E22.99984
G1 X80.064 Y86.727 E23.02231
G1 X104.497 Y86.704 E24.23823
G1 X104.706 Y86.716 E24.24865
G1 X105.613 Y86.821 E24.29409
G1 X106.004 Y86.911 E24.31406
G1 X106.854 Y87.211 E24.35891
G1 X107.227 Y87.394 E24.37959
G1 X108.007 Y87.895 E24.42573
G1 X108.325 Y88.155 E24.44617
G1 X108.958 Y88.807 E24.49139
G1 X109.206 Y89.128 E24.51158
G1 X109.672 Y89.898 E24.55637
G1 X109.843 Y90.271 E24.57679
G1 X110.128 Y91.145 E24.62254
G1 X110.213 Y91.599 E24.64552
G1 X110.278 Y92.736 E24.7022
G1 X110.245 Y93.195 E24.7251
G1 X110.063 Y94.095 E24.7708
G1 X109.915 Y94.531 E24.79371
G1 X109.414 Y95.551 E24.85026
G1 X109.158 Y95.936 E24.87327
G1 X108.56 Y96.625 E24.91867
G1 X108.261 Y96.9 E24.93889
G1 X107.532 Y97.431 E24.98377
G1 X107.175 Y97.633 E25.00419
G1 X106.327 Y97.992 E25.05001
G1 X105.933 Y98.108 E25.07045
G1 X105.037 Y98.263 E25.11571
G1 X104.731 Y98.289 E25.13099
G1 X80.282 Y98.29 E26.3477
G1 X79.922 Y98.254 E26.36571
G1 X78.783 Y98.021 E26.42357
G1 X78.345 Y97.87 E26.44662
G1 X77.53 Y97.466 E26.49189
G1 X77.191 Y97.247 E26.51198
G1 X76.489 Y96.673 E26.5571
G1 X76.232 Y96.415 E26.57523
G1 X75.799 Y95.882 E26.6094
G1 X75.579 Y95.537 E26.62976
G1 X75.077 Y94.507 E26.68679
G1 X74.92 Y94.018 E26.71234
G1 X74.731 Y92.896 E26.76897
G1 X74.719 Y92.384 E26.79445
G1 X74.856 Y91.244 E26.8516
G1 X74.969 Y90.797 E26.87454
G1 X75.303 Y89.953 E26.91971
G1 X75.496 Y89.592 E26.94008
G1 X76.013 Y88.845 E26.98529
G1 X76.279 Y88.541 E27.0054
G1 X76.945 Y87.933 E27.05027
M204 S5000
G0 F2400 X77.214 Y88.227
M204 S200
G1 F1200 X77.471 Y88.042 E27.06603
G1 X78.265 Y87.595 E27.11138
G1 X78.6 Y87.46 E27.12935
G1 X79.716 Y87.171 E27.18672
G1 X80.065 Y87.126 E27.20423
G1 X104.498 Y87.103 E28.42015
G1 X104.66 Y87.112 E28.42823
G1 X105.567 Y87.217 E28.47367
G1 X105.871 Y87.288 E28.4892
G1 X106.721 Y87.588 E28.53406
G1 X107.011 Y87.73 E28.55013
G1 X107.791 Y88.231 E28.59627
G1 X108.038 Y88.433 E28.61214
G1 X108.671 Y89.085 E28.65737
G1 X108.864 Y89.335 E28.67309
G1 X109.33 Y90.105 E28.71788
G1 X109.463 Y90.395 E28.73375
G1 X109.748 Y91.269 E28.7795
G1 X109.815 Y91.622 E28.79738
G1 X109.88 Y92.759 E28.85406
G1 X109.854 Y93.116 E28.87187
G1 X109.672 Y94.016 E28.91757
G1 X109.557 Y94.355 E28.93538
G1 X109.056 Y95.375 E28.99194
G1 X108.857 Y95.675 E29.00985
G1 X108.259 Y96.364 E29.05525
G1 X108.027 Y96.577 E29.07093
G1 X107.298 Y97.108 E29.11581
G1 X107.02 Y97.265 E29.1317
G1 X106.172 Y97.624 E29.17753
G1 X105.865 Y97.715 E29.19346
G1 X104.969 Y97.87 E29.23871
G1 X104.731 Y97.89 E29.2506
G1 X80.282 Y97.891 E30.46732
G1 X80.002 Y97.863 E30.48132
G1 X78.863 Y97.63 E30.53918
G1 X78.523 Y97.513 E30.55707
G1 X77.708 Y97.109 E30.60234
G1 X77.444 Y96.938 E30.61799
G1 X76.742 Y96.364 E30.66312
G1 X76.542 Y96.164 E30.67719
G1 X76.109 Y95.631 E30.71137
G1 X75.937 Y95.362 E30.72726
G1 X75.435 Y94.332 E30.78428
G1 X75.313 Y93.952 E30.80414
G1 X75.124 Y92.83 E30.86077
G1 X75.115 Y92.431 E30.88063
G1 X75.252 Y91.291 E30.93777
G1 X75.34 Y90.944 E30.95558
G1 X75.674 Y90.1 E31.00076
G1 X75.824 Y89.819 E31.01661
G1 X76.341 Y89.072 E31.06182
G1 X76.548 Y88.835 E31.07748
G1 X77.214 Y88.227 E31.12235
M204 S5000
G0 F2400 X77.483 Y88.522
M204 S200
G1 F1200 X77.666 Y88.389 E31.13361
G1 X78.46 Y87.942 E31.17896
G1 X78.7 Y87.846 E31.19182
G1 X79.816 Y87.557 E31.24919
G1 X80.065 Y87.525 E31.26169
G1 X104.498 Y87.502 E32.47761
G1 X104.614 Y87.509 E32.48339
G1 X105.521 Y87.614 E32.52883
G1 X105.738 Y87.664 E32.53991
G1 X106.588 Y87.964 E32.58477
G1 X106.795 Y88.065 E32.59623
G1 X107.575 Y88.566 E32.64237
G1 X107.752 Y88.711 E32.65375
G1 X108.385 Y89.363 E32.69898
G1 X108.523 Y89.541 E32.71018
G1 X108.989 Y90.311 E32.75497
G1 X109.084 Y90.519 E32.76635
G1 X109.369 Y91.393 E32.8121
G1 X109.416 Y91.645 E32.82486
G1 X109.481 Y92.782 E32.88154
G1 X109.463 Y93.037 E32.89426
G1 X109.281 Y93.937 E32.93995
G1 X109.199 Y94.179 E32.95267
G1 X108.698 Y95.199 E33.00922
G1 X108.556 Y95.413 E33.022
G1 X107.958 Y96.102 E33.06741
G1 X107.792 Y96.255 E33.07864
G1 X107.063 Y96.786 E33.12352
G1 X106.864 Y96.898 E33.13489
G1 X106.016 Y97.257 E33.18071
G1 X105.797 Y97.321 E33.19207
G1 X104.901 Y97.476 E33.23732
G1 X104.731 Y97.491 E33.24581
G1 X80.282 Y97.492 E34.46253
G1 X80.082 Y97.472 E34.47253
G1 X78.943 Y97.239 E34.53039
G1 X78.7 Y97.155 E34.54319
G1 X77.885 Y96.751 E34.58845
G1 X77.696 Y96.63 E34.59962
G1 X76.994 Y96.056 E34.64475
G1 X76.851 Y95.912 E34.65485
G1 X76.418 Y95.379 E34.68902
G1 X76.296 Y95.187 E34.70034
G1 X75.794 Y94.157 E34.75737
G1 X75.707 Y93.886 E34.77153
G1 X75.518 Y92.764 E34.82815
G1 X75.511 Y92.479 E34.84234
G1 X75.648 Y91.339 E34.89948
G1 X75.711 Y91.091 E34.91222
G1 X76.045 Y90.247 E34.95739
G1 X76.152 Y90.046 E34.96872
G1 X76.669 Y89.299 E35.01393
G1 X76.817 Y89.13 E35.02511
G1 X77.483 Y88.522 E35.06999
M204 S5000
G0 F2400 X77.752 Y88.817
M204 S200
G1 F1200 X77.862 Y88.737 E35.07676
G1 X78.656 Y88.29 E35.1221
G1 X78.8 Y88.232 E35.12983
G1 X79.916 Y87.943 E35.1872
G1 X80.065 Y87.924 E35.19467
G1 X104.498 Y87.901 E36.41059
G1 X104.568 Y87.905 E36.41408
G1 X105.475 Y88.01 E36.45952
G1 X105.605 Y88.04 E36.46616
G1 X106.455 Y88.34 E36.51102
G1 X106.58 Y88.401 E36.51794
G1 X107.36 Y88.902 E36.56407
G1 X107.466 Y88.989 E36.5709
G1 X108.099 Y89.641 E36.61612
G1 X108.181 Y89.748 E36.62283
G1 X108.647 Y90.518 E36.66762
G1 X108.704 Y90.642 E36.67441
G1 X108.989 Y91.516 E36.72016
G1 X109.018 Y91.668 E36.72786
G1 X109.083 Y92.805 E36.78454
G1 X109.072 Y92.958 E36.79217
G1 X108.89 Y93.858 E36.83787
G1 X108.841 Y94.003 E36.84548
G1 X108.34 Y95.023 E36.90204
G1 X108.254 Y95.152 E36.90975
G1 X107.656 Y95.841 E36.95516
G1 X107.557 Y95.932 E36.96185
G1 X106.828 Y96.463 E37.00673
G1 X106.709 Y96.531 E37.01355
G1 X105.861 Y96.89 E37.05938
G1 X105.729 Y96.928 E37.06621
G1 X104.833 Y97.083 E37.11147
G1 X104.731 Y97.092 E37.11656
G1 X80.282 Y97.093 E38.33328
G1 X80.162 Y97.081 E38.33928
G1 X79.023 Y96.848 E38.39714
G1 X78.877 Y96.798 E38.40482
G1 X78.062 Y96.394 E38.45009
G1 X77.949 Y96.321 E38.45678
G1 X77.247 Y95.747 E38.50191
G1 X77.161 Y95.661 E38.50796
G1 X76.728 Y95.128 E38.54213
