;FLAVOR:RepRap
;TIME:370
;Filament used: 0.264439m
;Layer height: 0.15
;Generated with Cura_SteamEngine 2.6.2
M190 S60
M104 S220
M109 S220
G21 ;metric values
G90 ;absolute positioning
M82 ;set extruder to absolute mode
M107 ;start with the fan off
G92 E0 ;zero the extruded length
G1 F200 E3 ;extrude 3mm of feed stock
G92 E0 ;zero the extruded length again
G1 F9000
M117 Printing...
;LAYER_COUNT:8
;LAYER:0
M107
M204 S5000
G0 F2400 X78.045 Y78.266 Z0.3
M204 S200
;TYPE:SKIRT
G1 F1200 X79.252 Y77.136 E0.08228
G1 X79.594 Y76.851 E0.10444
G1 X81.377 Y75.537 E0.21466
G1 X81.75 Y75.295 E0.23679
G1 X83.179 Y74.481 E0.31863
G1 X83.577 Y74.284 E0.34073
G1 X85.613 Y73.422 E0.45076
G1 X86.088 Y73.257 E0.47579
G1 X88.206 Y72.676 E0.58508
G1 X88.702 Y72.575 E0.61027
G1 X90.889 Y72.28 E0.7201
G1 X91.398 Y72.246 E0.74548
G1 X93.608 Y72.247 E0.85546
G1 X94.047 Y72.273 E0.87735
G1 X95.685 Y72.465 E0.95942
G1 X96.063 Y72.529 E0.9785
G1 X97.681 Y72.887 E1.06097
G1 X98.104 Y73.006 E1.08284
G1 X100.178 Y73.725 E1.19208
G1 X100.645 Y73.923 E1.21732
G1 X102.619 Y74.92 E1.32738
G1 X103.055 Y75.178 E1.35259
G1 X104.866 Y76.421 E1.4619
G1 X105.171 Y76.654 E1.481
G1 X106.012 Y77.366 E1.53584
G1 X106.242 Y77.577 E1.55137
G1 X107.418 Y78.752 E1.6341
G1 X107.751 Y79.133 E1.65929
G1 X109.42 Y81.319 E1.79616
G1 X109.732 Y81.799 E1.82465
G1 X110.791 Y83.733 E1.93438
G1 X111.003 Y84.19 E1.95945
G1 X111.796 Y86.246 E2.06911
G1 X111.916 Y86.611 E2.08823
G1 X112.208 Y87.68 E2.14338
G1 X112.278 Y87.984 E2.15891
G1 X112.579 Y89.599 E2.24066
G1 X112.634 Y90.04 E2.26278
G1 X112.782 Y92.241 E2.37256
G1 X112.783 Y92.748 E2.39779
G1 X112.636 Y94.948 E2.50752
G1 X112.581 Y95.385 E2.52944
G1 X112.28 Y97.01 E2.61168
G1 X112.172 Y97.444 E2.63394
G1 X111.518 Y99.55 E2.74368
G1 X111.338 Y100.019 E2.76868
G1 X110.412 Y102.018 E2.87832
G1 X110.168 Y102.464 E2.90362
G1 X108.983 Y104.322 E3.01329
G1 X108.683 Y104.73 E3.03849
G1 X107.26 Y106.414 E3.14821
G1 X106.955 Y106.734 E3.17021
G1 X105.748 Y107.864 E3.25249
G1 X105.406 Y108.149 E3.27465
G1 X103.623 Y109.463 E3.38487
G1 X103.25 Y109.705 E3.407
G1 X101.821 Y110.519 E3.48884
G1 X101.423 Y110.716 E3.51094
G1 X99.387 Y111.578 E3.62097
G1 X98.912 Y111.743 E3.64599
G1 X96.794 Y112.324 E3.75529
G1 X96.298 Y112.425 E3.78048
G1 X94.111 Y112.72 E3.8903
G1 X93.602 Y112.754 E3.91569
G1 X91.391 Y112.753 E4.02572
G1 X91.014 Y112.734 E4.04451
G1 X89.918 Y112.624 E4.09932
G1 X89.605 Y112.579 E4.11506
G1 X87.988 Y112.279 E4.19691
G1 X87.555 Y112.172 E4.2191
G1 X85.444 Y111.516 E4.32911
G1 X84.975 Y111.336 E4.35411
G1 X82.981 Y110.412 E4.46348
G1 X82.537 Y110.169 E4.48867
G1 X80.68 Y108.985 E4.59827
G1 X80.27 Y108.683 E4.62361
G1 X78.58 Y107.254 E4.73375
G1 X78.259 Y106.949 E4.75579
G1 X77.129 Y105.741 E4.83811
G1 X76.846 Y105.4 E4.86016
G1 X75.541 Y103.629 E4.96964
G1 X75.268 Y103.2 E4.99494
G1 X74.206 Y101.26 E5.10501
G1 X73.993 Y100.803 E5.1301
G1 X73.201 Y98.747 E5.23975
G1 X73.05 Y98.259 E5.26517
G1 X72.541 Y96.113 E5.37493
G1 X72.458 Y95.618 E5.39991
G1 X72.237 Y93.426 E5.50954
G1 X72.22 Y92.918 E5.53484
G1 X72.294 Y90.723 E5.64414
G1 X72.335 Y90.282 E5.66618
G1 X72.584 Y88.641 E5.74878
G1 X72.676 Y88.208 E5.77081
G1 X73.257 Y86.089 E5.88015
G1 X73.422 Y85.614 E5.90518
G1 X74.281 Y83.584 E6.01487
G1 X74.511 Y83.128 E6.04029
G1 X75.639 Y81.225 E6.15038
G1 X75.847 Y80.91 E6.16916
G1 X76.498 Y80.026 E6.2238
G1 X76.697 Y79.779 E6.23958
G1 X77.782 Y78.538 E6.32162
G1 X78.045 Y78.266 E6.34045
M204 S5000
G0 F2400 X78.318 Y78.557
M204 S200
G1 F1200 X79.525 Y77.427 E6.42273
G1 X79.831 Y77.172 E6.44255
G1 X81.614 Y75.858 E6.55278
G1 X81.947 Y75.642 E6.57253
G1 X83.376 Y74.828 E6.65437
G1 X83.733 Y74.651 E6.6742
G1 X85.769 Y73.789 E6.78423
G1 X86.194 Y73.642 E6.80661
G1 X88.312 Y73.061 E6.91591
G1 X88.756 Y72.97 E6.93847
G1 X90.943 Y72.675 E7.04829
G1 X91.398 Y72.645 E7.07098
G1 X93.608 Y72.646 E7.18096
G1 X94.001 Y72.669 E7.20055
G1 X95.639 Y72.861 E7.28263
G1 X95.977 Y72.918 E7.29969
G1 X97.595 Y73.276 E7.38215
G1 X97.973 Y73.383 E7.4017
G1 X100.047 Y74.102 E7.51094
G1 X100.465 Y74.279 E7.53353
G1 X102.439 Y75.276 E7.64359
G1 X102.83 Y75.507 E7.66619
G1 X104.641 Y76.75 E7.7755
G1 X104.913 Y76.958 E7.79254
G1 X105.754 Y77.67 E7.84738
G1 X105.959 Y77.859 E7.86126
G1 X107.135 Y79.034 E7.94399
G1 X107.434 Y79.376 E7.96659
G1 X109.103 Y81.562 E8.10346
G1 X109.382 Y81.991 E8.12893
G1 X110.441 Y83.925 E8.23866
G1 X110.631 Y84.333 E8.26106
G1 X111.424 Y86.389 E8.37072
G1 X111.531 Y86.716 E8.38785
G1 X111.823 Y87.785 E8.443
G1 X111.886 Y88.058 E8.45694
G1 X112.187 Y89.673 E8.53869
G1 X112.236 Y90.066 E8.5584
G1 X112.384 Y92.267 E8.66818
G1 X112.384 Y92.721 E8.69078
G1 X112.237 Y94.921 E8.80051
G1 X112.188 Y95.313 E8.82017
G1 X111.887 Y96.938 E8.90241
G1 X111.791 Y97.326 E8.9223
G1 X111.137 Y99.432 E9.03204
G1 X110.976 Y99.852 E9.05443
G1 X110.05 Y101.851 E9.16407
G1 X109.832 Y102.249 E9.18665
G1 X108.647 Y104.107 E9.29632
G1 X108.378 Y104.472 E9.31888
G1 X106.955 Y106.156 E9.4286
G1 X106.682 Y106.443 E9.44831
G1 X105.475 Y107.573 E9.5306
G1 X105.169 Y107.828 E9.55042
G1 X103.386 Y109.142 E9.66064
G1 X103.053 Y109.358 E9.6804
G1 X101.624 Y110.172 E9.76224
G1 X101.267 Y110.349 E9.78207
G1 X99.231 Y111.211 E9.8921
G1 X98.806 Y111.358 E9.91448
G1 X96.688 Y111.939 E10.02378
G1 X96.244 Y112.03 E10.04633
G1 X94.057 Y112.325 E10.15615
G1 X93.602 Y112.355 E10.17885
G1 X91.391 Y112.354 E10.28888
G1 X91.054 Y112.337 E10.30567
G1 X89.958 Y112.227 E10.36049
G1 X89.678 Y112.187 E10.37456
G1 X88.061 Y111.887 E10.45641
G1 X87.673 Y111.791 E10.4763
G1 X85.562 Y111.135 E10.58631
G1 X85.143 Y110.974 E10.60865
G1 X83.149 Y110.05 E10.71802
G1 X82.751 Y109.832 E10.7406
G1 X80.894 Y108.648 E10.8502
G1 X80.528 Y108.378 E10.87283
G1 X78.838 Y106.949 E10.98297
G1 X78.551 Y106.676 E11.00269
G1 X77.421 Y105.468 E11.085
G1 X77.167 Y105.163 E11.10476
G1 X75.862 Y103.392 E11.21423
G1 X75.618 Y103.009 E11.23683
G1 X74.556 Y101.069 E11.3469
G1 X74.366 Y100.659 E11.36939
G1 X73.574 Y98.603 E11.47903
G1 X73.439 Y98.167 E11.50175
G1 X72.93 Y96.021 E11.61151
G1 X72.855 Y95.578 E11.63387
G1 X72.634 Y93.386 E11.74351
G1 X72.619 Y92.932 E11.76611
G1 X72.693 Y90.737 E11.87541
G1 X72.729 Y90.342 E11.89515
G1 X72.978 Y88.701 E11.97775
G1 X73.061 Y88.313 E11.99749
G1 X73.642 Y86.194 E12.10684
G1 X73.789 Y85.769 E12.12922
G1 X74.648 Y83.739 E12.23892
G1 X74.854 Y83.331 E12.26166
G1 X75.982 Y81.428 E12.37175
G1 X76.169 Y81.147 E12.38855
G1 X76.82 Y80.263 E12.44318
G1 X76.997 Y80.041 E12.45731
G1 X78.082 Y78.8 E12.53935
G1 X78.318 Y78.557 E12.55621
M204 S5000
G0 F2400 X78.59 Y78.848
M204 S200
G1 F1200 X79.797 Y77.718 E12.63849
G1 X80.067 Y77.494 E12.65595
G1 X81.85 Y76.18 E12.76617
G1 X82.145 Y75.988 E12.78369
G1 X83.574 Y75.174 E12.86553
G1 X83.888 Y75.019 E12.88296
G1 X85.924 Y74.157 E12.99299
G1 X86.299 Y74.027 E13.01274
G1 X88.417 Y73.446 E13.12204
G1 X88.809 Y73.366 E13.14195
G1 X90.996 Y73.071 E13.25177
G1 X91.397 Y73.044 E13.27177
G1 X93.607 Y73.045 E13.38175
G1 X93.954 Y73.065 E13.39905
G1 X95.592 Y73.257 E13.48112
G1 X95.891 Y73.308 E13.49622
G1 X97.509 Y73.666 E13.57869
G1 X97.842 Y73.76 E13.59591
G1 X99.916 Y74.479 E13.70514
G1 X100.285 Y74.635 E13.72508
G1 X102.259 Y75.632 E13.83514
G1 X102.604 Y75.836 E13.85508
G1 X104.415 Y77.079 E13.9644
G1 X104.655 Y77.263 E13.97945
G1 X105.496 Y77.975 E14.03428
G1 X105.677 Y78.142 E14.04654
G1 X106.853 Y79.317 E14.12927
G1 X107.117 Y79.618 E14.14919
G1 X108.786 Y81.804 E14.28606
G1 X109.032 Y82.183 E14.30855
G1 X110.091 Y84.117 E14.41828
G1 X110.258 Y84.477 E14.43803
G1 X111.051 Y86.533 E14.54769
G1 X111.146 Y86.821 E14.56279
G1 X111.438 Y87.89 E14.61794
G1 X111.493 Y88.131 E14.63024
G1 X111.794 Y89.746 E14.71199
G1 X111.838 Y90.093 E14.7294
G1 X111.986 Y92.294 E14.83918
G1 X111.986 Y92.695 E14.85914
G1 X111.839 Y94.895 E14.96886
G1 X111.796 Y95.24 E14.98617
G1 X111.495 Y96.865 E15.06841
G1 X111.41 Y97.208 E15.086
G1 X110.756 Y99.314 E15.19574
G1 X110.614 Y99.684 E15.21546
G1 X109.688 Y101.683 E15.3251
G1 X109.495 Y102.034 E15.34503
G1 X108.31 Y103.892 E15.4547
G1 X108.073 Y104.215 E15.47464
G1 X106.65 Y105.899 E15.58436
G1 X106.41 Y106.152 E15.60171
G1 X105.203 Y107.282 E15.684
G1 X104.933 Y107.506 E15.70145
G1 X103.15 Y108.82 E15.81168
G1 X102.855 Y109.012 E15.8292
G1 X101.426 Y109.826 E15.91104
G1 X101.112 Y109.981 E15.92846
G1 X99.076 Y110.843 E16.03849
G1 X98.701 Y110.973 E16.05825
G1 X96.583 Y111.554 E16.16754
G1 X96.191 Y111.634 E16.18745
G1 X94.004 Y111.929 E16.29728
G1 X93.603 Y111.956 E16.31728
G1 X91.392 Y111.955 E16.42731
G1 X91.094 Y111.94 E16.44216
G1 X89.998 Y111.83 E16.49697
G1 X89.751 Y111.795 E16.50939
G1 X88.134 Y111.495 E16.59123
G1 X87.792 Y111.41 E16.60877
G1 X85.681 Y110.754 E16.71878
G1 X85.311 Y110.612 E16.7385
G1 X83.317 Y109.688 E16.84787
G1 X82.966 Y109.496 E16.86778
G1 X81.109 Y108.312 E16.97738
G1 X80.785 Y108.073 E16.99742
G1 X79.095 Y106.644 E17.10756
G1 X78.842 Y106.404 E17.12491
G1 X77.712 Y105.196 E17.20723
G1 X77.489 Y104.926 E17.22466
G1 X76.184 Y103.155 E17.33414
G1 X75.968 Y102.817 E17.3541
G1 X74.906 Y100.877 E17.46416
G1 X74.738 Y100.516 E17.48398
G1 X73.946 Y98.46 E17.59363
G1 X73.827 Y98.075 E17.61368
G1 X73.318 Y95.929 E17.72344
G1 X73.252 Y95.538 E17.74317
G1 X73.031 Y93.346 E17.85281
G1 X73.018 Y92.945 E17.87278
G1 X73.092 Y90.75 E17.98208
G1 X73.124 Y90.402 E17.99947
G1 X73.373 Y88.761 E18.08207
G1 X73.446 Y88.419 E18.09947
G1 X74.027 Y86.3 E18.20882
G1 X74.157 Y85.925 E18.22857
G1 X75.016 Y83.895 E18.33826
G1 X75.197 Y83.535 E18.35832
G1 X76.325 Y81.632 E18.46841
G1 X76.49 Y81.383 E18.48327
G1 X77.141 Y80.499 E18.53791
G1 X77.298 Y80.304 E18.55037
G1 X78.383 Y79.063 E18.6324
G1 X78.59 Y78.848 E18.64725
M204 S5000
G0 F2400 X78.863 Y79.139
M204 S200
G1 F1200 X80.07 Y78.009 E18.72954
G1 X80.304 Y77.815 E18.74466
G1 X82.087 Y76.501 E18.85489
G1 X82.342 Y76.335 E18.87003
G1 X83.771 Y75.521 E18.95187
G1 X84.044 Y75.386 E18.96703
G1 X86.08 Y74.524 E19.07706
G1 X86.405 Y74.411 E19.09418
G1 X88.523 Y73.83 E19.20348
G1 X88.862 Y73.761 E19.2207
G1 X91.049 Y73.466 E19.33052
G1 X91.397 Y73.443 E19.34787
G1 X93.607 Y73.444 E19.45786
G1 X93.908 Y73.462 E19.47286
G1 X95.546 Y73.654 E19.55494
G1 X95.804 Y73.697 E19.56795
G1 X97.422 Y74.055 E19.65042
G1 X97.712 Y74.137 E19.66542
G1 X99.786 Y74.856 E19.77466
G1 X100.105 Y74.992 E19.79192
G1 X102.079 Y75.989 E19.90197
G1 X102.378 Y76.165 E19.91924
G1 X104.189 Y77.408 E20.02855
G1 X104.397 Y77.567 E20.04158
G1 X105.238 Y78.279 E20.09642
G1 X105.395 Y78.424 E20.10705
G1 X106.571 Y79.599 E20.18978
G1 X106.8 Y79.86 E20.20706
G1 X108.469 Y82.046 E20.34393
G1 X108.682 Y82.374 E20.3634
G1 X109.741 Y84.308 E20.47313
G1 X109.886 Y84.621 E20.49029
G1 X110.679 Y86.677 E20.59996
G1 X110.761 Y86.926 E20.613
G1 X111.053 Y87.995 E20.66815
G1 X111.101 Y88.204 E20.67882
G1 X111.402 Y89.819 E20.76058
G1 X111.44 Y90.12 E20.77568
G1 X111.588 Y92.321 E20.88546
G1 X111.588 Y92.668 E20.90273
G1 X111.441 Y94.868 E21.01246
G1 X111.404 Y95.167 E21.02745
G1 X111.103 Y96.792 E21.10969
G1 X111.029 Y97.089 E21.12493
G1 X110.375 Y99.195 E21.23467
G1 X110.252 Y99.516 E21.25178
G1 X109.326 Y101.515 E21.36141
G1 X109.159 Y101.82 E21.37872
G1 X107.974 Y103.678 E21.48839
G1 X107.768 Y103.957 E21.50565
G1 X106.345 Y105.641 E21.61536
G1 X106.137 Y105.861 E21.63043
G1 X104.93 Y106.991 E21.71271
G1 X104.696 Y107.185 E21.72784
G1 X102.913 Y108.499 E21.83807
G1 X102.658 Y108.665 E21.85321
G1 X101.229 Y109.479 E21.93505
G1 X100.956 Y109.614 E21.95021
G1 X98.92 Y110.476 E22.06024
G1 X98.595 Y110.589 E22.07736
G1 X96.477 Y111.17 E22.18666
G1 X96.138 Y111.239 E22.20387
G1 X93.951 Y111.534 E22.3137
G1 X93.603 Y111.557 E22.33105
G1 X91.392 Y111.556 E22.44108
G1 X91.134 Y111.543 E22.45394
G1 X90.038 Y111.433 E22.50876
G1 X89.824 Y111.402 E22.51952
G1 X88.207 Y111.102 E22.60136
G1 X87.91 Y111.029 E22.61658
G1 X85.799 Y110.373 E22.72659
G1 X85.478 Y110.25 E22.7437
G1 X83.484 Y109.326 E22.85307
G1 X83.18 Y109.159 E22.87033
G1 X81.323 Y107.975 E22.97993
G1 X81.043 Y107.769 E22.99723
G1 X79.353 Y106.34 E23.10737
G1 X79.134 Y106.131 E23.12243
G1 X78.004 Y104.923 E23.20475
G1 X77.81 Y104.69 E23.21984
G1 X76.505 Y102.919 E23.32932
G1 X76.318 Y102.626 E23.34662
G1 X75.256 Y100.686 E23.45668
G1 X75.11 Y100.372 E23.47391
G1 X74.318 Y98.316 E23.58356
G1 X74.215 Y97.983 E23.60091
G1 X73.706 Y95.837 E23.71067
G1 X73.649 Y95.498 E23.72778
G1 X73.428 Y93.306 E23.83741
G1 X73.416 Y92.959 E23.85469
G1 X73.49 Y90.764 E23.96399
G1 X73.518 Y90.462 E23.97908
G1 X73.767 Y88.821 E24.06168
G1 X73.83 Y88.524 E24.07679
G1 X74.411 Y86.405 E24.18614
G1 X74.524 Y86.08 E24.20326
G1 X75.383 Y84.05 E24.31296
G1 X75.541 Y83.738 E24.33036
G1 X76.669 Y81.835 E24.44045
G1 X76.811 Y81.62 E24.45328
G1 X77.462 Y80.736 E24.50791
G1 X77.598 Y80.567 E24.51871
G1 X78.683 Y79.326 E24.60074
G1 X78.863 Y79.139 E24.61366
M204 S5000
G0 F2400 X79.136 Y79.431
M204 S200
G1 F1200 X80.343 Y78.301 E24.69594
G1 X80.541 Y78.136 E24.70877
G1 X82.324 Y76.822 E24.81899
G1 X82.54 Y76.682 E24.8318
G1 X83.969 Y75.868 E24.91364
G1 X84.199 Y75.754 E24.92642
G1 X86.235 Y74.892 E25.03645
G1 X86.51 Y74.796 E25.05094
G1 X88.628 Y74.215 E25.16024
G1 X88.916 Y74.157 E25.17486
G1 X91.103 Y73.862 E25.28468
G1 X91.397 Y73.842 E25.29935
G1 X93.607 Y73.843 E25.40933
G1 X93.862 Y73.858 E25.42204
G1 X95.5 Y74.05 E25.50412
G1 X95.718 Y74.087 E25.51512
G1 X97.336 Y74.445 E25.59759
G1 X97.581 Y74.514 E25.61026
G1 X99.655 Y75.233 E25.7195
G1 X99.926 Y75.348 E25.73415
G1 X101.9 Y76.345 E25.8442
G1 X102.152 Y76.494 E25.85877
G1 X103.963 Y77.737 E25.96808
G1 X104.139 Y77.872 E25.97912
G1 X104.98 Y78.584 E26.03396
G1 X105.113 Y78.706 E26.04294
G1 X106.289 Y79.881 E26.12567
G1 X106.483 Y80.102 E26.1403
G1 X108.152 Y82.288 E26.27717
G1 X108.332 Y82.566 E26.29366
G1 X109.391 Y84.5 E26.40339
G1 X109.514 Y84.764 E26.41788
G1 X110.307 Y86.82 E26.52755
G1 X110.376 Y87.032 E26.53864
G1 X110.668 Y88.101 E26.59379
G1 X110.709 Y88.277 E26.60278
G1 X111.01 Y89.892 E26.68454
G1 X111.042 Y90.147 E26.69733
G1 X111.19 Y92.348 E26.80711
G1 X111.19 Y92.641 E26.82169
G1 X111.043 Y94.841 E26.93142
G1 X111.011 Y95.095 E26.94416
G1 X110.71 Y96.72 E27.0264
G1 X110.648 Y96.971 E27.03927
G1 X109.994 Y99.077 E27.14901
G1 X109.89 Y99.349 E27.1635
G1 X108.964 Y101.348 E27.27314
G1 X108.823 Y101.605 E27.28773
G1 X107.638 Y103.463 E27.3974
G1 X107.464 Y103.7 E27.41203
G1 X106.041 Y105.384 E27.52175
G1 X105.864 Y105.569 E27.53449
G1 X104.657 Y106.699 E27.61677
G1 X104.459 Y106.864 E27.6296
G1 X102.676 Y108.178 E27.73982
G1 X102.46 Y108.318 E27.75263
G1 X101.031 Y109.132 E27.83448
G1 X100.801 Y109.246 E27.84725
G1 X98.765 Y110.108 E27.95728
G1 X98.49 Y110.204 E27.97178
G1 X96.372 Y110.785 E28.08107
G1 X96.084 Y110.843 E28.09569
G1 X93.897 Y111.138 E28.20552
G1 X93.603 Y111.158 E28.22018
G1 X91.392 Y111.157 E28.33021
G1 X91.174 Y111.146 E28.34108
G1 X90.078 Y111.036 E28.39589
G1 X89.897 Y111.01 E28.40499
G1 X88.28 Y110.71 E28.48684
G1 X88.029 Y110.648 E28.4997
G1 X85.918 Y109.992 E28.60971
G1 X85.646 Y109.888 E28.62421
G1 X83.652 Y108.964 E28.73358
G1 X83.395 Y108.823 E28.74816
G1 X81.538 Y107.639 E28.85776
G1 X81.301 Y107.464 E28.87243
G1 X79.611 Y106.035 E28.98256
G1 X79.425 Y105.858 E28.99534
G1 X78.295 Y104.65 E29.07766
G1 X78.131 Y104.453 E29.09042
G1 X76.826 Y102.682 E29.1999
G1 X76.668 Y102.434 E29.21453
G1 X75.606 Y100.494 E29.32459
G1 X75.483 Y100.229 E29.33913
G1 X74.691 Y98.173 E29.44878
G1 X74.603 Y97.891 E29.46348
G1 X74.094 Y95.745 E29.57324
G1 X74.046 Y95.458 E29.58772
G1 X73.825 Y93.266 E29.69736
G1 X73.815 Y92.972 E29.712
G1 X73.889 Y90.777 E29.8213
G1 X73.913 Y90.522 E29.83404
G1 X74.162 Y88.881 E29.91664
G1 X74.215 Y88.63 E29.92941
G1 X74.796 Y86.511 E30.03876
G1 X74.892 Y86.236 E30.05325
G1 X75.751 Y84.206 E30.16295
G1 X75.884 Y83.942 E30.17766
G1 X77.012 Y82.039 E30.28775
G1 X77.133 Y81.856 E30.29867
G1 X77.784 Y80.972 E30.3533
G1 X77.899 Y80.829 E30.36243
G1 X78.984 Y79.588 E30.44447
G1 X79.136 Y79.431 E30.45534
M204 S5000
G0 F2400 X79.409 Y79.722
M204 S200
G1 F1200 X80.616 Y78.592 E30.53763
G1 X80.778 Y78.457 E30.54812
G1 X82.561 Y77.143 E30.65834
G1 X82.737 Y77.028 E30.66881
