; generated by Slic3r 1.2.9 on 2017-09-08 at 14:50:48

; external perimeters extrusion width = 0.30mm
; perimeters extrusion width = 0.50mm
; infill extrusion width = 0.50mm
; solid infill extrusion width = 0.50mm
; top infill extrusion width = 0.50mm

M107
M190 S185 ; set bed temperature
M104 S220 ; set temperature
G28
G21
G90
G92 E0
M109 S220 ; wait for temperature to be reached
G21 ; set units to millimeters
G90 ; use absolute coordinates
M82 ; use absolute distances for extrusion
G92 E0
G1 Z0.300 F7800.000
G1 E-2.00000 F2400.00000
G92 E0
G1 X70.093 Y100.246 F7800.000
G1 E2.00000 F2400.00000
G1 X86.200 Y90.346 E3.26302 F1800.000
G1 X86.630 Y90.104 E3.29598
G1 X88.428 Y89.178 E3.43113
G1 X89.384 Y88.778 E3.50035
G1 X91.221 Y88.175 E3.62950
G1 X92.227 Y87.932 E3.69866
G1 X94.080 Y87.636 E3.82399
G1 X95.087 Y87.554 E3.89152
G1 X96.933 Y87.548 E4.01483
G1 X97.902 Y87.617 E4.07969
G1 X99.718 Y87.882 E4.20231 F1800.000
G1 X100.264 Y87.986 E4.23943
G1 X126.007 Y94.020 E6.00585
G1 X128.591 Y94.667 E6.18382
G1 X131.304 Y95.473 E6.37285
G1 X133.947 Y96.393 E6.55980
G1 X136.769 Y97.532 E6.76309
G1 X147.620 Y102.456 E7.55916
G1 X148.572 Y102.948 E7.63079
G1 X149.273 Y103.390 E7.68609
G1 X149.548 Y103.584 E7.70863
G1 X150.207 Y104.106 E7.76478
G1 X150.715 Y104.575 E7.81095
G1 X151.135 Y105.005 E7.85111
G1 X151.703 Y105.672 E7.90966
G1 X152.053 Y106.143 E7.94888
G1 X152.523 Y106.872 E8.00675
G1 X152.802 Y107.377 E8.04532
G1 X153.166 Y108.149 E8.10234
G1 X153.376 Y108.680 E8.14047
G1 X153.633 Y109.481 E8.19673
G1 X153.771 Y110.031 E8.23461
G1 X153.923 Y110.851 E8.29028
G1 X153.990 Y111.413 E8.32810
G1 X154.035 Y112.243 E8.38363
G1 X154.030 Y112.808 E8.42138
G1 X153.970 Y113.640 E8.47710
G1 X153.893 Y114.202 E8.51501
G1 X153.725 Y115.028 E8.57130
G1 X153.575 Y115.579 E8.60944
G1 X153.297 Y116.387 E8.66652
G1 X153.074 Y116.919 E8.70507
G1 X152.687 Y117.695 E8.76302
G1 X152.391 Y118.202 E8.80222
G1 X151.898 Y118.927 E8.86083
G1 X151.528 Y119.401 E8.90099
G1 X150.988 Y120.010 E8.95534
G1 X150.622 Y120.373 E8.98981
G1 X150.057 Y120.874 E9.04020
G1 X149.661 Y121.186 E9.07392
G1 X149.048 Y121.614 E9.12384
G1 X148.626 Y121.875 E9.15703
G1 X147.977 Y122.226 E9.20633
G1 X147.532 Y122.435 E9.23914
G1 X146.857 Y122.708 E9.28780
G1 X146.009 Y122.983 E9.34733
G1 X132.001 Y126.807 E10.31740
G1 X129.510 Y127.419 E10.48874
G1 X126.572 Y128.003 E10.68886
G1 X98.703 Y132.260 E12.57223
G1 X98.135 Y132.321 E12.61044
G1 X96.299 Y132.439 E12.73337
G1 X95.326 Y132.429 E12.79834
G1 X93.483 Y132.271 E12.92194
G1 X92.483 Y132.107 E12.98960
G1 X90.657 Y131.660 E13.11522
G1 X89.672 Y131.334 E13.18454
G1 X87.887 Y130.581 E13.31396
G1 X86.964 Y130.103 E13.38337
G1 X85.245 Y129.029 E13.51880
G1 X84.831 Y128.748 E13.55226
G1 X72.793 Y119.880 E14.55109
G1 X70.985 Y117.844 E14.73302
G1 X66.816 Y110.497 E15.29733
G1 X66.054 Y108.350 E15.44950
G1 X66.075 Y106.072 E15.60167
G1 X66.478 Y104.731 E15.69525
G1 X66.825 Y103.910 E15.75480
G1 X68.344 Y101.712 E15.93328
G1 X69.014 Y101.077 E15.99495
G1 X70.058 Y100.274 E16.08292
G1 E14.08292 F2400.00000
G92 E0
G1 X143.273 Y115.753 F7800.000
G1 E2.00000 F2400.00000
G1 X142.847 Y115.749 E2.02845 F1800.000
G1 X142.424 Y115.691 E2.05699
G1 X142.008 Y115.579 E2.08574
G1 X141.607 Y115.411 E2.11482
G1 X141.225 Y115.188 E2.14437
G1 X140.869 Y114.909 E2.17458
G1 X140.553 Y114.586 E2.20480
G1 X140.289 Y114.230 E2.23436
G1 X140.078 Y113.850 E2.26344
G1 X139.920 Y113.449 E2.29219
G1 X139.816 Y113.035 E2.32073
G1 X139.765 Y112.612 E2.34918
G1 X139.769 Y112.186 E2.37762
G1 X139.827 Y111.763 E2.40616
G1 X139.940 Y111.348 E2.43491
G1 X140.108 Y110.946 E2.46398
G1 X140.331 Y110.564 E2.49352
G1 X140.609 Y110.208 E2.52372
G1 X140.933 Y109.892 E2.55393
G1 X141.288 Y109.629 E2.58349
G1 X141.669 Y109.418 E2.61257
G1 X142.069 Y109.260 E2.64132
G1 X142.484 Y109.156 E2.66987
G1 X142.882 Y109.108 E2.69669 F1800.000
G1 X143.331 Y109.109 E2.72669
G1 X143.756 Y109.167 E2.75531
G1 X144.171 Y109.280 E2.78407
G1 X144.573 Y109.448 E2.81315
G1 X144.955 Y109.671 E2.84271
G1 X145.311 Y109.949 E2.87293
G1 X145.627 Y110.273 E2.90313
G1 X145.891 Y110.628 E2.93269
G1 X146.102 Y111.009 E2.96176
G1 X146.260 Y111.409 E2.99050
G1 X146.364 Y111.823 E3.01904
G1 X146.414 Y112.246 E3.04748
G1 X146.410 Y112.672 E3.07593
G1 X146.352 Y113.095 E3.10447
G1 X146.240 Y113.510 E3.13322
G1 X146.072 Y113.912 E3.16229
G1 X145.848 Y114.294 E3.19185
G1 X145.570 Y114.650 E3.22207
G1 X145.246 Y114.966 E3.25227
G1 X144.891 Y115.230 E3.28182
G1 X144.510 Y115.441 E3.31089
G1 X144.110 Y115.598 E3.33964
G1 X143.696 Y115.703 E3.36818
G1 X143.318 Y115.748 E3.39362
G1 X143.132 Y116.018 F7800.000
G1 X97.421 Y118.178 F7800.000
G1 X94.272 Y116.921 E3.62010 F1800.000
G1 X92.623 Y116.219 E3.73987
G1 X91.389 Y116.817 E3.83145
G1 X91.014 Y116.968 E3.85846
G1 X90.401 Y117.150 E3.90118
G1 X90.005 Y117.222 E3.92804
G1 X89.554 Y117.262 E3.95835
G1 X88.479 Y117.273 E4.03015
G1 X87.464 Y117.142 E4.09854
G1 X86.445 Y116.889 E4.16865
G1 X85.420 Y116.532 E4.24116
G1 X84.394 Y116.098 E4.31561
G1 X81.242 Y114.574 E4.54945
G1 X80.165 Y114.096 E4.62822
G1 X79.171 Y113.728 E4.69902
G1 X80.151 Y112.981 E4.78139
G1 X80.668 Y112.528 E4.82729
G1 X81.146 Y112.006 E4.87453
G1 X81.574 Y111.261 E4.93199
G1 X81.606 Y110.581 E4.97745
G1 X81.567 Y109.498 E5.04982
G1 X80.923 Y108.413 E5.13411
G1 X80.020 Y107.692 E5.21134
G1 X79.021 Y107.199 E5.28576
G1 X77.963 Y106.841 E5.36036
G1 X76.879 Y106.573 E5.43492
G1 X76.485 Y106.499 E5.46177
G1 X76.486 Y106.231 E5.47966
G1 X77.022 Y106.135 E5.51606
G1 X78.270 Y106.007 E5.59985
G1 X79.554 Y105.938 E5.68576
G1 X83.011 Y105.868 E5.91673
G1 X83.912 Y105.801 E5.97714
G1 X84.846 Y105.563 E6.04148
G1 X85.738 Y104.640 E6.12728
G1 X85.574 Y103.369 E6.21287
G1 X84.986 Y102.731 E6.27086
G1 X84.224 Y102.230 E6.33174
G1 X85.403 Y102.109 E6.41093
G1 X86.182 Y102.071 E6.46303
G1 X86.989 Y102.075 E6.51695
G1 X87.820 Y102.124 E6.57257
G1 X88.722 Y102.229 E6.63323
G1 X89.956 Y102.464 E6.71711
G1 X91.022 Y102.775 E6.79129
G1 X91.817 Y103.095 E6.84859
G1 X92.514 Y103.643 E6.90779
G1 X94.481 Y102.973 E7.04662
G1 X97.862 Y101.919 E7.28320
G1 X95.906 Y99.850 E7.47338
G1 X95.376 Y99.372 E7.52107
G1 X94.796 Y98.933 E7.56966
G1 X94.163 Y98.537 E7.61953
G1 X93.381 Y98.147 E7.67793
G1 X92.574 Y97.842 E7.73555
G1 X91.752 Y97.622 E7.79237
G1 X90.923 Y97.485 E7.84856
G1 X89.888 Y97.418 E7.91781
G1 X90.345 Y97.085 E7.95555
G1 X91.952 Y96.257 E8.07632
G1 X93.581 Y95.723 E8.19089
G1 X95.221 Y95.461 E8.30184
G1 X96.859 Y95.455 E8.41121
G1 X98.477 Y95.692 E8.52051
G1 X100.059 Y96.158 E8.63069
G1 X101.583 Y96.842 E8.74225
G1 X103.026 Y97.728 E8.85538
G1 X104.364 Y98.803 E8.97003
G1 X106.077 Y100.564 E9.13415
G1 X108.515 Y100.397 E9.29739
G1 X109.705 Y100.346 E9.37695
G1 X111.523 Y100.316 E9.49841
G1 X112.736 Y100.329 E9.57946
G1 X113.952 Y100.366 E9.66073
G1 X116.597 Y100.537 E9.83779
G1 X119.187 Y100.821 E10.01189
G1 X121.727 Y101.217 E10.18363
G1 X124.212 Y101.721 E10.35305
G1 X126.639 Y102.329 E10.52017
G1 X129.003 Y103.038 E10.68502
G1 X131.299 Y103.844 E10.84761
G1 X133.525 Y104.742 E11.00794
G1 X135.674 Y105.731 E11.16600
G1 X137.744 Y106.805 E11.32180
G1 X139.730 Y107.962 E11.47533
G1 X140.800 Y108.657 E11.56055
G1 X140.236 Y109.075 E11.60742
G1 X139.809 Y109.492 E11.64726
G1 X139.442 Y109.962 E11.68708
G1 X139.147 Y110.467 E11.72621
G1 X138.924 Y110.999 E11.76473
G1 X138.775 Y111.549 E11.80278
G1 X138.698 Y112.109 E11.84052
G1 X138.694 Y112.671 E11.87810
G1 X138.760 Y113.230 E11.91568
G1 X138.898 Y113.778 E11.95342
G1 X139.107 Y114.308 E11.99148
G1 X139.386 Y114.812 E12.03000
G1 X139.796 Y115.363 E12.07589
G1 X138.385 Y116.075 E12.18144
G1 X136.368 Y116.977 E12.32905
G1 X134.283 Y117.797 E12.47872
G1 X132.134 Y118.531 E12.63045
G1 X129.924 Y119.177 E12.78424
G1 X127.659 Y119.732 E12.94009
G1 X125.340 Y120.193 E13.09800
G1 X122.973 Y120.557 E13.25799
G1 X120.561 Y120.822 E13.42007
G1 X118.109 Y120.984 E13.58427
G1 X115.619 Y121.041 E13.75063
G1 X113.089 Y120.989 E13.91972
G1 X111.919 Y120.929 E13.99800
G1 X110.753 Y120.844 E14.07606
G1 X109.010 Y120.673 E14.19308
G1 X107.871 Y120.533 E14.26975
G1 X105.519 Y120.182 E14.42861
G1 X103.668 Y121.804 E14.59302
G1 X102.243 Y122.770 E14.70798
G1 X100.730 Y123.539 E14.82141
G1 X99.151 Y124.099 E14.93328
G1 X97.533 Y124.437 E15.04376
G1 X95.896 Y124.542 E15.15334
G1 X94.260 Y124.402 E15.26298
G1 X92.644 Y124.006 E15.37418
G1 X91.060 Y123.338 E15.48900
G1 X89.524 Y122.379 E15.61001
G1 X89.090 Y122.003 E15.64834
G1 X90.126 Y122.023 E15.71757
G1 X90.964 Y121.956 E15.77376
G1 X91.801 Y121.805 E15.83058
G1 X92.631 Y121.568 E15.88821
G1 X93.442 Y121.245 E15.94657
G1 X94.105 Y120.904 E15.99633
G1 X94.719 Y120.516 E16.04485
G1 X95.287 Y120.085 E16.09246
G1 X97.387 Y118.208 E16.28067
G1 X96.419 Y118.355 F7800.000
G1 X94.068 Y117.416 E16.44979 F1800.000
G1 X92.637 Y116.807 E16.55368
G1 X91.606 Y117.307 E16.63021
G1 X91.191 Y117.474 E16.66015
G1 X90.526 Y117.672 E16.70650
G1 X90.077 Y117.753 E16.73693
G1 X89.580 Y117.797 E16.77027
G1 X88.447 Y117.809 E16.84596
G1 X87.364 Y117.670 E16.91890
G1 X86.292 Y117.403 E16.99272
G1 X85.227 Y117.032 E17.06803
G1 X84.173 Y116.586 E17.14455
G1 X81.017 Y115.060 E17.37870
G1 X79.963 Y114.592 E17.45574
G1 X78.896 Y114.198 E17.53172
G1 X77.995 Y113.962 E17.59393
G1 X79.812 Y112.566 E17.74697
G1 X80.293 Y112.144 E17.78970
G1 X80.711 Y111.688 E17.83103
G1 X81.045 Y111.106 E17.87588
G1 X81.070 Y110.578 E17.91121
G1 X81.037 Y109.654 E17.97294
G1 X80.512 Y108.771 E18.04158
G1 X79.731 Y108.146 E18.10840
G1 X78.815 Y107.695 E18.17658
G1 X77.813 Y107.355 E18.24732
G1 X76.766 Y107.097 E18.31937
G1 X75.725 Y106.901 E18.39012
G1 X74.157 Y106.679 E18.49591
G1 X74.116 Y106.446 E18.51174
G1 X74.758 Y106.118 E18.55986
G1 X75.765 Y105.816 E18.63014
G1 X76.948 Y105.605 E18.71039
G1 X78.228 Y105.473 E18.79638
G1 X79.534 Y105.403 E18.88376
G1 X82.985 Y105.332 E19.11436
G1 X83.826 Y105.270 E19.17067
G1 X84.566 Y105.082 E19.22171
G1 X85.174 Y104.453 E19.28013
G1 X85.065 Y103.606 E19.33714
G1 X84.637 Y103.142 E19.37933
G1 X84.211 Y102.862 E19.41338
G1 X83.746 Y102.630 E19.44807
G1 X82.829 Y102.268 E19.51394
G1 X82.838 Y102.040 E19.52917
G1 X83.255 Y101.912 E19.55833
G1 X83.890 Y101.768 E19.60181
G1 X84.598 Y101.653 E19.64970
G1 X85.363 Y101.575 E19.70108
G1 X86.171 Y101.535 E19.75511
G1 X87.007 Y101.539 E19.81096
G1 X87.864 Y101.590 E19.86831
G1 X88.804 Y101.699 E19.93153
G1 X89.690 Y101.855 E19.99167
G1 X90.086 Y101.944 E20.01877
G1 X90.862 Y102.158 E20.07255
G1 X91.203 Y102.271 E20.09658
G1 X92.098 Y102.635 E20.16106
G1 X92.616 Y103.043 E20.20515
G1 X94.315 Y102.464 E20.32502
G1 X96.883 Y101.663 E20.50473
G1 X95.532 Y100.234 E20.63613
G1 X95.034 Y99.786 E20.68085
G1 X94.491 Y99.375 E20.72634
G1 X93.901 Y99.005 E20.77288
G1 X93.166 Y98.639 E20.82775
G1 X92.409 Y98.352 E20.88178
G1 X91.639 Y98.146 E20.93504
G1 X90.861 Y98.018 E20.98771
G1 X90.082 Y97.967 E21.03992
G1 X89.305 Y97.992 E21.09181
G1 X88.453 Y98.101 E21.14924
G1 X88.360 Y97.869 E21.16589
G1 X90.063 Y96.628 E21.30665
G1 X91.744 Y95.761 E21.43303
G1 X93.455 Y95.200 E21.55329
G1 X95.178 Y94.925 E21.66986
G1 X96.897 Y94.919 E21.78467
G1 X98.593 Y95.167 E21.89917
G1 X100.246 Y95.655 E22.01430
G1 X101.834 Y96.367 E22.13060
G1 X103.335 Y97.290 E22.24828
G1 X104.725 Y98.405 E22.36739
G1 X106.288 Y100.012 E22.51714
G1 X108.485 Y99.862 E22.66426
G1 X109.689 Y99.811 E22.74475
G1 X111.521 Y99.781 E22.86715
G1 X112.747 Y99.793 E22.94905
G1 X113.977 Y99.831 E23.03129
G1 X116.643 Y100.003 E23.20976
G1 X119.258 Y100.290 E23.38547
G1 X121.822 Y100.690 E23.55883
G1 X124.331 Y101.199 E23.72987
G1 X126.781 Y101.813 E23.89863
G1 X129.168 Y102.529 E24.06513
G1 X131.488 Y103.342 E24.22937
G1 X133.737 Y104.251 E24.39137
G1 X135.910 Y105.250 E24.55113
G1 X138.003 Y106.336 E24.70865
G1 X140.011 Y107.505 E24.86394
G1 X141.916 Y108.745 E25.01576
G1 X141.440 Y108.932 E25.04996
G1 X140.997 Y109.177 E25.08376
G1 X140.585 Y109.484 E25.11810
G1 X140.209 Y109.850 E25.15313
G1 X139.887 Y110.263 E25.18814
G1 X139.627 Y110.707 E25.22248
G1 X139.432 Y111.174 E25.25627
G1 X139.301 Y111.656 E25.28967
G1 X139.234 Y112.147 E25.32281
G1 X139.229 Y112.642 E25.35582
G1 X139.288 Y113.132 E25.38884
G1 X139.409 Y113.613 E25.42198
G1 X139.592 Y114.079 E25.45538
G1 X139.838 Y114.521 E25.48918
G1 X140.144 Y114.934 E25.52353
G1 X140.510 Y115.309 E25.55856
G1 X140.739 Y115.488 E25.57793
G1 X138.615 Y116.559 E25.73682
G1 X136.576 Y117.471 E25.88609
G1 X134.468 Y118.299 E26.03739
G1 X132.296 Y119.042 E26.19073
G1 X130.063 Y119.694 E26.34612
G1 X127.775 Y120.255 E26.50354
G1 X125.433 Y120.721 E26.66302
G1 X123.043 Y121.088 E26.82457
G1 X120.608 Y121.355 E26.98820
G1 X118.133 Y121.519 E27.15395
G1 X115.620 Y121.577 E27.32185
G1 X113.070 Y121.525 E27.49227
G1 X110.708 Y121.378 E27.65036
G1 X108.951 Y121.206 E27.76828
G1 X107.799 Y121.063 E27.84585
G1 X105.685 Y120.749 E27.98859
G1 X103.996 Y122.229 E28.13864
G1 X102.516 Y123.232 E28.25807
G1 X100.941 Y124.032 E28.37607
G1 X99.296 Y124.616 E28.49268
G1 X97.605 Y124.969 E28.60812
G1 X95.890 Y125.079 E28.72291
G1 X94.173 Y124.932 E28.83800
G1 X92.475 Y124.516 E28.95483
G1 X90.813 Y123.815 E29.07535
G1 X89.205 Y122.811 E29.20200
G1 X87.603 Y121.426 E29.34346
G1 X87.715 Y121.202 E29.36011
G1 X88.557 Y121.383 E29.41764
G1 X89.328 Y121.472 E29.46953
G1 X90.110 Y121.487 E29.52174
G1 X90.895 Y121.424 E29.57441
G1 X91.680 Y121.283 E29.62767
G1 X92.458 Y121.060 E29.68170
G1 X93.220 Y120.757 E29.73654
G1 X93.839 Y120.439 E29.78299
G1 X94.413 Y120.075 E29.82841
G1 X94.946 Y119.672 E29.87305
G1 X96.386 Y118.385 E30.00205
G1 X95.417 Y118.532 F7800.000
G1 X93.864 Y117.912 E30.11381 F1800.000
G1 X92.652 Y117.395 E30.20182
G1 X91.823 Y117.797 E30.26331
G1 X91.367 Y117.981 E30.29616
G1 X90.650 Y118.193 E30.34615
G1 X90.149 Y118.284 E30.38015
G1 X89.607 Y118.333 E30.41653
G1 X88.416 Y118.345 E30.49609
G1 X87.265 Y118.197 E30.57360
G1 X86.139 Y117.917 E30.65112
G1 X85.035 Y117.532 E30.72922
G1 X83.952 Y117.074 E30.80782
G1 X80.792 Y115.546 E31.04227
G1 X79.761 Y115.089 E31.11759
G1 X78.735 Y114.709 E31.19068
G1 X77.709 Y114.441 E31.26156
G1 X76.872 Y114.340 E31.31788
G1 X77.154 Y113.992 E31.34781
G1 X77.507 Y113.667 E31.37987
G1 X79.472 Y112.151 E31.54568
G1 X79.917 Y111.761 E31.58525
G1 X80.276 Y111.370 E31.62066
G1 X80.516 Y110.951 E31.65291
G1 X80.534 Y110.575 E31.67811
G1 X80.507 Y109.810 E31.72920
G1 X80.101 Y109.128 E31.78219
G1 X79.442 Y108.601 E31.83860
G1 X78.610 Y108.191 E31.90054
G1 X77.662 Y107.870 E31.96741
G1 X76.652 Y107.620 E32.03694
G1 X75.636 Y107.429 E32.10602
G1 X74.673 Y107.285 E32.17106
G1 X72.915 Y107.060 E32.28947
G1 X73.098 Y106.625 E32.32108
G1 X73.691 Y106.062 E32.37566
G1 X74.557 Y105.619 E32.44065
G1 X75.641 Y105.294 E32.51623
G1 X76.873 Y105.074 E32.59987
G1 X78.186 Y104.939 E32.68806
G1 X79.514 Y104.868 E32.77690
G1 X82.960 Y104.797 E33.00713
G1 X83.739 Y104.739 E33.05935
G1 X84.287 Y104.600 E33.09709
G1 X84.610 Y104.266 E33.12814
G1 X84.555 Y103.844 E33.15655
G1 X84.288 Y103.554 E33.18294
G1 X83.943 Y103.327 E33.21049
G1 X83.528 Y103.119 E33.24151
G1 X82.598 Y102.752 E33.30826
G1 X81.716 Y102.467 E33.37020
G1 X81.262 Y102.343 E33.40166
G1 X81.664 Y101.994 E33.43723
G1 X82.039 Y101.778 E33.46616
G1 X82.529 Y101.575 E33.50159
G1 X83.117 Y101.394 E33.54269
G1 X83.788 Y101.241 E33.58866
G1 X84.528 Y101.122 E33.63871
G1 X85.322 Y101.040 E33.69208
G1 X86.159 Y101.000 E33.74802
G1 X87.024 Y101.004 E33.80581
G1 X87.907 Y101.056 E33.86489
G1 X88.405 Y101.107 E33.89839
G1 X88.885 Y101.169 E33.93068
G1 X89.795 Y101.330 E33.99245
G1 X90.216 Y101.424 E34.02125
G1 X91.018 Y101.645 E34.07681
G1 X91.385 Y101.767 E34.10268
G1 X92.378 Y102.174 E34.17434
G1 X92.719 Y102.442 E34.20332
G1 X94.149 Y101.955 E34.30423
G1 X95.904 Y101.407 E34.42707
G1 X95.157 Y100.617 E34.49969
G1 X94.693 Y100.199 E34.54145
G1 X94.187 Y99.816 E34.58382
G1 X93.639 Y99.473 E34.62705
G1 X92.951 Y99.130 E34.67838
G1 X92.245 Y98.863 E34.72882
G1 X91.526 Y98.670 E34.77852
G1 X90.800 Y98.551 E34.82766
G1 X90.073 Y98.503 E34.87639
G1 X89.348 Y98.526 E34.92484
G1 X88.631 Y98.618 E34.97310
G1 X87.928 Y98.777 E35.02127
