; generated by Slic3r 1.2.9 on 2017-09-08 at 14:55:25

; external perimeters extrusion width = 0.40mm
; perimeters extrusion width = 0.67mm
; infill extrusion width = 0.67mm
; solid infill extrusion width = 0.67mm
; top infill extrusion width = 0.67mm

M107
M190 S185 ; set bed temperature
M104 S220 ; set temperature
G28
G21
G90
G92 E0
M109 S220 ; wait for temperature to be reached
G21 ; set units to millimeters
G90 ; use absolute coordinates
M82 ; use absolute distances for extrusion
G92 E0
G1 Z0.300 F7800.000
G1 E-2.00000 F2400.00000
G92 E0
G1 X11.100 Y76.764 F7800.000
G1 E2.00000 F2400.00000
G1 X188.900 Y76.764 E13.87800 F1800.000
G1 X191.143 Y77.161 E14.03017
G1 X193.113 Y78.303 E14.18234 F1800.000
G1 X194.572 Y80.053 E14.33452
G1 X195.436 Y83.299 E14.55894
G1 X195.436 Y116.700 E16.79031
G1 X195.039 Y118.943 E16.94248
G1 X193.896 Y120.914 E17.09465
G1 X192.147 Y122.373 E17.24683
G1 X188.900 Y123.236 E17.47126
G1 X11.100 Y123.236 E29.34926
G1 X8.857 Y122.839 E29.50143
G1 X6.887 Y121.697 E29.65360
G1 X5.428 Y119.947 E29.80577
G1 X4.564 Y116.700 E30.03020
G1 X4.564 Y83.299 E32.26157
G1 X4.961 Y81.057 E32.41374
G1 X6.104 Y79.086 E32.56591
G1 X7.853 Y77.627 E32.71808
G1 X11.042 Y76.779 E32.93850
G1 E30.93850 F2400.00000
G92 E0
G1 X12.471 Y115.329 F7800.000
G1 E2.00000 F2400.00000
G1 X12.471 Y84.671 E4.04816 F1800.000
G1 X187.529 Y84.671 E15.74294
G1 X187.529 Y115.329 E17.79110
G1 X12.531 Y115.329 E29.48188
G1 X11.936 Y115.865 F7800.000
G1 X11.936 Y84.135 E31.60160 F1800.000
G1 X188.064 Y84.135 E43.36796
G1 X188.064 Y115.865 E45.48767
G1 X11.996 Y115.865 E57.25002
G1 X11.400 Y116.400 F7800.000
G1 X11.400 Y83.599 E59.44130 F1800.000
G1 X188.600 Y83.599 E71.27922
G1 X188.600 Y116.400 E73.47051
G1 X11.460 Y116.400 E85.30442
G1 X11.600 Y116.054 F7800.000
G1 X12.793 Y113.983 F7800.000
G1 X13.818 Y115.008 E85.40132 F1800.000
G1 X14.576 Y115.008 E85.45199
G1 X12.793 Y113.225 E85.62056
G1 X12.793 Y112.467 E85.67123
G1 X15.334 Y115.008 E85.91145
G1 X16.092 Y115.008 E85.96212
G1 X12.793 Y111.709 E86.27400
G1 X12.793 Y110.951 E86.32467
G1 X16.850 Y115.008 E86.70820
G1 X17.608 Y115.008 E86.75887
G1 X12.793 Y110.193 E87.21407
G1 X12.793 Y109.435 E87.26474
G1 X18.366 Y115.008 E87.79159
G1 X19.124 Y115.008 E87.84226
G1 X12.793 Y108.677 E88.44077
G1 X12.793 Y107.919 E88.49144
G1 X19.882 Y115.008 E89.16161
G1 X20.640 Y115.008 E89.21228
G1 X12.793 Y107.161 E89.95411
G1 X12.793 Y106.403 E90.00478
G1 X21.398 Y115.008 E90.81826
G1 X22.156 Y115.008 E90.86893
G1 X12.793 Y105.645 E91.75407
G1 X12.793 Y104.887 E91.80474
G1 X22.914 Y115.008 E92.76155
G1 X23.672 Y115.008 E92.81222
G1 X12.793 Y104.129 E93.84067
G1 X12.793 Y103.371 E93.89134
G1 X24.430 Y115.008 E94.99146
G1 X25.188 Y115.008 E95.04213
G1 X12.793 Y102.613 E96.21391
G1 X12.793 Y101.855 E96.26458
G1 X25.945 Y115.008 E97.50801
G1 X26.703 Y115.008 E97.55868
G1 X12.793 Y101.097 E98.87377
G1 X12.793 Y100.339 E98.92444
G1 X27.461 Y115.008 E100.31119
G1 X28.219 Y115.008 E100.36186
G1 X12.793 Y99.581 E101.82027
G1 X12.793 Y98.823 E101.87094
G1 X28.977 Y115.008 E103.40100
G1 X29.735 Y115.008 E103.45167
G1 X12.793 Y98.065 E105.05339
G1 X12.793 Y97.307 E105.10406
G1 X30.493 Y115.008 E106.77745
G1 X31.251 Y115.008 E106.82812
G1 X12.793 Y96.549 E108.57315
G1 X12.793 Y95.791 E108.62382
G1 X32.009 Y115.008 E110.44052
G1 X32.767 Y115.008 E110.49119
G1 X12.793 Y95.033 E112.37955
G1 X12.793 Y94.275 E112.43022
G1 X33.525 Y115.008 E114.39023
G1 X34.283 Y115.008 E114.44090
G1 X12.793 Y93.517 E116.47257
G1 X12.793 Y92.759 E116.52324
G1 X35.041 Y115.008 E118.62657
G1 X35.799 Y115.008 E118.67724
G1 X12.793 Y92.001 E120.85223
G1 X12.793 Y91.243 E120.90290
G1 X36.557 Y115.008 E123.14954
G1 X37.315 Y115.008 E123.20021
G1 X12.793 Y90.485 E125.51851
G1 X12.793 Y89.727 E125.56918
G1 X38.073 Y115.008 E127.95915
G1 X38.831 Y115.008 E128.00982
G1 X12.793 Y88.969 E130.47143
G1 X12.793 Y88.211 E130.52210
G1 X39.589 Y115.008 E133.05538
G1 X40.347 Y115.008 E133.10605
G1 X12.793 Y87.453 E135.71099
G1 X12.793 Y86.696 E135.76166
G1 X41.105 Y115.008 E138.43825
G1 X41.863 Y115.008 E138.48892
G1 X12.793 Y85.938 E141.23717
G1 X12.793 Y85.180 E141.28784
G1 X42.621 Y115.008 E144.10775
G1 X43.379 Y115.008 E144.15842
G1 X13.364 Y84.992 E146.99603
G1 X14.122 Y84.992 E147.04670
G1 X44.137 Y115.008 E149.88430
G1 X44.895 Y115.008 E149.93497
G1 X14.880 Y84.992 E152.77258
G1 X15.638 Y84.992 E152.82325
G1 X45.653 Y115.008 E155.66085
G1 X46.411 Y115.008 E155.71152
G1 X16.396 Y84.992 E158.54913
G1 X17.154 Y84.992 E158.59980
G1 X47.169 Y115.008 E161.43740
G1 X47.927 Y115.008 E161.48807
G1 X17.912 Y84.992 E164.32568
G1 X18.669 Y84.992 E164.37635
G1 X48.685 Y115.008 E167.21395
G1 X49.443 Y115.008 E167.26462
G1 X19.427 Y84.992 E170.10223
G1 X20.185 Y84.992 E170.15290
G1 X50.201 Y115.008 E172.99051
G1 X50.959 Y115.008 E173.04118
G1 X20.943 Y84.992 E175.87878
G1 X21.701 Y84.992 E175.92945
G1 X51.717 Y115.008 E178.76706
G1 X52.475 Y115.008 E178.81773
G1 X22.459 Y84.992 E181.65533
G1 X23.217 Y84.992 E181.70600
G1 X53.233 Y115.008 E184.54361
G1 X53.991 Y115.008 E184.59428
G1 X23.975 Y84.992 E187.43188
G1 X24.733 Y84.992 E187.48255
G1 X54.749 Y115.008 E190.32016
G1 X55.507 Y115.008 E190.37083
G1 X25.491 Y84.992 E193.20843
G1 X26.249 Y84.992 E193.25910
G1 X56.264 Y115.008 E196.09671
G1 X57.022 Y115.008 E196.14738
G1 X27.007 Y84.992 E198.98498
G1 X27.765 Y84.992 E199.03565
G1 X57.780 Y115.008 E201.87326
G1 X58.538 Y115.008 E201.92393
G1 X28.523 Y84.992 E204.76154
G1 X29.281 Y84.992 E204.81221
G1 X59.296 Y115.008 E207.64981
G1 X60.054 Y115.008 E207.70048
G1 X30.039 Y84.992 E210.53809
G1 X30.797 Y84.992 E210.58876
G1 X60.812 Y115.008 E213.42636
G1 X61.570 Y115.008 E213.47703
G1 X31.555 Y84.992 E216.31464
G1 X32.313 Y84.992 E216.36531
G1 X62.328 Y115.008 E219.20291
G1 X63.086 Y115.008 E219.25358
G1 X33.071 Y84.992 E222.09119
G1 X33.829 Y84.992 E222.14186
G1 X63.844 Y115.008 E224.97946
G1 X64.602 Y115.008 E225.03013
G1 X34.587 Y84.992 E227.86774
G1 X35.345 Y84.992 E227.91841
G1 X65.360 Y115.008 E230.75602
G1 X66.118 Y115.008 E230.80669
G1 X36.103 Y84.992 E233.64429
G1 X36.861 Y84.992 E233.69496
G1 X66.876 Y115.008 E236.53257
G1 X67.634 Y115.008 E236.58324
G1 X37.619 Y84.992 E239.42084
G1 X38.377 Y84.992 E239.47151
G1 X68.392 Y115.008 E242.30912
G1 X69.150 Y115.008 E242.35979
G1 X39.135 Y84.992 E245.19739
G1 X39.893 Y84.992 E245.24806
G1 X69.908 Y115.008 E248.08567
G1 X70.666 Y115.008 E248.13634
G1 X40.651 Y84.992 E250.97394
G1 X41.409 Y84.992 E251.02461
G1 X71.424 Y115.008 E253.86222
G1 X72.182 Y115.008 E253.91289
G1 X42.167 Y84.992 E256.75049
G1 X42.925 Y84.992 E256.80116
G1 X72.940 Y115.008 E259.63877
G1 X73.698 Y115.008 E259.68944
G1 X43.683 Y84.992 E262.52705
G1 X44.441 Y84.992 E262.57772
G1 X74.456 Y115.008 E265.41532
G1 X75.214 Y115.008 E265.46599
G1 X45.199 Y84.992 E268.30360
G1 X45.957 Y84.992 E268.35427
G1 X75.972 Y115.008 E271.19187
G1 X76.730 Y115.008 E271.24254
G1 X46.715 Y84.992 E274.08015
G1 X47.473 Y84.992 E274.13082
G1 X77.488 Y115.008 E276.96842
G1 X78.246 Y115.008 E277.01909
G1 X48.230 Y84.992 E279.85670
G1 X48.988 Y84.992 E279.90737
G1 X79.004 Y115.008 E282.74497
G1 X79.762 Y115.008 E282.79564
G1 X49.746 Y84.992 E285.63325
G1 X50.504 Y84.992 E285.68392
G1 X80.520 Y115.008 E288.52153
G1 X81.278 Y115.008 E288.57220
G1 X51.262 Y84.992 E291.40980
G1 X52.020 Y84.992 E291.46047
G1 X82.036 Y115.008 E294.29808
G1 X82.794 Y115.008 E294.34875
G1 X52.778 Y84.992 E297.18635
G1 X53.536 Y84.992 E297.23702
G1 X83.552 Y115.008 E300.07463
G1 X84.310 Y115.008 E300.12530
G1 X54.294 Y84.992 E302.96290
G1 X55.052 Y84.992 E303.01357
G1 X85.068 Y115.008 E305.85118
G1 X85.826 Y115.008 E305.90185
G1 X55.810 Y84.992 E308.73945
G1 X56.568 Y84.992 E308.79012
G1 X86.583 Y115.008 E311.62773
G1 X87.341 Y115.008 E311.67840
G1 X57.326 Y84.992 E314.51601
G1 X58.084 Y84.992 E314.56667
G1 X88.099 Y115.008 E317.40428
G1 X88.857 Y115.008 E317.45495
G1 X58.842 Y84.992 E320.29256
G1 X59.600 Y84.992 E320.34323
G1 X89.615 Y115.008 E323.18083
G1 X90.373 Y115.008 E323.23150
G1 X60.358 Y84.992 E326.06911
G1 X61.116 Y84.992 E326.11978
G1 X91.131 Y115.008 E328.95738
G1 X91.889 Y115.008 E329.00805
G1 X61.874 Y84.992 E331.84566
G1 X62.632 Y84.992 E331.89633
G1 X92.647 Y115.008 E334.73393
G1 X93.405 Y115.008 E334.78460
G1 X63.390 Y84.992 E337.62221
G1 X64.148 Y84.992 E337.67288
G1 X94.163 Y115.008 E340.51048
G1 X94.921 Y115.008 E340.56115
G1 X64.906 Y84.992 E343.39876
G1 X65.664 Y84.992 E343.44943
G1 X95.679 Y115.008 E346.28704
G1 X96.437 Y115.008 E346.33771
G1 X66.422 Y84.992 E349.17531
G1 X67.180 Y84.992 E349.22598
G1 X97.195 Y115.008 E352.06359
G1 X97.953 Y115.008 E352.11426
G1 X67.938 Y84.992 E354.95186
G1 X68.696 Y84.992 E355.00253
G1 X98.711 Y115.008 E357.84014
G1 X99.469 Y115.008 E357.89081
G1 X69.454 Y84.992 E360.72841
G1 X70.212 Y84.992 E360.77908
G1 X100.227 Y115.008 E363.61669
G1 X100.985 Y115.008 E363.66736
G1 X70.970 Y84.992 E366.50496
G1 X71.728 Y84.992 E366.55563
G1 X101.743 Y115.008 E369.39324
G1 X102.501 Y115.008 E369.44391
G1 X72.486 Y84.992 E372.28152
G1 X73.244 Y84.992 E372.33219
G1 X103.259 Y115.008 E375.16979
G1 X104.017 Y115.008 E375.22046
G1 X74.002 Y84.992 E378.05807
G1 X74.760 Y84.992 E378.10874
G1 X104.775 Y115.008 E380.94634
G1 X105.533 Y115.008 E380.99701
G1 X75.518 Y84.992 E383.83462
G1 X76.276 Y84.992 E383.88529
G1 X106.291 Y115.008 E386.72289
G1 X107.049 Y115.008 E386.77356
G1 X77.034 Y84.992 E389.61117
G1 X77.792 Y84.992 E389.66184
G1 X107.807 Y115.008 E392.49944
G1 X108.565 Y115.008 E392.55011
G1 X78.549 Y84.992 E395.38772
G1 X79.307 Y84.992 E395.43839
G1 X109.323 Y115.008 E398.27600
G1 X110.081 Y115.008 E398.32667
G1 X80.065 Y84.992 E401.16427
G1 X80.823 Y84.992 E401.21494
G1 X110.839 Y115.008 E404.05255
G1 X111.597 Y115.008 E404.10322
G1 X81.581 Y84.992 E406.94082
G1 X82.339 Y84.992 E406.99149
G1 X112.355 Y115.008 E409.82910
G1 X113.113 Y115.008 E409.87977
G1 X83.097 Y84.992 E412.71737
G1 X83.855 Y84.992 E412.76804
G1 X113.871 Y115.008 E415.60565
G1 X114.629 Y115.008 E415.65632
G1 X84.613 Y84.992 E418.49392
G1 X85.371 Y84.992 E418.54459
G1 X115.387 Y115.008 E421.38220
G1 X116.144 Y115.008 E421.43287
G1 X86.129 Y84.992 E424.27048
G1 X86.887 Y84.992 E424.32115
G1 X116.902 Y115.008 E427.15875
G1 X117.660 Y115.008 E427.20942
G1 X87.645 Y84.992 E430.04703
G1 X88.403 Y84.992 E430.09770
G1 X118.418 Y115.008 E432.93530
G1 X119.176 Y115.008 E432.98597
G1 X89.161 Y84.992 E435.82358
G1 X89.919 Y84.992 E435.87425
G1 X119.934 Y115.008 E438.71185
G1 X120.692 Y115.008 E438.76252
G1 X90.677 Y84.992 E441.60013
G1 X91.435 Y84.992 E441.65080
G1 X121.450 Y115.008 E444.48840
G1 X122.208 Y115.008 E444.53907
G1 X92.193 Y84.992 E447.37668
G1 X92.951 Y84.992 E447.42735
G1 X122.966 Y115.008 E450.26496
G1 X123.724 Y115.008 E450.31563
G1 X93.709 Y84.992 E453.15323
G1 X94.467 Y84.992 E453.20390
G1 X124.482 Y115.008 E456.04151
G1 X125.240 Y115.008 E456.09218
G1 X95.225 Y84.992 E458.92978
G1 X95.983 Y84.992 E458.98045
G1 X125.998 Y115.008 E461.81806
G1 X126.756 Y115.008 E461.86873
G1 X96.741 Y84.992 E464.70633
G1 X97.499 Y84.992 E464.75700
G1 X127.514 Y115.008 E467.59461
G1 X128.272 Y115.008 E467.64528
G1 X98.257 Y84.992 E470.48289
G1 X99.015 Y84.992 E470.53355
G1 X129.030 Y115.008 E473.37116
G1 X129.788 Y115.008 E473.42183
G1 X99.773 Y84.992 E476.25944
G1 X100.531 Y84.992 E476.31011
G1 X130.546 Y115.008 E479.14771
G1 X131.304 Y115.008 E479.19838
G1 X101.289 Y84.992 E482.03599
G1 X102.047 Y84.992 E482.08666
G1 X132.062 Y115.008 E484.92426
G1 X132.820 Y115.008 E484.97493
G1 X102.805 Y84.992 E487.81254
G1 X103.563 Y84.992 E487.86321
G1 X133.578 Y115.008 E490.70081
G1 X134.336 Y115.008 E490.75148
G1 X104.321 Y84.992 E493.58909
G1 X105.079 Y84.992 E493.63976
G1 X135.094 Y115.008 E496.47736
G1 X135.852 Y115.008 E496.52803
G1 X105.837 Y84.992 E499.36564
G1 X106.595 Y84.992 E499.41631
G1 X136.610 Y115.008 E502.25391
G1 X137.368 Y115.008 E502.30458
G1 X107.353 Y84.992 E505.14219
G1 X108.111 Y84.992 E505.19286
G1 X138.126 Y115.008 E508.03047
G1 X138.884 Y115.008 E508.08114
G1 X108.868 Y84.992 E510.91874
G1 X109.626 Y84.992 E510.96941
G1 X139.642 Y115.008 E513.80702
G1 X140.400 Y115.008 E513.85769
G1 X110.384 Y84.992 E516.69529
G1 X111.142 Y84.992 E516.74596
G1 X141.158 Y115.008 E519.58357
G1 X141.916 Y115.008 E519.63424
G1 X111.900 Y84.992 E522.47184
G1 X112.658 Y84.992 E522.52251
G1 X142.674 Y115.008 E525.36012
G1 X143.432 Y115.008 E525.41079
G1 X113.416 Y84.992 E528.24839
G1 X114.174 Y84.992 E528.29906
G1 X144.190 Y115.008 E531.13667
G1 X144.948 Y115.008 E531.18734
G1 X114.932 Y84.992 E534.02494
G1 X115.690 Y84.992 E534.07561
G1 X145.706 Y115.008 E536.91322
G1 X146.463 Y115.008 E536.96389
G1 X116.448 Y84.992 E539.80150
G1 X117.206 Y84.992 E539.85217
G1 X147.221 Y115.008 E542.68977
G1 X147.979 Y115.008 E542.74044
G1 X117.964 Y84.992 E545.57805
G1 X118.722 Y84.992 E545.62872
G1 X148.737 Y115.008 E548.46632
G1 X149.495 Y115.008 E548.51699
G1 X119.480 Y84.992 E551.35460
G1 X120.238 Y84.992 E551.40527
G1 X150.253 Y115.008 E554.24287
G1 X151.011 Y115.008 E554.29354
G1 X120.996 Y84.992 E557.13115
G1 X121.754 Y84.992 E557.18182
G1 X151.769 Y115.008 E560.01942
G1 X152.527 Y115.008 E560.07009
G1 X122.512 Y84.992 E562.90770
G1 X123.270 Y84.992 E562.95837
G1 X153.285 Y115.008 E565.79597
G1 X154.043 Y115.008 E565.84664
G1 X124.028 Y84.992 E568.68425
G1 X124.786 Y84.992 E568.73492
G1 X154.801 Y115.008 E571.57253
G1 X155.559 Y115.008 E571.62320
G1 X125.544 Y84.992 E574.46080
G1 X126.302 Y84.992 E574.51147
G1 X156.317 Y115.008 E577.34908
G1 X157.075 Y115.008 E577.39975
G1 X127.060 Y84.992 E580.23735
G1 X127.818 Y84.992 E580.28802
G1 X157.833 Y115.008 E583.12563
G1 X158.591 Y115.008 E583.17630
G1 X128.576 Y84.992 E586.01390
G1 X129.334 Y84.992 E586.06457
G1 X159.349 Y115.008 E588.90218
G1 X160.107 Y115.008 E588.95285
G1 X130.092 Y84.992 E591.79045
G1 X130.850 Y84.992 E591.84112
G1 X160.865 Y115.008 E594.67873
G1 X161.623 Y115.008 E594.72940
G1 X131.608 Y84.992 E597.56700
G1 X132.366 Y84.992 E597.61767
G1 X162.381 Y115.008 E600.45528
G1 X163.139 Y115.008 E600.50595
G1 X133.124 Y84.992 E603.34355
G1 X133.882 Y84.992 E603.39422
G1 X163.897 Y115.008 E606.23183
G1 X164.655 Y115.008 E606.28250
G1 X134.640 Y84.992 E609.12011
G1 X135.398 Y84.992 E609.17078
G1 X165.413 Y115.008 E612.00838
G1 X166.171 Y115.008 E612.05905
G1 X136.156 Y84.992 E614.89666
G1 X136.914 Y84.992 E614.94733
G1 X166.929 Y115.008 E617.78493
G1 X167.687 Y115.008 E617.83560
G1 X137.672 Y84.992 E620.67321
G1 X138.429 Y84.992 E620.72388
G1 X168.445 Y115.008 E623.56148
G1 X169.203 Y115.008 E623.61215
G1 X139.187 Y84.992 E626.44976
G1 X139.945 Y84.992 E626.50043
G1 X169.961 Y115.008 E629.33803
G1 X170.719 Y115.008 E629.38870
G1 X140.703 Y84.992 E632.22631
G1 X141.461 Y84.992 E632.27698
G1 X171.477 Y115.008 E635.11458
G1 X172.235 Y115.008 E635.16525
G1 X142.219 Y84.992 E638.00286
G1 X142.977 Y84.992 E638.05353
G1 X172.993 Y115.008 E640.89114
G1 X173.751 Y115.008 E640.94180
G1 X143.735 Y84.992 E643.77941
G1 X144.493 Y84.992 E643.83008
G1 X174.509 Y115.008 E646.66769
G1 X175.267 Y115.008 E646.71836
G1 X145.251 Y84.992 E649.55596
G1 X146.009 Y84.992 E649.60663
G1 X176.024 Y115.008 E652.44424
G1 X176.782 Y115.008 E652.49491
G1 X146.767 Y84.992 E655.33251
G1 X147.525 Y84.992 E655.38318
G1 X177.540 Y115.008 E658.22079
G1 X178.298 Y115.008 E658.27146
G1 X148.283 Y84.992 E661.10906
G1 X149.041 Y84.992 E661.15973
G1 X179.056 Y115.008 E663.99734
G1 X179.814 Y115.008 E664.04801
G1 X149.799 Y84.992 E666.88561
G1 X150.557 Y84.992 E666.93628
G1 X180.572 Y115.008 E669.77389
G1 X181.330 Y115.008 E669.82456
G1 X151.315 Y84.992 E672.66216
G1 X152.073 Y84.992 E672.71283
G1 X182.088 Y115.008 E675.55044
G1 X182.846 Y115.008 E675.60111
G1 X152.831 Y84.992 E678.43872
G1 X153.589 Y84.992 E678.48939
G1 X183.604 Y115.008 E681.32699
G1 X184.362 Y115.008 E681.37766
G1 X154.347 Y84.992 E684.21527
G1 X155.105 Y84.992 E684.26594
G1 X185.120 Y115.008 E687.10354
G1 X185.878 Y115.008 E687.15421
G1 X155.863 Y84.992 E689.99182
G1 X156.621 Y84.992 E690.04249
G1 X186.636 Y115.008 E692.88009
G1 X187.207 Y114.821 E692.92026
G1 X157.379 Y84.992 E695.74018
