;FLAVOR:Marlin
;TIME:4554
;Filament used: 3.30115m
;Layer height: 0.15
;Generated with Cura_SteamEngine 2.7.0
M190 S50
M104 S210
M109 S210
G21 ;metric values
G90 ;absolute positioning
M82 ;set extruder to absolute mode
M107 ;start with the fan off
G92 E0 ;zero the extruded length
G1 F200 E3 ;extrude 3mm of feed stock
G92 E0 ;zero the extruded length again
G1 F9000
M301 P31.36 I3.30 D74.51 ;set PID tuning for E0
M304 P72.25 I2.72 D479.41 ; set PID tuning for heated bed
M117 Printing...
;LAYER_COUNT:22
;LAYER:0
M107
G0 F2400 X33.542 Y64.39 Z0.3
;TYPE:SKIRT
G1 F1050 X34.092 Y64.106 E0.0308
G1 X34.674 Y63.896 E0.0616
G1 X35.279 Y63.762 E0.09243
G1 X36.009 Y63.706 E0.12887
G1 X95.666 Y63.697 E3.09773
G1 X101.11 Y63.543 E3.36876
G1 X106.483 Y63.086 E3.63712
G1 X111.818 Y62.326 E3.90529
G1 X117.111 Y61.265 E4.17394
G1 X119.698 Y60.63 E4.30651
G1 X121.801 Y60.065 E4.41488
G1 X122.408 Y59.944 E4.44568
G1 X123.046 Y59.901 E4.4775
G1 X127.082 Y59.902 E4.67835
G1 X127.7 Y59.942 E4.70917
G1 X128.307 Y60.061 E4.73996
G1 X128.998 Y60.302 E4.77638
G1 X148.362 Y68.747 E5.82769
G1 X148.595 Y68.856 E5.84049
G1 X149.624 Y69.372 E5.89778
G1 X150.158 Y69.684 E5.92856
G1 X150.641 Y70.058 E5.95896
G1 X151.205 Y70.554 E5.99634
G1 X151.643 Y70.992 E6.02716
G1 X151.946 Y71.375 E6.05146
G1 X152.335 Y71.922 E6.08487
G1 X152.661 Y72.449 E6.11571
G1 X152.824 Y72.788 E6.13443
G1 X153.167 Y73.576 E6.1772
G1 X153.377 Y74.158 E6.20799
G1 X153.459 Y74.482 E6.22462
G1 X153.583 Y75.059 E6.25399
G1 X153.674 Y75.672 E6.28483
G1 X153.69 Y76.064 E6.30435
G1 X153.71 Y108.722 E7.9296
G1 X153.628 Y109.608 E7.97388
G1 X153.49 Y110.345 E8.01119
G1 X153.254 Y111.18 E8.05437
G1 X153.038 Y111.743 E8.08438
G1 X152.654 Y112.524 E8.12769
G1 X152.292 Y113.117 E8.16227
G1 X151.936 Y113.623 E8.19306
G1 X151.444 Y114.149 E8.2289
G1 X150.613 Y114.913 E8.28508
G1 X150.131 Y115.301 E8.31587
G1 X149.603 Y115.625 E8.3467
G1 X149.292 Y115.775 E8.36388
G1 X129.004 Y124.663 E9.46616
G1 X128.422 Y124.874 E9.49697
G1 X127.817 Y125.009 E9.52782
G1 X127.077 Y125.066 E9.56475
G1 X123.024 Y125.064 E9.76645
G1 X122.406 Y125.024 E9.79727
G1 X121.804 Y124.906 E9.8278
G1 X118.357 Y123.998 E10.00519
G1 X115.789 Y123.409 E10.13631
G1 X110.456 Y122.42 E10.40624
G1 X105.127 Y121.739 E10.67359
G1 X99.74 Y121.36 E10.94234
G1 X95.693 Y121.274 E11.14379
G1 X36.008 Y121.264 E14.11404
G1 X35.39 Y121.224 E14.14486
G1 X34.783 Y121.105 E14.17564
G1 X34.196 Y120.908 E14.20646
G1 X33.639 Y120.637 E14.23728
G1 X33.122 Y120.297 E14.26808
G1 X32.652 Y119.894 E14.29889
G1 X32.239 Y119.433 E14.32969
G1 X31.889 Y118.922 E14.36051
G1 X31.607 Y118.371 E14.39132
G1 X31.398 Y117.788 E14.42214
G1 X31.267 Y117.183 E14.45294
G1 X31.213 Y116.467 E14.48868
G1 X31.215 Y107.887 E14.91566
G1 X31.263 Y107.213 E14.94929
G1 X31.634 Y104.605 E15.08039
G1 X32.17 Y99.195 E15.35094
G1 X32.397 Y93.82 E15.61866
G1 X32.32 Y88.424 E15.88722
G1 X31.939 Y83.053 E16.15519
G1 X31.281 Y77.892 E16.41411
G1 X31.242 Y77.3 E16.44363
G1 X31.214 Y68.517 E16.88072
G1 X31.252 Y67.899 E16.91154
G1 X31.369 Y67.291 E16.94235
G1 X31.564 Y66.704 E16.97313
G1 X31.833 Y66.146 E17.00396
G1 X32.171 Y65.628 E17.03474
G1 X32.573 Y65.157 E17.06556
G1 X33.033 Y64.742 E17.09639
G1 X33.542 Y64.39 E17.12718
G0 F2400 X33.922 Y64.632
G1 F1050 X34.462 Y64.387 E17.15669
G1 X35.03 Y64.216 E17.18621
G1 X35.615 Y64.123 E17.21569
G1 X36.009 Y64.105 E17.23532
G1 X95.678 Y64.096 E20.20478
G1 X101.137 Y63.942 E20.47656
G1 X106.522 Y63.484 E20.74551
G1 X111.882 Y62.72 E21.01495
G1 X117.211 Y61.652 E21.28542
G1 X119.8 Y61.016 E21.4181
G1 X121.904 Y60.451 E21.52651
G1 X122.486 Y60.336 E21.55604
G1 X123.046 Y60.3 E21.58396
G1 X127.082 Y60.301 E21.78482
G1 X127.673 Y60.341 E21.81429
G1 X128.254 Y60.46 E21.84381
G1 X128.839 Y60.668 E21.87471
G1 X148.203 Y69.113 E22.92602
G1 X148.416 Y69.212 E22.93771
G1 X149.445 Y69.728 E22.995
G1 X149.956 Y70.029 E23.02451
G1 X150.378 Y70.357 E23.05111
G1 X150.942 Y70.853 E23.08849
G1 X151.359 Y71.274 E23.11798
G1 X151.621 Y71.607 E23.13906
G1 X152.01 Y72.154 E23.17247
G1 X152.32 Y72.659 E23.20196
G1 X152.459 Y72.947 E23.21787
G1 X152.802 Y73.735 E23.26064
G1 X153.069 Y74.566 E23.30408
G1 X153.193 Y75.143 E23.33345
G1 X153.278 Y75.73 E23.36296
G1 X153.291 Y76.064 E23.3796
G1 X153.311 Y108.722 E25.00484
G1 X153.236 Y109.534 E25.04542
G1 X153.098 Y110.271 E25.08274
G1 X152.881 Y111.037 E25.12236
G1 X152.665 Y111.6 E25.15236
G1 X152.313 Y112.316 E25.19207
G1 X151.951 Y112.909 E25.22665
G1 X151.609 Y113.393 E25.25614
G1 X151.174 Y113.855 E25.28772
G1 X150.343 Y114.619 E25.34389
G1 X149.881 Y114.99 E25.37338
G1 X149.131 Y115.409 E25.41614
G1 X128.843 Y124.297 E26.51841
G1 X128.286 Y124.498 E26.54788
G1 X127.706 Y124.622 E26.5774
G1 X127.077 Y124.667 E26.60878
G1 X123.024 Y124.665 E26.81048
G1 X122.432 Y124.625 E26.84001
G1 X121.906 Y124.52 E26.8667
G1 X118.488 Y123.62 E27.0426
G1 X115.836 Y123.011 E27.17801
G1 X110.539 Y122.029 E27.44611
G1 X105.154 Y121.341 E27.71628
G1 X99.756 Y120.961 E27.98558
G1 X95.701 Y120.875 E28.18742
G1 X36.008 Y120.865 E31.15807
G1 X35.417 Y120.825 E31.18755
G1 X34.836 Y120.706 E31.21706
G1 X34.277 Y120.509 E31.24656
G1 X33.749 Y120.24 E31.27605
G1 X33.262 Y119.902 E31.30555
G1 X32.825 Y119.501 E31.33507
G1 X32.446 Y119.045 E31.36457
G1 X32.132 Y118.543 E31.39404
G1 X31.888 Y118.002 E31.42358
G1 X31.719 Y117.434 E31.45307
G1 X31.628 Y116.848 E31.48258
G1 X31.612 Y116.467 E31.50156
G1 X31.614 Y107.887 E31.92855
G1 X31.658 Y107.27 E31.95933
G1 X32.029 Y104.657 E32.09067
G1 X32.569 Y99.216 E32.36277
G1 X32.796 Y93.832 E32.63095
G1 X32.719 Y88.408 E32.9009
G1 X32.337 Y83.026 E33.16942
G1 X31.676 Y77.841 E33.42954
G1 X31.641 Y77.299 E33.45657
G1 X31.613 Y68.516 E33.89366
G1 X31.651 Y67.924 E33.92318
G1 X31.768 Y67.343 E33.95268
G1 X31.963 Y66.783 E33.98219
G1 X32.231 Y66.255 E34.01165
G1 X32.567 Y65.767 E34.04114
G1 X32.966 Y65.329 E34.07062
G1 X33.421 Y64.948 E34.10016
G1 X33.922 Y64.632 E34.12964
G0 F2400 X34.3 Y64.888
G1 F1050 X34.826 Y64.683 E34.15773
G1 X35.377 Y64.555 E34.18588
G1 X36.009 Y64.504 E34.21743
G1 X95.689 Y64.495 E37.18744
G1 X101.146 Y64.341 E37.45912
G1 X106.578 Y63.879 E37.73042
G1 X111.945 Y63.114 E38.00021
G1 X117.292 Y62.042 E38.2716
G1 X119.913 Y61.399 E38.4059
G1 X122.008 Y60.836 E38.51386
G1 X122.562 Y60.728 E38.54195
G1 X123.046 Y60.699 E38.56608
G1 X127.082 Y60.7 E38.76693
G1 X127.646 Y60.74 E38.79507
G1 X128.198 Y60.859 E38.82317
G1 X128.679 Y61.033 E38.84863
G1 X148.043 Y69.478 E39.89994
G1 X148.237 Y69.569 E39.91061
G1 X149.266 Y70.085 E39.96789
G1 X149.752 Y70.374 E39.99603
G1 X150.114 Y70.657 E40.0189
G1 X150.678 Y71.153 E40.05628
G1 X151.075 Y71.555 E40.0844
G1 X151.296 Y71.838 E40.10226
G1 X151.685 Y72.385 E40.13567
G1 X152.093 Y73.106 E40.1769
G1 X152.436 Y73.894 E40.21966
G1 X152.679 Y74.65 E40.25918
G1 X152.803 Y75.227 E40.28855
G1 X152.892 Y76.065 E40.33049
G1 X152.912 Y108.723 E41.95573
G1 X152.844 Y109.461 E41.99261
G1 X152.706 Y110.198 E42.02993
G1 X152.509 Y110.894 E42.06593
G1 X152.293 Y111.457 E42.09594
G1 X151.972 Y112.108 E42.13206
G1 X151.61 Y112.701 E42.16663
G1 X151.283 Y113.162 E42.19476
G1 X150.904 Y113.561 E42.22215
G1 X150.073 Y114.325 E42.27832
G1 X149.631 Y114.677 E42.30644
G1 X148.971 Y115.044 E42.34402
G1 X128.683 Y123.932 E43.4463
G1 X128.151 Y124.122 E43.47442
G1 X127.597 Y124.234 E43.50255
G1 X127.077 Y124.268 E43.52848
G1 X123.024 Y124.266 E43.73018
G1 X122.46 Y124.226 E43.75832
G1 X122.008 Y124.134 E43.78127
G1 X118.583 Y123.232 E43.95753
G1 X115.929 Y122.623 E44.09304
G1 X110.594 Y121.633 E44.36307
G1 X105.196 Y120.944 E44.63388
G1 X99.773 Y120.562 E44.90443
G1 X95.709 Y120.476 E45.10672
G1 X36.008 Y120.466 E48.07777
G1 X35.445 Y120.426 E48.10586
G1 X34.892 Y120.307 E48.13401
G1 X34.362 Y120.111 E48.16213
G1 X33.865 Y119.842 E48.19026
G1 X33.41 Y119.506 E48.21841
G1 X33.008 Y119.109 E48.24652
G1 X32.665 Y118.66 E48.27464
G1 X32.39 Y118.166 E48.30278
G1 X32.186 Y117.639 E48.3309
G1 X32.059 Y117.088 E48.35904
G1 X32.011 Y116.467 E48.39004
G1 X32.013 Y107.887 E48.81702
G1 X32.053 Y107.326 E48.84501
G1 X32.426 Y104.703 E48.97686
G1 X32.967 Y99.237 E49.25021
G1 X33.196 Y93.843 E49.51889
G1 X33.118 Y88.392 E49.79019
G1 X32.734 Y82.984 E50.05999
G1 X32.072 Y77.791 E50.32052
G1 X32.04 Y77.298 E50.3451
G1 X32.012 Y68.515 E50.7822
G1 X32.05 Y67.951 E50.81033
G1 X32.167 Y67.398 E50.83846
G1 X32.362 Y66.867 E50.86661
G1 X32.629 Y66.369 E50.89473
G1 X32.963 Y65.913 E50.92286
G1 X33.359 Y65.51 E50.95098
G1 X33.807 Y65.166 E50.97908
G1 X34.3 Y64.888 E51.00725
G0 F2400 X34.672 Y65.161
G1 F1050 X35.183 Y64.999 E51.03393
G1 X35.713 Y64.915 E51.06063
G1 X36.009 Y64.903 E51.07538
G1 X95.665 Y64.894 E54.04419
G1 X101.191 Y64.738 E54.3193
G1 X106.614 Y64.277 E54.59015
G1 X112.008 Y63.508 E54.8613
G1 X117.402 Y62.426 E55.13508
G1 X119.961 Y61.799 E55.2662
G1 X122.111 Y61.221 E55.37699
G1 X122.638 Y61.121 E55.40369
G1 X123.046 Y61.098 E55.42402
G1 X127.082 Y61.099 E55.62488
G1 X127.617 Y61.139 E55.65158
G1 X128.139 Y61.258 E55.67822
G1 X128.52 Y61.399 E55.69844
G1 X147.884 Y69.844 E56.74975
G1 X148.058 Y69.926 E56.75933
G1 X149.087 Y70.442 E56.81661
G1 X149.547 Y70.717 E56.84328
G1 X149.851 Y70.956 E56.86253
G1 X150.415 Y71.452 E56.89991
G1 X150.79 Y71.836 E56.92662
G1 X150.971 Y72.069 E56.9413
G1 X151.36 Y72.616 E56.9747
G1 X151.727 Y73.266 E57.01185
G1 X152.07 Y74.054 E57.05462
G1 X152.289 Y74.734 E57.09017
G1 X152.413 Y75.311 E57.11954
G1 X152.493 Y76.065 E57.15728
G1 X152.513 Y108.723 E58.78252
G1 X152.452 Y109.387 E58.8157
G1 X152.314 Y110.124 E58.85302
G1 X152.136 Y110.751 E58.88545
G1 X151.92 Y111.314 E58.91546
G1 X151.632 Y111.9 E58.94795
G1 X151.27 Y112.493 E58.98253
G1 X150.957 Y112.929 E59.00924
G1 X150.634 Y113.267 E59.03251
G1 X149.803 Y114.031 E59.08868
G1 X149.382 Y114.364 E59.1154
G1 X148.811 Y114.679 E59.14785
G1 X128.523 Y123.567 E60.25013
G1 X128.017 Y123.745 E60.27682
G1 X127.491 Y123.845 E60.30347
G1 X127.077 Y123.869 E60.32411
G1 X123.024 Y123.867 E60.5258
G1 X122.49 Y123.827 E60.55245
G1 X122.109 Y123.748 E60.57182
G1 X118.677 Y122.844 E60.74844
G1 X116.017 Y122.234 E60.88425
G1 X110.646 Y121.238 E61.1561
G1 X105.241 Y120.547 E61.42727
G1 X99.788 Y120.163 E61.69931
G1 X95.718 Y120.077 E61.9019
G1 X36.008 Y120.067 E64.8734
G1 X35.474 Y120.027 E64.90005
G1 X34.951 Y119.908 E64.92674
G1 X34.452 Y119.713 E64.9534
G1 X33.987 Y119.445 E64.98011
G1 X33.567 Y119.112 E65.00679
G1 X33.201 Y118.719 E65.03351
G1 X32.898 Y118.277 E65.06018
G1 X32.664 Y117.795 E65.08685
G1 X32.504 Y117.283 E65.11354
G1 X32.421 Y116.753 E65.14024
G1 X32.41 Y116.467 E65.15448
G1 X32.412 Y107.887 E65.58147
G1 X32.448 Y107.382 E65.60666
G1 X32.825 Y104.729 E65.74002
G1 X33.364 Y99.293 E66.01187
G1 X33.595 Y93.837 E66.28363
G1 X33.516 Y88.376 E66.55543
G1 X33.131 Y82.939 E66.82668
G1 X32.468 Y77.74 E67.08751
G1 X32.439 Y77.296 E67.10965
G1 X32.411 Y68.513 E67.54675
G1 X32.449 Y67.979 E67.57339
G1 X32.567 Y67.455 E67.60012
G1 X32.76 Y66.955 E67.62679
G1 X33.026 Y66.49 E67.65345
G1 X33.358 Y66.069 E67.68013
G1 X33.749 Y65.702 E67.70682
G1 X34.19 Y65.397 E67.7335
G1 X34.672 Y65.161 E67.76021
G0 F2400 X34.57 Y65.645
G1 F1050 X35.038 Y65.453 E67.78539
G1 X35.53 Y65.338 E67.81053
G1 X36.01 Y65.302 E67.83448
G1 X95.676 Y65.293 E70.80379
G1 X101.202 Y65.137 E71.0789
G1 X106.668 Y64.672 E71.35191
G1 X112.074 Y63.901 E71.62366
G1 X117.479 Y62.818 E71.89799
G1 X120.116 Y62.171 E72.03311
G1 X122.215 Y61.607 E72.14128
G1 X122.712 Y61.514 E72.16644
G1 X123.046 Y61.497 E72.18308
G1 X127.082 Y61.498 E72.38393
G1 X127.586 Y61.538 E72.4091
G1 X128.077 Y61.657 E72.43424
G1 X128.36 Y61.765 E72.44931
G1 X147.724 Y70.21 E73.50063
G1 X147.879 Y70.283 E73.50915
G1 X148.908 Y70.799 E73.56644
G1 X149.341 Y71.06 E73.5916
G1 X149.587 Y71.256 E73.60725
G1 X150.151 Y71.752 E73.64463
G1 X150.646 Y72.3 E73.68138
G1 X151.035 Y72.847 E73.71478
G1 X151.361 Y73.425 E73.74781
G1 X151.704 Y74.213 E73.79058
G1 X151.899 Y74.818 E73.82221
G1 X152.023 Y75.395 E73.85158
G1 X152.094 Y76.065 E73.88511
G1 X152.114 Y108.723 E75.51035
G1 X152.059 Y109.314 E75.53989
G1 X151.921 Y110.051 E75.57721
G1 X151.764 Y110.608 E75.60601
G1 X151.548 Y111.171 E75.63601
G1 X151.291 Y111.692 E75.66493
G1 X150.929 Y112.285 E75.6995
G1 X150.633 Y112.695 E75.72467
G1 X150.364 Y112.974 E75.74395
G1 X149.533 Y113.738 E75.80013
G1 X149.135 Y114.049 E75.82527
G1 X148.651 Y114.313 E75.8527
G1 X128.363 Y123.201 E76.95498
G1 X127.885 Y123.367 E76.98016
G1 X127.388 Y123.455 E77.00528
G1 X127.077 Y123.47 E77.02078
G1 X123.024 Y123.468 E77.22248
G1 X122.52 Y123.428 E77.24764
G1 X122.211 Y123.362 E77.26336
G1 X118.778 Y122.458 E77.44003
G1 X116.083 Y121.839 E77.57764
G1 X110.718 Y120.844 E77.84919
G1 X105.283 Y120.15 E78.12186
G1 X99.805 Y119.764 E78.39515
G1 X95.726 Y119.678 E78.59819
G1 X36.008 Y119.668 E81.57008
G1 X35.504 Y119.628 E81.59524
G1 X35.013 Y119.509 E81.62038
G1 X34.547 Y119.314 E81.64552
G1 X34.117 Y119.048 E81.67069
G1 X33.734 Y118.718 E81.69585
G1 X33.408 Y118.332 E81.72099
G1 X33.147 Y117.899 E81.74615
G1 X32.957 Y117.43 E81.77133
G1 X32.844 Y116.937 E81.7965
G1 X32.809 Y116.467 E81.81996
G1 X32.811 Y107.887 E82.24694
G1 X32.843 Y107.438 E82.26935
G1 X33.221 Y104.777 E82.4031
G1 X33.763 Y99.313 E82.67635
G1 X33.994 Y93.848 E82.94857
G1 X33.915 Y88.359 E83.22176
G1 X33.528 Y82.898 E83.49421
G1 X32.864 Y77.69 E83.75548
G1 X32.838 Y77.295 E83.77518
G1 X32.81 Y68.512 E84.21228
G1 X32.848 Y68.008 E84.23743
G1 X32.966 Y67.516 E84.26261
G1 X33.159 Y67.049 E84.28776
G1 X33.423 Y66.618 E84.31291
G1 X33.752 Y66.234 E84.33807
G1 X34.138 Y65.907 E84.36325
G1 X34.57 Y65.645 E84.38839
G1 F1500 E83.38839
G0 F2400 X41.368 Y67.854
G0 X41.444 Y67.879
G0 X58.153 Y73.312
G0 X58.229 Y73.337
G0 X58.453 Y73.41
;TYPE:SUPPORT
G1 F1500 E84.38839
G1 F1050 X58.518 Y73.262 E84.39644
G1 X58.587 Y73.145 E84.4032
G1 X58.712 Y72.995 E84.41291
G1 X58.78 Y72.933 E84.41749
G1 X58.886 Y72.853 E84.4241
G1 X58.97 Y72.803 E84.42897
G1 X59.072 Y72.754 E84.4346
G1 X59.168 Y72.72 E84.43967
G1 X59.352 Y72.679 E84.44905
G1 X59.42 Y72.672 E84.45245
G1 X59.622 Y72.676 E84.4625
G1 X59.733 Y72.693 E84.46809
G1 X59.953 Y72.763 E84.47958
G1 X60.128 Y72.861 E84.48956
G1 X60.224 Y72.933 E84.49554
G1 X60.307 Y73.013 E84.50127
G1 X60.419 Y73.152 E84.51016
G1 X60.483 Y73.257 E84.51628
G1 X60.534 Y73.364 E84.52217
G1 X60.564 Y73.45 E84.52671
G1 X60.593 Y73.57 E84.53285
G1 X60.604 Y73.648 E84.53677
G1 X60.608 Y73.756 E84.54215
G1 X60.592 Y73.937 E84.55119
G1 X60.579 Y74.003 E84.55454
G1 X60.518 Y74.194 E84.56452
G1 X60.419 Y74.369 E84.57452
G1 X60.359 Y74.449 E84.5795
G1 X60.286 Y74.529 E84.58489
G1 X60.204 Y74.603 E84.59039
G1 X60.104 Y74.675 E84.59652
G1 X60.016 Y74.727 E84.60161
G1 X59.824 Y74.803 E84.61188
G1 X59.671 Y74.837 E84.61968
G1 X59.528 Y74.849 E84.62682
G1 X59.37 Y74.842 E84.63469
G1 X59.269 Y74.826 E84.63978
G1 X59.148 Y74.793 E84.64602
G1 X58.995 Y74.727 E84.65432
G1 X58.784 Y74.591 E84.66681
G1 X58.667 Y74.476 E84.67497
G1 X58.562 Y74.336 E84.68368
G1 X58.511 Y74.249 E84.6887
G1 X58.449 Y74.094 E84.69701
G1 X58.418 Y73.981 E84.70284
G1 X58.401 Y73.875 E84.70818
G1 X58.395 Y73.774 E84.71322
G1 X58.42 Y73.527 E84.72557
G1 X58.453 Y73.41 E84.73162
G0 F2400 X58.652 Y73.353
G1 F1050 X58.652 Y74.169 E84.77223
G0 F2400 X59.226 Y74.648
G1 F1050 X59.779 Y74.648 E84.79975
G0 F2400 X59.985 Y74.558
G1 F1050 X59.985 Y72.965 E84.87903
G0 F2400 X60.33 Y73.315
G1 F1050 X58.671 Y73.315 E84.96159
G1 F1500 E83.96159
G0 F2400 X60.783 Y73.359
G0 X60.863 Y73.36
G0 X83.952 Y73.851
G0 X84.032 Y73.853
G0 X84.269 Y73.859
G1 F1500 E84.96159
G1 F1050 X84.265 Y73.763 E84.96637
G1 X84.287 Y73.534 E84.97782
G1 X84.308 Y73.449 E84.98218
G1 X84.378 Y73.276 E84.99146
G1 X84.461 Y73.137 E84.99952
G1 X84.579 Y72.992 E85.00882
G1 X84.673 Y72.908 E85.0151
G1 X84.837 Y72.798 E85.02493
G1 X84.933 Y72.753 E85.0302
G1 X85.13 Y72.692 E85.04046
G1 X85.235 Y72.675 E85.04576
G1 X85.322 Y72.67 E85.0501
G1 X85.462 Y72.675 E85.05707
G1 X85.577 Y72.691 E85.06284
G1 X85.766 Y72.747 E85.07265
G1 X85.88 Y72.801 E85.07893
G1 X86.043 Y72.911 E85.08872
G1 X86.197 Y73.062 E85.09945
G1 X86.295 Y73.205 E85.10808
