;FLAVOR:Marlin
;TIME:8877
;Filament used: 8.5042m
;Layer height: 0.2
;Generated with Cura_SteamEngine 2.7.0
M190 S60
M104 S220
M109 S220
G21 ;metric values
G90 ;absolute positioning
M82 ;set extruder to absolute mode
M107 ;start with the fan off
G92 E0 ;zero the extruded length
G1 F200 E3 ;extrude 3mm of feed stock
G92 E0 ;zero the extruded length again
G1 F9000
M117 Printing...
;LAYER_COUNT:31
;LAYER:0
M107
M204 S5000
G0 F2400 X13.962 Y135.86 Z0.3
M204 S200
;TYPE:SKIRT
G1 F1200 X139.52 Y10.301 E8.83668
G1 X139.937 Y9.941 E8.8641
G1 X140.401 Y9.646 E8.89146
G1 X140.903 Y9.42 E8.91886
G1 X141.432 Y9.27 E8.94622
G1 X142.201 Y9.191 E8.98469
G1 X142.365 Y9.191 E8.99286
G1 X142.914 Y9.231 E9.02025
G1 X143.451 Y9.35 E9.04762
G1 X143.966 Y9.545 E9.07503
G1 X144.446 Y9.813 E9.10239
G1 X145.046 Y10.301 E9.14087
G1 X168.499 Y33.754 E10.79147
G1 X168.859 Y34.171 E10.81889
G1 X169.154 Y34.635 E10.84625
G1 X169.38 Y35.137 E10.87365
G1 X169.53 Y35.666 E10.90101
G1 X169.609 Y36.435 E10.93948
G1 X169.609 Y36.599 E10.94764
G1 X169.569 Y37.148 E10.97504
G1 X169.45 Y37.685 E11.00241
G1 X169.255 Y38.2 E11.02982
G1 X168.987 Y38.68 E11.05717
G1 X168.499 Y39.28 E11.09566
G1 X42.941 Y164.839 E19.93235
G1 X42.524 Y165.199 E19.95976
G1 X42.06 Y165.494 E19.98712
G1 X41.558 Y165.72 E20.01452
G1 X41.029 Y165.87 E20.04189
G1 X40.26 Y165.949 E20.08036
G1 X40.096 Y165.949 E20.08852
G1 X39.547 Y165.909 E20.11591
G1 X39.01 Y165.79 E20.14328
G1 X38.495 Y165.595 E20.17069
G1 X38.015 Y165.327 E20.19805
G1 X37.415 Y164.839 E20.23654
G1 X13.962 Y141.386 E21.88714
G1 X13.602 Y140.969 E21.91455
G1 X13.307 Y140.505 E21.94191
G1 X13.081 Y140.003 E21.96931
G1 X12.931 Y139.474 E21.99668
G1 X12.852 Y138.705 E22.03515
G1 X12.852 Y138.541 E22.04331
G1 X12.892 Y137.992 E22.0707
G1 X13.011 Y137.455 E22.09807
G1 X13.206 Y136.94 E22.12548
G1 X13.474 Y136.46 E22.15284
G1 X13.962 Y135.86 E22.19133
M204 S5000
G0 F2400 X14.244 Y136.143
M204 S200
G1 F1200 X139.802 Y10.584 E31.02801
G1 X140.198 Y10.245 E31.05395
G1 X140.64 Y9.97 E31.07986
G1 X141.119 Y9.767 E31.10575
G1 X141.624 Y9.639 E31.13167
G1 X142.201 Y9.59 E31.16049
G1 X142.365 Y9.59 E31.16865
G1 X142.884 Y9.63 E31.19456
G1 X143.391 Y9.749 E31.22047
G1 X143.873 Y9.944 E31.24635
G1 X144.321 Y10.21 E31.27228
G1 X144.764 Y10.583 E31.3011
G1 X168.217 Y34.036 E32.9517
G1 X168.555 Y34.432 E32.97761
G1 X168.83 Y34.874 E33.00351
G1 X169.033 Y35.353 E33.0294
G1 X169.161 Y35.858 E33.05533
G1 X169.21 Y36.435 E33.08415
G1 X169.21 Y36.599 E33.09231
G1 X169.17 Y37.118 E33.11821
G1 X169.051 Y37.625 E33.14413
G1 X168.856 Y38.107 E33.17001
G1 X168.59 Y38.555 E33.19594
G1 X168.217 Y38.997 E33.22472
G1 X42.659 Y164.556 E42.0614
G1 X42.263 Y164.895 E42.08734
G1 X41.821 Y165.17 E42.11325
G1 X41.342 Y165.373 E42.13914
G1 X40.837 Y165.501 E42.16507
G1 X40.26 Y165.55 E42.19388
G1 X40.096 Y165.55 E42.20204
G1 X39.577 Y165.51 E42.22795
G1 X39.07 Y165.391 E42.25387
G1 X38.588 Y165.196 E42.27974
G1 X38.14 Y164.93 E42.30567
G1 X37.697 Y164.557 E42.33449
G1 X14.244 Y141.104 E43.98509
G1 X13.906 Y140.708 E44.011
G1 X13.631 Y140.266 E44.03691
G1 X13.428 Y139.787 E44.0628
G1 X13.3 Y139.282 E44.08872
G1 X13.251 Y138.705 E44.11754
G1 X13.251 Y138.541 E44.1257
G1 X13.291 Y138.022 E44.15161
G1 X13.41 Y137.515 E44.17752
G1 X13.605 Y137.033 E44.2034
G1 X13.871 Y136.585 E44.22933
G1 X14.244 Y136.143 E44.25811
M204 S5000
G0 F2400 X14.527 Y136.425
M204 S200
G1 F1200 X140.085 Y10.866 E53.09479
G1 X140.457 Y10.549 E53.11912
G1 X140.877 Y10.298 E53.14347
G1 X141.331 Y10.118 E53.16777
G1 X141.809 Y10.015 E53.1921
G1 X142.201 Y9.989 E53.21165
G1 X142.365 Y9.989 E53.21982
G1 X142.852 Y10.029 E53.24413
G1 X143.327 Y10.148 E53.2685
G1 X143.775 Y10.342 E53.2928
G1 X144.186 Y10.607 E53.31713
G1 X144.481 Y10.866 E53.33667
G1 X167.934 Y34.319 E54.98727
G1 X168.251 Y34.691 E55.01159
G1 X168.502 Y35.111 E55.03594
G1 X168.682 Y35.565 E55.06025
G1 X168.785 Y36.043 E55.08458
G1 X168.811 Y36.435 E55.10413
G1 X168.811 Y36.599 E55.11229
G1 X168.771 Y37.086 E55.13661
G1 X168.652 Y37.561 E55.16098
G1 X168.458 Y38.009 E55.18528
G1 X168.193 Y38.42 E55.20961
G1 X167.934 Y38.715 E55.22915
G1 X42.376 Y164.274 E64.06583
G1 X42.004 Y164.591 E64.09015
G1 X41.584 Y164.842 E64.1145
G1 X41.13 Y165.022 E64.13881
G1 X40.652 Y165.125 E64.16314
G1 X40.26 Y165.151 E64.18269
G1 X40.096 Y165.151 E64.19085
G1 X39.609 Y165.111 E64.21517
G1 X39.134 Y164.992 E64.23954
G1 X38.686 Y164.798 E64.26384
G1 X38.275 Y164.533 E64.28817
G1 X37.98 Y164.274 E64.30771
G1 X14.527 Y140.821 E65.95831
G1 X14.21 Y140.449 E65.98263
G1 X13.959 Y140.029 E66.00698
G1 X13.779 Y139.575 E66.03128
G1 X13.676 Y139.097 E66.05562
G1 X13.65 Y138.705 E66.07517
G1 X13.65 Y138.541 E66.08333
G1 X13.69 Y138.054 E66.10765
G1 X13.809 Y137.579 E66.13202
G1 X14.003 Y137.131 E66.15631
G1 X14.268 Y136.72 E66.18065
G1 X14.527 Y136.425 E66.20019
M204 S5000
G0 F2400 X14.809 Y136.707
M204 S200
G1 F1200 X140.367 Y11.148 E75.03687
G1 X140.716 Y10.855 E75.05955
G1 X141.11 Y10.629 E75.08215
G1 X141.538 Y10.474 E75.1048
G1 X142.201 Y10.388 E75.13808
G1 X142.365 Y10.388 E75.14624
G1 X142.818 Y10.428 E75.16887
G1 X143.258 Y10.546 E75.19154
G1 X143.67 Y10.74 E75.2142
G1 X144.199 Y11.148 E75.24745
G1 X167.652 Y34.601 E76.89805
G1 X167.945 Y34.95 E76.92072
G1 X168.171 Y35.344 E76.94333
G1 X168.326 Y35.772 E76.96598
G1 X168.412 Y36.435 E76.99925
G1 X168.412 Y36.599 E77.00741
G1 X168.372 Y37.052 E77.03005
G1 X168.254 Y37.492 E77.05272
G1 X168.06 Y37.904 E77.07538
G1 X167.652 Y38.433 E77.10863
G1 X42.094 Y163.992 E85.94531
G1 X41.745 Y164.285 E85.96799
G1 X41.351 Y164.511 E85.99059
G1 X40.923 Y164.666 E86.01324
G1 X40.26 Y164.752 E86.04651
G1 X40.096 Y164.752 E86.05468
G1 X39.643 Y164.712 E86.07731
G1 X39.203 Y164.594 E86.09998
G1 X38.791 Y164.4 E86.12264
G1 X38.262 Y163.992 E86.15589
G1 X14.809 Y140.539 E87.80649
G1 X14.516 Y140.19 E87.82916
G1 X14.29 Y139.796 E87.85177
G1 X14.135 Y139.368 E87.87442
G1 X14.049 Y138.705 E87.90769
G1 X14.049 Y138.541 E87.91585
G1 X14.089 Y138.088 E87.93849
G1 X14.207 Y137.648 E87.96116
G1 X14.401 Y137.236 E87.98382
G1 X14.809 Y136.707 E88.01706
M204 S5000
G0 F2400 X15.091 Y136.989
M204 S200
G1 F1200 X140.649 Y11.43 E96.85375
G1 X140.972 Y11.164 E96.87457
G1 X141.339 Y10.963 E96.8954
G1 X141.738 Y10.836 E96.91623
G1 X142.201 Y10.787 E96.9394
G1 X142.365 Y10.787 E96.94756
G1 X142.782 Y10.827 E96.96841
G1 X143.183 Y10.945 E96.98921
G1 X143.555 Y11.138 E97.01007
G1 X143.917 Y11.43 E97.03322
G1 X167.37 Y34.883 E98.68381
G1 X167.637 Y35.206 E98.70467
G1 X167.837 Y35.573 E98.72547
G1 X167.964 Y35.972 E98.74631
G1 X168.013 Y36.435 E98.76948
G1 X168.013 Y36.599 E98.77764
G1 X167.973 Y37.016 E98.79849
G1 X167.855 Y37.417 E98.81929
G1 X167.662 Y37.789 E98.84014
G1 X167.37 Y38.151 E98.86329
G1 X41.812 Y163.71 E107.69997
G1 X41.489 Y163.976 E107.7208
G1 X41.122 Y164.177 E107.74162
G1 X40.723 Y164.304 E107.76246
G1 X40.26 Y164.353 E107.78563
G1 X40.096 Y164.353 E107.79379
G1 X39.679 Y164.313 E107.81464
G1 X39.278 Y164.195 E107.83544
G1 X38.906 Y164.002 E107.8563
G1 X38.544 Y163.71 E107.87944
G1 X15.091 Y140.257 E109.53004
G1 X14.824 Y139.934 E109.5509
G1 X14.624 Y139.567 E109.5717
G1 X14.497 Y139.168 E109.59253
G1 X14.448 Y138.705 E109.6157
G1 X14.448 Y138.541 E109.62386
G1 X14.488 Y138.124 E109.64471
G1 X14.606 Y137.723 E109.66551
G1 X14.799 Y137.351 E109.68637
G1 X15.091 Y136.989 E109.70952
M204 S5000
G0 F2400 X15.373 Y137.271
M204 S200
G1 F1200 X140.931 Y11.712 E118.5462
G1 X141.225 Y11.474 E118.56502
G1 X141.563 Y11.303 E118.58387
G1 X141.929 Y11.207 E118.6027
G1 X142.201 Y11.186 E118.61628
G1 X142.365 Y11.186 E118.62444
G1 X142.741 Y11.226 E118.64326
G1 X143.101 Y11.344 E118.66211
G1 X143.428 Y11.534 E118.68093
G1 X143.635 Y11.712 E118.69452
G1 X167.088 Y35.165 E120.34512
G1 X167.326 Y35.459 E120.36394
G1 X167.497 Y35.797 E120.38279
G1 X167.593 Y36.163 E120.40162
G1 X167.614 Y36.435 E120.4152
G1 X167.614 Y36.599 E120.42336
G1 X167.574 Y36.975 E120.44218
G1 X167.456 Y37.335 E120.46103
G1 X167.266 Y37.662 E120.47985
G1 X167.088 Y37.869 E120.49344
G1 X41.53 Y163.428 E129.33012
G1 X41.236 Y163.666 E129.34895
G1 X40.898 Y163.837 E129.3678
G1 X40.532 Y163.933 E129.38663
G1 X40.26 Y163.954 E129.40021
G1 X40.096 Y163.954 E129.40837
G1 X39.72 Y163.914 E129.42719
G1 X39.36 Y163.796 E129.44604
G1 X39.033 Y163.606 E129.46486
G1 X38.826 Y163.428 E129.47845
G1 X15.373 Y139.975 E131.12904
G1 X15.135 Y139.681 E131.14787
G1 X14.964 Y139.343 E131.16672
G1 X14.868 Y138.977 E131.18555
G1 X14.847 Y138.705 E131.19913
G1 X14.847 Y138.541 E131.20729
G1 X14.887 Y138.165 E131.22611
G1 X15.005 Y137.805 E131.24496
G1 X15.195 Y137.478 E131.26378
G1 X15.373 Y137.271 E131.27737
M204 S5000
G0 F2400 X15.655 Y137.553
M204 S200
G1 F1200 X141.213 Y11.994 E140.11405
G1 X141.476 Y11.788 E140.13067
G1 X141.779 Y11.65 E140.14724
G1 X142.201 Y11.585 E140.16849
G1 X142.365 Y11.585 E140.17665
G1 X142.696 Y11.625 E140.19325
G1 X143.009 Y11.742 E140.20988
G1 X143.353 Y11.994 E140.2311
G1 X166.806 Y35.447 E141.8817
G1 X167.012 Y35.71 E141.89832
G1 X167.15 Y36.013 E141.91489
G1 X167.215 Y36.435 E141.93614
G1 X167.215 Y36.599 E141.9443
G1 X167.175 Y36.93 E141.96089
G1 X167.058 Y37.243 E141.97752
G1 X166.806 Y37.587 E141.99874
G1 X41.248 Y163.146 E150.83543
G1 X40.985 Y163.352 E150.85205
G1 X40.682 Y163.49 E150.86862
G1 X40.26 Y163.555 E150.88987
G1 X40.096 Y163.555 E150.89803
G1 X39.765 Y163.515 E150.91462
G1 X39.452 Y163.398 E150.93125
G1 X39.108 Y163.146 E150.95247
G1 X15.655 Y139.693 E152.60307
G1 X15.449 Y139.43 E152.6197
G1 X15.311 Y139.127 E152.63627
G1 X15.246 Y138.705 E152.65752
G1 X15.246 Y138.541 E152.66568
G1 X15.286 Y138.21 E152.68227
G1 X15.403 Y137.897 E152.6989
G1 X15.655 Y137.553 E152.72012
M204 S5000
G0 F2400 X15.937 Y137.835
M204 S200
G1 F1200 X141.495 Y12.276 E161.5568
G1 X141.721 Y12.107 E161.57085
G1 X141.984 Y12.008 E161.58483
G1 X142.201 Y11.984 E161.5957
G1 X142.365 Y11.984 E161.60386
G1 X142.644 Y12.024 E161.61789
G1 X142.901 Y12.14 E161.63192
G1 X143.071 Y12.276 E161.64275
G1 X166.524 Y35.729 E163.29335
G1 X166.693 Y35.955 E163.3074
G1 X166.792 Y36.219 E163.32143
G1 X166.816 Y36.435 E163.33224
G1 X166.816 Y36.599 E163.3404
G1 X166.776 Y36.878 E163.35443
G1 X166.66 Y37.135 E163.36846
G1 X166.524 Y37.305 E163.3793
G1 X40.966 Y162.864 E172.21598
G1 X40.74 Y163.033 E172.23002
G1 X40.477 Y163.132 E172.24401
G1 X40.26 Y163.156 E172.25487
G1 X40.096 Y163.156 E172.26304
G1 X39.817 Y163.116 E172.27706
G1 X39.56 Y163 E172.29109
G1 X39.39 Y162.864 E172.30193
G1 X15.937 Y139.411 E173.95253
G1 X15.768 Y139.185 E173.96657
G1 X15.669 Y138.921 E173.9806
G1 X15.645 Y138.705 E173.99142
G1 X15.645 Y138.541 E173.99958
G1 X15.685 Y138.262 E174.01361
G1 X15.801 Y138.005 E174.02764
G1 X15.937 Y137.835 E174.03847
M204 S5000
G0 F2400 X16.219 Y138.117
M204 S200
G1 F1200 X141.777 Y12.558 E182.87516
G1 X141.957 Y12.435 E182.88601
G1 X142.201 Y12.383 E182.89842
G1 X142.365 Y12.383 E182.90658
G1 X142.579 Y12.423 E182.91742
G1 X142.789 Y12.558 E182.92984
G1 X166.242 Y36.011 E184.58044
G1 X166.365 Y36.191 E184.59129
G1 X166.417 Y36.435 E184.6037
G1 X166.417 Y36.599 E184.61187
G1 X166.377 Y36.813 E184.6227
G1 X166.242 Y37.023 E184.63512
G1 X40.684 Y162.582 E193.47181
G1 X40.504 Y162.705 E193.48266
G1 X40.26 Y162.757 E193.49507
G1 X40.096 Y162.757 E193.50323
G1 X39.882 Y162.717 E193.51407
G1 X39.672 Y162.582 E193.52649
G1 X16.219 Y139.129 E195.17709
G1 X16.096 Y138.949 E195.18794
G1 X16.044 Y138.705 E195.20036
G1 X16.044 Y138.541 E195.20852
G1 X16.084 Y138.327 E195.21935
G1 X16.219 Y138.117 E195.23178
M204 S5000
G0 F2400 X16.502 Y138.4
M204 S200
G1 F1200 X142.06 Y12.841 E204.06846
G1 X142.201 Y12.782 E204.07607
G1 X142.365 Y12.782 E204.08423
G1 X142.506 Y12.841 E204.09183
G1 X165.959 Y36.294 E205.74243
G1 X166.018 Y36.435 E205.75004
G1 X166.018 Y36.599 E205.7582
G1 X165.959 Y36.74 E205.76581
G1 X40.401 Y162.299 E214.60249
G1 X40.26 Y162.358 E214.6101
G1 X40.096 Y162.358 E214.61826
G1 X39.955 Y162.299 E214.62586
G1 X16.502 Y138.846 E216.27646
G1 X16.443 Y138.705 E216.28407
G1 X16.443 Y138.541 E216.29223
G1 X16.502 Y138.4 E216.29984
M204 S5000
G0 F2400 X16.842 Y138.623
M204 S200
;TYPE:WALL-OUTER
G1 F1200 X142.143 Y13.321 E225.11843
G1 X142.283 Y13.181 E225.12829
G1 X142.423 Y13.321 E225.13464
G1 X165.619 Y36.517 E226.76715
G1 X40.318 Y161.819 E235.58575
G1 X40.178 Y161.959 E235.5956
G1 X40.038 Y161.819 E235.60195
G1 X16.842 Y138.623 E237.23446
M204 S5000
G0 F2400 X16.983 Y138.482
G0 X17.404 Y138.623
M204 S200
;TYPE:WALL-INNER
G1 F1200 X142.143 Y13.883 E246.01351
G1 X142.283 Y13.743 E246.02336
G1 X142.423 Y13.883 E246.02971
G1 X165.057 Y36.517 E247.62267
G1 X40.318 Y161.257 E256.40171
G1 X40.178 Y161.397 E256.41157
G1 X40.038 Y161.257 E256.41792
G1 X17.404 Y138.623 E258.01088
M204 S5000
G0 F2400 X17.763 Y138.517
M204 S200
;TYPE:SKIN
G1 F1200 X40.282 Y161.036 E259.59574
G1 X40.352 Y161.106
M204 S5000
G0 F2400 X40.564 Y160.754
M204 S200
G1 F1200 X18.045 Y138.235 E261.18061
G1 X17.975 Y138.165
M204 S5000
G0 F2400 X18.327 Y137.952
M204 S200
G1 F1200 X40.846 Y160.472 E262.76551
G1 X40.916 Y160.542
M204 S5000
G0 F2400 X41.128 Y160.19
M204 S200
G1 F1200 X18.609 Y137.67 E264.35041
G1 X18.539 Y137.6
M204 S5000
G0 F2400 X18.891 Y137.388
M204 S200
G1 F1200 X41.411 Y159.907 E265.93531
G1 X41.481 Y159.977
M204 S5000
G0 F2400 X41.693 Y159.625
M204 S200
G1 F1200 X19.173 Y137.106 E267.52021
G1 X19.103 Y137.036
M204 S5000
G0 F2400 X19.456 Y136.824
M204 S200
G1 F1200 X41.975 Y159.343 E269.10507
G1 X42.045 Y159.413
M204 S5000
G0 F2400 X42.257 Y159.061
M204 S200
G1 F1200 X19.738 Y136.542 E270.68994
G1 X19.668 Y136.472
M204 S5000
G0 F2400 X20.02 Y136.26
M204 S200
G1 F1200 X42.539 Y158.779 E272.2748
G1 X42.609 Y158.849
M204 S5000
G0 F2400 X42.821 Y158.497
M204 S200
G1 F1200 X20.302 Y135.978 E273.85967
G1 X20.232 Y135.908
M204 S5000
G0 F2400 X20.584 Y135.695
M204 S200
G1 F1200 X43.103 Y158.215 E275.44457
G1 X43.173 Y158.285
M204 S5000
G0 F2400 X43.385 Y157.933
M204 S200
G1 F1200 X20.866 Y135.413 E277.02947
G1 X20.796 Y135.343
M204 S5000
G0 F2400 X21.148 Y135.131
M204 S200
G1 F1200 X43.668 Y157.65 E278.61437
G1 X43.738 Y157.72
M204 S5000
G0 F2400 X43.95 Y157.368
M204 S200
G1 F1200 X21.43 Y134.849 E280.19927
G1 X21.36 Y134.779
M204 S5000
G0 F2400 X21.713 Y134.567
M204 S200
G1 F1200 X44.232 Y157.086 E281.78413
G1 X44.302 Y157.156
M204 S5000
G0 F2400 X44.514 Y156.804
M204 S200
G1 F1200 X21.995 Y134.285 E283.369
G1 X21.925 Y134.215
M204 S5000
G0 F2400 X22.277 Y134.003
M204 S200
G1 F1200 X44.796 Y156.522 E284.95386
G1 X44.866 Y156.592
M204 S5000
G0 F2400 X45.078 Y156.24
M204 S200
G1 F1200 X22.559 Y133.72 E286.53876
G1 X22.489 Y133.65
M204 S5000
G0 F2400 X22.841 Y133.438
M204 S200
G1 F1200 X45.36 Y155.958 E288.12366
G1 X45.43 Y156.028
M204 S5000
G0 F2400 X45.643 Y155.675
M204 S200
G1 F1200 X23.123 Y133.156 E289.70856
G1 X23.053 Y133.086
M204 S5000
G0 F2400 X23.405 Y132.874
M204 S200
G1 F1200 X45.925 Y155.393 E291.29346
G1 X45.995 Y155.463
M204 S5000
G0 F2400 X46.207 Y155.111
M204 S200
G1 F1200 X23.688 Y132.592 E292.87833
G1 X23.618 Y132.522
M204 S5000
G0 F2400 X23.97 Y132.31
M204 S200
G1 F1200 X46.489 Y154.829 E294.46319
G1 X46.559 Y154.899
M204 S5000
G0 F2400 X46.771 Y154.547
M204 S200
G1 F1200 X24.252 Y132.028 E296.04806
G1 X24.182 Y131.958
M204 S5000
G0 F2400 X24.534 Y131.746
M204 S200
G1 F1200 X47.053 Y154.265 E297.63292
G1 X47.123 Y154.335
M204 S5000
G0 F2400 X47.335 Y153.983
M204 S200
G1 F1200 X24.816 Y131.463 E299.21782
G1 X24.746 Y131.393
M204 S5000
G0 F2400 X25.098 Y131.181
M204 S200
G1 F1200 X47.617 Y153.7 E300.80269
G1 X47.687 Y153.77
M204 S5000
G0 F2400 X47.9 Y153.418
M204 S200
G1 F1200 X25.38 Y130.899 E302.38759
G1 X25.31 Y130.829
M204 S5000
G0 F2400 X25.663 Y130.617
M204 S200
G1 F1200 X48.182 Y153.136 E303.97245
G1 X48.252 Y153.206
M204 S5000
G0 F2400 X48.464 Y152.854
M204 S200
G1 F1200 X25.945 Y130.335 E305.55732
G1 X25.875 Y130.265
M204 S5000
G0 F2400 X26.227 Y130.053
M204 S200
G1 F1200 X48.746 Y152.572 E307.14218
G1 X48.816 Y152.642
M204 S5000
G0 F2400 X49.028 Y152.29
M204 S200
G1 F1200 X26.509 Y129.771 E308.72705
G1 X26.439 Y129.701
M204 S5000
G0 F2400 X26.791 Y129.488
