;Generated from 2.1-drilltemplate.stl aa378f454861cc886c274c262f24009887d182b8
;Generated with Cura_SteamEngine 15.04
M140 S55.0
M109 T0 S210.0
T0
M190 S55.0

;Basic settings: Layer height: 0.15 Walls: 1.2 Fill: 50
;Print time: ?print_time?
;Filament used: ?filament_amount?m ?filament_weight?g
;Filament cost: ?filament_cost?
;M190 S55 ;Uncomment to add your own bed temperature line
;M109 S210 ;Uncomment to add your own temperature line
G21        ;metric values
G90        ;absolute positioning
M82        ;set extruder to absolute mode
M107       ;start with the fan off
G28 X0 Y0  ;move X/Y to min endstops
G28 Z0     ;move Z to min endstops
G1 Z5.0 F9000 ;move the platform down 15mm
G92 E0                  ;zero the extruded length
G1 F200 E3              ;extrude 3mm of feed stock
G92 E0                  ;zero the extruded length again
G1 F9000
;Put printing message on LCD screen
M117 Printing...

;Layer count: 44
;LAYER:0
M107
G0 F9000 X78.832 Y91.808 Z0.300
;TYPE:SKIRT
G1 F1200 X80.613 Y90.663 E0.10563
G1 X81.192 Y90.405 E0.13726
G1 X83.110 Y89.872 E0.23657
G1 X83.690 Y89.847 E0.26554
G1 X85.656 Y89.897 E0.36365
G1 X87.714 Y90.577 E0.47179
G1 X88.239 Y90.846 E0.50122
G1 X88.345 Y90.922 E0.50772
G1 X88.650 Y90.541 E0.53207
G1 X91.021 Y88.517 E0.68760
G1 X91.600 Y88.116 E0.72274
G1 X93.812 Y86.913 E0.84836
G1 X94.426 Y86.604 E0.88265
G1 X97.388 Y85.694 E1.03724
G1 X98.076 Y85.564 E1.07218
G1 X99.115 Y85.469 E1.12423
G1 X99.214 Y85.156 E1.14061
G1 X99.485 Y84.639 E1.16973
G1 X100.479 Y83.205 E1.25678
G1 X100.879 Y82.780 E1.28589
G1 X102.493 Y81.510 E1.38836
G1 X104.342 Y80.782 E1.48750
G1 X104.914 Y80.612 E1.51727
G1 X106.605 Y80.494 E1.60184
G1 X107.189 Y80.468 E1.63100
G1 X108.914 Y80.868 E1.71935
G1 X109.482 Y81.007 E1.74852
G1 X111.520 Y82.188 E1.86603
G1 X113.140 Y83.930 E1.98472
G1 X114.179 Y86.072 E2.10349
G1 X114.497 Y88.128 E2.20728
G1 X114.510 Y88.714 E2.23653
G1 X114.250 Y90.472 E2.32519
G1 X114.096 Y91.037 E2.35440
G1 X113.961 Y91.320 E2.37005
G1 X114.506 Y91.917 E2.41037
G1 X115.190 Y92.978 E2.47335
G1 X115.974 Y94.184 E2.54512
G1 X116.284 Y94.757 E2.57762
G1 X116.551 Y95.402 E2.61245
G1 X117.069 Y95.398 E2.63829
G1 X119.348 Y96.072 E2.75686
G1 X121.069 Y97.210 E2.85979
G1 X121.520 Y97.596 E2.88941
G1 X122.561 Y98.877 E2.97176
G1 X122.904 Y99.334 E3.00027
G1 X123.590 Y101.024 E3.09127
G1 X123.784 Y101.580 E3.12064
G1 X123.930 Y103.281 E3.20582
G1 X123.929 Y103.281 E3.20587
G1 X123.980 Y103.859 E3.23482
G1 X123.483 Y106.186 E3.35353
G1 X122.325 Y108.265 E3.47226
G1 X120.609 Y109.914 E3.59099
G1 X118.710 Y110.875 E3.69717
G1 X118.149 Y111.054 E3.72655
G1 X116.479 Y111.335 E3.81104
G1 X115.894 Y111.374 E3.84029
G1 X115.529 Y111.325 E3.85866
G1 X115.028 Y112.192 E3.90862
G1 X114.602 Y112.770 E3.94444
G1 X112.952 Y114.627 E4.06838
G1 X112.449 Y115.127 E4.10376
G1 X110.464 Y116.627 E4.22789
G1 X109.918 Y117.022 E4.26151
G1 X109.334 Y117.325 E4.29433
G1 X107.103 Y118.399 E4.41786
G1 X106.431 Y118.627 E4.45327
G1 X104.030 Y119.245 E4.57696
G1 X103.330 Y119.369 E4.61242
G1 X100.862 Y119.501 E4.73573
G1 X100.156 Y119.521 E4.77097
G1 X96.976 Y119.067 E4.93123
G1 X94.064 Y118.060 E5.08495
G1 X93.405 Y117.756 E5.12115
G1 X92.533 Y117.234 E5.17186
G1 X92.100 Y117.554 E5.19872
G1 X89.862 Y118.348 E5.31719
G1 X87.825 Y118.437 E5.41892
G1 X87.233 Y118.398 E5.44851
G1 X85.550 Y117.950 E5.53540
G1 X84.998 Y117.758 E5.56456
G1 X83.536 Y116.845 E5.65056
G1 X83.057 Y116.520 E5.67943
G1 X81.912 Y115.203 E5.76650
G1 X81.530 Y114.757 E5.79580
G1 X80.571 Y112.592 E5.91393
G1 X80.306 Y110.391 E6.02453
G1 X80.358 Y109.806 E6.05383
G1 X80.708 Y107.885 E6.15125
G1 X81.764 Y105.823 E6.26683
G1 X81.333 Y105.696 E6.28925
G1 X79.754 Y104.857 E6.37845
G1 X79.255 Y104.550 E6.40768
G1 X77.842 Y103.133 E6.50752
G1 X77.470 Y102.629 E6.53877
G1 X76.480 Y100.759 E6.64433
G1 X76.062 Y98.600 E6.75405
G1 X76.049 Y98.013 E6.78334
G1 X76.274 Y95.949 E6.88692
G1 X77.082 Y94.043 E6.99020
G1 X77.367 Y93.525 E7.01970
G1 X78.017 Y92.760 E7.06978
G1 X78.832 Y91.808 E7.13231
G0 F9000 X79.098 Y92.113
G1 F1200 X80.804 Y91.016 E7.23350
G1 X81.327 Y90.782 E7.26208
G1 X83.173 Y90.270 E7.35766
G1 X83.694 Y90.247 E7.38367
G1 X85.587 Y90.295 E7.47815
G1 X87.559 Y90.947 E7.58177
G1 X88.031 Y91.189 E7.60823
G1 X88.420 Y91.468 E7.63211
G1 X88.938 Y90.820 E7.67350
G1 X91.265 Y88.834 E7.82613
G1 X91.810 Y88.457 E7.85919
G1 X93.998 Y87.267 E7.98345
G1 X94.576 Y86.976 E8.01574
G1 X97.484 Y86.083 E8.16750
G1 X98.132 Y85.960 E8.20041
G1 X99.416 Y85.843 E8.26473
G1 X99.585 Y85.310 E8.29263
G1 X99.828 Y84.847 E8.31872
G1 X100.791 Y83.457 E8.40308
G1 X101.150 Y83.075 E8.42924
G1 X102.695 Y81.861 E8.52726
G1 X104.472 Y81.160 E8.62257
G1 X104.986 Y81.008 E8.64931
G1 X106.628 Y80.893 E8.73143
G1 X107.152 Y80.870 E8.75760
G1 X108.822 Y81.257 E8.84312
G1 X109.332 Y81.382 E8.86932
G1 X111.268 Y82.504 E8.98095
G1 X112.806 Y84.158 E9.09364
G1 X113.793 Y86.193 E9.20647
G1 X114.098 Y88.163 E9.30593
G1 X114.109 Y88.689 E9.33218
G1 X113.858 Y90.390 E9.41796
G1 X113.719 Y90.897 E9.44419
G1 X113.483 Y91.390 E9.47145
G1 X114.188 Y92.162 E9.52361
G1 X114.854 Y93.195 E9.58493
G1 X115.629 Y94.388 E9.65591
G1 X115.922 Y94.929 E9.68660
G1 X116.284 Y95.804 E9.73385
G1 X117.013 Y95.798 E9.77022
G1 X119.178 Y96.438 E9.88285
G1 X120.828 Y97.530 E9.98156
G1 X121.232 Y97.877 E10.00813
G1 X122.245 Y99.123 E10.08825
G1 X122.553 Y99.533 E10.11383
G1 X123.216 Y101.165 E10.20172
G1 X123.390 Y101.664 E10.22808
G1 X123.531 Y103.311 E10.31055
G1 X123.576 Y103.834 E10.33674
G1 X123.104 Y106.044 E10.44948
G1 X122.005 Y108.019 E10.56224
G1 X120.375 Y109.584 E10.67498
G1 X118.558 Y110.503 E10.77657
G1 X118.054 Y110.664 E10.80296
G1 X116.432 Y110.938 E10.88503
G1 X115.908 Y110.972 E10.91123
G1 X115.316 Y110.893 E10.94102
G1 X114.692 Y111.972 E11.00321
G1 X114.291 Y112.518 E11.03701
G1 X112.662 Y114.352 E11.15939
G1 X112.186 Y114.824 E11.19283
G1 X110.226 Y116.306 E11.31542
G1 X109.707 Y116.680 E11.34734
G1 X109.155 Y116.967 E11.37838
G1 X106.951 Y118.028 E11.50041
G1 X106.317 Y118.244 E11.53383
G1 X103.945 Y118.853 E11.65601
G1 X103.284 Y118.971 E11.68951
G1 X100.846 Y119.102 E11.81131
G1 X100.179 Y119.120 E11.84460
G1 X97.071 Y118.676 E12.00123
G1 X94.214 Y117.688 E12.15205
G1 X93.591 Y117.402 E12.18625
G1 X92.510 Y116.754 E12.24913
G1 X91.911 Y117.197 E12.28630
G1 X89.785 Y117.951 E12.39884
G1 X87.830 Y118.037 E12.49647
G1 X87.298 Y118.001 E12.52307
G1 X85.667 Y117.567 E12.60728
G1 X85.172 Y117.395 E12.63342
G1 X83.754 Y116.509 E12.71684
G1 X83.324 Y116.218 E12.74274
G1 X82.215 Y114.942 E12.82708
G1 X81.872 Y114.542 E12.85337
G1 X80.961 Y112.484 E12.96566
G1 X80.708 Y110.385 E13.07113
G1 X80.755 Y109.860 E13.09743
G1 X81.090 Y108.014 E13.19103
G1 X82.118 Y106.010 E13.30340
G1 X82.538 Y105.578 E13.33346
G1 X81.987 Y105.472 E13.36145
G1 X81.485 Y105.323 E13.38758
G1 X79.952 Y104.510 E13.47415
G1 X79.505 Y104.234 E13.50036
G1 X78.146 Y102.871 E13.59639
G1 X77.809 Y102.416 E13.62463
G1 X76.861 Y100.624 E13.72578
G1 X76.461 Y98.557 E13.83081
G1 X76.449 Y98.031 E13.85706
G1 X76.665 Y96.051 E13.95643
G1 X77.443 Y94.218 E14.05578
G1 X77.698 Y93.753 E14.08223
G1 X78.321 Y93.020 E14.13023
G1 X79.098 Y92.113 E14.18981
G1 F2400 E9.68981
G0 F9000 X81.888 Y95.312
;TYPE:WALL-INNER
G1 F2400 E14.18981
G1 F1200 X82.780 Y94.738 E14.24273
G1 X83.812 Y94.452 E14.29616
G1 X84.861 Y94.478 E14.34851
G1 X85.883 Y94.816 E14.40221
G1 X86.769 Y95.451 E14.45660
G1 X87.501 Y96.248 E14.51058
G1 X87.993 Y96.525 E14.53875
G1 X88.530 Y96.656 E14.56633
G1 X89.086 Y96.634 E14.59409
G1 X89.609 Y96.461 E14.62157
G1 X90.073 Y96.151 E14.64941
G1 X90.442 Y95.705 E14.67829
G1 X91.652 Y94.152 E14.77651
G1 X91.969 Y93.756 E14.80182
G1 X93.834 Y92.164 E14.92416
G1 X94.008 Y92.043 E14.93473
G1 X95.960 Y90.982 E15.04557
G1 X96.147 Y90.888 E15.05601
G1 X98.492 Y90.167 E15.17841
G1 X98.718 Y90.124 E15.18989
G1 X100.924 Y89.923 E15.30040
G1 X101.665 Y89.853 E15.33753
G1 X102.214 Y89.607 E15.36755
G1 X102.617 Y89.254 E15.39428
G1 X102.730 Y89.121 E15.40298
G1 X102.993 Y88.679 E15.42864
G1 X103.111 Y88.211 E15.45272
G1 X103.146 Y87.971 E15.46482
G1 X103.462 Y86.977 E15.51686
G1 X104.036 Y86.148 E15.56717
G1 X104.807 Y85.542 E15.61609
G1 X105.766 Y85.164 E15.66752
G1 X106.774 Y85.093 E15.71793
G1 X107.752 Y85.320 E15.76802
G1 X108.619 Y85.823 E15.81803
G1 X109.301 Y86.556 E15.86798
G1 X109.739 Y87.459 E15.91805
G1 X109.896 Y88.472 E15.96919
G1 X109.749 Y89.462 E16.01912
G1 X109.296 Y90.410 E16.07154
G1 X109.133 Y90.648 E16.08593
G1 X108.921 Y91.040 E16.10817
G1 X108.814 Y91.532 E16.13329
G1 X108.804 Y91.734 E16.14338
G1 X108.858 Y92.241 E16.16882
G1 X109.090 Y92.793 E16.19869
G1 X109.588 Y93.353 E16.23608
G1 X110.849 Y94.733 E16.32934
G1 X111.332 Y95.482 E16.37380
G1 X112.015 Y96.535 E16.43642
G1 X112.126 Y96.741 E16.44809
G1 X112.840 Y98.469 E16.54137
G1 X113.169 Y99.211 E16.58187
G1 X113.554 Y99.631 E16.61029
G1 X114.025 Y99.910 E16.63761
G1 X114.185 Y99.970 E16.64613
G1 X114.660 Y100.081 E16.67047
G1 X115.160 Y100.050 E16.69546
G1 X115.369 Y100.012 E16.70606
G1 X116.422 Y100.003 E16.75859
G1 X117.384 Y100.288 E16.80865
G1 X118.239 Y100.854 E16.85981
G1 X118.874 Y101.634 E16.90999
G1 X119.252 Y102.566 E16.96016
G1 X119.338 Y103.570 E17.01044
G1 X119.128 Y104.551 E17.06049
G1 X118.641 Y105.426 E17.11045
G1 X117.918 Y106.120 E17.16045
G1 X117.007 Y106.581 E17.21138
G1 X116.012 Y106.749 E17.26173
G1 X114.978 Y106.612 E17.31376
G1 X114.700 Y106.530 E17.32822
G1 X114.255 Y106.448 E17.35080
G1 X113.729 Y106.507 E17.37721
G1 X113.557 Y106.557 E17.38614
G1 X113.100 Y106.760 E17.41109
G1 X112.664 Y107.136 E17.43981
G1 X112.416 Y107.519 E17.46258
G1 X111.170 Y109.673 E17.58673
G1 X111.025 Y109.869 E17.59889
G1 X109.606 Y111.468 E17.70555
G1 X109.430 Y111.642 E17.71789
G1 X107.738 Y112.921 E17.82371
G1 X107.496 Y113.096 E17.83861
G1 X105.359 Y114.133 E17.95712
G1 X105.119 Y114.215 E17.96977
G1 X103.053 Y114.746 E18.07619
G1 X102.803 Y114.790 E18.08886
G1 X100.671 Y114.904 E18.19537
G1 X100.416 Y114.912 E18.20810
G1 X98.063 Y114.576 E18.32669
G1 X95.786 Y113.788 E18.44690
G1 X95.551 Y113.679 E18.45982
G1 X93.706 Y112.575 E18.56709
G1 X93.050 Y112.187 E18.60511
G1 X92.531 Y112.077 E18.63158
G1 X92.325 Y112.067 E18.64187
G1 X91.816 Y112.128 E18.66745
G1 X91.286 Y112.354 E18.69619
G1 X90.908 Y112.670 E18.72077
G1 X90.762 Y112.824 E18.73136
G1 X89.917 Y113.448 E18.78376
G1 X88.974 Y113.782 E18.83367
G1 X87.945 Y113.828 E18.88506
G1 X86.977 Y113.570 E18.93504
G1 X86.126 Y113.038 E18.98511
G1 X85.461 Y112.273 E19.03568
G1 X85.056 Y111.359 E19.08556
G1 X84.934 Y110.350 E19.13626
G1 X85.112 Y109.377 E19.18561
G1 X85.569 Y108.485 E19.23562
G1 X86.282 Y107.751 E19.28667
G1 X87.235 Y107.234 E19.34076
G1 X87.846 Y106.988 E19.37362
G1 X88.242 Y106.635 E19.40009
G1 X88.388 Y106.453 E19.41173
G1 X88.631 Y106.028 E19.43615
G1 X88.765 Y105.479 E19.46435
G1 X88.741 Y105.001 E19.48822
G1 X88.491 Y103.037 E19.58700
G1 X88.404 Y102.510 E19.61365
G1 X88.150 Y102.002 E19.64198
G1 X87.776 Y101.596 E19.66952
G1 X87.306 Y101.305 E19.69710
G1 X86.775 Y101.155 E19.72463
G1 X86.202 Y101.152 E19.75322
G1 X85.234 Y101.467 E19.80400
G1 X85.173 Y101.486 E19.80719
G1 X84.095 Y101.601 E19.86128
G1 X83.050 Y101.399 E19.91438
G1 X82.113 Y100.902 E19.96729
G1 X81.361 Y100.147 E20.02046
G1 X80.866 Y99.212 E20.07324
G1 X80.661 Y98.153 E20.12705
G1 X80.773 Y97.124 E20.17869
G1 X81.200 Y96.118 E20.23322
G1 X81.888 Y95.312 E20.28609
G0 F9000 X82.575 Y95.711
G1 F1200 X81.945 Y96.341 E20.33054
G1 X81.540 Y97.133 E20.37491
G1 X81.400 Y98.014 E20.41942
G1 X81.540 Y98.894 E20.46388
G1 X81.945 Y99.688 E20.50834
G1 X82.575 Y100.318 E20.55279
G1 X83.368 Y100.723 E20.59722
G1 X84.248 Y100.861 E20.64166
G1 X85.127 Y100.723 E20.68605
G1 X85.922 Y100.318 E20.73056
G1 X86.552 Y99.688 E20.77501
G1 X86.957 Y98.893 E20.81952
G1 X87.095 Y98.014 E20.86391
G1 X86.957 Y97.134 E20.90835
G1 X86.552 Y96.341 E20.95278
G1 X85.922 Y95.711 E20.99723
G1 X85.128 Y95.306 E21.04170
G1 X84.248 Y95.166 E21.08615
G1 X83.367 Y95.306 E21.13066
G1 X82.575 Y95.711 E21.17504
G0 F9000 X85.001 Y95.694
G0 X86.221 Y96.581
G0 X92.021 Y98.775
G1 F1200 X91.435 Y100.582 E21.26981
G1 X91.969 Y101.182 E21.30988
G1 X91.904 Y101.798 E21.34079
G1 X91.864 Y102.253 E21.36357
G1 X91.861 Y102.419 E21.37186
G1 X91.864 Y102.592 E21.38049
G1 X91.971 Y103.655 E21.43379
G1 X91.435 Y104.256 E21.47397
G1 X92.021 Y106.063 E21.56874
G1 X92.874 Y107.789 E21.66479
G1 X93.662 Y107.814 E21.70413
G1 X94.148 Y108.425 E21.74308
G1 X94.445 Y108.784 E21.76632
G1 X94.968 Y109.246 E21.80114
G1 X95.551 Y109.710 E21.83831
G1 X95.590 Y109.741 E21.84079
G1 X95.617 Y110.532 E21.88028
G1 X97.342 Y111.384 E21.97627
G1 X99.149 Y111.970 E22.07104
G1 X99.749 Y111.436 E22.11111
G1 X100.365 Y111.501 E22.14202
G1 X100.820 Y111.541 E22.16480
G1 X101.013 Y111.545 E22.17443
G1 X101.598 Y111.503 E22.20370
G1 X102.223 Y111.435 E22.23506
G1 X102.823 Y111.970 E22.27517
G1 X104.630 Y111.384 E22.36994
G1 X106.356 Y110.531 E22.46599
G1 X106.381 Y109.743 E22.50533
G1 X106.992 Y109.257 E22.54428
G1 X107.351 Y108.960 E22.56752
G1 X107.813 Y108.437 E22.60234
G1 X108.277 Y107.854 E22.63951
G1 X108.308 Y107.815 E22.64199
G1 X109.099 Y107.788 E22.68148
G1 X109.951 Y106.063 E22.77747
G1 X110.537 Y104.256 E22.87224
G1 X110.003 Y103.656 E22.91231
G1 X110.068 Y103.040 E22.94322
G1 X110.108 Y102.585 E22.96600
G1 X110.112 Y102.392 E22.97563
G1 X110.070 Y101.807 E23.00490
G1 X110.002 Y101.182 E23.03626
G1 X110.537 Y100.582 E23.07637
G1 X109.951 Y98.775 E23.17114
G1 X109.098 Y97.049 E23.26719
G1 X108.310 Y97.024 E23.30653
G1 X107.824 Y96.413 E23.34548
G1 X107.527 Y96.054 E23.36872
G1 X107.004 Y95.592 E23.40354
G1 X106.421 Y95.128 E23.44071
G1 X106.382 Y95.097 E23.44320
G1 X106.355 Y94.306 E23.48268
G1 X104.655 Y93.467 E23.57726
G1 X102.824 Y92.866 E23.67341
G1 X102.223 Y93.402 E23.71358
G1 X101.607 Y93.337 E23.74448
G1 X101.152 Y93.297 E23.76727
G1 X100.959 Y93.293 E23.77690
G1 X100.374 Y93.335 E23.80616
G1 X99.749 Y93.403 E23.83753
G1 X99.149 Y92.868 E23.87764
G1 X97.342 Y93.454 E23.97241
G1 X96.165 Y94.035 E24.03789
G1 X95.616 Y94.310 E24.06853
G1 X95.591 Y95.095 E24.10771
G1 X94.980 Y95.581 E24.14666
G1 X94.621 Y95.878 E24.16991
G1 X94.159 Y96.401 E24.20472
G1 X93.695 Y96.984 E24.24190
G1 X93.664 Y97.023 E24.24438
G1 X92.873 Y97.050 E24.28387
G1 X92.021 Y98.775 E24.37985
G0 F9000 X89.018 Y108.315
G1 F1200 X88.323 Y108.206 E24.41495
G1 X87.628 Y108.315 E24.45005
G1 X86.998 Y108.635 E24.48530
G1 X86.501 Y109.134 E24.52044
G1 X86.180 Y109.761 E24.55558
G1 X86.071 Y110.458 E24.59078
G1 X86.180 Y111.154 E24.62592
G1 X86.501 Y111.783 E24.66115
G1 X86.999 Y112.280 E24.69626
G1 X87.627 Y112.600 E24.73142
G1 X88.323 Y112.711 E24.76658
G1 X89.019 Y112.600 E24.80174
G1 X89.647 Y112.280 E24.83691
G1 X90.145 Y111.782 E24.87204
G1 X90.465 Y111.154 E24.90721
G1 X90.576 Y110.458 E24.94237
G1 X90.465 Y109.761 E24.97758
G1 X90.145 Y109.135 E25.01266
G1 X89.648 Y108.635 E25.04783
G1 X89.018 Y108.315 E25.08308
G0 F9000 X93.144 Y97.471
G0 X96.343 Y94.394
G0 X99.048 Y93.350
G0 X105.183 Y90.294
G1 F1200 X105.808 Y90.614 E25.11811
G1 X106.505 Y90.725 E25.15333
G1 X107.202 Y90.614 E25.18854
G1 X107.828 Y90.294 E25.22361
G1 X108.328 Y89.797 E25.25878
G1 X108.648 Y89.167 E25.29404
G1 X108.757 Y88.472 E25.32913
G1 X108.648 Y87.777 E25.36423
G1 X108.328 Y87.147 E25.39949
G1 X107.828 Y86.650 E25.43466
G1 X107.202 Y86.330 E25.46973
G1 X106.505 Y86.219 E25.50494
G1 X105.808 Y86.330 E25.54016
G1 X105.183 Y86.650 E25.57519
G1 X104.683 Y87.147 E25.61036
G1 X104.363 Y87.776 E25.64557
G1 X104.252 Y88.472 E25.68073
G1 X104.363 Y89.168 E25.71589
G1 X104.683 Y89.797 E25.75110
G1 X105.183 Y90.294 E25.78627
G0 F9000 X114.633 Y101.536
G1 F1200 X114.134 Y102.033 E25.82141
G1 X113.814 Y102.662 E25.85662
G1 X113.703 Y103.358 E25.89178
G1 X113.814 Y104.054 E25.92694
G1 X114.134 Y104.682 E25.96211
G1 X114.631 Y105.180 E25.99721
G1 X115.260 Y105.501 E26.03244
G1 X115.956 Y105.610 E26.06759
G1 X116.652 Y105.501 E26.10273
G1 X117.281 Y105.180 E26.13796
G1 X117.778 Y104.682 E26.17307
G1 X118.098 Y104.054 E26.20823
G1 X118.209 Y103.358 E26.24339
