;Generated from 2.1-LH-BLTouchcover-R.stl aaa05e82b84fc0eca74e205dd1c00755afae785b
;Generated with Cura_SteamEngine 15.04
M140 S55.0
M109 T0 S210.0
T0
M190 S55.0

;Basic settings: Layer height: 0.15 Walls: 1.2 Fill: 50
;Print time: ?print_time?
;Filament used: ?filament_amount?m ?filament_weight?g
;Filament cost: ?filament_cost?
;M190 S55 ;Uncomment to add your own bed temperature line
;M109 S210 ;Uncomment to add your own temperature line
G21        ;metric values
G90        ;absolute positioning
M82        ;set extruder to absolute mode
M107       ;start with the fan off
G28 X0 Y0  ;move X/Y to min endstops
G28 Z0     ;move Z to min endstops
G1 Z5.0 F9000 ;move the platform down 15mm
G92 E0                  ;zero the extruded length
G1 F200 E3              ;extrude 3mm of feed stock
G92 E0                  ;zero the extruded length again
G1 F9000
;Put printing message on LCD screen
M117 Printing...

;Layer count: 59
;LAYER:0
M107
G0 F9000 X85.511 Y93.939 Z0.300
;TYPE:SKIRT
G1 F1200 X86.271 Y93.291 E0.04983
G1 X87.105 Y92.743 E0.09961
G1 X88.006 Y92.306 E0.14957
G1 X88.840 Y92.025 E0.19348
G1 X95.848 Y90.130 E0.55567
G1 X96.592 Y89.980 E0.59353
G1 X99.009 Y89.957 E0.71412
G1 X102.854 Y89.957 E0.90595
G1 X103.614 Y90.008 E0.94395
G1 X106.438 Y90.747 E1.08959
G1 X111.190 Y92.031 E1.33517
G1 X111.916 Y92.290 E1.37362
G1 X112.348 Y92.463 E1.39684
G1 X113.175 Y92.913 E1.44381
G1 X113.942 Y93.459 E1.49078
G1 X114.641 Y94.094 E1.53790
G1 X115.256 Y94.806 E1.58484
G1 X115.783 Y95.586 E1.63180
G1 X116.216 Y96.429 E1.67908
G1 X116.543 Y97.314 E1.72615
G1 X116.762 Y98.232 E1.77324
G1 X116.866 Y99.144 E1.81903
G1 X116.875 Y100.126 E1.86802
G1 X116.876 Y101.517 E1.93742
G1 X116.774 Y102.341 E1.97885
G1 X116.441 Y103.308 E2.02987
G1 X115.883 Y104.194 E2.08211
G1 X115.147 Y104.930 E2.13404
G1 X114.261 Y105.488 E2.18628
G1 X113.287 Y105.824 E2.23768
G1 X112.464 Y105.922 E2.27903
G1 X105.706 Y105.923 E2.61619
G1 X99.071 Y105.921 E2.94721
G1 X96.676 Y105.922 E3.06669
G1 X96.678 Y110.518 E3.29599
G1 X86.751 Y110.518 E3.79125
G1 X86.751 Y106.222 E4.00558
G1 X86.547 Y106.100 E4.01744
G1 X85.766 Y105.490 E4.06688
G1 X85.065 Y104.783 E4.11655
G1 X84.459 Y103.994 E4.16618
G1 X83.954 Y103.131 E4.21607
G1 X83.565 Y102.213 E4.26581
G1 X83.294 Y101.255 E4.31548
G1 X83.147 Y100.268 E4.36527
G1 X83.125 Y99.274 E4.41487
G1 X83.228 Y98.281 E4.46467
G1 X83.457 Y97.311 E4.51440
G1 X83.805 Y96.377 E4.56413
G1 X84.271 Y95.492 E4.61403
G1 X84.841 Y94.679 E4.66356
G1 X85.511 Y93.939 E4.71336
G0 F9000 X85.790 Y94.227
G1 F1200 X86.511 Y93.612 E4.76064
G1 X87.303 Y93.092 E4.80791
G1 X88.158 Y92.677 E4.85533
G1 X88.956 Y92.407 E4.89736
G1 X95.940 Y90.519 E5.25830
G1 X96.634 Y90.380 E5.29361
G1 X99.010 Y90.357 E5.41215
G1 X102.841 Y90.357 E5.60328
G1 X103.550 Y90.404 E5.63873
G1 X106.335 Y91.134 E5.78237
G1 X111.071 Y92.413 E6.02712
G1 X111.774 Y92.664 E6.06436
G1 X112.177 Y92.825 E6.08601
G1 X112.962 Y93.253 E6.13061
G1 X113.691 Y93.771 E6.17523
G1 X114.354 Y94.374 E6.21994
G1 X114.938 Y95.050 E6.26451
G1 X115.439 Y95.790 E6.30909
G1 X115.849 Y96.590 E6.35394
G1 X116.159 Y97.430 E6.39861
G1 X116.367 Y98.302 E6.44334
G1 X116.466 Y99.169 E6.48687
G1 X116.475 Y100.128 E6.53472
G1 X116.476 Y101.492 E6.60277
G1 X116.383 Y102.251 E6.64092
G1 X116.077 Y103.134 E6.68754
G1 X115.568 Y103.943 E6.73523
G1 X114.896 Y104.615 E6.78264
G1 X114.087 Y105.124 E6.83033
G1 X113.197 Y105.432 E6.87731
G1 X112.440 Y105.522 E6.91535
G1 X105.706 Y105.523 E7.25131
G1 X99.399 Y105.521 E7.56597
G1 X96.275 Y105.522 E7.72182
G1 X96.277 Y110.118 E7.95112
G1 X87.151 Y110.118 E8.40642
G1 X87.151 Y105.996 E8.61206
G1 X86.774 Y105.770 E8.63399
G1 X86.032 Y105.190 E8.68098
G1 X85.367 Y104.519 E8.72811
G1 X84.792 Y103.771 E8.77518
G1 X84.313 Y102.952 E8.82252
G1 X83.943 Y102.080 E8.86977
G1 X83.686 Y101.171 E8.91690
G1 X83.546 Y100.234 E8.96417
G1 X83.525 Y99.290 E9.01128
G1 X83.623 Y98.348 E9.05853
G1 X83.840 Y97.427 E9.10573
G1 X84.171 Y96.541 E9.15292
G1 X84.613 Y95.701 E9.20027
G1 X85.154 Y94.929 E9.24731
G1 X85.790 Y94.227 E9.29456
G1 F2400 E4.79456
G0 F9000 X88.718 Y97.250
;TYPE:WALL-INNER
G1 F2400 E9.29456
G1 F1200 X89.036 Y96.979 E9.31541
G1 X89.380 Y96.753 E9.33594
G1 X89.752 Y96.572 E9.35658
G1 X90.190 Y96.424 E9.37965
G1 X96.903 Y94.609 E9.72659
G1 X97.069 Y94.576 E9.73503
G1 X99.036 Y94.557 E9.83317
G1 X102.697 Y94.557 E10.01582
G1 X102.875 Y94.569 E10.02472
G1 X105.251 Y95.191 E10.14725
G1 X109.815 Y96.424 E10.38311
G1 X110.299 Y96.597 E10.40876
G1 X110.385 Y96.631 E10.41337
G1 X110.728 Y96.818 E10.43286
G1 X111.056 Y97.052 E10.45296
G1 X111.341 Y97.310 E10.47214
G1 X111.596 Y97.605 E10.49160
G1 X111.816 Y97.931 E10.51122
G1 X111.999 Y98.287 E10.53119
G1 X112.131 Y98.645 E10.55022
G1 X112.223 Y99.030 E10.56997
G1 X112.269 Y99.430 E10.59006
G1 X112.275 Y100.145 E10.62573
G1 X112.276 Y101.240 E10.68036
G1 X112.266 Y101.305 E10.68364
G1 X112.258 Y101.313 E10.68421
G1 X111.067 Y101.322 E10.74363
G1 X111.162 Y101.220 E10.75058
G1 X111.455 Y100.733 E10.77894
G1 X111.643 Y100.178 E10.80817
G1 X111.705 Y99.595 E10.83742
G1 X111.638 Y98.998 E10.86739
G1 X111.446 Y98.448 E10.89646
G1 X111.153 Y97.958 E10.92494
G1 X110.737 Y97.525 E10.95490
G1 X110.255 Y97.203 E10.98382
G1 X109.724 Y96.990 E11.01236
G1 X109.143 Y96.895 E11.04173
G1 X108.547 Y96.931 E11.07152
G1 X107.996 Y97.084 E11.10005
G1 X107.466 Y97.368 E11.13005
G1 X107.022 Y97.752 E11.15933
G1 X106.676 Y98.216 E11.18821
G1 X106.435 Y98.732 E11.21662
G1 X106.314 Y99.282 E11.24472
G1 X106.299 Y99.607 E11.26095
G1 X106.317 Y99.931 E11.27714
G1 X106.441 Y100.478 E11.30512
G1 X106.692 Y101.007 E11.33434
G1 X106.935 Y101.322 E11.35418
G1 X103.599 Y101.322 E11.52062
G1 X103.599 Y99.554 E11.60882
G1 X103.549 Y98.973 E11.63792
G1 X103.386 Y98.364 E11.66937
G1 X103.120 Y97.796 E11.70066
G1 X102.760 Y97.281 E11.73201
G1 X102.316 Y96.837 E11.76334
G1 X101.801 Y96.477 E11.79468
G1 X101.233 Y96.211 E11.82597
G1 X100.624 Y96.048 E11.85743
G1 X100.000 Y95.994 E11.88868
G1 X99.376 Y96.048 E11.91992
G1 X98.767 Y96.211 E11.95138
G1 X98.199 Y96.477 E11.98267
G1 X97.684 Y96.837 E12.01402
G1 X97.240 Y97.281 E12.04534
G1 X96.880 Y97.796 E12.07669
G1 X96.614 Y98.364 E12.10798
G1 X96.451 Y98.973 E12.13943
G1 X96.401 Y99.554 E12.16853
G1 X96.401 Y101.322 E12.25673
G1 X95.334 Y101.323 E12.30997
G1 X94.294 Y101.322 E12.36185
G1 X93.844 Y101.373 E12.38445
G1 X93.361 Y101.541 E12.40996
G1 X92.925 Y101.815 E12.43565
G1 X92.557 Y102.187 E12.46176
G1 X92.296 Y102.606 E12.48638
G1 X92.125 Y103.088 E12.51190
G1 X92.076 Y103.542 E12.53468
G1 X92.075 Y104.665 E12.59071
G1 X92.076 Y105.918 E12.65322
G1 X91.351 Y105.918 E12.68939
G1 X91.350 Y105.359 E12.71728
G1 X91.338 Y105.117 E12.72937
G1 X91.212 Y104.482 E12.76167
G1 X91.107 Y104.159 E12.77861
G1 X90.941 Y103.778 E12.79934
G1 X90.620 Y103.294 E12.82832
G1 X90.210 Y102.885 E12.85721
G1 X89.536 Y102.528 E12.89526
G1 X89.154 Y102.299 E12.91748
G1 X88.825 Y102.042 E12.93831
G1 X88.535 Y101.750 E12.95884
G1 X88.283 Y101.422 E12.97948
G1 X88.076 Y101.067 E12.99998
G1 X87.912 Y100.680 E13.02095
G1 X87.801 Y100.288 E13.04128
G1 X87.740 Y99.877 E13.06201
G1 X87.730 Y99.463 E13.08267
G1 X87.774 Y99.044 E13.10369
G1 X87.867 Y98.650 E13.12388
G1 X88.012 Y98.261 E13.14459
G1 X88.206 Y97.893 E13.16535
G1 X88.445 Y97.551 E13.18617
G1 X88.718 Y97.250 E13.20644
G0 F9000 X89.023 Y97.752
G1 F1200 X88.677 Y98.216 E13.23532
G1 X88.436 Y98.732 E13.26373
G1 X88.315 Y99.282 E13.29182
G1 X88.300 Y99.607 E13.30806
G1 X88.318 Y99.931 E13.32424
G1 X88.442 Y100.478 E13.35223
G1 X88.693 Y101.007 E13.38144
G1 X89.047 Y101.466 E13.41036
G1 X89.484 Y101.839 E13.43902
G1 X90.014 Y102.115 E13.46883
G1 X90.563 Y102.267 E13.49725
G1 X91.150 Y102.299 E13.52658
G1 X91.741 Y102.199 E13.55649
G1 X92.283 Y101.977 E13.58571
G1 X92.765 Y101.646 E13.61488
G1 X93.163 Y101.220 E13.64397
G1 X93.456 Y100.733 E13.67232
G1 X93.644 Y100.178 E13.70156
G1 X93.706 Y99.595 E13.73081
G1 X93.639 Y98.998 E13.76078
G1 X93.447 Y98.448 E13.78984
G1 X93.154 Y97.958 E13.81832
G1 X92.738 Y97.525 E13.84828
G1 X92.256 Y97.203 E13.87720
G1 X91.725 Y96.990 E13.90574
G1 X91.144 Y96.895 E13.93511
G1 X90.548 Y96.931 E13.96490
G1 X89.997 Y97.084 E13.99343
G1 X89.467 Y97.368 E14.02343
G1 X89.023 Y97.752 E14.05272
G0 F9000 X89.317 Y98.026
G1 F1200 X89.022 Y98.422 E14.07735
G1 X88.817 Y98.861 E14.10153
G1 X88.713 Y99.335 E14.12574
G1 X88.700 Y99.605 E14.13922
G1 X88.716 Y99.875 E14.15272
G1 X88.822 Y100.346 E14.17680
G1 X89.036 Y100.797 E14.20171
G1 X89.338 Y101.189 E14.22640
G1 X89.709 Y101.505 E14.25071
G1 X90.161 Y101.740 E14.27612
G1 X90.628 Y101.870 E14.30031
G1 X91.127 Y101.897 E14.32524
G1 X91.630 Y101.812 E14.35069
G1 X92.092 Y101.623 E14.37559
G1 X92.503 Y101.341 E14.40046
G1 X92.842 Y100.978 E14.42524
G1 X93.091 Y100.564 E14.44934
G1 X93.251 Y100.092 E14.47421
G1 X93.304 Y99.596 E14.49909
G1 X93.247 Y99.087 E14.52465
G1 X93.083 Y98.618 E14.54944
G1 X92.834 Y98.202 E14.57362
G1 X92.480 Y97.834 E14.59910
G1 X92.068 Y97.558 E14.62384
G1 X91.617 Y97.377 E14.64808
G1 X91.123 Y97.297 E14.67305
G1 X90.615 Y97.328 E14.69844
G1 X90.146 Y97.458 E14.72272
G1 X89.695 Y97.699 E14.74823
G1 X89.317 Y98.026 E14.77317
G0 F9000 X88.129 Y97.306
G1 F1200 X88.443 Y96.958 E14.79656
G1 X88.801 Y96.654 E14.81999
G1 X89.178 Y96.406 E14.84250
G1 X89.599 Y96.202 E14.86584
G1 X90.070 Y96.043 E14.89064
G1 X96.813 Y94.220 E15.23913
G1 X97.028 Y94.176 E15.25008
G1 X99.032 Y94.157 E15.35006
G1 X102.709 Y94.157 E15.53351
G1 X102.940 Y94.172 E15.54506
G1 X105.355 Y94.805 E15.66961
G1 X109.939 Y96.044 E15.90651
G1 X110.420 Y96.215 E15.93198
G1 X110.556 Y96.270 E15.93930
G1 X110.944 Y96.480 E15.96131
G1 X111.307 Y96.739 E15.98356
G1 X111.628 Y97.030 E16.00518
G1 X111.915 Y97.364 E16.02715
G1 X112.162 Y97.727 E16.04905
G1 X112.363 Y98.121 E16.07112
G1 X112.515 Y98.532 E16.09298
G1 X112.619 Y98.965 E16.11520
G1 X112.668 Y99.400 E16.13704
G1 X112.675 Y100.145 E16.17421
G1 X112.676 Y101.265 E16.23008
G1 X112.661 Y101.386 E16.23617
G1 X112.628 Y101.480 E16.24114
G1 X112.579 Y101.559 E16.24577
G1 X112.512 Y101.626 E16.25050
G1 X112.433 Y101.675 E16.25514
G1 X112.343 Y101.706 E16.25989
G1 X109.849 Y101.722 E16.38432
G1 X110.091 Y101.623 E16.39736
G1 X110.502 Y101.341 E16.42223
G1 X110.841 Y100.978 E16.44701
G1 X111.090 Y100.564 E16.47111
G1 X111.250 Y100.092 E16.49598
G1 X111.303 Y99.596 E16.52086
G1 X111.246 Y99.087 E16.54641
G1 X111.082 Y98.618 E16.57120
G1 X110.833 Y98.202 E16.59539
G1 X110.479 Y97.834 E16.62087
G1 X110.067 Y97.558 E16.64561
G1 X109.616 Y97.377 E16.66985
G1 X109.122 Y97.297 E16.69482
G1 X108.614 Y97.328 E16.72021
G1 X108.145 Y97.458 E16.74449
G1 X107.694 Y97.699 E16.77000
G1 X107.316 Y98.026 E16.79494
G1 X107.021 Y98.422 E16.81957
G1 X106.816 Y98.861 E16.84375
G1 X106.712 Y99.335 E16.86796
G1 X106.699 Y99.605 E16.88144
G1 X106.715 Y99.875 E16.89494
G1 X106.821 Y100.346 E16.91902
G1 X107.035 Y100.797 E16.94393
G1 X107.337 Y101.189 E16.96862
G1 X107.708 Y101.505 E16.99293
G1 X108.125 Y101.722 E17.01638
G1 X103.199 Y101.722 E17.26214
G1 X103.199 Y99.571 E17.36945
G1 X103.153 Y99.042 E17.39595
G1 X103.009 Y98.502 E17.42383
G1 X102.772 Y97.997 E17.45166
G1 X102.453 Y97.539 E17.47950
G1 X102.058 Y97.144 E17.50737
G1 X101.600 Y96.825 E17.53522
G1 X101.095 Y96.588 E17.56305
G1 X100.555 Y96.444 E17.59093
G1 X100.000 Y96.396 E17.61873
G1 X99.445 Y96.444 E17.64652
G1 X98.905 Y96.588 E17.67440
G1 X98.400 Y96.825 E17.70223
G1 X97.942 Y97.144 E17.73008
G1 X97.547 Y97.539 E17.75795
G1 X97.228 Y97.997 E17.78579
G1 X96.991 Y98.502 E17.81362
G1 X96.847 Y99.042 E17.84151
G1 X96.801 Y99.571 E17.86800
G1 X96.801 Y101.722 E17.97531
G1 X94.316 Y101.722 E18.09929
G1 X93.933 Y101.765 E18.11852
G1 X93.535 Y101.904 E18.13955
G1 X93.177 Y102.129 E18.16064
G1 X92.873 Y102.437 E18.18223
G1 X92.658 Y102.781 E18.20247
G1 X92.518 Y103.178 E18.22348
G1 X92.476 Y103.564 E18.24285
G1 X92.476 Y106.318 E18.38024
G1 X90.951 Y106.318 E18.45633
G1 X90.951 Y105.499 E18.49719
G1 X90.940 Y105.166 E18.51381
G1 X90.825 Y104.583 E18.54346
G1 X90.733 Y104.301 E18.55825
G1 X90.588 Y103.968 E18.57637
G1 X90.314 Y103.553 E18.60118
G1 X89.970 Y103.211 E18.62539
G1 X89.337 Y102.875 E18.66114
G1 X88.931 Y102.632 E18.68475
G1 X88.560 Y102.342 E18.70824
G1 X88.234 Y102.014 E18.73131
G1 X87.950 Y101.643 E18.75462
G1 X87.714 Y101.241 E18.77788
G1 X87.535 Y100.817 E18.80084
G1 X87.408 Y100.370 E18.82402
G1 X87.340 Y99.914 E18.84702
G1 X87.330 Y99.446 E18.87038
G1 X87.378 Y98.982 E18.89365
G1 X87.485 Y98.530 E18.91682
G1 X87.647 Y98.095 E18.93998
G1 X87.862 Y97.686 E18.96303
G1 X88.129 Y97.306 E18.98620
G0 F9000 X87.820 Y97.050
;TYPE:WALL-OUTER
G1 F1200 X88.160 Y96.674 E19.01149
G1 X88.555 Y96.337 E19.03740
G1 X88.986 Y96.054 E19.06312
G1 X89.445 Y95.831 E19.08858
G1 X89.950 Y95.661 E19.11517
G1 X96.719 Y93.831 E19.46500
G1 X96.987 Y93.777 E19.47864
G1 X99.028 Y93.757 E19.58047
G1 X102.721 Y93.757 E19.76471
G1 X103.005 Y93.776 E19.77891
G1 X105.460 Y94.419 E19.90552
G1 X110.056 Y95.661 E20.14304
G1 X110.569 Y95.844 E20.17022
G1 X110.725 Y95.907 E20.17861
G1 X111.160 Y96.143 E20.20330
G1 X111.557 Y96.426 E20.22762
G1 X111.914 Y96.750 E20.25168
G1 X112.232 Y97.119 E20.27598
G1 X112.509 Y97.528 E20.30062
G1 X112.729 Y97.957 E20.32468
G1 X112.899 Y98.416 E20.34910
G1 X113.012 Y98.892 E20.37350
G1 X113.068 Y99.380 E20.39801
G1 X113.075 Y100.144 E20.43613
G1 X113.076 Y101.289 E20.49325
G1 X113.053 Y101.477 E20.50270
G1 X112.991 Y101.656 E20.51215
G1 X112.894 Y101.810 E20.52123
G1 X112.763 Y101.941 E20.53048
G1 X112.609 Y102.038 E20.53956
G1 X112.435 Y102.098 E20.54874
G1 X112.234 Y102.122 E20.55884
G1 X102.799 Y102.122 E21.02955
G1 X102.799 Y99.588 E21.15597
G1 X102.758 Y99.111 E21.17986
G1 X102.632 Y98.639 E21.20423
G1 X102.425 Y98.198 E21.22854
G1 X102.145 Y97.797 E21.25294
G1 X101.800 Y97.452 E21.27728
G1 X101.399 Y97.172 E21.30168
G1 X100.958 Y96.965 E21.32598
G1 X100.486 Y96.839 E21.35036
G1 X100.000 Y96.797 E21.37469
G1 X99.514 Y96.839 E21.39903
G1 X99.042 Y96.965 E21.42340
G1 X98.601 Y97.172 E21.44771
G1 X98.200 Y97.452 E21.47211
G1 X97.855 Y97.797 E21.49645
G1 X97.575 Y98.198 E21.52085
G1 X97.368 Y98.639 E21.54515
G1 X97.242 Y99.111 E21.56953
G1 X97.201 Y99.588 E21.59341
G1 X97.201 Y102.122 E21.71983
G1 X94.339 Y102.122 E21.86262
G1 X94.022 Y102.158 E21.87854
G1 X93.710 Y102.267 E21.89503
G1 X93.429 Y102.443 E21.91157
G1 X93.189 Y102.686 E21.92861
G1 X93.021 Y102.956 E21.94447
G1 X92.911 Y103.267 E21.96093
G1 X92.876 Y103.586 E21.97694
G1 X92.876 Y106.718 E22.13320
G1 X90.551 Y106.718 E22.24919
G1 X90.551 Y105.501 E22.30991
G1 X90.542 Y105.215 E22.32418
G1 X90.437 Y104.684 E22.35119
G1 X90.234 Y104.157 E22.37936
G1 X90.008 Y103.813 E22.39990
G1 X89.730 Y103.536 E22.41948
G1 X89.139 Y103.222 E22.45287
G1 X88.700 Y102.959 E22.47840
G1 X88.295 Y102.642 E22.50406
G1 X87.934 Y102.279 E22.52960
G1 X87.618 Y101.868 E22.55546
G1 X87.357 Y101.421 E22.58129
G1 X87.156 Y100.947 E22.60697
G1 X87.018 Y100.460 E22.63223
G1 X86.941 Y99.942 E22.65835
G1 X86.929 Y99.430 E22.68390
G1 X86.983 Y98.918 E22.70959
G1 X87.104 Y98.405 E22.73588
G1 X87.280 Y97.934 E22.76097
G1 X87.520 Y97.478 E22.78668
G1 X87.820 Y97.050 E22.81275
G0 F9000 X88.052 Y97.241
G0 X89.415 Y98.074
G0 X89.612 Y98.300
G1 F1200 X89.367 Y98.628 E22.83318
G1 X89.198 Y98.990 E22.85311
G1 X89.111 Y99.388 E22.87344
G1 X89.101 Y99.603 E22.88417
G1 X89.113 Y99.819 E22.89497
G1 X89.203 Y100.215 E22.91523
G1 X89.379 Y100.587 E22.93576
G1 X89.629 Y100.912 E22.95622
G1 X89.934 Y101.171 E22.97618
G1 X90.308 Y101.366 E22.99722
G1 X90.693 Y101.473 E23.01716
G1 X91.104 Y101.495 E23.03769
G1 X91.520 Y101.425 E23.05874
G1 X91.901 Y101.269 E23.07928
G1 X92.240 Y101.036 E23.09980
G1 X92.521 Y100.736 E23.12031
G1 X92.726 Y100.395 E23.14016
G1 X92.858 Y100.005 E23.16070
G1 X92.901 Y99.597 E23.18117
G1 X92.854 Y99.176 E23.20230
G1 X92.719 Y98.789 E23.22275
G1 X92.514 Y98.447 E23.24264
G1 X92.221 Y98.142 E23.26374
G1 X91.881 Y97.914 E23.28417
G1 X91.509 Y97.765 E23.30416
G1 X91.103 Y97.699 E23.32468
G1 X90.681 Y97.725 E23.34577
G1 X90.296 Y97.831 E23.36570
G1 X89.923 Y98.031 E23.38681
