;Generated from 2.1-idlerholder.stl e0e6ea37950df6c8a6515759caa72c3080ab4d22
;Generated with Cura_SteamEngine 15.04
M140 S55.0
M109 T0 S210.0
T0
M190 S55.0

;Basic settings: Layer height: 0.15 Walls: 1.2 Fill: 50
;Print time: ?print_time?
;Filament used: ?filament_amount?m ?filament_weight?g
;Filament cost: ?filament_cost?
;M190 S55 ;Uncomment to add your own bed temperature line
;M109 S210 ;Uncomment to add your own temperature line
G21        ;metric values
G90        ;absolute positioning
M82        ;set extruder to absolute mode
M107       ;start with the fan off
G28 X0 Y0  ;move X/Y to min endstops
G28 Z0     ;move Z to min endstops
G1 Z5.0 F9000 ;move the platform down 15mm
G92 E0                  ;zero the extruded length
G1 F200 E3              ;extrude 3mm of feed stock
G92 E0                  ;zero the extruded length again
G1 F9000
;Put printing message on LCD screen
M117 Printing...

;Layer count: 182
;LAYER:0
M107
G0 F9000 X91.249 Y82.650 Z0.300
;TYPE:SKIRT
G1 F1200 X115.894 Y82.650 E1.22954
G1 X115.896 Y90.607 E1.62652
G1 X115.894 Y90.681 E1.63021
G1 X115.900 Y95.113 E1.85133
G1 X111.891 Y95.002 E2.05141
G1 X111.536 Y95.017 E2.06914
G1 X110.895 Y95.090 E2.10133
G1 X110.465 Y95.193 E2.12339
G1 X110.429 Y95.201 E2.12523
G1 X110.009 Y95.347 E2.14741
G1 X109.975 Y95.358 E2.14919
G1 X109.571 Y95.542 E2.17134
G1 X109.549 Y95.552 E2.17255
G1 X109.151 Y95.781 E2.19545
G1 X109.126 Y95.795 E2.19688
G1 X108.768 Y96.049 E2.21878
G1 X108.748 Y96.063 E2.22000
G1 X108.399 Y96.364 E2.24299
G1 X108.388 Y96.374 E2.24374
G1 X108.116 Y96.658 E2.26336
G1 X108.013 Y96.773 E2.27106
G1 X107.853 Y96.977 E2.28399
G1 X107.559 Y97.412 E2.31019
G1 X107.333 Y97.829 E2.33385
G1 X107.146 Y98.268 E2.35766
G1 X106.967 Y98.832 E2.38718
G1 X106.879 Y99.293 E2.41059
G1 X106.841 Y99.697 E2.43084
G1 X106.834 Y99.826 E2.43728
G1 X106.835 Y100.244 E2.45814
G1 X106.875 Y100.650 E2.47849
G1 X106.895 Y100.795 E2.48579
G1 X106.947 Y101.061 E2.49931
G1 X107.082 Y101.549 E2.52457
G1 X107.259 Y102.013 E2.54935
G1 X107.507 Y102.513 E2.57720
G1 X107.706 Y102.819 E2.59541
G1 X108.008 Y103.214 E2.62021
G1 X108.338 Y103.570 E2.64443
G1 X108.698 Y103.890 E2.66846
G1 X109.149 Y104.220 E2.69634
G1 X109.467 Y104.402 E2.71462
G1 X109.929 Y104.618 E2.74007
G1 X110.377 Y104.778 E2.76380
G1 X110.917 Y104.914 E2.79158
G1 X111.379 Y104.978 E2.81485
G1 X111.900 Y105.000 E2.84087
G1 X115.895 Y104.879 E3.04027
G1 X115.896 Y117.350 E3.66245
G1 X106.507 Y117.350 E4.13087
G1 X106.507 Y118.940 E4.21019
G1 X91.922 Y118.940 E4.93784
G1 X90.465 Y114.849 E5.15450
G1 X89.886 Y112.992 E5.25155
G1 X89.394 Y111.145 E5.34691
G1 X88.997 Y109.372 E5.43755
G1 X88.674 Y107.613 E5.52678
G1 X88.401 Y105.695 E5.62343
G1 X88.188 Y103.598 E5.72859
G1 X88.082 Y101.704 E5.82323
G1 X88.051 Y99.745 E5.92098
G1 X88.100 Y97.857 E6.01520
G1 X88.229 Y95.902 E6.11295
G1 X88.443 Y93.930 E6.21191
G1 X88.733 Y92.029 E6.30785
G1 X89.067 Y90.289 E6.39624
G1 X89.482 Y88.513 E6.48723
G1 X89.981 Y86.701 E6.58100
G1 X91.249 Y82.650 E6.79277
G0 F9000 X91.543 Y83.050
G1 F1200 X115.494 Y83.050 E7.98769
G1 X115.496 Y90.603 E8.36451
G1 X115.494 Y90.682 E8.36846
G1 X115.500 Y94.701 E8.56897
G1 X111.885 Y94.601 E8.74939
G1 X111.516 Y94.617 E8.76781
G1 X110.830 Y94.695 E8.80226
G1 X110.819 Y94.696 E8.80281
G1 X110.373 Y94.804 E8.82570
G1 X110.316 Y94.817 E8.82862
G1 X109.880 Y94.968 E8.85164
G1 X109.829 Y94.985 E8.85432
G1 X109.407 Y95.177 E8.87745
G1 X109.363 Y95.197 E8.87987
G1 X108.953 Y95.433 E8.90347
G1 X108.914 Y95.455 E8.90570
G1 X108.537 Y95.723 E8.92878
G1 X108.498 Y95.751 E8.93117
G1 X108.138 Y96.061 E8.95487
G1 X108.114 Y96.081 E8.95643
G1 X107.811 Y96.399 E8.97835
G1 X107.705 Y96.517 E8.98626
G1 X107.535 Y96.734 E9.00001
G1 X107.215 Y97.207 E9.02850
G1 X106.971 Y97.656 E9.05400
G1 X106.772 Y98.126 E9.07946
G1 X106.578 Y98.737 E9.11145
G1 X106.485 Y99.225 E9.13623
G1 X106.482 Y99.239 E9.13694
G1 X106.443 Y99.661 E9.15809
G1 X106.434 Y99.826 E9.16633
G1 X106.435 Y100.260 E9.18798
G1 X106.478 Y100.698 E9.20994
G1 X106.499 Y100.853 E9.21774
G1 X106.558 Y101.151 E9.23290
G1 X106.705 Y101.685 E9.26053
G1 X106.889 Y102.168 E9.28632
G1 X107.162 Y102.716 E9.31686
G1 X107.372 Y103.040 E9.33613
G1 X107.703 Y103.474 E9.36336
G1 X108.061 Y103.859 E9.38959
G1 X108.445 Y104.201 E9.41524
G1 X108.927 Y104.553 E9.44502
G1 X109.293 Y104.763 E9.46607
G1 X109.764 Y104.983 E9.49200
G1 X110.261 Y105.161 E9.51834
G1 X110.846 Y105.308 E9.54844
G1 X111.345 Y105.377 E9.57357
G1 X111.894 Y105.399 E9.60098
G1 X115.495 Y105.291 E9.78071
G1 X115.496 Y116.950 E10.36238
G1 X106.107 Y116.950 E10.83080
G1 X106.107 Y118.540 E10.91013
G1 X92.204 Y118.540 E11.60375
G1 X90.844 Y114.723 E11.80591
G1 X90.270 Y112.881 E11.90217
G1 X89.782 Y111.050 E11.99670
G1 X89.389 Y109.292 E12.08658
G1 X89.069 Y107.549 E12.17499
G1 X88.798 Y105.646 E12.27089
G1 X88.587 Y103.566 E12.37519
G1 X88.481 Y101.690 E12.46893
G1 X88.451 Y99.747 E12.56588
G1 X88.500 Y97.875 E12.65931
G1 X88.627 Y95.937 E12.75620
G1 X88.840 Y93.982 E12.85432
G1 X89.127 Y92.097 E12.94944
G1 X89.459 Y90.372 E13.03708
G1 X89.870 Y88.611 E13.12730
G1 X90.364 Y86.813 E13.22033
G1 X91.543 Y83.050 E13.41706
G1 F2400 E8.91706
G0 F9000 X94.394 Y87.998
;TYPE:WALL-INNER
G1 F2400 E13.41706
G1 F1200 X94.629 Y87.250 E13.45618
G1 X111.295 Y87.250 E14.28765
G1 X111.296 Y90.422 E14.44590
G1 X111.182 Y90.427 E14.45159
G1 X110.318 Y90.526 E14.49498
G1 X110.048 Y90.562 E14.50857
G1 X109.408 Y90.716 E14.54141
G1 X109.156 Y90.775 E14.55432
G1 X108.532 Y90.990 E14.58725
G1 X108.289 Y91.071 E14.60003
G1 X107.677 Y91.350 E14.63359
G1 X107.454 Y91.450 E14.64578
G1 X106.869 Y91.786 E14.67944
G1 X106.659 Y91.905 E14.69148
G1 X106.107 Y92.297 E14.72526
G1 X105.910 Y92.437 E14.73731
G1 X105.216 Y93.035 E14.78302
G1 X104.731 Y93.542 E14.81802
G1 X104.134 Y94.265 E14.86480
G1 X103.624 Y95.018 E14.91017
G1 X103.185 Y95.827 E14.95609
G1 X102.826 Y96.673 E15.00194
G1 X102.560 Y97.511 E15.04581
G1 X102.496 Y97.727 E15.05705
G1 X102.363 Y98.416 E15.09206
G1 X102.321 Y98.627 E15.10279
G1 X102.276 Y99.108 E15.12689
G1 X102.227 Y98.971 E15.13415
G1 X101.930 Y98.512 E15.16143
G1 X101.575 Y98.157 E15.18647
G1 X101.272 Y97.968 E15.20429
G1 X101.168 Y97.890 E15.21078
G1 X100.629 Y97.704 E15.23922
G1 X100.109 Y97.645 E15.26533
G1 X99.584 Y97.702 E15.29168
G1 X99.082 Y97.878 E15.31822
G1 X98.631 Y98.165 E15.34489
G1 X98.252 Y98.554 E15.37198
G1 X97.985 Y98.976 E15.39690
G1 X97.809 Y99.477 E15.42339
G1 X97.751 Y100.007 E15.44999
G1 X97.819 Y100.550 E15.47729
G1 X97.985 Y101.024 E15.50235
G1 X98.267 Y101.470 E15.52867
G1 X98.643 Y101.845 E15.55517
G1 X99.109 Y102.131 E15.58244
G1 X99.583 Y102.297 E15.60750
G1 X100.109 Y102.357 E15.63391
G1 X100.638 Y102.295 E15.66049
G1 X101.153 Y102.109 E15.68780
G1 X101.577 Y101.841 E15.71283
G1 X101.951 Y101.468 E15.73918
G1 X102.230 Y101.020 E15.76551
G1 X102.276 Y100.888 E15.77249
G1 X102.357 Y101.554 E15.80596
G1 X102.467 Y102.116 E15.83453
G1 X102.709 Y102.992 E15.87987
G1 X103.037 Y103.852 E15.92579
G1 X103.426 Y104.637 E15.96950
G1 X103.515 Y104.812 E15.97929
G1 X103.938 Y105.464 E16.01807
G1 X104.491 Y106.188 E16.06352
G1 X105.118 Y106.862 E16.10944
G1 X105.803 Y107.472 E16.15521
G1 X106.512 Y107.990 E16.19901
G1 X106.656 Y108.093 E16.20785
G1 X107.346 Y108.488 E16.24751
G1 X108.172 Y108.875 E16.29302
G1 X109.038 Y109.184 E16.33889
G1 X110.041 Y109.437 E16.39050
G1 X110.806 Y109.543 E16.42903
G1 X110.950 Y109.564 E16.43629
G1 X111.295 Y109.578 E16.45352
G1 X111.296 Y112.750 E16.61177
G1 X101.907 Y112.750 E17.08019
G1 X101.907 Y114.340 E17.15951
G1 X95.166 Y114.340 E17.49582
G1 X94.831 Y113.399 E17.54566
G1 X94.300 Y111.695 E17.63470
G1 X93.866 Y110.066 E17.71881
G1 X93.506 Y108.456 E17.80111
G1 X93.214 Y106.865 E17.88181
G1 X92.968 Y105.141 E17.96870
G1 X92.773 Y103.214 E18.06533
G1 X92.680 Y101.552 E18.14837
G1 X92.652 Y99.775 E18.23704
G1 X92.697 Y98.064 E18.32243
G1 X92.813 Y96.294 E18.41093
G1 X93.003 Y94.546 E18.49865
G1 X93.268 Y92.802 E18.58666
G1 X93.563 Y91.267 E18.66464
G1 X93.946 Y89.628 E18.74861
G1 X94.394 Y87.998 E18.83295
G0 F9000 X94.014 Y87.875
G1 F1200 X94.335 Y86.850 E18.88653
G1 X111.695 Y86.850 E19.75263
G1 X111.696 Y90.564 E19.93792
G1 X111.694 Y90.806 E19.94999
G1 X111.213 Y90.826 E19.97401
G1 X110.367 Y90.923 E20.01650
G1 X110.122 Y90.955 E20.02882
G1 X109.494 Y91.107 E20.06106
G1 X109.267 Y91.160 E20.07269
G1 X108.659 Y91.369 E20.10476
G1 X108.436 Y91.444 E20.11650
G1 X107.843 Y91.714 E20.14901
G1 X107.635 Y91.807 E20.16038
G1 X107.073 Y92.131 E20.19274
G1 X106.874 Y92.243 E20.20413
G1 X106.157 Y92.752 E20.24800
G1 X105.491 Y93.325 E20.29183
G1 X105.025 Y93.813 E20.32550
G1 X104.795 Y94.072 E20.34278
G1 X104.457 Y94.501 E20.37003
G1 X103.967 Y95.226 E20.41368
G1 X103.546 Y96.001 E20.45768
G1 X103.202 Y96.812 E20.50163
G1 X102.943 Y97.629 E20.54439
G1 X102.885 Y97.823 E20.55450
G1 X102.756 Y98.494 E20.58858
G1 X102.718 Y98.685 E20.59830
G1 X102.651 Y99.387 E20.63348
G1 X102.634 Y99.731 E20.65067
G1 X102.635 Y100.249 E20.67651
G1 X102.634 Y100.437 E20.68589
G1 X102.703 Y101.146 E20.72143
G1 X102.857 Y102.024 E20.76590
G1 X103.089 Y102.867 E20.80952
G1 X103.404 Y103.692 E20.85358
G1 X103.784 Y104.457 E20.89619
G1 X103.862 Y104.612 E20.90485
G1 X104.265 Y105.234 E20.94183
G1 X104.797 Y105.929 E20.98549
G1 X105.398 Y106.575 E21.02951
G1 X106.054 Y107.160 E21.07336
G1 X106.747 Y107.666 E21.11617
G1 X106.872 Y107.756 E21.12386
G1 X107.530 Y108.133 E21.16169
G1 X108.325 Y108.505 E21.20548
G1 X109.154 Y108.801 E21.24940
G1 X110.117 Y109.044 E21.29895
G1 X110.861 Y109.146 E21.33641
G1 X110.987 Y109.165 E21.34277
G1 X111.695 Y109.194 E21.37812
G1 X111.696 Y113.150 E21.57549
G1 X102.307 Y113.150 E22.04391
G1 X102.307 Y114.740 E22.12323
G1 X94.884 Y114.740 E22.49357
G1 X94.453 Y113.530 E22.55765
G1 X93.918 Y111.814 E22.64733
G1 X93.471 Y110.134 E22.73406
G1 X93.114 Y108.542 E22.81546
G1 X92.821 Y106.944 E22.89651
G1 X92.569 Y105.174 E22.98571
G1 X92.376 Y103.267 E23.08133
G1 X92.280 Y101.556 E23.16683
G1 X92.252 Y99.779 E23.25549
G1 X92.296 Y98.061 E23.34123
G1 X92.415 Y96.254 E23.43158
G1 X92.607 Y94.486 E23.52031
G1 X92.874 Y92.730 E23.60892
G1 X93.173 Y91.176 E23.68787
G1 X93.551 Y89.559 E23.77072
G1 X94.014 Y87.875 E23.85785
G0 F9000 X99.258 Y98.240
G1 F1200 X98.885 Y98.477 E23.87990
G1 X98.567 Y98.803 E23.90262
G1 X98.347 Y99.151 E23.92316
G1 X98.202 Y99.566 E23.94509
G1 X98.154 Y100.004 E23.96707
G1 X98.211 Y100.458 E23.98990
G1 X98.347 Y100.849 E24.01056
G1 X98.581 Y101.219 E24.03240
G1 X98.892 Y101.529 E24.05430
G1 X99.282 Y101.768 E24.07712
G1 X99.673 Y101.905 E24.09779
G1 X100.108 Y101.954 E24.11963
G1 X100.546 Y101.903 E24.14163
G1 X100.976 Y101.747 E24.16445
G1 X101.326 Y101.527 E24.18508
G1 X101.636 Y101.217 E24.20695
G1 X101.867 Y100.846 E24.22875
G1 X102.012 Y100.434 E24.25055
G1 X102.061 Y100.001 E24.27229
G1 X102.013 Y99.565 E24.29417
G1 X101.865 Y99.148 E24.31625
G1 X101.617 Y98.765 E24.33901
G1 X101.325 Y98.472 E24.35965
G1 X100.979 Y98.248 E24.38021
G1 X100.540 Y98.096 E24.40339
G1 X100.108 Y98.047 E24.42508
G1 X99.673 Y98.095 E24.44691
G1 X99.258 Y98.240 E24.46884
G0 F9000 X99.433 Y98.603
;TYPE:WALL-OUTER
G1 F1200 X99.139 Y98.790 E24.48623
G1 X98.883 Y99.052 E24.50450
G1 X98.710 Y99.326 E24.52067
G1 X98.595 Y99.655 E24.53806
G1 X98.557 Y100.001 E24.55542
G1 X98.602 Y100.366 E24.57377
G1 X98.710 Y100.674 E24.59005
G1 X98.895 Y100.967 E24.60734
G1 X99.141 Y101.212 E24.62466
G1 X99.455 Y101.405 E24.64305
G1 X99.762 Y101.512 E24.65927
G1 X100.107 Y101.551 E24.67659
G1 X100.453 Y101.511 E24.69397
G1 X100.799 Y101.386 E24.71232
G1 X101.075 Y101.212 E24.72860
G1 X101.321 Y100.966 E24.74596
G1 X101.504 Y100.672 E24.76324
G1 X101.619 Y100.344 E24.78058
G1 X101.658 Y100.000 E24.79785
G1 X101.620 Y99.655 E24.81516
G1 X101.504 Y99.326 E24.83257
G1 X101.304 Y99.018 E24.85089
G1 X101.074 Y98.787 E24.86715
G1 X100.789 Y98.605 E24.88402
G1 X100.451 Y98.489 E24.90185
G1 X100.107 Y98.450 E24.91912
G1 X99.762 Y98.488 E24.93644
G1 X99.433 Y98.603 E24.95383
G0 F9000 X99.334 Y98.320
G0 X100.539 Y98.098
G0 X102.817 Y98.714
G0 X103.114 Y98.743
G1 F1200 X103.050 Y99.416 E24.98756
G1 X103.034 Y99.741 E25.00379
G1 X103.035 Y100.252 E25.02928
G1 X103.034 Y100.419 E25.03762
G1 X103.100 Y101.099 E25.07170
G1 X103.246 Y101.932 E25.11389
G1 X103.470 Y102.742 E25.15582
G1 X103.771 Y103.531 E25.19795
G1 X104.141 Y104.278 E25.23954
G1 X104.209 Y104.412 E25.24704
G1 X104.592 Y105.003 E25.28217
G1 X105.103 Y105.671 E25.32413
G1 X105.678 Y106.289 E25.36625
G1 X106.306 Y106.849 E25.40822
G1 X106.981 Y107.342 E25.44993
G1 X107.715 Y107.778 E25.49252
G1 X108.477 Y108.134 E25.53448
G1 X109.271 Y108.418 E25.57655
G1 X110.194 Y108.651 E25.62404
G1 X110.914 Y108.750 E25.66030
G1 X111.025 Y108.766 E25.66590
G1 X111.756 Y108.797 E25.70240
G1 X111.863 Y108.802 E25.70774
G1 X112.095 Y108.795 E25.71932
G1 X112.096 Y113.550 E25.95655
G1 X102.707 Y113.550 E26.42497
G1 X102.707 Y115.140 E26.50430
G1 X94.602 Y115.140 E26.90866
G1 X94.071 Y113.649 E26.98762
G1 X93.536 Y111.933 E27.07729
G1 X93.084 Y110.237 E27.16486
G1 X92.722 Y108.618 E27.24763
G1 X92.425 Y106.998 E27.32980
G1 X92.173 Y105.231 E27.41885
G1 X91.977 Y103.295 E27.51593
G1 X91.880 Y101.564 E27.60242
G1 X91.852 Y99.769 E27.69199
G1 X91.897 Y98.035 E27.77852
G1 X92.015 Y96.237 E27.86842
G1 X92.212 Y94.426 E27.95930
G1 X92.479 Y92.670 E28.04792
G1 X92.783 Y91.085 E28.12844
G1 X93.165 Y89.453 E28.21206
G1 X93.626 Y87.776 E28.29883
G1 X94.041 Y86.450 E28.36815
G1 X112.095 Y86.450 E29.26886
G1 X112.096 Y90.571 E29.47446
G1 X112.094 Y90.684 E29.48010
G1 X112.095 Y91.205 E29.50609
G1 X111.862 Y91.199 E29.51772
G1 X111.244 Y91.225 E29.54858
G1 X110.416 Y91.320 E29.59016
G1 X110.195 Y91.349 E29.60128
G1 X109.590 Y91.495 E29.63233
G1 X109.378 Y91.545 E29.64320
G1 X108.786 Y91.749 E29.67444
G1 X108.583 Y91.817 E29.68512
G1 X108.011 Y92.077 E29.71646
G1 X107.817 Y92.164 E29.72707
G1 X107.270 Y92.479 E29.75856
G1 X107.089 Y92.581 E29.76893
G1 X106.404 Y93.067 E29.81083
G1 X105.767 Y93.616 E29.85278
G1 X105.319 Y94.084 E29.88511
G1 X104.780 Y94.737 E29.92735
G1 X104.309 Y95.434 E29.96932
G1 X103.907 Y96.175 E30.01138
G1 X103.577 Y96.951 E30.05345
G1 X103.325 Y97.747 E30.09510
G1 X103.274 Y97.918 E30.10400
G1 X103.148 Y98.572 E30.13723
G1 X103.114 Y98.743 E30.14593
G0 F9000 X102.199 Y98.522
;TYPE:SKIN
G1 F1200 X93.940 Y90.263 E30.72865
G0 F9000 X93.833 Y90.722
G1 F1200 X100.687 Y97.575 E31.21220
G0 F9000 X100.055 Y97.510
G1 F1200 X93.727 Y91.181 E31.65871
G0 F9000 X93.630 Y91.650
G1 F1200 X99.547 Y97.567 E32.07619
G0 F9000 X99.127 Y97.713
G1 F1200 X93.538 Y92.124 E32.47052
G0 F9000 X93.448 Y92.599
G1 F1200 X98.763 Y97.914 E32.84552
G0 F9000 X98.441 Y98.158
G1 F1200 X93.365 Y93.082 E33.20366
G0 F9000 X93.291 Y93.574
G1 F1200 X98.161 Y98.444 E33.54727
G0 F9000 X97.939 Y98.787
G1 F1200 X93.216 Y94.065 E33.88046
G0 F9000 X93.142 Y94.556
G1 F1200 X97.765 Y99.179 E34.20664
G0 F9000 X97.652 Y99.632
G1 F1200 X93.086 Y95.066 E34.52880
G0 F9000 X93.031 Y95.576
G1 F1200 X97.632 Y100.177 E34.85342
G0 F9000 X97.797 Y100.908
G1 F1200 X92.976 Y96.087 E35.19357
G0 F9000 X92.932 Y96.609
G1 F1200 X108.932 Y112.609 E36.32246
G0 F9000 X108.366 Y112.609
G1 F1200 X92.897 Y97.140 E37.41388
G0 F9000 X92.862 Y97.671
G1 F1200 X107.801 Y112.609 E38.46787
G0 F9000 X107.235 Y112.609
G1 F1200 X92.832 Y98.206 E39.48408
G0 F9000 X92.818 Y98.758
G1 F1200 X106.669 Y112.609 E40.46134
G0 F9000 X106.104 Y112.609
G1 F1200 X92.803 Y99.308 E41.39980
G0 F9000 X92.792 Y99.863
G1 F1200 X105.538 Y112.609 E42.29910
G0 F9000 X104.972 Y112.609
G1 F1200 X92.801 Y100.438 E43.15783
G0 F9000 X92.811 Y101.013
G1 F1200 X104.407 Y112.609 E43.97599
G0 F9000 X103.841 Y112.609
G1 F1200 X92.821 Y101.590 E44.75347
G0 F9000 X92.855 Y102.188
G1 F1200 X103.275 Y112.609 E45.48870
G0 F9000 X102.710 Y112.609
G1 F1200 X92.888 Y102.787 E46.18169
G0 F9000 X92.931 Y103.396
G1 F1200 X102.144 Y112.609 E46.83172
G0 F9000 X101.766 Y112.797
G1 F1200 X92.995 Y104.026 E47.45056
G0 F9000 X93.058 Y104.654
G1 F1200 X101.766 Y113.363 E48.06499
G0 F9000 X101.766 Y113.929
G1 F1200 X93.130 Y105.292 E48.67434
