;Generated from 2.1-washer-M5.stl 5d8ef018c2be1bde0ceb85a67657885576efb470
;Generated with Cura_SteamEngine 15.04
M140 S55.0
M109 T0 S210.0
T0
M190 S55.0

;Basic settings: Layer height: 0.15 Walls: 1.2 Fill: 50
;Print time: ?print_time?
;Filament used: ?filament_amount?m ?filament_weight?g
;Filament cost: ?filament_cost?
;M190 S55 ;Uncomment to add your own bed temperature line
;M109 S210 ;Uncomment to add your own temperature line
G21        ;metric values
G90        ;absolute positioning
M82        ;set extruder to absolute mode
M107       ;start with the fan off
G28 X0 Y0  ;move X/Y to min endstops
G28 Z0     ;move Z to min endstops
G1 Z5.0 F9000 ;move the platform down 15mm
G92 E0                  ;zero the extruded length
G1 F200 E3              ;extrude 3mm of feed stock
G92 E0                  ;zero the extruded length again
G1 F9000
;Put printing message on LCD screen
M117 Printing...

;Layer count: 10
;LAYER:0
M107
G0 F9000 X93.945 Y93.740 Z0.300
;TYPE:SKIRT
G1 F1200 X94.834 Y92.989 E0.05806
G1 X95.814 Y92.363 E0.11608
G1 X96.870 Y91.873 E0.17416
G1 X97.981 Y91.529 E0.23218
G1 X99.127 Y91.334 E0.29018
G1 X100.289 Y91.296 E0.34818
G1 X101.450 Y91.411 E0.40638
G1 X102.580 Y91.683 E0.46437
G1 X103.665 Y92.099 E0.52234
G1 X104.686 Y92.659 E0.58044
G1 X105.622 Y93.348 E0.63843
G1 X106.459 Y94.157 E0.69650
G1 X107.182 Y95.073 E0.75472
G1 X107.772 Y96.072 E0.81260
G1 X108.228 Y97.144 E0.87072
G1 X108.534 Y98.267 E0.92879
G1 X108.680 Y99.340 E0.98282
G1 X108.703 Y100.000 E1.01577
G1 X108.680 Y100.660 E1.04871
G1 X108.534 Y101.733 E1.10274
G1 X108.228 Y102.856 E1.16081
G1 X107.772 Y103.928 E1.21893
G1 X107.182 Y104.927 E1.27681
G1 X106.459 Y105.843 E1.33503
G1 X105.622 Y106.652 E1.39311
G1 X104.686 Y107.341 E1.45109
G1 X103.665 Y107.901 E1.50919
G1 X102.580 Y108.317 E1.56716
G1 X101.450 Y108.589 E1.62515
G1 X100.289 Y108.704 E1.68335
G1 X99.127 Y108.666 E1.74136
G1 X97.981 Y108.471 E1.79935
G1 X96.870 Y108.127 E1.85738
G1 X95.814 Y107.637 E1.91546
G1 X94.834 Y107.011 E1.97347
G1 X93.945 Y106.260 E2.03153
G1 X93.165 Y105.397 E2.08957
G1 X92.507 Y104.439 E2.14755
G1 X91.983 Y103.401 E2.20556
G1 X91.600 Y102.302 E2.26363
G1 X91.369 Y101.162 E2.32166
G1 X91.290 Y100.000 E2.37976
G1 X91.369 Y98.838 E2.43787
G1 X91.600 Y97.698 E2.49590
G1 X91.983 Y96.599 E2.55396
G1 X92.507 Y95.561 E2.61197
G1 X93.165 Y94.603 E2.66996
G1 X93.945 Y93.740 E2.72799
G0 F9000 X94.224 Y94.028
G1 F1200 X95.072 Y93.311 E2.78339
G1 X96.007 Y92.715 E2.83871
G1 X97.014 Y92.247 E2.89411
G1 X98.074 Y91.919 E2.94947
G1 X99.167 Y91.733 E3.00478
G1 X100.276 Y91.696 E3.06014
G1 X101.383 Y91.807 E3.11565
G1 X102.461 Y92.066 E3.17096
G1 X103.496 Y92.463 E3.22626
G1 X104.471 Y92.997 E3.28173
G1 X105.363 Y93.655 E3.33703
G1 X106.162 Y94.426 E3.39242
G1 X106.851 Y95.300 E3.44794
G1 X107.415 Y96.253 E3.50319
G1 X107.850 Y97.275 E3.55861
G1 X108.142 Y98.346 E3.61399
G1 X108.281 Y99.374 E3.66574
G1 X108.302 Y100.000 E3.69699
G1 X108.281 Y100.626 E3.72824
G1 X108.142 Y101.654 E3.77999
G1 X107.850 Y102.725 E3.83538
G1 X107.415 Y103.747 E3.89079
G1 X106.851 Y104.700 E3.94604
G1 X106.162 Y105.574 E4.00156
G1 X105.363 Y106.345 E4.05696
G1 X104.471 Y107.003 E4.11226
G1 X103.496 Y107.537 E4.16772
G1 X102.461 Y107.934 E4.22302
G1 X101.383 Y108.193 E4.27834
G1 X100.276 Y108.304 E4.33384
G1 X99.167 Y108.267 E4.38920
G1 X98.074 Y108.081 E4.44451
G1 X97.014 Y107.753 E4.49987
G1 X96.007 Y107.285 E4.55527
G1 X95.072 Y106.689 E4.61059
G1 X94.224 Y105.972 E4.66599
G1 X93.480 Y105.149 E4.72134
G1 X92.852 Y104.234 E4.77671
G1 X92.352 Y103.245 E4.83200
G1 X91.987 Y102.196 E4.88741
G1 X91.766 Y101.108 E4.94280
G1 X91.691 Y100.000 E4.99820
G1 X91.766 Y98.892 E5.05361
G1 X91.987 Y97.804 E5.10900
G1 X92.352 Y96.755 E5.16441
G1 X92.852 Y95.766 E5.21970
G1 X93.480 Y94.851 E5.27507
G1 X94.224 Y94.028 E5.33042
G0 F9000 X94.502 Y94.317
G1 F1200 X95.310 Y93.634 E5.38320
G1 X96.199 Y93.066 E5.43583
G1 X97.158 Y92.621 E5.48858
G1 X98.167 Y92.309 E5.54127
G1 X99.208 Y92.132 E5.59395
G1 X100.262 Y92.097 E5.64656
G1 X101.317 Y92.202 E5.69946
G1 X102.343 Y92.448 E5.75210
G1 X103.328 Y92.826 E5.80473
G1 X104.255 Y93.335 E5.85749
G1 X105.104 Y93.961 E5.91012
G1 X105.865 Y94.695 E5.96287
G1 X106.521 Y95.527 E6.01573
G1 X107.057 Y96.434 E6.06829
G1 X107.471 Y97.407 E6.12104
G1 X107.749 Y98.426 E6.17374
G1 X107.882 Y99.408 E6.22318
G1 X107.902 Y100.000 E6.25273
G1 X107.882 Y100.592 E6.28228
G1 X107.749 Y101.574 E6.33172
G1 X107.471 Y102.593 E6.38442
G1 X107.057 Y103.566 E6.43717
G1 X106.521 Y104.473 E6.48973
G1 X105.865 Y105.305 E6.54259
G1 X105.104 Y106.039 E6.59534
G1 X104.255 Y106.665 E6.64797
G1 X103.328 Y107.174 E6.70073
G1 X102.343 Y107.552 E6.75336
G1 X101.317 Y107.798 E6.80600
G1 X100.262 Y107.903 E6.85890
G1 X99.208 Y107.868 E6.91151
G1 X98.167 Y107.691 E6.96419
G1 X97.158 Y107.379 E7.01688
G1 X96.199 Y106.934 E7.06963
G1 X95.310 Y106.366 E7.12226
G1 X94.502 Y105.683 E7.17504
G1 X93.795 Y104.900 E7.22767
G1 X93.197 Y104.030 E7.28034
G1 X92.721 Y103.088 E7.33300
G1 X92.373 Y102.090 E7.38573
G1 X92.163 Y101.055 E7.43842
G1 X92.092 Y100.000 E7.49117
G1 X92.163 Y98.945 E7.54393
G1 X92.373 Y97.910 E7.59661
G1 X92.721 Y96.912 E7.64934
G1 X93.197 Y95.970 E7.70200
G1 X93.795 Y95.100 E7.75467
G1 X94.502 Y94.317 E7.80730
G0 F9000 X94.781 Y94.605
G1 F1200 X95.548 Y93.957 E7.85740
G1 X96.392 Y93.418 E7.90736
G1 X97.302 Y92.995 E7.95742
G1 X98.260 Y92.699 E8.00745
G1 X99.248 Y92.531 E8.05745
G1 X100.249 Y92.498 E8.10741
G1 X101.250 Y92.597 E8.15760
G1 X102.224 Y92.831 E8.20757
G1 X103.159 Y93.190 E8.25754
G1 X104.039 Y93.673 E8.30762
G1 X104.846 Y94.267 E8.35761
G1 X105.567 Y94.964 E8.40764
G1 X106.190 Y95.753 E8.45780
G1 X106.699 Y96.614 E8.50770
G1 X107.092 Y97.538 E8.55779
G1 X107.356 Y98.506 E8.60785
G1 X107.483 Y99.442 E8.65498
G1 X107.502 Y100.000 E8.68283
G1 X107.483 Y100.558 E8.71069
G1 X107.356 Y101.494 E8.75781
G1 X107.092 Y102.462 E8.80787
G1 X106.699 Y103.386 E8.85796
G1 X106.190 Y104.247 E8.90786
G1 X105.567 Y105.036 E8.95802
G1 X104.846 Y105.733 E9.00805
G1 X104.039 Y106.327 E9.05804
G1 X103.159 Y106.810 E9.10812
G1 X102.224 Y107.169 E9.15809
G1 X101.250 Y107.403 E9.20807
G1 X100.249 Y107.502 E9.25825
G1 X99.248 Y107.469 E9.30822
G1 X98.260 Y107.301 E9.35822
G1 X97.302 Y107.005 E9.40824
G1 X96.392 Y106.582 E9.45831
G1 X95.548 Y106.043 E9.50827
G1 X94.781 Y105.395 E9.55836
G1 X94.109 Y104.652 E9.60834
G1 X93.542 Y103.826 E9.65833
G1 X93.090 Y102.931 E9.70835
G1 X92.760 Y101.984 E9.75838
G1 X92.561 Y101.001 E9.80842
G1 X92.493 Y100.000 E9.85848
G1 X92.561 Y98.999 E9.90853
G1 X92.760 Y98.016 E9.95857
G1 X93.090 Y97.069 E10.00860
G1 X93.542 Y96.174 E10.05862
G1 X94.109 Y95.348 E10.10861
G1 X94.781 Y94.605 E10.15859
G1 F2400 E5.65859
G0 F9000 X97.429 Y97.342
;TYPE:WALL-INNER
G1 F2400 E10.15859
G1 F1200 X97.802 Y97.026 E10.18298
G1 X98.225 Y96.756 E10.20801
G1 X98.673 Y96.548 E10.23266
G1 X99.139 Y96.404 E10.25699
G1 X99.631 Y96.321 E10.28188
G1 X100.126 Y96.304 E10.30659
G1 X100.617 Y96.353 E10.33121
G1 X101.093 Y96.467 E10.35563
G1 X101.555 Y96.645 E10.38033
G1 X101.990 Y96.883 E10.40507
G1 X102.385 Y97.175 E10.42957
G1 X102.744 Y97.521 E10.45445
G1 X103.049 Y97.907 E10.47899
G1 X103.301 Y98.334 E10.50373
G1 X103.493 Y98.786 E10.52823
G1 X103.623 Y99.262 E10.55285
G1 X103.691 Y99.764 E10.57812
G1 X103.699 Y100.000 E10.58990
G1 X103.691 Y100.236 E10.60168
G1 X103.623 Y100.738 E10.62696
G1 X103.493 Y101.214 E10.65157
G1 X103.301 Y101.666 E10.67607
G1 X103.049 Y102.093 E10.70081
G1 X102.744 Y102.479 E10.72535
G1 X102.385 Y102.825 E10.75023
G1 X101.990 Y103.117 E10.77474
G1 X101.555 Y103.355 E10.79947
G1 X101.093 Y103.533 E10.82418
G1 X100.617 Y103.647 E10.84859
G1 X100.126 Y103.696 E10.87321
G1 X99.631 Y103.679 E10.89792
G1 X99.139 Y103.596 E10.92282
G1 X98.673 Y103.452 E10.94715
G1 X98.225 Y103.244 E10.97179
G1 X97.802 Y102.974 E10.99683
G1 X97.429 Y102.658 E11.02122
G1 X97.102 Y102.296 E11.04555
G1 X96.817 Y101.882 E11.07063
G1 X96.597 Y101.446 E11.09499
G1 X96.432 Y100.972 E11.12003
G1 X96.336 Y100.496 E11.14426
G1 X96.302 Y100.000 E11.16906
G1 X96.336 Y99.504 E11.19387
G1 X96.432 Y99.028 E11.21809
G1 X96.597 Y98.554 E11.24313
G1 X96.817 Y98.118 E11.26750
G1 X97.102 Y97.704 E11.29257
G1 X97.429 Y97.342 E11.31691
G0 F9000 X97.672 Y97.472
G1 F1200 X97.288 Y97.889 E11.34519
G1 X96.977 Y98.365 E11.37356
G1 X96.750 Y98.885 E11.40187
G1 X96.610 Y99.435 E11.43018
G1 X96.563 Y100.000 E11.45847
G1 X96.610 Y100.565 E11.48675
G1 X96.750 Y101.115 E11.51507
G1 X96.977 Y101.635 E11.54337
G1 X97.288 Y102.111 E11.57174
G1 X97.676 Y102.532 E11.60030
G1 X98.183 Y102.911 E11.63188
G1 X98.620 Y103.147 E11.65666
G1 X99.157 Y103.332 E11.68500
G1 X99.722 Y103.426 E11.71357
G1 X100.354 Y103.414 E11.74511
G1 X100.849 Y103.330 E11.77016
G1 X101.442 Y103.113 E11.80166
G1 X101.879 Y102.877 E11.82644
G1 X102.328 Y102.528 E11.85481
G1 X102.712 Y102.111 E11.88309
G1 X103.023 Y101.635 E11.91146
G1 X103.250 Y101.115 E11.93977
G1 X103.390 Y100.565 E11.96808
G1 X103.437 Y100.000 E11.99637
G1 X103.390 Y99.435 E12.02465
G1 X103.250 Y98.885 E12.05297
G1 X103.023 Y98.365 E12.08128
G1 X102.712 Y97.889 E12.10964
G1 X102.324 Y97.468 E12.13821
G1 X101.817 Y97.089 E12.16979
G1 X101.380 Y96.853 E12.19456
G1 X100.843 Y96.668 E12.22290
G1 X100.278 Y96.574 E12.25148
G1 X99.646 Y96.586 E12.28301
G1 X99.151 Y96.670 E12.30806
G1 X98.558 Y96.887 E12.33956
G1 X98.121 Y97.123 E12.36434
G1 X97.672 Y97.472 E12.39271
G0 F9000 X97.944 Y97.767
;TYPE:WALL-OUTER
G1 F1200 X97.605 Y98.136 E12.41771
G1 X97.330 Y98.556 E12.44276
G1 X97.129 Y99.015 E12.46776
G1 X97.006 Y99.501 E12.49277
G1 X96.964 Y100.000 E12.51775
G1 X97.006 Y100.499 E12.54274
G1 X97.129 Y100.985 E12.56775
G1 X97.330 Y101.444 E12.59275
G1 X97.605 Y101.864 E12.61779
G1 X97.945 Y102.234 E12.64286
G1 X98.399 Y102.573 E12.67113
G1 X98.781 Y102.780 E12.69281
G1 X99.256 Y102.943 E12.71786
G1 X99.751 Y103.025 E12.74289
G1 X100.317 Y103.015 E12.77114
G1 X100.746 Y102.942 E12.79285
G1 X101.277 Y102.748 E12.82105
G1 X101.660 Y102.541 E12.84277
G1 X102.056 Y102.233 E12.86780
G1 X102.395 Y101.864 E12.89280
G1 X102.670 Y101.444 E12.91784
G1 X102.871 Y100.985 E12.94284
G1 X102.994 Y100.499 E12.96785
G1 X103.036 Y100.000 E12.99284
G1 X102.994 Y99.501 E13.01782
G1 X102.871 Y99.015 E13.04283
G1 X102.670 Y98.556 E13.06783
G1 X102.395 Y98.136 E13.09288
G1 X102.055 Y97.766 E13.11795
G1 X101.601 Y97.427 E13.14621
G1 X101.219 Y97.220 E13.16789
G1 X100.744 Y97.057 E13.19294
G1 X100.249 Y96.975 E13.21798
G1 X99.683 Y96.985 E13.24622
G1 X99.254 Y97.058 E13.26793
G1 X98.723 Y97.252 E13.29613
G1 X98.340 Y97.459 E13.31785
G1 X97.944 Y97.767 E13.34288
G0 F9000 X97.148 Y97.056
G1 F1200 X97.566 Y96.703 E13.37018
G1 X98.037 Y96.402 E13.39807
G1 X98.524 Y96.176 E13.42485
G1 X99.052 Y96.013 E13.45242
G1 X99.587 Y95.922 E13.47949
G1 X100.137 Y95.903 E13.50695
G1 X100.684 Y95.958 E13.53438
G1 X101.208 Y96.084 E13.56127
G1 X101.731 Y96.284 E13.58920
G1 X102.201 Y96.542 E13.61595
G1 X102.647 Y96.871 E13.64360
G1 X103.041 Y97.251 E13.67091
G1 X103.380 Y97.681 E13.69823
G1 X103.659 Y98.152 E13.72554
G1 X103.872 Y98.654 E13.75274
G1 X104.017 Y99.186 E13.78025
G1 X104.090 Y99.727 E13.80749
G1 X104.100 Y99.993 E13.82077
G1 X104.090 Y100.273 E13.83475
G1 X104.017 Y100.814 E13.86198
G1 X103.872 Y101.346 E13.88949
G1 X103.659 Y101.848 E13.91670
G1 X103.380 Y102.319 E13.94401
G1 X103.041 Y102.749 E13.97133
G1 X102.647 Y103.129 E13.99864
G1 X102.201 Y103.458 E14.02629
G1 X101.731 Y103.716 E14.05304
G1 X101.208 Y103.916 E14.08097
G1 X100.684 Y104.042 E14.10786
G1 X100.137 Y104.097 E14.13529
G1 X99.587 Y104.078 E14.16274
G1 X99.052 Y103.987 E14.18982
G1 X98.524 Y103.824 E14.21739
G1 X98.037 Y103.598 E14.24417
G1 X97.566 Y103.297 E14.27206
G1 X97.146 Y102.942 E14.29949
G1 X96.784 Y102.541 E14.32645
G1 X96.475 Y102.091 E14.35368
G1 X96.226 Y101.598 E14.38124
G1 X96.046 Y101.082 E14.40850
G1 X95.938 Y100.550 E14.43558
G1 X95.901 Y100.000 E14.46308
G1 X95.938 Y99.450 E14.49059
G1 X96.046 Y98.918 E14.51767
G1 X96.226 Y98.402 E14.54493
G1 X96.475 Y97.909 E14.57249
G1 X96.785 Y97.458 E14.59979
G1 X97.148 Y97.056 E14.62681
;LAYER:1
M106 S127
G0 F9000 X97.429 Y97.342 Z0.450
;TYPE:WALL-INNER
G1 F1020 X97.802 Y97.026 E14.63901
G1 X98.225 Y96.756 E14.65153
G1 X98.673 Y96.548 E14.66385
G1 X99.139 Y96.404 E14.67602
G1 X99.631 Y96.321 E14.68846
G1 X100.126 Y96.304 E14.70082
G1 X100.617 Y96.353 E14.71313
G1 X101.093 Y96.467 E14.72534
G1 X101.555 Y96.645 E14.73769
G1 X101.990 Y96.883 E14.75006
G1 X102.385 Y97.175 E14.76231
G1 X102.744 Y97.521 E14.77475
G1 X103.049 Y97.907 E14.78702
G1 X103.301 Y98.334 E14.79939
G1 X103.493 Y98.786 E14.81164
G1 X103.623 Y99.262 E14.82395
G1 X103.691 Y99.764 E14.83658
G1 X103.699 Y100.000 E14.84247
G1 X103.691 Y100.236 E14.84836
G1 X103.623 Y100.738 E14.86100
G1 X103.493 Y101.214 E14.87331
G1 X103.301 Y101.666 E14.88556
G1 X103.049 Y102.093 E14.89793
G1 X102.744 Y102.479 E14.91020
G1 X102.385 Y102.825 E14.92264
G1 X101.990 Y103.117 E14.93489
G1 X101.555 Y103.355 E14.94726
G1 X101.093 Y103.533 E14.95961
G1 X100.617 Y103.647 E14.97182
G1 X100.126 Y103.696 E14.98413
G1 X99.631 Y103.679 E14.99648
G1 X99.139 Y103.596 E15.00893
G1 X98.673 Y103.452 E15.02110
G1 X98.225 Y103.244 E15.03342
G1 X97.802 Y102.974 E15.04593
G1 X97.429 Y102.658 E15.05813
G1 X97.102 Y102.296 E15.07030
G1 X96.817 Y101.882 E15.08284
G1 X96.597 Y101.446 E15.09502
G1 X96.432 Y100.972 E15.10754
G1 X96.336 Y100.496 E15.11965
G1 X96.302 Y100.000 E15.13205
G1 X96.336 Y99.504 E15.14445
G1 X96.432 Y99.028 E15.15657
G1 X96.597 Y98.554 E15.16909
G1 X96.817 Y98.118 E15.18127
G1 X97.102 Y97.704 E15.19381
G1 X97.429 Y97.342 E15.20598
G0 F9000 X97.672 Y97.472
G1 F1020 X97.288 Y97.889 E15.22012
G1 X96.977 Y98.365 E15.23430
G1 X96.750 Y98.885 E15.24845
G1 X96.610 Y99.435 E15.26261
G1 X96.563 Y100.000 E15.27675
G1 X96.610 Y100.565 E15.29090
G1 X96.750 Y101.115 E15.30505
G1 X96.977 Y101.635 E15.31921
G1 X97.288 Y102.111 E15.33339
G1 X97.672 Y102.528 E15.34753
G1 X98.121 Y102.877 E15.36172
G1 X98.620 Y103.147 E15.37587
G1 X99.157 Y103.332 E15.39004
G1 X99.716 Y103.425 E15.40418
G1 X100.284 Y103.425 E15.41834
G1 X100.843 Y103.332 E15.43248
G1 X101.380 Y103.147 E15.44665
G1 X101.879 Y102.877 E15.46080
G1 X102.328 Y102.528 E15.47499
G1 X102.712 Y102.111 E15.48913
G1 X103.023 Y101.635 E15.50331
G1 X103.250 Y101.115 E15.51746
G1 X103.390 Y100.565 E15.53162
G1 X103.437 Y100.000 E15.54576
G1 X103.390 Y99.435 E15.55991
G1 X103.250 Y98.885 E15.57406
G1 X103.023 Y98.365 E15.58822
G1 X102.712 Y97.889 E15.60240
G1 X102.328 Y97.472 E15.61654
G1 X101.879 Y97.123 E15.63073
G1 X101.380 Y96.853 E15.64488
G1 X100.843 Y96.668 E15.65905
G1 X100.284 Y96.575 E15.67319
G1 X99.716 Y96.575 E15.68735
G1 X99.157 Y96.668 E15.70149
G1 X98.620 Y96.853 E15.71566
G1 X98.121 Y97.123 E15.72981
G1 X97.672 Y97.472 E15.74400
G0 F9000 X97.944 Y97.767
;TYPE:WALL-OUTER
G1 F1020 X97.605 Y98.136 E15.75650
G1 X97.330 Y98.556 E15.76902
G1 X97.129 Y99.015 E15.78152
G1 X97.006 Y99.501 E15.79402
G1 X96.964 Y100.000 E15.80652
G1 X97.006 Y100.499 E15.81901
G1 X97.129 Y100.985 E15.83151
G1 X97.330 Y101.444 E15.84401
G1 X97.605 Y101.864 E15.85654
G1 X97.944 Y102.233 E15.86904
G1 X98.340 Y102.541 E15.88155
G1 X98.781 Y102.780 E15.89406
G1 X99.256 Y102.943 E15.90659
G1 X99.749 Y103.025 E15.91906
G1 X100.251 Y103.025 E15.93158
G1 X100.744 Y102.943 E15.94405
G1 X101.219 Y102.780 E15.95657
G1 X101.660 Y102.541 E15.96909
G1 X102.056 Y102.233 E15.98160
G1 X102.395 Y101.864 E15.99410
G1 X102.670 Y101.444 E16.00662
G1 X102.871 Y100.985 E16.01912
G1 X102.994 Y100.499 E16.03163
G1 X103.036 Y100.000 E16.04412
G1 X102.994 Y99.501 E16.05661
G1 X102.871 Y99.015 E16.06912
G1 X102.670 Y98.556 E16.08162
G1 X102.395 Y98.136 E16.09414
G1 X102.056 Y97.767 E16.10664
G1 X101.660 Y97.459 E16.11915
G1 X101.219 Y97.220 E16.13166
G1 X100.744 Y97.057 E16.14419
G1 X100.251 Y96.975 E16.15666
G1 X99.749 Y96.975 E16.16918
G1 X99.256 Y97.057 E16.18165
G1 X98.781 Y97.220 E16.19418
G1 X98.340 Y97.459 E16.20669
G1 X97.944 Y97.767 E16.21920
G0 F9000 X97.148 Y97.056
G1 F1020 X97.566 Y96.703 E16.23285
G1 X98.037 Y96.402 E16.24679
