;Generated from 2.1-shaftcollar.stl c56fa7e9247844b98c48fc0231c6e25978843023
;Generated with Cura_SteamEngine 15.04
M140 S55.0
M109 T0 S210.0
T0
M190 S55.0

;Basic settings: Layer height: 0.15 Walls: 1.2 Fill: 50
;Print time: ?print_time?
;Filament used: ?filament_amount?m ?filament_weight?g
;Filament cost: ?filament_cost?
;M190 S55 ;Uncomment to add your own bed temperature line
;M109 S210 ;Uncomment to add your own temperature line
G21        ;metric values
G90        ;absolute positioning
M82        ;set extruder to absolute mode
M107       ;start with the fan off
G28 X0 Y0  ;move X/Y to min endstops
G28 Z0     ;move Z to min endstops
G1 Z5.0 F9000 ;move the platform down 15mm
G92 E0                  ;zero the extruded length
G1 F200 E3              ;extrude 3mm of feed stock
G92 E0                  ;zero the extruded length again
G1 F9000
;Put printing message on LCD screen
M117 Printing...

;Layer count: 39
;LAYER:0
M107
G0 F9000 X93.433 Y91.752 Z0.300
G0 X92.963 Y92.254
;TYPE:SKIRT
G1 F1200 X93.433 Y91.752 E0.03431
G1 X95.555 Y90.527 E0.15655
G1 X96.152 Y90.184 E0.19090
G1 X98.530 Y89.641 E0.31259
G1 X99.204 Y89.485 E0.34711
G1 X101.676 Y89.668 E0.47077
G1 X102.362 Y89.725 E0.50512
G1 X105.273 Y90.868 E0.66114
G1 X107.197 Y92.403 E0.78394
G1 X107.733 Y92.833 E0.81822
G1 X109.113 Y94.856 E0.94039
G1 X109.499 Y95.420 E0.97449
G1 X110.381 Y98.281 E1.12385
G1 X110.496 Y99.782 E1.19896
G1 X110.503 Y100.134 E1.21652
G1 X110.422 Y101.201 E1.26991
G1 X110.373 Y101.747 E1.29726
G1 X109.501 Y104.575 E1.44490
G1 X108.114 Y106.609 E1.56773
G1 X107.725 Y107.176 E1.60203
G1 X105.821 Y108.695 E1.72355
G1 X105.279 Y109.130 E1.75822
G1 X102.345 Y110.281 E1.91546
G1 X99.895 Y110.463 E2.03803
G1 X99.230 Y110.519 E2.07132
G1 X96.812 Y109.967 E2.19506
G1 X96.142 Y109.812 E2.22937
G1 X94.020 Y108.587 E2.35161
G1 X93.428 Y108.246 E2.38570
G1 X91.756 Y106.444 E2.50834
G1 X91.291 Y105.947 E2.54229
G1 X90.222 Y103.726 E2.66527
G1 X89.925 Y103.116 E2.69911
G1 X89.561 Y100.702 E2.82091
G1 X89.453 Y100.012 E2.85575
G1 X89.822 Y97.561 E2.97941
G1 X89.929 Y96.882 E3.01371
G1 X90.993 Y94.672 E3.13608
G1 X91.294 Y94.054 E3.17037
G1 X92.963 Y92.254 E3.29284
G0 F9000 X93.256 Y92.527
G1 F1200 X93.684 Y92.069 E3.32411
G1 X95.755 Y90.873 E3.44343
G1 X96.299 Y90.560 E3.47474
G1 X98.633 Y90.028 E3.59417
G1 X99.236 Y89.888 E3.62505
G1 X101.645 Y90.067 E3.74557
G1 X102.270 Y90.119 E3.77686
G1 X105.071 Y91.218 E3.92697
G1 X106.947 Y92.715 E4.04671
G1 X107.436 Y93.108 E4.07801
G1 X108.777 Y95.074 E4.19674
G1 X109.135 Y95.596 E4.22832
G1 X109.986 Y98.356 E4.37241
G1 X110.096 Y99.801 E4.44471
G1 X110.103 Y100.123 E4.46078
G1 X110.024 Y101.168 E4.51306
G1 X109.978 Y101.669 E4.53816
G1 X109.136 Y104.400 E4.68074
G1 X107.784 Y106.383 E4.80048
G1 X107.429 Y106.900 E4.83177
G1 X105.561 Y108.390 E4.95098
G1 X105.076 Y108.780 E4.98203
G1 X102.255 Y109.887 E5.13322
G1 X99.898 Y110.062 E5.25113
G1 X99.258 Y110.115 E5.28317
G1 X96.902 Y109.578 E5.40373
G1 X96.290 Y109.436 E5.43507
G1 X94.220 Y108.240 E5.55434
G1 X93.680 Y107.929 E5.58543
G1 X92.049 Y106.172 E5.70504
G1 X91.625 Y105.718 E5.73603
G1 X90.582 Y103.553 E5.85592
G1 X90.311 Y102.996 E5.88683
G1 X89.953 Y100.619 E6.00675
G1 X89.858 Y100.011 E6.03745
G1 X90.218 Y97.621 E6.15804
G1 X90.315 Y97.003 E6.18925
G1 X91.353 Y94.846 E6.30867
G1 X91.627 Y94.282 E6.33995
G1 X93.256 Y92.527 E6.45942
G0 F9000 X93.549 Y92.800
G1 F1200 X93.936 Y92.386 E6.48769
G1 X95.955 Y91.220 E6.60401
G1 X96.446 Y90.937 E6.63228
G1 X98.722 Y90.418 E6.74875
G1 X99.267 Y90.292 E6.77665
G1 X101.613 Y90.466 E6.89402
G1 X102.179 Y90.513 E6.92235
G1 X104.868 Y91.568 E7.06646
G1 X106.698 Y93.028 E7.18326
G1 X107.139 Y93.382 E7.21147
G1 X108.447 Y95.300 E7.32730
G1 X108.770 Y95.772 E7.35583
G1 X109.590 Y98.431 E7.49465
G1 X109.697 Y99.820 E7.56415
G1 X109.702 Y100.112 E7.57872
G1 X109.625 Y101.135 E7.62991
G1 X109.584 Y101.591 E7.65275
G1 X108.772 Y104.224 E7.79021
G1 X107.453 Y106.157 E7.90696
G1 X107.133 Y106.625 E7.93525
G1 X105.311 Y108.078 E8.05151
G1 X104.873 Y108.430 E8.07955
G1 X102.165 Y109.492 E8.22467
G1 X99.865 Y109.663 E8.33973
G1 X99.287 Y109.711 E8.36867
G1 X96.991 Y109.188 E8.48615
G1 X96.439 Y109.060 E8.51442
G1 X94.425 Y107.896 E8.63047
G1 X94.425 Y107.897 E8.63052
G1 X93.932 Y107.613 E8.65891
G1 X92.342 Y105.900 E8.77551
G1 X91.959 Y105.490 E8.80350
G1 X90.943 Y103.379 E8.92039
G1 X90.698 Y102.876 E8.94830
G1 X90.349 Y100.560 E9.06515
G1 X90.262 Y100.009 E9.09298
G1 X90.613 Y97.682 E9.21039
G1 X90.701 Y97.123 E9.23862
G1 X91.713 Y95.021 E9.35501
G1 X91.961 Y94.511 E9.38330
G1 X93.549 Y92.800 E9.49976
G1 F2400 E4.99976
G0 F9000 X96.577 Y95.710
;TYPE:WALL-INNER
G1 F2400 E9.49976
G1 F1200 X97.995 Y94.892 E9.58144
G1 X99.594 Y94.527 E9.66326
G1 X101.218 Y94.648 E9.74451
G1 X102.743 Y95.246 E9.82623
G1 X104.024 Y96.268 E9.90799
G1 X104.944 Y97.616 E9.98941
G1 X105.439 Y99.222 E10.07325
G1 X105.499 Y100.006 E10.11248
G1 X105.441 Y100.772 E10.15081
G1 X104.944 Y102.384 E10.23497
G1 X104.025 Y103.731 E10.31632
G1 X102.742 Y104.754 E10.39818
G1 X101.221 Y105.351 E10.47970
G1 X99.588 Y105.472 E10.56140
G1 X97.996 Y105.109 E10.64286
G1 X96.579 Y104.291 E10.72449
G1 X95.465 Y103.089 E10.80625
G1 X94.755 Y101.616 E10.88783
G1 X94.511 Y100.000 E10.96937
G1 X94.755 Y98.384 E11.05090
G1 X95.465 Y96.909 E11.13257
G1 X96.577 Y95.710 E11.21416
G0 F9000 X97.818 Y96.997
G1 F1200 X96.997 Y97.818 E11.27208
G1 X96.470 Y98.853 E11.33003
G1 X96.287 Y100.000 E11.38798
G1 X96.470 Y101.147 E11.44592
G1 X96.997 Y102.182 E11.50387
G1 X97.818 Y103.003 E11.56179
G1 X98.853 Y103.530 E11.61974
G1 X100.000 Y103.713 E11.67769
G1 X101.147 Y103.530 E11.73563
G1 X102.182 Y103.003 E11.79358
G1 X103.003 Y102.182 E11.85151
G1 X103.513 Y101.181 E11.90755
G1 X103.571 Y100.933 E11.92026
G1 X103.575 Y100.876 E11.92311
G1 X103.692 Y100.144 E11.96009
G1 X103.702 Y100.019 E11.96635
G1 X103.696 Y99.876 E11.97349
G1 X103.568 Y99.074 E12.01401
G1 X103.522 Y98.837 E12.02605
G1 X103.116 Y98.041 E12.07063
G1 X103.006 Y97.821 E12.08291
G1 X102.182 Y96.997 E12.14104
G1 X101.147 Y96.470 E12.19899
G1 X100.000 Y96.287 E12.25694
G1 X98.853 Y96.470 E12.31488
G1 X97.818 Y96.997 E12.37283
G0 F9000 X98.056 Y97.324
G1 F1200 X97.324 Y98.056 E12.42447
G1 X96.855 Y98.978 E12.47608
G1 X96.692 Y100.000 E12.52771
G1 X96.855 Y101.022 E12.57935
G1 X97.324 Y101.944 E12.63095
G1 X98.056 Y102.676 E12.68260
G1 X98.978 Y103.145 E12.73421
G1 X100.000 Y103.308 E12.78584
G1 X101.022 Y103.145 E12.83747
G1 X101.944 Y102.676 E12.88908
G1 X102.676 Y101.944 E12.94073
G1 X103.134 Y101.042 E12.99120
G1 X103.175 Y100.872 E12.99992
G1 X103.178 Y100.828 E13.00212
G1 X103.294 Y100.096 E13.03910
G1 X103.301 Y100.011 E13.04335
G1 X103.297 Y99.916 E13.04810
G1 X103.174 Y99.143 E13.08715
G1 X103.140 Y98.969 E13.09599
G1 X102.760 Y98.223 E13.13776
G1 X102.677 Y98.058 E13.14698
G1 X101.944 Y97.324 E13.19873
G1 X101.022 Y96.855 E13.25034
G1 X100.000 Y96.692 E13.30197
G1 X98.978 Y96.855 E13.35360
G1 X98.056 Y97.324 E13.40521
G0 F9000 X96.325 Y95.395
G1 F1200 X97.848 Y94.515 E13.49296
G1 X99.563 Y94.124 E13.58072
G1 X101.306 Y94.253 E13.66792
G1 X102.948 Y94.897 E13.75591
G1 X104.318 Y95.990 E13.84335
G1 X105.310 Y97.445 E13.93120
G1 X105.834 Y99.143 E14.01986
G1 X105.899 Y99.992 E14.06234
G1 X105.900 Y100.012 E14.06334
G1 X105.839 Y100.815 E14.10352
G1 X105.834 Y100.855 E14.10553
G1 X105.310 Y102.555 E14.19428
G1 X104.319 Y104.009 E14.28207
G1 X102.948 Y105.103 E14.36957
G1 X101.309 Y105.746 E14.45741
G1 X99.558 Y105.876 E14.54501
G1 X97.850 Y105.486 E14.63241
G1 X96.325 Y104.606 E14.72026
G1 X95.131 Y103.319 E14.80784
G1 X94.368 Y101.735 E14.89556
G1 X94.107 Y99.997 E14.98324
G1 X94.367 Y98.267 E15.07052
G1 X95.131 Y96.681 E15.15835
G1 X96.325 Y95.395 E15.24589
G0 F9000 X96.075 Y95.076
;TYPE:WALL-OUTER
G1 F1200 X97.700 Y94.138 E15.33950
G1 X99.531 Y93.720 E15.43320
G1 X101.345 Y93.855 E15.52395
G1 X101.400 Y93.860 E15.52671
G1 X103.149 Y94.546 E15.62044
G1 X104.616 Y95.716 E15.71405
G1 X105.674 Y97.268 E15.80776
G1 X106.230 Y99.071 E15.90190
G1 X106.299 Y99.979 E15.94733
G1 X106.300 Y100.028 E15.94977
G1 X106.237 Y100.851 E15.99095
G1 X106.230 Y100.929 E15.99486
G1 X105.674 Y102.732 E16.08899
G1 X104.616 Y104.284 E16.18270
G1 X103.149 Y105.454 E16.27632
G1 X101.400 Y106.140 E16.37005
G1 X99.583 Y106.275 E16.46095
G1 X99.530 Y106.279 E16.46360
G1 X97.700 Y105.862 E16.55724
G1 X96.075 Y104.924 E16.65085
G1 X94.797 Y103.546 E16.74461
G1 X93.983 Y101.856 E16.83819
G1 X93.711 Y100.053 E16.92916
G1 X93.703 Y99.999 E16.93189
G1 X93.974 Y98.199 E17.02270
G1 X93.983 Y98.144 E17.02548
G1 X94.797 Y96.454 E17.11907
G1 X96.075 Y95.076 E17.21283
G0 F9000 X96.258 Y95.316
G0 X98.084 Y97.439
G0 X98.294 Y97.652
G1 F1200 X97.652 Y98.294 E17.25813
G1 X97.240 Y99.103 E17.30342
G1 X97.097 Y100.000 E17.34874
G1 X97.240 Y100.897 E17.39405
G1 X97.652 Y101.706 E17.43935
G1 X98.294 Y102.348 E17.48465
G1 X99.103 Y102.760 E17.52994
G1 X100.000 Y102.903 E17.57526
G1 X100.897 Y102.760 E17.62057
G1 X101.706 Y102.348 E17.66587
G1 X102.348 Y101.706 E17.71116
G1 X102.756 Y100.903 E17.75610
G1 X102.778 Y100.810 E17.76087
G1 X102.780 Y100.784 E17.76217
G1 X102.897 Y100.049 E17.79930
G1 X102.900 Y100.004 E17.80155
G1 X102.898 Y99.956 E17.80395
G1 X102.780 Y99.213 E17.84148
G1 X102.758 Y99.100 E17.84722
G1 X102.403 Y98.404 E17.88620
G1 X102.348 Y98.295 E17.89229
G1 X101.706 Y97.652 E17.93762
G1 X100.897 Y97.240 E17.98292
G1 X100.000 Y97.097 E18.02823
G1 X99.103 Y97.240 E18.07355
G1 X98.294 Y97.652 E18.11885
G0 F9000 X97.732 Y96.883
;TYPE:SKIN
G1 F1200 X96.667 Y95.819 E18.19395
G0 F9000 X96.394 Y96.111
G1 F1200 X97.449 Y97.166 E18.26839
G0 F9000 X97.166 Y97.449
G1 F1200 X96.122 Y96.405 E18.34205
G0 F9000 X95.850 Y96.698
G1 F1200 X96.883 Y97.732 E18.41497
G0 F9000 X96.692 Y98.106
G1 F1200 X95.578 Y96.993 E18.49353
G0 F9000 X95.395 Y97.375
G1 F1200 X96.501 Y98.481 E18.57156
G0 F9000 X96.324 Y98.870
G1 F1200 X95.211 Y97.757 E18.65009
G0 F9000 X95.028 Y98.139
G1 F1200 X96.247 Y99.358 E18.73610
G0 F9000 X96.168 Y99.845
G1 F1200 X94.872 Y98.549 E18.82754
G0 F9000 X94.798 Y99.040
G1 F1200 X96.218 Y100.460 E18.92773
G0 F9000 X96.326 Y101.134
G1 F1200 X94.723 Y99.531 E19.04083
G0 F9000 X98.106 Y96.691
G1 F1200 X97.026 Y95.612 E19.11699
G0 F9000 X97.385 Y95.405
G1 F1200 X98.480 Y96.500 E19.19425
G0 F9000 X98.869 Y96.324
G1 F1200 X97.744 Y95.198 E19.27366
G0 F9000 X98.119 Y95.008
G1 F1200 X99.357 Y96.246 E19.36101
G0 F9000 X99.844 Y96.167
G1 F1200 X98.579 Y94.902 E19.45026
G0 F9000 X99.039 Y94.796
G1 F1200 X100.460 Y96.217 E19.55052
G0 F9000 X101.133 Y96.325
G1 F1200 X99.499 Y94.691 E19.66581
G0 F9000 X100.076 Y94.702
G1 F1200 X102.244 Y96.870 E19.81877
G0 F9000 X103.128 Y97.754
G1 F1200 X105.356 Y99.982 E19.97597
G0 F9000 X105.320 Y100.511
G1 F1200 X103.667 Y98.859 E20.09256
G0 F9000 X103.783 Y99.540
G1 F1200 X105.228 Y100.985 E20.19451
G0 F9000 X105.095 Y101.418
G1 F1200 X103.830 Y100.153 E20.28377
G0 F9000 X103.752 Y100.641
G1 F1200 X104.962 Y101.850 E20.36910
G0 F9000 X104.828 Y102.282
G1 F1200 X103.668 Y101.123 E20.45091
G0 F9000 X103.497 Y101.517
G1 F1200 X104.607 Y102.628 E20.52926
G0 F9000 X104.378 Y102.964
G1 F1200 X103.306 Y101.892 E20.60490
G0 F9000 X103.115 Y102.267
G1 F1200 X104.149 Y103.300 E20.67782
G0 F9000 X103.918 Y103.635
G1 F1200 X102.833 Y102.550 E20.75437
G0 F9000 X102.550 Y102.833
G1 F1200 X103.603 Y103.886 E20.82867
G0 F9000 X103.289 Y104.137
G1 F1200 X102.267 Y103.115 E20.90077
G0 F9000 X101.893 Y103.307
G1 F1200 X102.974 Y104.388 E20.97704
G0 F9000 X102.656 Y104.636
G1 F1200 X101.518 Y103.498 E21.05734
G0 F9000 X101.128 Y103.674
G1 F1200 X102.250 Y104.796 E21.13650
G0 F9000 X101.843 Y104.955
G1 F1200 X100.641 Y103.752 E21.22134
G0 F9000 X100.153 Y103.830
G1 F1200 X101.437 Y105.114 E21.31194
G0 F9000 X100.984 Y105.227
G1 F1200 X99.538 Y103.781 E21.41396
G0 F9000 X98.865 Y103.673
G1 F1200 X100.458 Y105.266 E21.52635
G0 F9000 X99.931 Y105.305
G1 F1200 X97.753 Y103.127 E21.68002
G0 F9000 X96.871 Y102.245
G1 F1200 X94.658 Y100.032 E21.83616
G0 F9000 X94.758 Y100.698
G1 F1200 X99.329 Y105.269 E22.15867
G0 F9000 X98.596 Y105.101
G1 F1200 X94.859 Y101.364 E22.42234
G0 F9000 X95.252 Y102.323
G1 F1200 X97.710 Y104.781 E22.59576
G0 F9000 X101.942 Y102.673
G0 X102.673 Y101.942
G0 X105.309 Y99.369
G1 F1200 X100.688 Y94.748 E22.92180
G0 F9000 X101.360 Y94.855
G1 F1200 X105.097 Y98.592 E23.18546
G0 F9000 X104.846 Y97.775
G1 F1200 X102.290 Y95.219 E23.36580
;LAYER:1
M106 S127
G0 F9000 X102.741 Y95.245 Z0.450
;TYPE:WALL-INNER
G1 F1500 X104.023 Y96.267 E23.40670
G1 X104.944 Y97.618 E23.44749
G1 X105.439 Y99.222 E23.48936
G1 X105.499 Y100.000 E23.50883
G1 X105.499 Y100.011 E23.50910
G1 X105.446 Y100.712 E23.52664
G1 X105.440 Y100.773 E23.52817
G1 X104.998 Y102.211 E23.56569
G1 X104.946 Y102.379 E23.57008
G1 X104.023 Y103.732 E23.61094
G1 X102.745 Y104.753 E23.65174
G1 X101.219 Y105.351 E23.69263
G1 X99.589 Y105.472 E23.73340
G1 X97.998 Y105.110 E23.77410
G1 X96.576 Y104.288 E23.81507
G1 X95.466 Y103.091 E23.85579
G1 X94.755 Y101.615 E23.89666
G1 X94.511 Y100.000 E23.93741
G1 X94.756 Y98.383 E23.97820
G1 X95.465 Y96.909 E24.01900
G1 X96.577 Y95.710 E24.05980
G1 X97.994 Y94.892 E24.10061
G1 X99.593 Y94.527 E24.14152
G1 X101.219 Y94.648 E24.18220
G1 X102.741 Y95.245 E24.22298
G0 F9000 X102.182 Y96.997
G1 F1500 X101.147 Y96.470 E24.25195
G1 X100.000 Y96.287 E24.28093
G1 X98.853 Y96.470 E24.30990
G1 X97.818 Y96.997 E24.33887
G1 X96.997 Y97.818 E24.36784
G1 X96.470 Y98.853 E24.39681
G1 X96.287 Y100.000 E24.42578
G1 X96.470 Y101.147 E24.45476
G1 X96.997 Y102.182 E24.48373
G1 X97.818 Y103.003 E24.51269
G1 X98.853 Y103.530 E24.54166
G1 X100.000 Y103.713 E24.57064
G1 X101.147 Y103.530 E24.59961
G1 X102.182 Y103.003 E24.62858
G1 X103.003 Y102.182 E24.65755
G1 X103.528 Y101.150 E24.68643
G1 X103.694 Y100.148 E24.71176
G1 X103.701 Y100.012 E24.71516
G1 X103.697 Y99.867 E24.71878
G1 X103.581 Y99.147 E24.73697
G1 X103.507 Y98.807 E24.74565
G1 X103.144 Y98.095 E24.76559
G1 X103.004 Y97.819 E24.77331
G1 X102.182 Y96.997 E24.80231
G0 F9000 X101.944 Y97.324
G1 F1500 X101.022 Y96.855 E24.82811
G1 X100.000 Y96.692 E24.85393
G1 X98.978 Y96.855 E24.87974
G1 X98.056 Y97.324 E24.90555
G1 X97.324 Y98.056 E24.93137
G1 X96.855 Y98.978 E24.95717
G1 X96.692 Y100.000 E24.98299
G1 X96.855 Y101.022 E25.00881
G1 X97.324 Y101.944 E25.03461
G1 X98.056 Y102.676 E25.06043
G1 X98.978 Y103.145 E25.08624
G1 X100.000 Y103.308 E25.11205
G1 X101.022 Y103.145 E25.13787
G1 X101.944 Y102.676 E25.16367
G1 X102.676 Y101.944 E25.18950
G1 X103.144 Y101.023 E25.21527
G1 X103.296 Y100.105 E25.23848
G1 X103.300 Y100.007 E25.24093
G1 X103.298 Y99.904 E25.24349
G1 X103.186 Y99.209 E25.26106
G1 X103.131 Y98.951 E25.26764
G1 X102.676 Y98.056 E25.29268
G1 X101.944 Y97.324 E25.31850
G0 F9000 X102.900 Y94.878
G1 F1500 X102.947 Y94.896 E25.31976
G1 X104.318 Y95.991 E25.36353
G1 X105.310 Y97.445 E25.40744
G1 X105.834 Y99.144 E25.45179
G1 X105.899 Y99.982 E25.47275
G1 X105.900 Y100.025 E25.47383
G1 X105.845 Y100.749 E25.49194
G1 X105.834 Y100.855 E25.49460
G1 X105.380 Y102.329 E25.53307
G1 X105.310 Y102.556 E25.53900
G1 X104.318 Y104.009 E25.58288
G1 X102.948 Y105.103 E25.62662
G1 X101.357 Y105.727 E25.66925
G1 X101.309 Y105.746 E25.67054
G1 X99.609 Y105.872 E25.71306
G1 X99.560 Y105.876 E25.71429
G1 X97.896 Y105.497 E25.75686
G1 X97.851 Y105.487 E25.75801
G1 X96.369 Y104.631 E25.80070
G1 X96.326 Y104.606 E25.80194
G1 X95.165 Y103.355 E25.84452
G1 X95.132 Y103.319 E25.84573
G1 X94.390 Y101.780 E25.88835
G1 X94.369 Y101.736 E25.88957
G1 X94.107 Y100.000 E25.93336
G1 X94.368 Y98.265 E25.97713
G1 X95.110 Y96.725 E26.01977
G1 X95.130 Y96.682 E26.02096
G1 X96.291 Y95.431 E26.06353
G1 X96.325 Y95.395 E26.06477
G1 X97.804 Y94.540 E26.10738
G1 X97.846 Y94.515 E26.10860
G1 X99.513 Y94.136 E26.15125
G1 X99.564 Y94.124 E26.15255
G1 X101.259 Y94.250 E26.19495
G1 X101.308 Y94.254 E26.19618
G1 X102.900 Y94.878 E26.23883
G0 F9000 X103.149 Y94.546
;TYPE:WALL-OUTER
G1 F1500 X104.616 Y95.716 E26.28564
G1 X105.674 Y97.268 E26.33249
G1 X106.230 Y99.071 E26.37956
G1 X106.299 Y99.960 E26.40180
G1 X106.300 Y100.043 E26.40387
