;Generated from 2.1-gearcover.stl e7736fa837f14dde1312c233dff082e37e0907f7
;Generated with Cura_SteamEngine 15.04
M140 S55.0
M109 T0 S210.0
T0
M190 S55.0

;Basic settings: Layer height: 0.15 Walls: 1.2 Fill: 50
;Print time: ?print_time?
;Filament used: ?filament_amount?m ?filament_weight?g
;Filament cost: ?filament_cost?
;M190 S55 ;Uncomment to add your own bed temperature line
;M109 S210 ;Uncomment to add your own temperature line
G21        ;metric values
G90        ;absolute positioning
M82        ;set extruder to absolute mode
M107       ;start with the fan off
G28 X0 Y0  ;move X/Y to min endstops
G28 Z0     ;move Z to min endstops
G1 Z5.0 F9000 ;move the platform down 15mm
G92 E0                  ;zero the extruded length
G1 F200 E3              ;extrude 3mm of feed stock
G92 E0                  ;zero the extruded length again
G1 F9000
;Put printing message on LCD screen
M117 Printing...

;Layer count: 54
;LAYER:0
M107
G0 F9000 X81.150 Y80.956 Z0.300
;TYPE:SKIRT
G1 F1200 X81.715 Y80.410 E0.03920
G1 X82.211 Y79.958 E0.07268
G1 X82.850 Y79.410 E0.11468
G1 X83.368 Y78.989 E0.14798
G1 X84.035 Y78.479 E0.18987
G1 X84.575 Y78.085 E0.22322
G1 X85.264 Y77.620 E0.26469
G1 X85.835 Y77.250 E0.29863
G1 X86.559 Y76.821 E0.34062
G1 X87.139 Y76.487 E0.37401
G1 X87.888 Y76.102 E0.41602
G1 X88.488 Y75.798 E0.44958
G1 X89.354 Y75.417 E0.49678
G1 X89.855 Y75.194 E0.52414
G1 X91.273 Y74.660 E0.59974
G1 X91.909 Y74.460 E0.63300
G1 X92.714 Y74.209 E0.67507
G1 X93.361 Y74.044 E0.70838
G1 X94.176 Y73.841 E0.75028
G1 X94.832 Y73.710 E0.78366
G1 X95.664 Y73.553 E0.82590
G1 X96.523 Y73.433 E0.86917
G1 X97.156 Y73.352 E0.90101
G1 X97.822 Y73.294 E0.93436
G1 X98.662 Y73.235 E0.97637
G1 X99.327 Y73.213 E1.00957
G1 X100.167 Y73.202 E1.05148
G1 X100.837 Y73.216 E1.08491
G1 X101.682 Y73.255 E1.12711
G1 X102.420 Y73.312 E1.16404
G1 X103.134 Y73.396 E1.19991
G1 X103.134 Y73.397 E1.19996
G1 X103.819 Y73.474 E1.23435
G1 X104.676 Y73.615 E1.27768
G1 X105.332 Y73.737 E1.31097
G1 X106.152 Y73.920 E1.35289
G1 X106.805 Y74.078 E1.38640
G1 X107.614 Y74.311 E1.42841
G1 X108.253 Y74.502 E1.46168
G1 X109.046 Y74.780 E1.50360
G1 X109.609 Y74.982 E1.53344
G1 X110.446 Y75.328 E1.57863
G1 X111.047 Y75.582 E1.61118
G1 X111.581 Y75.842 E1.64081
G1 X112.157 Y76.122 E1.67277
G1 X112.960 Y76.554 E1.71826
G1 X113.522 Y76.866 E1.75033
G1 X114.284 Y77.333 E1.79491
G1 X115.011 Y77.798 E1.83797
G1 X115.561 Y78.188 E1.87161
G1 X116.238 Y78.680 E1.91336
G1 X116.760 Y79.094 E1.94660
G1 X117.411 Y79.627 E1.98857
G1 X117.912 Y80.071 E2.02197
G1 X118.532 Y80.643 E2.06406
G1 X119.005 Y81.110 E2.09722
G1 X119.465 Y81.585 E2.13021
G1 X120.034 Y82.203 E2.17212
G1 X120.590 Y82.850 E2.21468
G1 X121.011 Y83.368 E2.24798
G1 X121.521 Y84.035 E2.28987
G1 X121.915 Y84.576 E2.32326
G1 X122.386 Y85.274 E2.36527
G1 X122.750 Y85.834 E2.39859
G1 X123.188 Y86.574 E2.44149
G1 X123.509 Y87.147 E2.47426
G1 X123.892 Y87.876 E2.51534
G1 X124.199 Y88.483 E2.54928
G1 X124.540 Y89.249 E2.59111
G1 X124.792 Y89.822 E2.62234
G1 X125.063 Y90.540 E2.66063
G1 X125.340 Y91.271 E2.69963
G1 X125.540 Y91.909 E2.73299
G1 X125.791 Y92.714 E2.77506
G1 X125.956 Y93.361 E2.80837
G1 X126.159 Y94.176 E2.85027
G1 X126.290 Y94.832 E2.88364
G1 X126.446 Y95.660 E2.92568
G1 X126.540 Y96.321 E2.95899
G1 X126.643 Y97.120 E2.99918
G1 X126.691 Y97.705 E3.02847
G1 X126.765 Y98.649 E3.07571
G1 X126.787 Y99.315 E3.10895
G1 X126.799 Y99.873 E3.13680
G1 X126.800 Y100.008 E3.14353
G1 X126.785 Y100.835 E3.18480
G1 X126.744 Y101.704 E3.22820
G1 X126.683 Y102.380 E3.26206
G1 X126.611 Y103.164 E3.30134
G1 X126.521 Y103.846 E3.33566
G1 X126.385 Y104.676 E3.37762
G1 X126.263 Y105.332 E3.41091
G1 X126.080 Y106.152 E3.45283
G1 X125.922 Y106.805 E3.48635
G1 X125.689 Y107.614 E3.52835
G1 X125.498 Y108.253 E3.56162
G1 X125.220 Y109.046 E3.60355
G1 X125.016 Y109.614 E3.63366
G1 X124.662 Y110.461 E3.67945
G1 X124.419 Y111.041 E3.71083
G1 X124.002 Y111.901 E3.75851
G1 X123.734 Y112.448 E3.78890
G1 X123.415 Y113.016 E3.82140
G1 X123.122 Y113.542 E3.85144
G1 X122.667 Y114.285 E3.89491
G1 X122.202 Y115.010 E3.93788
G1 X121.815 Y115.557 E3.97131
G1 X121.320 Y116.238 E4.01331
G1 X120.906 Y116.760 E4.04655
G1 X120.373 Y117.411 E4.08852
G1 X119.929 Y117.912 E4.12192
G1 X119.357 Y118.532 E4.16401
G1 X118.889 Y119.006 E4.19724
G1 X118.324 Y119.552 E4.23644
G1 X117.793 Y120.038 E4.27235
G1 X117.150 Y120.590 E4.31463
G1 X116.632 Y121.011 E4.34793
G1 X115.965 Y121.521 E4.38982
G1 X115.424 Y121.915 E4.42321
G1 X114.726 Y122.386 E4.46522
G1 X114.164 Y122.751 E4.49865
G1 X113.616 Y123.074 E4.53039
G1 X112.987 Y123.440 E4.56670
G1 X112.123 Y123.893 E4.61537
G1 X111.517 Y124.199 E4.64924
G1 X110.751 Y124.540 E4.69107
G1 X110.179 Y124.792 E4.72225
G1 X109.352 Y125.105 E4.76637
G1 X108.727 Y125.340 E4.79968
G1 X108.091 Y125.540 E4.83294
G1 X107.284 Y125.792 E4.87512
G1 X106.226 Y126.059 E4.92956
G1 X105.718 Y126.182 E4.95564
G1 X104.344 Y126.445 E5.02543
G1 X103.679 Y126.540 E5.05894
G1 X102.845 Y126.648 E5.10090
G1 X102.166 Y126.707 E5.13490
G1 X101.338 Y126.765 E5.17631
G1 X100.673 Y126.787 E5.20951
G1 X99.833 Y126.798 E5.25142
G1 X99.163 Y126.784 E5.28485
G1 X98.321 Y126.745 E5.32691
G1 X97.656 Y126.696 E5.36017
G1 X96.873 Y126.614 E5.39945
G1 X96.159 Y126.522 E5.43537
G1 X95.324 Y126.385 E5.47758
G1 X94.668 Y126.263 E5.51087
G1 X93.848 Y126.080 E5.55279
G1 X93.195 Y125.922 E5.58631
G1 X92.386 Y125.689 E5.62831
G1 X91.747 Y125.498 E5.66158
G1 X90.954 Y125.220 E5.70350
G1 X90.386 Y125.016 E5.73361
G1 X89.426 Y124.615 E5.78552
G1 X88.936 Y124.410 E5.81202
G1 X87.579 Y123.749 E5.88732
G1 X86.997 Y123.424 E5.92058
G1 X86.264 Y123.013 E5.96251
G1 X85.697 Y122.656 E5.99594
G1 X84.990 Y122.202 E6.03785
G1 X84.443 Y121.815 E6.07128
G1 X83.762 Y121.320 E6.11329
G1 X83.240 Y120.906 E6.14652
G1 X82.589 Y120.373 E6.18850
G1 X82.088 Y119.929 E6.22190
G1 X81.468 Y119.357 E6.26398
G1 X80.981 Y118.876 E6.29813
G1 X80.443 Y118.306 E6.33724
G1 X79.975 Y117.809 E6.37129
G1 X79.410 Y117.150 E6.41460
G1 X78.989 Y116.632 E6.44790
G1 X78.479 Y115.965 E6.48979
G1 X78.077 Y115.413 E6.52386
G1 X77.555 Y114.624 E6.57106
G1 X77.233 Y114.136 E6.60023
G1 X76.821 Y113.441 E6.64054
G1 X76.487 Y112.861 E6.67393
G1 X76.102 Y112.112 E6.71594
G1 X75.801 Y111.517 E6.74921
G1 X75.460 Y110.751 E6.79104
G1 X75.208 Y110.179 E6.82223
G1 X74.895 Y109.352 E6.86634
G1 X74.659 Y108.724 E6.89981
G1 X74.426 Y107.979 E6.93876
G1 X74.232 Y107.361 E6.97107
G1 X74.046 Y106.647 E7.00788
G1 X73.841 Y105.824 E7.05020
G1 X73.710 Y105.169 E7.08352
G1 X73.581 Y104.481 E7.11844
G1 X73.462 Y103.692 E7.15825
G1 X73.352 Y102.845 E7.20086
G1 X73.294 Y102.178 E7.23427
G1 X73.235 Y101.338 E7.27628
G1 X73.213 Y100.673 E7.30947
G1 X73.202 Y99.833 E7.35138
G1 X73.216 Y99.163 E7.38482
G1 X73.255 Y98.312 E7.42732
G1 X73.322 Y97.478 E7.46906
G1 X73.392 Y96.816 E7.50227
G1 X73.479 Y96.154 E7.53558
G1 X73.615 Y95.324 E7.57755
G1 X73.737 Y94.668 E7.61083
G1 X73.920 Y93.848 E7.65275
G1 X74.078 Y93.196 E7.68622
G1 X74.309 Y92.392 E7.72796
G1 X74.502 Y91.747 E7.76154
G1 X74.780 Y90.954 E7.80347
G1 X74.982 Y90.391 E7.83331
G1 X75.328 Y89.554 E7.87849
G1 X75.583 Y88.952 E7.91111
G1 X75.881 Y88.338 E7.94516
G1 X76.252 Y87.579 E7.98731
G1 X76.785 Y86.624 E8.04187
G1 X77.029 Y86.197 E8.06641
G1 X77.345 Y85.696 E8.09596
G1 X77.798 Y84.990 E8.13781
G1 X78.185 Y84.443 E8.17124
G1 X78.680 Y83.762 E8.21324
G1 X79.094 Y83.240 E8.24648
G1 X79.627 Y82.589 E8.28846
G1 X80.071 Y82.088 E8.32185
G1 X80.645 Y81.466 E8.36408
G1 X81.150 Y80.956 E8.39989
G1 F2400 E3.89989
G0 F9000 X84.096 Y83.950
;TYPE:WALL-INNER
G1 F2400 E8.39989
G1 F1200 X84.600 Y83.462 E8.43489
G1 X84.981 Y83.116 E8.46057
G1 X85.534 Y82.641 E8.49693
G1 X85.967 Y82.289 E8.52477
G1 X86.556 Y81.839 E8.56175
G1 X86.974 Y81.534 E8.58757
G1 X87.590 Y81.118 E8.62465
G1 X88.051 Y80.819 E8.65207
G1 X88.671 Y80.452 E8.68801
G1 X89.156 Y80.173 E8.71593
G1 X89.793 Y79.845 E8.75167
G1 X90.293 Y79.593 E8.77961
G1 X91.062 Y79.254 E8.82154
G1 X92.653 Y78.628 E8.90683
G1 X93.163 Y78.468 E8.93350
G1 X93.866 Y78.250 E8.97022
G1 X94.387 Y78.117 E8.99705
G1 X95.090 Y77.941 E9.03320
G1 X95.625 Y77.835 E9.06041
G1 X96.358 Y77.697 E9.09762
G1 X97.077 Y77.596 E9.13385
G1 X97.618 Y77.527 E9.16106
G1 X98.143 Y77.481 E9.18735
G1 X98.897 Y77.429 E9.22506
G1 X99.414 Y77.412 E9.25086
G1 X100.147 Y77.402 E9.28744
G1 X100.703 Y77.414 E9.31518
G1 X101.426 Y77.447 E9.35129
G1 X102.010 Y77.492 E9.38051
G1 X102.641 Y77.567 E9.41221
G1 X103.248 Y77.637 E9.44270
G1 X103.964 Y77.754 E9.47889
G1 X104.485 Y77.851 E9.50533
G1 X105.209 Y78.013 E9.54235
G1 X105.727 Y78.138 E9.56893
G1 X106.425 Y78.339 E9.60517
G1 X106.948 Y78.496 E9.63241
G1 X107.644 Y78.740 E9.66921
G1 X108.824 Y79.202 E9.73243
G1 X109.314 Y79.409 E9.75897
G1 X110.233 Y79.857 E9.80998
G1 X110.951 Y80.243 E9.85064
G1 X111.405 Y80.495 E9.87655
G1 X112.046 Y80.887 E9.91404
G1 X112.667 Y81.285 E9.95083
G1 X113.107 Y81.597 E9.97775
G1 X113.699 Y82.027 E10.01425
G1 X114.119 Y82.360 E10.04099
G1 X114.694 Y82.831 E10.07807
G1 X115.088 Y83.180 E10.10433
G1 X115.628 Y83.678 E10.14098
G1 X116.013 Y84.058 E10.16797
G1 X116.404 Y84.461 E10.19598
G1 X116.896 Y84.995 E10.23221
G1 X117.359 Y85.534 E10.26766
G1 X117.711 Y85.967 E10.29550
G1 X118.161 Y86.556 E10.33248
G1 X118.477 Y86.989 E10.35922
G1 X118.878 Y87.585 E10.39506
G1 X119.191 Y88.067 E10.42373
G1 X119.543 Y88.661 E10.45818
G1 X119.812 Y89.141 E10.48563
G1 X120.155 Y89.793 E10.52238
G1 X120.402 Y90.282 E10.54972
G1 X120.700 Y90.952 E10.58630
G1 X121.135 Y92.025 E10.64406
G1 X121.369 Y92.644 E10.67708
G1 X121.532 Y93.163 E10.70422
G1 X121.750 Y93.866 E10.74094
G1 X121.883 Y94.387 E10.76777
G1 X122.059 Y95.090 E10.80392
G1 X122.165 Y95.625 E10.83113
G1 X122.302 Y96.351 E10.86799
G1 X122.377 Y96.880 E10.89465
G1 X122.465 Y97.558 E10.92876
G1 X122.571 Y98.894 E10.99562
G1 X122.589 Y99.422 E11.02198
G1 X122.599 Y99.943 E11.04797
G1 X122.600 Y99.981 E11.04987
G1 X122.587 Y100.684 E11.08495
G1 X122.553 Y101.414 E11.12141
G1 X122.434 Y102.715 E11.18659
G1 X122.368 Y103.218 E11.21190
G1 X122.247 Y103.960 E11.24940
G1 X122.152 Y104.472 E11.27538
G1 X121.990 Y105.195 E11.31235
G1 X121.862 Y105.727 E11.33965
G1 X121.661 Y106.425 E11.37589
G1 X121.504 Y106.948 E11.40313
G1 X121.260 Y107.644 E11.43992
G1 X120.788 Y108.840 E11.50407
G1 X120.594 Y109.302 E11.52907
G1 X120.225 Y110.063 E11.57127
G1 X119.754 Y110.956 E11.62163
G1 X119.494 Y111.424 E11.64834
G1 X119.113 Y112.046 E11.68473
G1 X118.721 Y112.658 E11.72099
G1 X118.406 Y113.103 E11.74819
G1 X117.979 Y113.691 E11.78445
G1 X117.640 Y114.119 E11.81169
G1 X117.169 Y114.694 E11.84877
G1 X116.820 Y115.088 E11.87503
G1 X116.317 Y115.633 E11.91203
G1 X115.943 Y116.012 E11.93860
G1 X115.456 Y116.483 E11.97240
G1 X115.002 Y116.899 E12.00312
G1 X114.466 Y117.359 E12.03836
G1 X114.033 Y117.711 E12.06620
G1 X113.444 Y118.161 E12.10318
G1 X113.011 Y118.477 E12.12992
G1 X112.415 Y118.878 E12.16576
G1 X111.955 Y119.177 E12.19313
G1 X111.497 Y119.448 E12.21968
G1 X110.947 Y119.767 E12.25140
G1 X110.207 Y120.156 E12.29311
G1 X109.718 Y120.402 E12.32042
G1 X109.048 Y120.700 E12.35700
G1 X108.587 Y120.904 E12.38215
G1 X107.870 Y121.175 E12.42039
G1 X107.353 Y121.370 E12.44796
G1 X106.837 Y121.532 E12.47494
G1 X106.126 Y121.753 E12.51209
G1 X105.222 Y121.981 E12.55860
G1 X103.657 Y122.301 E12.63830
G1 X103.119 Y122.377 E12.66540
G1 X102.379 Y122.473 E12.70263
G1 X101.845 Y122.520 E12.72938
G1 X101.103 Y122.571 E12.76648
G1 X100.586 Y122.588 E12.79229
G1 X99.853 Y122.598 E12.82886
G1 X99.297 Y122.586 E12.85661
G1 X98.567 Y122.552 E12.89307
G1 X98.046 Y122.513 E12.91913
G1 X97.351 Y122.440 E12.95400
G1 X96.760 Y122.364 E12.98372
G1 X96.036 Y122.246 E13.02032
G1 X95.515 Y122.149 E13.04676
G1 X94.791 Y121.987 E13.08377
G1 X94.273 Y121.862 E13.11036
G1 X93.565 Y121.658 E13.14712
G1 X93.052 Y121.504 E13.17384
G1 X92.356 Y121.260 E13.21064
G1 X91.045 Y120.740 E13.28100
G1 X89.518 Y120.021 E13.36520
G1 X89.046 Y119.758 E13.39216
G1 X88.415 Y119.404 E13.42826
G1 X87.954 Y119.113 E13.45546
G1 X87.333 Y118.715 E13.49226
G1 X86.887 Y118.399 E13.51953
G1 X86.301 Y117.973 E13.55567
G1 X85.870 Y117.631 E13.58312
G1 X85.304 Y117.168 E13.61960
G1 X84.912 Y116.820 E13.64575
G1 X84.367 Y116.317 E13.68275
G1 X83.992 Y115.947 E13.70904
G1 X83.499 Y115.425 E13.74486
G1 X83.105 Y115.007 E13.77352
G1 X82.638 Y114.462 E13.80932
G1 X82.289 Y114.033 E13.83691
G1 X81.839 Y113.444 E13.87389
G1 X81.529 Y113.019 E13.90014
G1 X81.059 Y112.309 E13.94262
G1 X80.452 Y111.329 E14.00013
G1 X80.173 Y110.844 E14.02804
G1 X79.841 Y110.200 E14.06419
G1 X79.598 Y109.718 E14.09112
G1 X79.300 Y109.048 E14.12771
G1 X79.093 Y108.579 E14.15328
G1 X78.824 Y107.868 E14.19121
G1 X78.634 Y107.364 E14.21808
G1 X78.435 Y106.727 E14.25137
G1 X78.273 Y106.212 E14.27831
G1 X78.115 Y105.604 E14.30965
G1 X77.941 Y104.910 E14.34535
G1 X77.833 Y104.365 E14.37306
G1 X77.719 Y103.760 E14.40378
G1 X77.620 Y103.099 E14.43712
G1 X77.526 Y102.371 E14.47375
G1 X77.481 Y101.857 E14.49949
G1 X77.429 Y101.103 E14.53719
G1 X77.412 Y100.586 E14.56300
G1 X77.402 Y99.866 E14.59893
G1 X77.413 Y99.316 E14.62637
G1 X77.446 Y98.596 E14.66233
G1 X77.504 Y97.878 E14.69827
G1 X77.565 Y97.295 E14.72751
G1 X77.632 Y96.782 E14.75332
G1 X77.750 Y96.058 E14.78992
G1 X77.848 Y95.528 E14.81681
G1 X78.009 Y94.808 E14.85362
G1 X78.140 Y94.266 E14.88144
G1 X78.337 Y93.581 E14.91700
G1 X78.496 Y93.052 E14.94456
G1 X78.740 Y92.356 E14.98135
G1 X79.202 Y91.176 E15.04457
G1 X79.406 Y90.694 E15.07069
G1 X79.975 Y89.525 E15.13555
G1 X80.444 Y88.686 E15.18350
G1 X80.630 Y88.359 E15.20227
G1 X80.886 Y87.954 E15.22617
G1 X81.285 Y87.333 E15.26300
G1 X81.594 Y86.897 E15.28966
G1 X82.027 Y86.301 E15.32641
G1 X82.360 Y85.881 E15.35316
G1 X82.831 Y85.306 E15.39024
G1 X83.180 Y84.912 E15.41650
G1 X83.683 Y84.367 E15.45350
G1 X84.096 Y83.950 E15.48278
G0 F9000 X85.838 Y85.447
G1 F1200 X85.033 Y86.277 E15.54046
G1 X84.529 Y86.861 E15.57895
G1 X84.257 Y87.171 E15.59953
G1 X84.009 Y87.609 E15.62464
G1 X83.944 Y87.883 E15.63869
G1 X83.922 Y87.988 E15.64404
G1 X83.904 Y88.190 E15.65416
G1 X83.937 Y88.577 E15.67353
G1 X84.117 Y89.060 E15.69925
G1 X84.467 Y89.478 E15.72645
G1 X84.858 Y89.734 E15.74977
G1 X85.382 Y89.888 E15.77701
G1 X85.560 Y89.881 E15.78590
G1 X85.684 Y89.889 E15.79210
G1 X86.351 Y89.803 E15.82565
G1 X86.131 Y89.930 E15.83833
G1 X85.748 Y90.292 E15.86462
G1 X85.459 Y90.737 E15.89109
G1 X85.283 Y91.221 E15.91678
G1 X85.222 Y91.742 E15.94295
G1 X85.284 Y92.264 E15.96918
G1 X85.461 Y92.747 E15.99484
G1 X85.755 Y93.200 E16.02179
G1 X86.174 Y93.577 E16.04991
G1 X86.585 Y93.815 E16.07360
G1 X87.090 Y93.965 E16.09988
G1 X87.223 Y93.972 E16.10653
G1 X86.613 Y94.212 E16.13923
G1 X85.741 Y94.632 E16.18752
G1 X84.895 Y95.125 E16.23637
G1 X84.089 Y95.683 E16.28528
G1 X83.331 Y96.302 E16.33410
G1 X82.624 Y96.978 E16.38290
G1 X82.070 Y97.598 E16.42439
G1 X81.382 Y98.483 E16.48031
G1 X80.858 Y99.294 E16.52848
G1 X80.406 Y100.131 E16.57594
G1 X80.136 Y100.707 E16.60768
G1 X79.921 Y101.382 E16.64302
G1 X79.837 Y102.120 E16.68008
G1 X79.867 Y102.651 E16.70661
G1 X79.991 Y103.453 E16.74710
G1 X80.228 Y104.627 E16.80685
G1 X80.415 Y105.333 E16.84329
G1 X80.879 Y106.836 E16.92177
G1 X81.302 Y107.920 E16.97982
G1 X81.783 Y108.971 E17.03748
G1 X82.324 Y109.994 E17.09522
G1 X82.725 Y110.656 E17.13383
G1 X82.945 Y111.023 E17.15518
G1 X83.190 Y111.293 E17.17337
G1 X83.367 Y111.442 E17.18491
G1 X83.768 Y111.653 E17.20752
G1 X84.041 Y111.719 E17.22153
G1 X84.332 Y111.752 E17.23614
G1 X84.660 Y111.718 E17.25259
G1 X84.900 Y111.650 E17.26504
G1 X85.230 Y111.499 E17.28314
G1 X85.334 Y111.402 E17.29024
G1 X85.512 Y111.270 E17.30129
G1 X85.711 Y111.019 E17.31728
G1 X85.855 Y110.778 E17.33128
G1 X85.957 Y110.494 E17.34634
G1 X86.231 Y109.079 E17.41824
G1 X86.529 Y107.936 E17.47717
G1 X86.877 Y106.888 E17.53227
G1 X87.293 Y105.851 E17.58801
G1 X87.777 Y104.831 E17.64434
G1 X88.329 Y103.839 E17.70097
G1 X88.952 Y102.866 E17.75861
G1 X89.616 Y101.965 E17.81445
G1 X89.969 Y101.542 E17.84194
G1 X90.343 Y101.095 E17.87102
G1 X91.146 Y100.252 E17.92910
G1 X91.634 Y99.801 E17.96225
