;Generated from 2.1-30mmfancover-lownoise.stl 644cc9f0bf76c62a55715170df8e18a79e3e7a9b
;Generated with Cura_SteamEngine 15.04
M140 S55.0
M109 T0 S210.0
T0
M190 S55.0

;Basic settings: Layer height: 0.15 Walls: 1.2 Fill: 50
;Print time: ?print_time?
;Filament used: ?filament_amount?m ?filament_weight?g
;Filament cost: ?filament_cost?
;M190 S55 ;Uncomment to add your own bed temperature line
;M109 S210 ;Uncomment to add your own temperature line
G21        ;metric values
G90        ;absolute positioning
M82        ;set extruder to absolute mode
M107       ;start with the fan off
G28 X0 Y0  ;move X/Y to min endstops
G28 Z0     ;move Z to min endstops
G1 Z5.0 F9000 ;move the platform down 15mm
G92 E0                  ;zero the extruded length
G1 F200 E3              ;extrude 3mm of feed stock
G92 E0                  ;zero the extruded length again
G1 F9000
;Put printing message on LCD screen
M117 Printing...

;Layer count: 34
;LAYER:0
M107
G0 F9000 X83.176 Y83.176 Z0.300
;TYPE:SKIRT
G1 F1200 X83.965 Y82.501 E0.05180
G1 X84.850 Y81.959 E0.10358
G1 X85.806 Y81.563 E0.15520
G1 X86.820 Y81.319 E0.20724
G1 X87.713 Y81.251 E0.25192
G1 X112.287 Y81.251 E1.47792
G1 X113.180 Y81.319 E1.52260
G1 X114.194 Y81.563 E1.57463
G1 X115.150 Y81.959 E1.62626
G1 X116.035 Y82.501 E1.67803
G1 X116.824 Y83.176 E1.72983
G1 X117.499 Y83.965 E1.78164
G1 X118.041 Y84.850 E1.83341
G1 X118.437 Y85.806 E1.88504
G1 X118.681 Y86.820 E1.93707
G1 X118.749 Y87.713 E1.98175
G1 X118.749 Y112.287 E3.20775
G1 X118.681 Y113.180 E3.25243
G1 X118.437 Y114.194 E3.30447
G1 X118.041 Y115.150 E3.35609
G1 X117.499 Y116.035 E3.40787
G1 X116.824 Y116.824 E3.45967
G1 X116.035 Y117.499 E3.51147
G1 X115.150 Y118.041 E3.56325
G1 X114.194 Y118.437 E3.61487
G1 X113.180 Y118.681 E3.66691
G1 X112.287 Y118.749 E3.71159
G1 X87.713 Y118.749 E4.93759
G1 X86.820 Y118.681 E4.98227
G1 X85.806 Y118.437 E5.03430
G1 X84.850 Y118.041 E5.08593
G1 X83.965 Y117.499 E5.13770
G1 X83.176 Y116.824 E5.18950
G1 X82.501 Y116.035 E5.24131
G1 X81.959 Y115.150 E5.29308
G1 X81.563 Y114.194 E5.34471
G1 X81.319 Y113.180 E5.39674
G1 X81.251 Y112.287 E5.44142
G1 X81.251 Y87.713 E6.66742
G1 X81.319 Y86.820 E6.71210
G1 X81.563 Y85.806 E6.76414
G1 X81.959 Y84.850 E6.81576
G1 X82.501 Y83.965 E6.86754
G1 X83.176 Y83.176 E6.91934
G0 F9000 X83.459 Y83.459
G1 F1200 X84.201 Y82.826 E6.96800
G1 X85.032 Y82.317 E7.01662
G1 X85.930 Y81.944 E7.06513
G1 X86.882 Y81.716 E7.11397
G1 X87.729 Y81.651 E7.15635
G1 X112.271 Y81.651 E8.38075
G1 X113.118 Y81.716 E8.42314
G1 X114.070 Y81.944 E8.47197
G1 X114.968 Y82.317 E8.52049
G1 X115.799 Y82.826 E8.56910
G1 X116.541 Y83.459 E8.61776
G1 X117.174 Y84.201 E8.66642
G1 X117.683 Y85.032 E8.71504
G1 X118.056 Y85.930 E8.76355
G1 X118.284 Y86.882 E8.81239
G1 X118.349 Y87.729 E8.85477
G1 X118.349 Y112.271 E10.07918
G1 X118.284 Y113.118 E10.12156
G1 X118.056 Y114.070 E10.17040
G1 X117.683 Y114.968 E10.21891
G1 X117.174 Y115.799 E10.26753
G1 X116.541 Y116.541 E10.31619
G1 X115.799 Y117.174 E10.36485
G1 X114.968 Y117.683 E10.41346
G1 X114.070 Y118.056 E10.46198
G1 X113.118 Y118.284 E10.51082
G1 X112.271 Y118.349 E10.55320
G1 X87.729 Y118.349 E11.77760
G1 X86.882 Y118.284 E11.81998
G1 X85.930 Y118.056 E11.86882
G1 X85.032 Y117.683 E11.91733
G1 X84.201 Y117.174 E11.96595
G1 X83.459 Y116.541 E12.01461
G1 X82.826 Y115.799 E12.06327
G1 X82.317 Y114.968 E12.11189
G1 X81.944 Y114.070 E12.16040
G1 X81.716 Y113.118 E12.20924
G1 X81.651 Y112.271 E12.25162
G1 X81.651 Y87.729 E13.47603
G1 X81.716 Y86.882 E13.51841
G1 X81.944 Y85.930 E13.56725
G1 X82.317 Y85.032 E13.61576
G1 X82.826 Y84.201 E13.66438
G1 X83.459 Y83.459 E13.71303
G1 F2400 E9.21303
G0 F9000 X89.844 Y86.248
;TYPE:WALL-INNER
G1 F2400 E13.71303
G1 F1200 X89.432 Y85.851 E13.74158
G1 X96.271 Y85.851 E14.08278
G1 X95.801 Y85.975 E14.10703
G1 X94.886 Y86.281 E14.15516
G1 X93.896 Y86.693 E14.20866
G1 X92.938 Y87.177 E14.26221
G1 X91.936 Y87.780 E14.32055
G1 X91.060 Y88.406 E14.37427
G1 X90.236 Y89.094 E14.42782
G1 X89.394 Y89.906 E14.48618
G1 X88.681 Y90.715 E14.53998
G1 X87.975 Y91.647 E14.59832
G1 X87.395 Y92.552 E14.65194
G1 X86.884 Y93.495 E14.70545
G1 X86.405 Y94.565 E14.76394
G1 X86.043 Y95.577 E14.81756
G1 X85.851 Y96.274 E14.85363
G1 X85.851 Y89.443 E15.19443
G1 X86.291 Y89.871 E15.22505
G1 X86.741 Y90.153 E15.25155
G1 X87.283 Y90.343 E15.28020
G1 X87.851 Y90.406 E15.30871
G1 X88.428 Y90.342 E15.33768
G1 X88.995 Y90.131 E15.36786
G1 X89.453 Y89.844 E15.39483
G1 X89.871 Y89.410 E15.42489
G1 X90.153 Y88.960 E15.45138
G1 X90.343 Y88.418 E15.48004
G1 X90.406 Y87.851 E15.50850
G1 X90.342 Y87.273 E15.53751
G1 X90.131 Y86.706 E15.56769
G1 X89.844 Y86.248 E15.59466
G0 F9000 X103.751 Y85.851
G1 F1200 X110.557 Y85.851 E15.93421
G1 X110.129 Y86.291 E15.96484
G1 X109.847 Y86.741 E15.99133
G1 X109.657 Y87.283 E16.01998
G1 X109.594 Y87.851 E16.04850
G1 X109.658 Y88.428 E16.07746
G1 X109.869 Y88.995 E16.10764
G1 X110.156 Y89.453 E16.13461
G1 X110.590 Y89.871 E16.16467
G1 X111.040 Y90.153 E16.19116
G1 X111.582 Y90.343 E16.21982
G1 X112.149 Y90.406 E16.24828
G1 X112.727 Y90.342 E16.27729
G1 X113.294 Y90.131 E16.30748
G1 X113.752 Y89.844 E16.33444
G1 X114.149 Y89.432 E16.36299
G1 X114.149 Y96.237 E16.70249
G1 X113.833 Y95.210 E16.75610
G1 X113.409 Y94.120 E16.81445
G1 X112.940 Y93.152 E16.86811
G1 X112.413 Y92.242 E16.92057
G1 X112.293 Y92.048 E16.93195
G1 X111.741 Y91.252 E16.98028
G1 X111.088 Y90.442 E17.03219
G1 X110.333 Y89.632 E17.08743
G1 X109.477 Y88.840 E17.14561
G1 X108.630 Y88.174 E17.19937
G1 X107.659 Y87.521 E17.25775
G1 X106.722 Y86.993 E17.31141
G1 X105.750 Y86.536 E17.36499
G1 X104.656 Y86.119 E17.42340
G1 X103.751 Y85.851 E17.47049
G0 F9000 X98.156 Y85.879
G0 X94.064 Y87.057
G0 X90.504 Y89.393
G0 X87.740 Y92.757
G0 X86.148 Y96.704
G0 X85.797 Y101.042
G0 X85.851 Y103.715
G1 F1200 X86.011 Y104.325 E17.50195
G1 X86.368 Y105.341 E17.55568
G1 X86.798 Y106.324 E17.60921
G1 X87.343 Y107.359 E17.66757
G1 X87.919 Y108.268 E17.72125
G1 X88.534 Y109.097 E17.77275
G1 X88.623 Y109.219 E17.78029
G1 X89.325 Y110.020 E17.83342
G1 X90.088 Y110.774 E17.88694
G1 X90.979 Y111.532 E17.94530
G1 X91.827 Y112.146 E17.99754
G1 X92.752 Y112.719 E18.05182
G1 X93.806 Y113.267 E18.11109
G1 X94.794 Y113.685 E18.16461
G1 X95.809 Y114.027 E18.21804
G1 X96.283 Y114.149 E18.24246
G1 X89.443 Y114.149 E18.58371
G1 X89.871 Y113.709 E18.61434
G1 X90.153 Y113.259 E18.64083
G1 X90.343 Y112.717 E18.66948
G1 X90.406 Y112.149 E18.69800
G1 X90.342 Y111.572 E18.72696
G1 X90.131 Y111.005 E18.75714
G1 X89.844 Y110.547 E18.78411
G1 X89.410 Y110.129 E18.81417
G1 X88.960 Y109.847 E18.84066
G1 X88.418 Y109.657 E18.86932
G1 X87.851 Y109.594 E18.89778
G1 X87.273 Y109.658 E18.92679
G1 X86.706 Y109.869 E18.95698
G1 X86.248 Y110.156 E18.98394
G1 X85.851 Y110.568 E19.01249
G1 X85.851 Y103.715 E19.35438
G0 F9000 X88.935 Y108.968
G0 X92.156 Y111.887
G0 X95.924 Y113.643
G0 X100.341 Y114.237
G0 X103.741 Y114.149
G1 F1200 X104.560 Y113.913 E19.39691
G1 X105.566 Y113.540 E19.45043
G1 X106.630 Y113.054 E19.50879
G1 X107.571 Y112.531 E19.56250
G1 X108.450 Y111.953 E19.61499
G1 X108.638 Y111.822 E19.62642
G1 X109.399 Y111.226 E19.67464
G1 X110.195 Y110.507 E19.72816
G1 X111.003 Y109.660 E19.78656
G1 X111.682 Y108.826 E19.84021
G1 X112.296 Y107.945 E19.89379
G1 X112.892 Y106.939 E19.95213
G1 X113.367 Y105.974 E20.00579
G1 X113.768 Y104.978 E20.05935
G1 X114.123 Y103.862 E20.11778
G1 X114.149 Y103.751 E20.12347
G1 X114.149 Y110.557 E20.46302
G1 X113.709 Y110.129 E20.49364
G1 X113.259 Y109.847 E20.52014
G1 X112.717 Y109.657 E20.54879
G1 X112.149 Y109.594 E20.57730
G1 X111.572 Y109.658 E20.60627
G1 X111.005 Y109.869 E20.63645
G1 X110.547 Y110.156 E20.66342
G1 X110.129 Y110.590 E20.69348
G1 X109.847 Y111.040 E20.71997
G1 X109.657 Y111.582 E20.74863
G1 X109.594 Y112.149 E20.77709
G1 X109.658 Y112.727 E20.80610
G1 X109.869 Y113.294 E20.83628
G1 X110.156 Y113.752 E20.86325
G1 X110.568 Y114.149 E20.89179
G1 X103.741 Y114.149 E21.23239
G0 F9000 X103.430 Y113.822
G1 F1200 X104.435 Y113.532 E21.28458
G1 X105.413 Y113.170 E21.33661
G1 X106.450 Y112.697 E21.39347
G1 X107.364 Y112.189 E21.44564
G1 X108.225 Y111.622 E21.49707
G1 X109.141 Y110.919 E21.55468
G1 X109.916 Y110.220 E21.60675
G1 X110.702 Y109.395 E21.66360
G1 X111.362 Y108.585 E21.71572
G1 X111.960 Y107.728 E21.76786
G1 X112.540 Y106.749 E21.82463
G1 X113.001 Y105.811 E21.87677
G1 X113.391 Y104.842 E21.92889
G1 X113.737 Y103.756 E21.98575
G1 X113.975 Y102.740 E22.03781
G1 X114.134 Y101.729 E22.08887
G1 X114.231 Y100.576 E22.14660
G1 X114.242 Y100.000 E22.17534
G1 X114.232 Y99.483 E22.20114
G1 X114.232 Y99.431 E22.20373
G1 X114.160 Y98.496 E22.25052
G1 X113.994 Y97.356 E22.30799
G1 X113.762 Y96.340 E22.35998
G1 X113.455 Y95.342 E22.41208
G1 X113.042 Y94.280 E22.46893
G1 X112.586 Y93.339 E22.52110
G1 X112.070 Y92.448 E22.57246
G1 X111.421 Y91.492 E22.63011
G1 X110.778 Y90.695 E22.68120
G1 X110.052 Y89.917 E22.73429
G1 X109.217 Y89.144 E22.79106
G1 X108.394 Y88.498 E22.84326
G1 X107.449 Y87.862 E22.90009
G1 X106.538 Y87.348 E22.95227
G1 X105.594 Y86.904 E23.00432
G1 X104.528 Y86.498 E23.06123
G1 X103.527 Y86.202 E23.11330
G1 X102.507 Y85.983 E23.16535
G1 X101.377 Y85.824 E23.22228
G1 X100.348 Y85.764 E23.27371
G1 X100.230 Y85.760 E23.27960
G1 X99.193 Y85.782 E23.33134
G1 X98.155 Y85.879 E23.38336
G1 X97.125 Y86.052 E23.43546
G1 X96.123 Y86.300 E23.48696
G1 X95.026 Y86.656 E23.54450
G1 X94.063 Y87.057 E23.59654
G1 X93.132 Y87.527 E23.64858
G1 X92.155 Y88.114 E23.70544
G1 X91.305 Y88.723 E23.75761
G1 X90.503 Y89.392 E23.80971
G1 X89.683 Y90.183 E23.86655
G1 X88.991 Y90.968 E23.91876
G1 X88.303 Y91.876 E23.97560
G1 X87.740 Y92.756 E24.02772
G1 X87.243 Y93.673 E24.07975
G1 X86.776 Y94.714 E24.13668
G1 X86.424 Y95.697 E24.18877
G1 X86.148 Y96.703 E24.24081
G1 X85.926 Y97.821 E24.29768
G1 X85.804 Y98.860 E24.34987
G1 X85.757 Y99.999 E24.40674
G1 X85.796 Y101.043 E24.45886
G1 X85.912 Y102.081 E24.51097
G1 X86.104 Y103.106 E24.56300
G1 X86.394 Y104.208 E24.61985
G1 X86.740 Y105.194 E24.67198
G1 X87.159 Y106.150 E24.72406
G1 X87.689 Y107.159 E24.78092
G1 X88.249 Y108.042 E24.83309
G1 X88.856 Y108.861 E24.88394
G1 X88.935 Y108.968 E24.89058
G1 X89.616 Y109.746 E24.94216
G1 X90.358 Y110.479 E24.99420
G1 X91.226 Y111.217 E25.05104
G1 X92.059 Y111.820 E25.10234
G1 X92.155 Y111.887 E25.10819
G1 X92.954 Y112.374 E25.15487
G1 X93.975 Y112.904 E25.21226
G1 X94.936 Y113.310 E25.26431
G1 X95.923 Y113.644 E25.31629
G1 X97.027 Y113.928 E25.37316
G1 X98.043 Y114.105 E25.42462
G1 X99.097 Y114.210 E25.47746
G1 X99.890 Y114.232 E25.51704
G1 X100.257 Y114.239 E25.53535
G1 X100.342 Y114.238 E25.53959
G1 X101.279 Y114.184 E25.58642
G1 X102.314 Y114.050 E25.63849
G1 X103.430 Y113.822 E25.69531
G0 F9000 X110.050 Y112.634
G1 F1200 X110.229 Y113.116 E25.72096
G1 X110.469 Y113.497 E25.74343
G1 X110.838 Y113.853 E25.76901
G1 X111.215 Y114.090 E25.79123
G1 X111.671 Y114.250 E25.81534
G1 X112.149 Y114.303 E25.83933
G1 X112.634 Y114.249 E25.86368
G1 X113.116 Y114.070 E25.88933
G1 X113.497 Y113.830 E25.91179
G1 X113.853 Y113.461 E25.93737
G1 X114.090 Y113.084 E25.95959
G1 X114.250 Y112.628 E25.98370
G1 X114.303 Y112.149 E26.00774
G1 X114.249 Y111.665 E26.03204
G1 X114.070 Y111.183 E26.05769
G1 X113.830 Y110.802 E26.08016
G1 X113.461 Y110.446 E26.10574
G1 X113.084 Y110.209 E26.12795
G1 X112.628 Y110.049 E26.15206
G1 X112.149 Y109.996 E26.17611
G1 X111.665 Y110.050 E26.20040
G1 X111.183 Y110.229 E26.22605
G1 X110.802 Y110.469 E26.24852
G1 X110.446 Y110.838 E26.27410
G1 X110.209 Y111.215 E26.29632
G1 X110.049 Y111.671 E26.32043
G1 X109.996 Y112.149 E26.34442
G1 X110.050 Y112.634 E26.36877
G0 F9000 X110.839 Y113.852
G0 X112.129 Y114.549
G1 F1200 X87.871 Y114.549 E27.57900
G1 X87.473 Y114.519 E27.59892
G1 X87.111 Y114.431 E27.61750
G1 X86.764 Y114.287 E27.63625
G1 X86.440 Y114.090 E27.65516
G1 X86.155 Y113.845 E27.67391
G1 X85.910 Y113.560 E27.69266
G1 X85.713 Y113.236 E27.71158
G1 X85.569 Y112.889 E27.73032
G1 X85.481 Y112.527 E27.74891
G1 X85.451 Y112.129 E27.76882
G1 X85.451 Y87.871 E28.97906
G1 X85.481 Y87.473 E28.99897
G1 X85.569 Y87.111 E29.01756
G1 X85.713 Y86.764 E29.03630
G1 X85.910 Y86.440 E29.05522
G1 X86.155 Y86.155 E29.07397
G1 X86.440 Y85.910 E29.09272
G1 X86.764 Y85.713 E29.11164
G1 X87.111 Y85.569 E29.13038
G1 X87.473 Y85.481 E29.14897
G1 X87.871 Y85.451 E29.16888
G1 X112.129 Y85.451 E30.37912
G1 X112.527 Y85.481 E30.39903
G1 X112.889 Y85.569 E30.41762
G1 X113.236 Y85.713 E30.43636
G1 X113.560 Y85.910 E30.45528
G1 X113.845 Y86.155 E30.47403
G1 X114.090 Y86.440 E30.49278
G1 X114.287 Y86.764 E30.51170
G1 X114.431 Y87.111 E30.53044
G1 X114.519 Y87.473 E30.54903
G1 X114.549 Y87.871 E30.56894
G1 X114.549 Y112.129 E31.77918
G1 X114.519 Y112.527 E31.79909
G1 X114.431 Y112.889 E31.81767
G1 X114.287 Y113.236 E31.83642
G1 X114.090 Y113.560 E31.85534
G1 X113.845 Y113.845 E31.87409
G1 X113.560 Y114.090 E31.89284
G1 X113.236 Y114.287 E31.91175
G1 X112.889 Y114.431 E31.93050
G1 X112.527 Y114.519 E31.94908
G1 X112.129 Y114.549 E31.96900
G0 F9000 X97.028 Y113.927
G0 X93.975 Y112.904
G0 X90.004 Y112.149
G1 F1200 X89.950 Y111.665 E31.99329
G1 X89.771 Y111.183 E32.01894
G1 X89.531 Y110.802 E32.04141
G1 X89.162 Y110.446 E32.06699
G1 X88.785 Y110.209 E32.08921
G1 X88.329 Y110.049 E32.11332
G1 X87.851 Y109.996 E32.13731
G1 X87.366 Y110.050 E32.16166
G1 X86.884 Y110.229 E32.18731
G1 X86.503 Y110.469 E32.20977
G1 X86.147 Y110.838 E32.23535
G1 X85.910 Y111.215 E32.25757
G1 X85.750 Y111.671 E32.28168
G1 X85.697 Y112.149 E32.30567
G1 X85.751 Y112.634 E32.33002
G1 X85.930 Y113.116 E32.35567
G1 X86.170 Y113.497 E32.37814
G1 X86.539 Y113.853 E32.40372
G1 X86.916 Y114.090 E32.42593
G1 X87.372 Y114.250 E32.45004
G1 X87.851 Y114.303 E32.47409
G1 X88.335 Y114.249 E32.49838
G1 X88.817 Y114.070 E32.52403
G1 X89.198 Y113.830 E32.54650
G1 X89.554 Y113.461 E32.57208
G1 X89.791 Y113.084 E32.59430
G1 X89.951 Y112.628 E32.61841
G1 X90.004 Y112.149 E32.64245
G0 F9000 X87.689 Y107.158
G0 X86.104 Y103.105
G0 X85.805 Y98.860
G0 X86.777 Y94.715
G0 X87.851 Y90.004
G1 F1200 X88.335 Y89.950 E32.66675
G1 X88.817 Y89.771 E32.69240
G1 X89.198 Y89.531 E32.71486
G1 X89.554 Y89.162 E32.74044
G1 X89.791 Y88.785 E32.76266
G1 X89.951 Y88.329 E32.78677
G1 X90.004 Y87.851 E32.81076
G1 X89.950 Y87.366 E32.83511
G1 X89.771 Y86.884 E32.86076
G1 X89.531 Y86.503 E32.88323
G1 X89.162 Y86.147 E32.90881
G1 X88.785 Y85.910 E32.93102
G1 X88.329 Y85.750 E32.95513
G1 X87.851 Y85.697 E32.97913
G1 X87.366 Y85.751 E33.00347
G1 X86.884 Y85.930 E33.02912
G1 X86.503 Y86.170 E33.05159
G1 X86.147 Y86.539 E33.07717
G1 X85.910 Y86.916 E33.09939
G1 X85.750 Y87.372 E33.12350
G1 X85.697 Y87.851 E33.14754
G1 X85.751 Y88.335 E33.17184
G1 X85.930 Y88.817 E33.19749
G1 X86.170 Y89.198 E33.21995
G1 X86.539 Y89.554 E33.24553
G1 X86.916 Y89.791 E33.26775
G1 X87.372 Y89.951 E33.29186
G1 X87.851 Y90.004 E33.31590
G0 F9000 X93.132 Y87.528
G0 X97.126 Y86.053
G0 X101.377 Y85.825
G0 X105.594 Y86.905
G0 X109.996 Y87.851
G1 F1200 X110.050 Y88.335 E33.34020
G1 X110.229 Y88.817 E33.36585
G1 X110.469 Y89.198 E33.38832
G1 X110.838 Y89.554 E33.41390
G1 X111.215 Y89.791 E33.43611
G1 X111.671 Y89.951 E33.46022
G1 X112.149 Y90.004 E33.48422
G1 X112.634 Y89.950 E33.50856
G1 X113.116 Y89.771 E33.53421
G1 X113.497 Y89.531 E33.55668
G1 X113.853 Y89.162 E33.58226
G1 X114.090 Y88.785 E33.60448
G1 X114.250 Y88.329 E33.62859
G1 X114.303 Y87.851 E33.65258
G1 X114.249 Y87.366 E33.67693
G1 X114.070 Y86.884 E33.70258
G1 X113.830 Y86.503 E33.72504
G1 X113.461 Y86.147 E33.75062
G1 X113.084 Y85.910 E33.77284
G1 X112.628 Y85.750 E33.79695
G1 X112.149 Y85.697 E33.82099
G1 X111.665 Y85.751 E33.84529
G1 X111.183 Y85.930 E33.87094
G1 X110.802 Y86.170 E33.89341
G1 X110.446 Y86.539 E33.91899
G1 X110.209 Y86.916 E33.94120
G1 X110.049 Y87.372 E33.96531
G1 X109.996 Y87.851 E33.98936
G0 F9000 X110.399 Y87.851
;TYPE:WALL-OUTER
G1 F1200 X110.442 Y88.242 E34.00898
G1 X110.590 Y88.639 E34.03012
G1 X110.782 Y88.944 E34.04810
G1 X111.086 Y89.237 E34.06916
G1 X111.390 Y89.428 E34.08708
G1 X111.760 Y89.558 E34.10664
G1 X112.149 Y89.601 E34.12617
G1 X112.541 Y89.558 E34.14584
