;Generated from 2.1-LH-conncover-base.stl 15bbca5dc0cc84b11d4e3b77f1120886fd3651d2
;Generated with Cura_SteamEngine 15.04
M140 S55.0
M109 T0 S210.0
T0
M190 S55.0

;Basic settings: Layer height: 0.15 Walls: 1.2 Fill: 50
;Print time: ?print_time?
;Filament used: ?filament_amount?m ?filament_weight?g
;Filament cost: ?filament_cost?
;M190 S55 ;Uncomment to add your own bed temperature line
;M109 S210 ;Uncomment to add your own temperature line
G21        ;metric values
G90        ;absolute positioning
M82        ;set extruder to absolute mode
M107       ;start with the fan off
G28 X0 Y0  ;move X/Y to min endstops
G28 Z0     ;move Z to min endstops
G1 Z5.0 F9000 ;move the platform down 15mm
G92 E0                  ;zero the extruded length
G1 F200 E3              ;extrude 3mm of feed stock
G92 E0                  ;zero the extruded length again
G1 F9000
;Put printing message on LCD screen
M117 Printing...

;Layer count: 54
;LAYER:0
M107
G0 F9000 X80.095 Y84.876 Z0.300
;TYPE:SKIRT
G1 F1200 X97.734 Y84.875 E0.88001
G1 X97.865 Y84.866 E0.88656
G1 X97.886 Y84.862 E0.88763
G1 X97.905 Y84.856 E0.88862
G1 X97.924 Y84.846 E0.88970
G1 X97.937 Y84.838 E0.89046
G1 X98.045 Y84.742 E0.89767
G1 X99.084 Y83.704 E0.97094
G1 X99.725 Y83.101 E1.01484
G1 X99.966 Y82.981 E1.02828
G1 X100.089 Y82.894 E1.03579
G1 X100.723 Y82.581 E1.07107
G1 X101.450 Y82.341 E1.10926
G1 X102.286 Y82.227 E1.15136
G1 X113.729 Y82.225 E1.72225
G1 X114.975 Y82.226 E1.78441
G1 X115.575 Y82.282 E1.81448
G1 X116.229 Y82.438 E1.84802
G1 X116.894 Y82.705 E1.88377
G1 X117.512 Y83.071 E1.91961
G1 X118.103 Y83.545 E1.95740
G1 X118.777 Y84.305 E2.00808
G1 X119.134 Y84.897 E2.04257
G1 X119.406 Y85.426 E2.07225
G1 X119.776 Y86.528 E2.13024
G1 X119.799 Y86.828 E2.14525
G1 X119.891 Y87.391 E2.17372
G1 X119.905 Y88.688 E2.23843
G1 X119.905 Y101.251 E2.86520
G1 X110.369 Y101.251 E3.34095
G1 X110.138 Y101.264 E3.35249
G1 X110.088 Y101.273 E3.35503
G1 X110.047 Y101.287 E3.35719
G1 X109.999 Y101.311 E3.35987
G1 X109.953 Y101.342 E3.36263
G1 X109.913 Y101.377 E3.36529
G1 X109.883 Y101.411 E3.36755
G1 X109.857 Y101.450 E3.36989
G1 X109.832 Y101.500 E3.37268
G1 X109.816 Y101.549 E3.37525
G1 X109.805 Y101.602 E3.37795
G1 X109.795 Y101.761 E3.38590
G1 X109.795 Y116.775 E4.13495
G1 X84.045 Y116.776 E5.41962
G1 X84.045 Y113.075 E5.60426
G1 X80.095 Y113.075 E5.80133
G1 X80.095 Y84.876 E7.20818
G0 F9000 X80.495 Y85.276
G1 F1200 X97.745 Y85.275 E8.06879
G1 X97.914 Y85.264 E8.07724
G1 X97.992 Y85.248 E8.08121
G1 X98.063 Y85.224 E8.08495
G1 X98.119 Y85.196 E8.08807
G1 X98.182 Y85.154 E8.09185
G1 X98.318 Y85.034 E8.10090
G1 X99.363 Y83.991 E8.17456
G1 X99.957 Y83.432 E8.21525
G1 X100.176 Y83.323 E8.22746
G1 X100.294 Y83.240 E8.23466
G1 X100.875 Y82.952 E8.26701
G1 X101.540 Y82.732 E8.30195
G1 X102.313 Y82.627 E8.34087
G1 X113.729 Y82.625 E8.91042
G1 X114.956 Y82.626 E8.97163
G1 X115.509 Y82.678 E8.99935
G1 X116.107 Y82.821 E9.03002
G1 X116.717 Y83.064 E9.06278
G1 X117.283 Y83.401 E9.09564
G1 X117.826 Y83.836 E9.13036
G1 X118.454 Y84.543 E9.17753
G1 X118.784 Y85.092 E9.20949
G1 X119.037 Y85.582 E9.23700
G1 X119.381 Y86.608 E9.29099
G1 X119.403 Y86.884 E9.30480
G1 X119.491 Y87.426 E9.33220
G1 X119.505 Y88.690 E9.39526
G1 X119.505 Y100.851 E10.00198
G1 X110.347 Y100.851 E10.45887
G1 X110.096 Y100.865 E10.47142
G1 X109.979 Y100.888 E10.47736
G1 X109.894 Y100.916 E10.48183
G1 X109.801 Y100.963 E10.48703
G1 X109.711 Y101.022 E10.49240
G1 X109.630 Y101.093 E10.49777
G1 X109.564 Y101.168 E10.50275
G1 X109.508 Y101.252 E10.50779
G1 X109.463 Y101.345 E10.51295
G1 X109.429 Y101.443 E10.51812
G1 X109.408 Y101.551 E10.52361
G1 X109.395 Y101.751 E10.53361
G1 X109.395 Y116.375 E11.26320
G1 X84.445 Y116.376 E12.50796
G1 X84.445 Y112.675 E12.69261
G1 X80.495 Y112.675 E12.88967
G1 X80.495 Y85.276 E14.25662
G1 F2400 E9.75662
G0 F9000 X84.695 Y89.476
;TYPE:WALL-INNER
G1 F2400 E14.25662
G1 F1200 X97.890 Y89.475 E14.91492
G1 X98.463 Y89.436 E14.94357
G1 X99.085 Y89.314 E14.97519
G1 X99.680 Y89.110 E15.00657
G1 X100.230 Y88.837 E15.03721
G1 X100.749 Y88.490 E15.06835
G1 X101.194 Y88.099 E15.09791
G1 X102.275 Y87.018 E15.17418
G1 X102.433 Y86.870 E15.18498
G1 X102.490 Y86.842 E15.18815
G1 X102.599 Y86.827 E15.19364
G1 X113.727 Y86.825 E15.74882
G1 X114.753 Y86.826 E15.80000
G1 X114.848 Y86.840 E15.80479
G1 X114.919 Y86.887 E15.80904
G1 X115.058 Y87.045 E15.81954
G1 X115.155 Y87.218 E15.82944
G1 X115.245 Y87.484 E15.84345
G1 X115.295 Y87.790 E15.85891
G1 X115.305 Y88.708 E15.90472
G1 X115.305 Y96.651 E16.30099
G1 X110.238 Y96.651 E16.55379
G1 X109.573 Y96.687 E16.58701
G1 X108.901 Y96.818 E16.62117
G1 X108.280 Y97.029 E16.65389
G1 X107.694 Y97.319 E16.68651
G1 X107.149 Y97.683 E16.71921
G1 X106.658 Y98.114 E16.75180
G1 X106.227 Y98.604 E16.78436
G1 X105.862 Y99.149 E16.81709
G1 X105.573 Y99.736 E16.84973
G1 X105.363 Y100.356 E16.88239
G1 X105.235 Y100.997 E16.91500
G1 X105.195 Y101.617 E16.94599
G1 X105.195 Y112.175 E17.47273
G1 X88.645 Y112.176 E18.29842
G1 X88.645 Y110.783 E18.36791
G1 X87.964 Y110.242 E18.41131
G1 X87.741 Y110.011 E18.42732
G1 X87.554 Y109.757 E18.44306
G1 X87.397 Y109.471 E18.45934
G1 X87.010 Y108.475 E18.51265
G1 X84.695 Y108.475 E18.62814
G1 X84.695 Y89.476 E19.57601
G0 F9000 X98.988 Y106.553
G1 F1200 X98.571 Y106.908 E19.60333
G1 X98.260 Y107.336 E19.62972
G1 X98.055 Y107.852 E19.65742
G1 X97.987 Y108.400 E19.68497
G1 X98.055 Y108.948 E19.71252
G1 X98.260 Y109.464 E19.74022
G1 X98.590 Y109.917 E19.76819
G1 X99.033 Y110.274 E19.79657
G1 X99.511 Y110.499 E19.82293
G1 X100.061 Y110.605 E19.85087
G1 X100.638 Y110.561 E19.87974
G1 X101.154 Y110.385 E19.90694
G1 X101.602 Y110.102 E19.93338
G1 X101.980 Y109.697 E19.96102
G1 X102.247 Y109.214 E19.98855
G1 X102.385 Y108.678 E20.01616
G1 X102.386 Y108.136 E20.04320
G1 X102.248 Y107.588 E20.07140
G1 X101.977 Y107.097 E20.09938
G1 X101.577 Y106.681 E20.12817
G1 X101.111 Y106.395 E20.15545
G1 X100.609 Y106.231 E20.18180
G1 X100.048 Y106.196 E20.20984
G1 X99.485 Y106.312 E20.23852
G1 X98.988 Y106.553 E20.26607
G0 F9000 X109.390 Y95.288
G1 F1200 X109.833 Y95.645 E20.29446
G1 X110.311 Y95.870 E20.32082
G1 X110.861 Y95.976 E20.34876
G1 X111.438 Y95.932 E20.37763
G1 X111.954 Y95.756 E20.40483
G1 X112.402 Y95.473 E20.43127
G1 X112.780 Y95.068 E20.45891
G1 X113.047 Y94.585 E20.48644
G1 X113.187 Y94.041 E20.51446
G1 X113.179 Y93.472 E20.54285
G1 X113.047 Y92.957 E20.56938
G1 X112.777 Y92.468 E20.59725
G1 X112.377 Y92.052 E20.62604
G1 X111.911 Y91.766 E20.65332
G1 X111.409 Y91.602 E20.67966
G1 X110.848 Y91.567 E20.70771
G1 X110.285 Y91.683 E20.73639
G1 X109.788 Y91.924 E20.76394
G1 X109.371 Y92.279 E20.79126
G1 X109.060 Y92.707 E20.81766
G1 X108.855 Y93.223 E20.84536
G1 X108.787 Y93.771 E20.87291
G1 X108.855 Y94.319 E20.90046
G1 X109.060 Y94.835 E20.92816
G1 X109.390 Y95.288 E20.95612
G0 F9000 X109.682 Y95.009
G1 F1200 X110.046 Y95.303 E20.97946
G1 X110.436 Y95.487 E21.00098
G1 X110.884 Y95.573 E21.02374
G1 X111.357 Y95.537 E21.04740
G1 X111.780 Y95.393 E21.06970
G1 X112.145 Y95.162 E21.09125
G1 X112.454 Y94.831 E21.11384
G1 X112.672 Y94.436 E21.13635
G1 X112.786 Y93.993 E21.15917
G1 X112.780 Y93.525 E21.18252
G1 X112.672 Y93.106 E21.20411
G1 X112.452 Y92.707 E21.22684
G1 X112.124 Y92.366 E21.25044
G1 X111.742 Y92.131 E21.27282
G1 X111.333 Y91.998 E21.29427
G1 X110.877 Y91.969 E21.31707
G1 X110.414 Y92.065 E21.34066
G1 X110.008 Y92.262 E21.36318
G1 X109.667 Y92.553 E21.38554
G1 X109.413 Y92.902 E21.40708
G1 X109.246 Y93.323 E21.42967
G1 X109.190 Y93.771 E21.45220
G1 X109.246 Y94.219 E21.47472
G1 X109.413 Y94.641 E21.49736
G1 X109.682 Y95.009 E21.52010
G0 F9000 X109.623 Y97.085
G1 F1200 X109.004 Y97.206 E21.55157
G1 X108.434 Y97.400 E21.58161
G1 X107.894 Y97.666 E21.61164
G1 X107.393 Y98.001 E21.64171
G1 X106.941 Y98.398 E21.67172
G1 X106.544 Y98.848 E21.70166
G1 X106.209 Y99.349 E21.73173
G1 X105.943 Y99.889 E21.76176
G1 X105.750 Y100.460 E21.79183
G1 X105.633 Y101.050 E21.82184
G1 X105.595 Y101.630 E21.85084
G1 X105.595 Y112.575 E22.39689
G1 X88.245 Y112.576 E23.26248
G1 X88.245 Y110.976 E23.34231
G1 X87.693 Y110.538 E23.37746
G1 X87.437 Y110.272 E23.39588
G1 X87.215 Y109.971 E23.41454
G1 X87.033 Y109.640 E23.43339
G1 X86.737 Y108.875 E23.47431
G1 X84.295 Y108.875 E23.59614
G1 X84.295 Y89.076 E24.58392
G1 X97.876 Y89.075 E25.26148
G1 X98.410 Y89.039 E25.28818
G1 X98.981 Y88.927 E25.31721
G1 X99.526 Y88.740 E25.34595
G1 X100.029 Y88.490 E25.37398
G1 X100.505 Y88.173 E25.40251
G1 X100.920 Y87.807 E25.43012
G1 X102.001 Y86.726 E25.50639
G1 X102.177 Y86.560 E25.51846
G1 X102.238 Y86.518 E25.52215
G1 X102.319 Y86.478 E25.52666
G1 X102.401 Y86.451 E25.53097
G1 X102.574 Y86.427 E25.53968
G1 X114.781 Y86.426 E26.14869
G1 X114.957 Y86.453 E26.15757
G1 X115.116 Y86.533 E26.16645
G1 X115.196 Y86.597 E26.17156
G1 X115.379 Y86.803 E26.18531
G1 X115.525 Y87.064 E26.20023
G1 X115.635 Y87.391 E26.21744
G1 X115.694 Y87.754 E26.23579
G1 X115.705 Y88.708 E26.28339
G1 X115.705 Y97.051 E26.69962
G1 X110.249 Y97.051 E26.97182
G1 X109.623 Y97.085 E27.00310
G0 F9000 X107.394 Y98.002
G0 X105.945 Y99.890
G0 X101.324 Y106.995
G1 F1200 X100.942 Y106.760 E27.02548
G1 X100.533 Y106.627 E27.04693
G1 X100.077 Y106.598 E27.06973
G1 X99.614 Y106.694 E27.09332
G1 X99.208 Y106.891 E27.11583
G1 X98.867 Y107.182 E27.13820
G1 X98.613 Y107.531 E27.15973
G1 X98.446 Y107.952 E27.18233
G1 X98.390 Y108.400 E27.20485
G1 X98.446 Y108.848 E27.22738
G1 X98.613 Y109.270 E27.25002
G1 X98.882 Y109.638 E27.27276
G1 X99.246 Y109.932 E27.29611
G1 X99.636 Y110.116 E27.31762
G1 X100.084 Y110.202 E27.34038
G1 X100.557 Y110.166 E27.36405
G1 X100.980 Y110.022 E27.38634
G1 X101.345 Y109.791 E27.40789
G1 X101.654 Y109.460 E27.43048
G1 X101.872 Y109.065 E27.45299
G1 X101.985 Y108.627 E27.47556
G1 X101.986 Y108.185 E27.49761
G1 X101.873 Y107.736 E27.52071
G1 X101.652 Y107.336 E27.54351
G1 X101.324 Y106.995 E27.56711
G0 F9000 X101.071 Y107.309
;TYPE:WALL-OUTER
G1 F1200 X100.773 Y107.126 E27.58456
G1 X100.457 Y107.023 E27.60114
G1 X100.105 Y107.001 E27.61874
G1 X99.744 Y107.075 E27.63712
G1 X99.429 Y107.228 E27.65459
G1 X99.162 Y107.455 E27.67208
G1 X98.966 Y107.725 E27.68872
G1 X98.837 Y108.052 E27.70626
G1 X98.793 Y108.400 E27.72376
G1 X98.837 Y108.748 E27.74126
G1 X98.966 Y109.075 E27.75880
G1 X99.174 Y109.360 E27.77640
G1 X99.460 Y109.591 E27.79474
G1 X99.761 Y109.733 E27.81135
G1 X100.107 Y109.799 E27.82892
G1 X100.476 Y109.771 E27.84738
G1 X100.806 Y109.659 E27.86477
G1 X101.088 Y109.480 E27.88143
G1 X101.328 Y109.223 E27.89897
G1 X101.497 Y108.916 E27.91646
G1 X101.585 Y108.576 E27.93398
G1 X101.586 Y108.234 E27.95104
G1 X101.498 Y107.884 E27.96905
G1 X101.327 Y107.575 E27.98667
G1 X101.071 Y107.309 E28.00509
G0 F9000 X101.288 Y107.102
G0 X105.697 Y101.621
G0 X105.995 Y101.643
G1 F1200 X105.995 Y112.975 E28.57044
G1 X87.845 Y112.976 E29.47595
G1 X87.845 Y111.169 E29.56610
G1 X87.425 Y110.836 E29.59284
G1 X87.130 Y110.529 E29.61408
G1 X86.874 Y110.182 E29.63560
G1 X86.671 Y109.812 E29.65665
G1 X86.463 Y109.275 E29.68538
G1 X83.895 Y109.275 E29.81350
G1 X83.895 Y88.676 E30.84119
G1 X97.863 Y88.675 E31.53805
G1 X98.358 Y88.642 E31.56280
G1 X98.877 Y88.540 E31.58919
G1 X99.371 Y88.370 E31.61526
G1 X99.828 Y88.143 E31.64071
G1 X100.260 Y87.855 E31.66662
G1 X100.646 Y87.515 E31.69228
G1 X101.727 Y86.434 E31.76855
G1 X101.926 Y86.247 E31.78217
G1 X102.035 Y86.171 E31.78880
G1 X102.167 Y86.106 E31.79614
G1 X102.312 Y86.058 E31.80376
G1 X102.542 Y86.027 E31.81534
G1 X114.797 Y86.026 E32.42675
G1 X114.950 Y86.040 E32.43441
G1 X115.077 Y86.071 E32.44093
G1 X115.209 Y86.124 E32.44803
G1 X115.343 Y86.203 E32.45579
G1 X115.472 Y86.306 E32.46403
G1 X115.706 Y86.570 E32.48163
G1 X115.894 Y86.905 E32.50079
G1 X116.024 Y87.293 E32.52121
G1 X116.094 Y87.718 E32.54270
G1 X116.105 Y88.708 E32.59209
G1 X116.105 Y97.451 E33.02828
G1 X110.260 Y97.451 E33.31989
G1 X109.672 Y97.483 E33.34927
G1 X109.107 Y97.593 E33.37799
G1 X108.587 Y97.770 E33.40539
G1 X108.095 Y98.013 E33.43277
G1 X107.637 Y98.319 E33.46025
G1 X107.224 Y98.681 E33.48765
G1 X106.862 Y99.093 E33.51501
G1 X106.556 Y99.550 E33.54245
G1 X106.314 Y100.042 E33.56980
G1 X106.137 Y100.563 E33.59725
G1 X106.030 Y101.102 E33.62467
G1 X105.995 Y101.643 E33.65172
G0 F9000 X105.697 Y101.621
G0 X105.945 Y99.890
G0 X107.394 Y98.002
G0 X110.071 Y95.194
G0 X110.260 Y94.962
G1 F1200 X110.561 Y95.104 E33.66832
G1 X110.907 Y95.170 E33.68589
G1 X111.276 Y95.142 E33.70436
G1 X111.606 Y95.030 E33.72174
G1 X111.888 Y94.851 E33.73841
G1 X112.128 Y94.594 E33.75595
G1 X112.297 Y94.287 E33.77343
G1 X112.385 Y93.945 E33.79105
G1 X112.381 Y93.578 E33.80936
G1 X112.297 Y93.255 E33.82601
G1 X112.127 Y92.946 E33.84361
G1 X111.871 Y92.680 E33.86203
G1 X111.573 Y92.497 E33.87947
G1 X111.257 Y92.394 E33.89605
G1 X110.905 Y92.372 E33.91365
G1 X110.544 Y92.446 E33.93204
G1 X110.229 Y92.599 E33.94951
G1 X109.962 Y92.826 E33.96699
G1 X109.766 Y93.096 E33.98364
G1 X109.637 Y93.423 E34.00117
G1 X109.593 Y93.771 E34.01867
G1 X109.637 Y94.119 E34.03617
G1 X109.766 Y94.446 E34.05371
G1 X109.974 Y94.731 E34.07131
G1 X110.260 Y94.962 E34.08966
G0 F9000 X110.467 Y96.042
;TYPE:SKIN
G1 F1200 X111.012 Y96.304 E34.12262
G1 X111.543 Y96.269 E34.15162
G1 X112.067 Y96.510 E34.18040
G0 F9000 X112.632 Y96.510
G1 F1200 X112.008 Y95.886 E34.22442
G0 F9000 X112.355 Y95.668
G1 F1200 X113.198 Y96.510 E34.28386
G0 F9000 X113.764 Y96.510
G1 F1200 X112.656 Y95.402 E34.36204
G0 F9000 X112.920 Y95.100
G1 F1200 X114.329 Y96.510 E34.46149
G0 F9000 X114.895 Y96.510
G1 F1200 X113.120 Y94.736 E34.58669
G0 F9000 X113.260 Y94.310
G1 F1200 X115.165 Y96.215 E34.72110
G0 F9000 X115.165 Y95.648
G1 F1200 X113.323 Y93.806 E34.85106
G0 F9000 X113.242 Y93.160
G1 F1200 X115.164 Y95.082 E34.98667
G0 F9000 X115.163 Y94.516
G1 F1200 X107.614 Y86.967 E35.51929
G0 F9000 X107.048 Y86.967
G1 F1200 X111.598 Y91.516 E35.84028
G0 F9000 X110.949 Y91.433
G1 F1200 X106.483 Y86.967 E36.15538
G0 F9000 X105.917 Y86.967
G1 F1200 X110.455 Y91.504 E36.47553
G0 F9000 X110.032 Y91.648
G1 F1200 X105.351 Y86.967 E36.80580
G0 F9000 X104.786 Y86.967
G1 F1200 X109.664 Y91.845 E37.14997
G0 F9000 X109.358 Y92.104
G1 F1200 X104.220 Y86.967 E37.51244
G0 F9000 X103.654 Y86.967
G1 F1200 X109.100 Y92.413 E37.89669
G0 F9000 X108.886 Y92.764
G1 F1200 X103.089 Y86.967 E38.30570
G0 F9000 X102.533 Y86.976
G1 F1200 X108.726 Y93.169 E38.74265
G0 F9000 X108.658 Y93.668
G1 F1200 X102.239 Y87.249 E39.19554
G0 F9000 X101.957 Y87.532
G1 F1200 X108.709 Y94.284 E39.67193
G0 F9000 X109.320 Y96.592
G1 F1200 X101.097 Y88.369 E40.25211
G0 F9000 X101.392 Y88.098
G1 F1200 X109.826 Y96.532 E40.84717
G0 F9000 X110.370 Y96.510
G1 F1200 X101.674 Y87.815 E41.46069
G0 F9000 X100.792 Y88.630
G1 F1200 X108.849 Y96.686 E42.02912
G0 F9000 X108.427 Y96.830
G1 F1200 X100.453 Y88.856 E42.59173
G0 F9000 X100.092 Y89.061
G1 F1200 X108.027 Y96.996 E43.15158
G0 F9000 X107.649 Y97.184
G1 F1200 X99.712 Y89.247 E43.71158
G0 F9000 X99.291 Y89.391
G1 F1200 X107.306 Y97.407 E44.27712
G0 F9000 X106.978 Y97.645
G1 F1200 X98.839 Y89.505 E44.85141
G0 F9000 X98.352 Y89.584
G1 F1200 X106.677 Y97.909 E45.43878
G0 F9000 X106.399 Y98.196
G1 F1200 X97.817 Y89.615 E46.04425
G0 F9000 X97.251 Y89.615
G1 F1200 X106.133 Y98.497 E46.67092
G0 F9000 X105.904 Y98.833
G1 F1200 X96.686 Y89.615 E47.32130
G0 F9000 X96.120 Y89.615
G1 F1200 X105.688 Y99.183 E47.99638
G0 F9000 X105.501 Y99.562
G1 F1200 X95.554 Y89.615 E48.69819
G0 F9000 X94.989 Y89.615
G1 F1200 X105.344 Y99.970 E49.42879
G0 F9000 X107.894 Y97.667
G0 X115.162 Y93.949
G1 F1200 X108.180 Y86.967 E49.92141
G0 F9000 X108.745 Y86.966
G1 F1200 X115.162 Y93.383 E50.37416
G0 F9000 X115.161 Y92.816
G1 F1200 X109.310 Y86.966 E50.78695
G0 F9000 X109.876 Y86.966
G1 F1200 X115.160 Y92.250 E51.15976
G0 F9000 X115.160 Y91.684
G1 F1200 X110.442 Y86.966 E51.49264
G0 F9000 X111.007 Y86.966
G1 F1200 X115.159 Y91.117 E51.78556
G0 F9000 X115.158 Y90.551
G1 F1200 X111.573 Y86.966 E52.03850
G0 F9000 X112.139 Y86.966
G1 F1200 X115.157 Y89.984 E52.25143
G0 F9000 X115.156 Y89.417
G1 F1200 X112.705 Y86.966 E52.42436
G0 F9000 X113.270 Y86.966
G1 F1200 X115.155 Y88.851 E52.55736
