; G-Code generated by Simplify3D(R) Version 3.1.1
; bre 1, 2017 at 7:52:32 ODP.
; Settings Summary
;   processName,aileron
;   applyToModels,cessna_152_aileron_R
;   profileName,Default (modified)
;   profileVersion,2016-04-14 15:44:02
;   baseProfile,Default
;   printMaterial,
;   printQuality,
;   printExtruders,
;   extruderName,Primary Extruder
;   extruderToolheadNumber,0
;   extruderDiameter,0.4
;   extruderAutoWidth,0
;   extruderWidth,0.42
;   extrusionMultiplier,1.02
;   extruderUseRetract,1
;   extruderRetractionDistance,0.8
;   extruderExtraRestartDistance,0.12
;   extruderRetractionZLift,0
;   extruderRetractionSpeed,1800
;   extruderUseCoasting,1
;   extruderCoastingDistance,0.2
;   extruderUseWipe,1
;   extruderWipeDistance,2
;   primaryExtruder,0
;   layerHeight,0.25
;   topSolidLayers,4
;   bottomSolidLayers,4
;   perimeterOutlines,1
;   printPerimetersInsideOut,1
;   startPointOption,3
;   startPointOriginX,200
;   startPointOriginY,0
;   startPointOriginZ,-300
;   sequentialIslands,0
;   spiralVaseMode,0
;   firstLayerHeightPercentage,90
;   firstLayerWidthPercentage,103
;   firstLayerUnderspeed,0.5
;   useRaft,0
;   raftExtruder,0
;   raftLayers,3
;   raftOffset,3
;   raftSeparationDistance,0.14
;   raftInfill,85
;   disableRaftBaseLayers,0
;   useSkirt,1
;   skirtExtruder,0
;   skirtLayers,1
;   skirtOutlines,1
;   skirtOffset,1.4
;   usePrimePillar,0
;   primePillarExtruder,999
;   primePillarWidth,12
;   primePillarLocation,7
;   primePillarSpeedMultiplier,1
;   useOozeShield,0
;   oozeShieldExtruder,999
;   oozeShieldOffset,2
;   oozeShieldOutlines,1
;   oozeShieldSidewallShape,1
;   oozeShieldSidewallAngle,30
;   oozeShieldSpeedMultiplier,1
;   infillExtruder,0
;   internalInfillPattern,Rectilinear
;   externalInfillPattern,Rectilinear
;   infillPercentage,0
;   outlineOverlapPercentage,15
;   infillExtrusionWidthPercentage,100
;   minInfillLength,5
;   infillLayerInterval,1
;   infillAngles,45,-45
;   overlapInfillAngles,0
;   generateSupport,0
;   supportExtruder,0
;   supportInfillPercentage,30
;   supportExtraInflation,0
;   denseSupportLayers,0
;   denseSupportInfillPercentage,70
;   supportLayerInterval,1
;   supportHorizontalPartOffset,0.3
;   supportUpperSeparationLayers,1
;   supportLowerSeparationLayers,1
;   supportType,0
;   supportGridSpacing,4
;   maxOverhangAngle,45
;   supportAngles,0
;   temperatureName,Primary Extruder,Heated Bed
;   temperatureNumber,0,1
;   temperatureSetpointCount,1,1
;   temperatureSetpointLayers,1,1
;   temperatureSetpointTemperatures,230,55
;   temperatureStabilizeAtStartup,1,1
;   temperatureHeatedBed,0,1
;   temperatureRelayBetweenLayers,0,0
;   temperatureRelayBetweenLoops,0,0
;   fanLayers,1
;   fanSpeeds,0
;   blipFanToFullPower,1
;   adjustSpeedForCooling,1
;   minSpeedLayerTime,15
;   minCoolingSpeedSlowdown,30
;   increaseFanForCooling,0
;   minFanLayerTime,45
;   maxCoolingFanSpeed,100
;   increaseFanForBridging,0
;   bridgingFanSpeed,100
;   use5D,1
;   relativeEdistances,0
;   allowEaxisZeroing,1
;   independentExtruderAxes,0
;   includeM10123,0
;   stickySupport,1
;   applyToolheadOffsets,0
;   gcodeXoffset,0
;   gcodeYoffset,0
;   gcodeZoffset,0
;   overrideMachineDefinition,1
;   machineTypeOverride,0
;   strokeXoverride,195
;   strokeYoverride,195
;   strokeZoverride,150
;   originOffsetXoverride,0
;   originOffsetYoverride,0
;   originOffsetZoverride,0
;   homeXdirOverride,-1
;   homeYdirOverride,-1
;   homeZdirOverride,-1
;   flipXoverride,1
;   flipYoverride,-1
;   flipZoverride,1
;   toolheadOffsets,0,0|0,0|0,0|0,0|0,0|0,0
;   overrideFirmwareConfiguration,1
;   firmwareTypeOverride,RepRap (Marlin/Repetier/Sprinter)
;   GPXconfigOverride,r2
;   baudRateOverride,115200
;   overridePrinterModels,0
;   printerModelsOverride
;   startingGcode,G28,
;   layerChangeGcode,
;   retractionGcode,
;   toolChangeGcode,
;   endingGcode,M104 S0 ; turn off extruder,M140 S0 ; turn off bed,G28 X0 ; home X axis,M84 ; disable motors,M107 ; turn off fan
;   exportFileFormat,gcode
;   celebration,0
;   celebrationSong,Random Song
;   postProcessing,
;   defaultSpeed,3000
;   outlineUnderspeed,0.7
;   solidInfillUnderspeed,0.8
;   supportUnderspeed,0.8
;   rapidXYspeed,7800
;   rapidZspeed,1002
;   minBridgingArea,5
;   bridgingExtraInflation,0
;   bridgingExtrusionMultiplier,1
;   bridgingSpeedMultiplier,0.3
;   filamentDiameter,1.75
;   filamentPricePerKg,1000
;   filamentDensity,1.25
;   useMinPrintHeight,1
;   minPrintHeight,0
;   useMaxPrintHeight,1
;   maxPrintHeight,2
;   useDiaphragm,0
;   diaphragmLayerInterval,20
;   robustSlicing,1
;   mergeAllIntoSolid,0
;   onlyRetractWhenCrossingOutline,0
;   retractBetweenLayers,0
;   useRetractionMinTravel,0
;   retractionMinTravel,3
;   retractWhileWiping,0
;   onlyWipeOutlines,1
;   avoidCrossingOutline,0
;   maxMovementDetourFactor,3
;   toolChangeRetractionDistance,0
;   toolChangeExtraRestartDistance,0
;   toolChangeRetractionSpeed,360
;   allowThinWallGapFill,1
;   thinWallAllowedOverlapPercentage,10
;   horizontalSizeCompensation,0
G90
M82
M106 S0
M140 S55
M190 S55
M104 S230 T0
M109 S230 T0
G28
G92 E0
G1 E-0.8000 F1800
G1 Z0.225 F1002
; layer 1, Z = 0.225
T0
; tool H0.250 W0.433
; skirt
G1 X110.802 Y105.865 F7800
G1 E0.1200 F540
G92 E0
G1 X111.699 Y105.151 E0.0526 F1500
G1 X111.773 Y105.127 E0.0561
G1 X113.817 Y105.245 E0.1500
G1 X113.890 Y105.278 E0.1537
G1 X114.707 Y106.132 E0.2079
G1 X114.737 Y106.206 E0.2116
G1 X115.114 Y134.714 E1.5191
G1 X115.467 Y150.307 E2.2345
G1 X115.467 Y150.327 E2.2353
G1 X115.459 Y153.733 E2.3915
G1 X115.459 Y153.736 E2.3916
G1 X115.457 Y153.784 E2.3938
G1 X115.457 Y153.787 E2.3939
G1 X115.406 Y154.576 E2.4302
G1 X115.405 Y154.585 E2.4306
G1 X115.385 Y154.715 E2.4367
G1 X115.383 Y154.725 E2.4371
G1 X115.211 Y155.424 E2.4701
G1 X115.193 Y155.462 E2.4721
G1 X114.822 Y155.955 E2.5004
G1 X114.790 Y155.983 E2.5023
G1 X114.000 Y156.437 E2.5441
G1 X113.937 Y156.451 E2.5471
G1 X112.993 Y156.367 E2.5905
G1 X112.933 Y156.342 E2.5935
G1 X112.385 Y155.880 E2.6264
G1 X112.378 Y155.874 E2.6268
G1 X112.285 Y155.780 E2.6329
G1 X112.279 Y155.773 E2.6333
G1 X111.815 Y155.216 E2.6666
G1 X111.775 Y155.179 E2.6690
G1 X111.810 Y155.297 E2.6747
G1 X111.812 Y155.309 E2.6752
G1 X111.882 Y155.703 E2.6935
G1 X111.883 Y155.716 E2.6942
G1 X111.892 Y155.914 E2.7032
G1 X111.892 Y155.928 E2.7039
G1 X111.835 Y156.576 E2.7337
G1 X111.832 Y156.592 E2.7344
G1 X111.777 Y156.816 E2.7451
G1 X111.772 Y156.832 E2.7458
G1 X111.570 Y157.317 E2.7699
G1 X111.565 Y157.327 E2.7704
G1 X111.485 Y157.472 E2.7780
G1 X111.479 Y157.482 E2.7786
G1 X111.248 Y157.810 E2.7969
G1 X111.239 Y157.820 E2.7976
G1 X111.105 Y157.966 E2.8067
G1 X111.095 Y157.975 E2.8073
G1 X110.607 Y158.381 E2.8364
G1 X110.596 Y158.389 E2.8370
G1 X110.429 Y158.494 E2.8461
G1 X110.417 Y158.501 E2.8467
G1 X110.053 Y158.668 E2.8651
G1 X110.042 Y158.672 E2.8656
G1 X109.886 Y158.724 E2.8732
G1 X109.875 Y158.727 E2.8737
G1 X109.393 Y158.831 E2.8963
G1 X109.382 Y158.833 E2.8968
G1 X109.218 Y158.850 E2.9043
G1 X109.207 Y158.850 E2.9049
G1 X108.824 Y158.848 E2.9224
G1 X108.812 Y158.847 E2.9230
G1 X108.650 Y158.829 E2.9305
G1 X108.639 Y158.827 E2.9310
G1 X108.142 Y158.714 E2.9543
G1 X108.129 Y158.710 E2.9550
G1 X107.944 Y158.642 E2.9640
G1 X107.932 Y158.637 E2.9646
G1 X107.452 Y158.385 E2.9895
G1 X107.439 Y158.376 E2.9902
G1 X107.254 Y158.240 E3.0007
G1 X107.242 Y158.230 E3.0014
G1 X106.783 Y157.769 E3.0313
G1 X106.774 Y157.759 E3.0319
G1 X106.655 Y157.603 E3.0409
G1 X106.647 Y157.592 E3.0415
G1 X106.447 Y157.245 E3.0598
G1 X106.442 Y157.235 E3.0604
G1 X106.376 Y157.085 E3.0679
G1 X106.372 Y157.075 E3.0684
G1 X106.214 Y156.573 E3.0925
G1 X106.210 Y156.558 E3.0933
G1 X106.175 Y156.330 E3.1038
G1 X106.174 Y156.314 E3.1046
G1 X106.174 Y155.630 E3.1359
G1 X106.176 Y155.611 E3.1368
G1 X106.222 Y155.351 E3.1489
G1 X106.227 Y155.333 E3.1497
G1 X106.456 Y154.707 E3.1803
G1 X106.461 Y154.694 E3.1810
G1 X106.276 Y154.834 E3.1917
G1 X105.669 Y155.386 E3.2293
G1 X105.647 Y155.401 E3.2305
G1 X105.307 Y155.580 E3.2481
G1 X105.282 Y155.589 E3.2494
G1 X104.388 Y155.800 E3.2915
G1 X104.315 Y155.791 E3.2949
G1 X103.348 Y155.314 E3.3443
G1 X103.298 Y155.262 E3.3476
G1 X102.909 Y154.399 E3.3910
G1 X102.902 Y154.377 E3.3921
G1 X102.835 Y154.046 E3.4076
G1 X102.833 Y154.022 E3.4087
G1 X102.851 Y153.243 E3.4444
G1 X102.852 Y153.239 E3.4446
G1 X102.856 Y153.170 E3.4478
G1 X102.857 Y153.166 E3.4480
G1 X102.960 Y152.272 E3.4892
G1 X102.960 Y152.270 E3.4893
G1 X102.964 Y152.240 E3.4907
G1 X102.965 Y152.238 E3.4908
G1 X103.302 Y150.082 E3.5909
G1 X103.304 Y150.073 E3.5913
G1 X107.670 Y124.050 E4.8014
G1 X107.670 Y124.047 E4.8015
G1 X110.743 Y106.048 E5.6390
G1 X110.763 Y105.932 F1500
G1 X110.802 Y105.865 F1500
G92 E0
G1 E-0.8000 F1800
G1 X123.867 Y124.067 F7800
G1 E0.1200 F1800
G92 E0
G1 X123.942 Y124.036 E0.0037 F1500
G1 X125.952 Y124.015 E0.0959
G1 X126.023 Y124.041 E0.0994
G1 X126.880 Y124.774 E0.1511
G1 X126.916 Y124.841 E0.1546
G1 X129.332 Y141.428 E0.9233
G1 X132.219 Y161.541 E1.8552
G1 X132.219 Y161.545 E1.8553
G1 X133.440 Y170.357 E2.2633
G1 X133.441 Y170.375 E2.2642
G1 X133.431 Y170.638 E2.2762
G1 X133.429 Y170.656 E2.2771
G1 X133.144 Y171.987 E2.3395
G1 X133.143 Y171.992 E2.3397
G1 X133.123 Y172.064 E2.3432
G1 X133.122 Y172.069 E2.3434
G1 X132.976 Y172.525 E2.3653
G1 X132.973 Y172.531 E2.3656
G1 X132.938 Y172.621 E2.3701
G1 X132.935 Y172.627 E2.3704
G1 X132.554 Y173.440 E2.4115
G1 X132.550 Y173.448 E2.4120
G1 X132.485 Y173.560 E2.4179
G1 X132.480 Y173.567 E2.4183
G1 X131.965 Y174.303 E2.4595
G1 X131.961 Y174.308 E2.4598
G1 X131.899 Y174.385 E2.4643
G1 X131.894 Y174.391 E2.4647
G1 X131.563 Y174.752 E2.4872
G1 X131.558 Y174.757 E2.4875
G1 X131.487 Y174.825 E2.4920
G1 X131.482 Y174.830 E2.4923
G1 X130.793 Y175.408 E2.5335
G1 X130.786 Y175.413 E2.5339
G1 X130.678 Y175.488 E2.5400
G1 X130.671 Y175.493 E2.5404
G1 X129.878 Y175.951 E2.5824
G1 X129.870 Y175.955 E2.5828
G1 X129.751 Y176.011 E2.5888
G1 X129.742 Y176.014 E2.5892
G1 X128.882 Y176.327 E2.6312
G1 X128.874 Y176.330 E2.6316
G1 X128.747 Y176.364 E2.6377
G1 X128.738 Y176.366 E2.6381
G1 X127.837 Y176.525 E2.6800
G1 X127.827 Y176.526 E2.6805
G1 X127.696 Y176.538 E2.6865
G1 X127.687 Y176.538 E2.6869
G1 X126.772 Y176.538 E2.7289
G1 X126.763 Y176.538 E2.7293
G1 X126.632 Y176.526 E2.7353
G1 X126.623 Y176.525 E2.7358
G1 X125.722 Y176.366 E2.7777
G1 X125.713 Y176.364 E2.7782
G1 X125.586 Y176.330 E2.7842
G1 X125.577 Y176.327 E2.7846
G1 X124.732 Y176.020 E2.8258
G1 X124.726 Y176.017 E2.8261
G1 X124.636 Y175.978 E2.8306
G1 X124.630 Y175.975 E2.8309
G1 X124.209 Y175.756 E2.8527
G1 X124.205 Y175.754 E2.8529
G1 X124.148 Y175.721 E2.8560
G1 X124.144 Y175.718 E2.8562
G1 X123.743 Y175.463 E2.8779
G1 X123.738 Y175.459 E2.8783
G1 X123.659 Y175.401 E2.8828
G1 X123.653 Y175.397 E2.8831
G1 X122.965 Y174.819 E2.9243
G1 X122.958 Y174.813 E2.9247
G1 X122.865 Y174.720 E2.9307
G1 X122.859 Y174.713 E2.9312
G1 X122.269 Y174.010 E2.9732
G1 X122.263 Y174.003 E2.9737
G1 X122.186 Y173.891 E2.9799
G1 X122.180 Y173.883 E2.9804
G1 X121.724 Y173.080 E3.0227
G1 X121.719 Y173.071 E3.0232
G1 X121.659 Y172.937 E3.0299
G1 X121.656 Y172.927 E3.0304
G1 X121.366 Y172.059 E3.0724
G1 X121.364 Y172.050 E3.0728
G1 X121.334 Y171.927 E3.0786
G1 X121.332 Y171.918 E3.0790
G1 X121.295 Y171.679 E3.0901
G1 X121.001 Y171.762 E3.1042
G1 X119.429 Y172.425 E3.1824
G1 X113.606 Y175.175 E3.4777
G1 X113.604 Y175.176 E3.4778
G1 X113.566 Y175.192 E3.4797
G1 X113.563 Y175.193 E3.4799
G1 X112.271 Y175.719 E3.5439
G1 X112.266 Y175.721 E3.5441
G1 X112.195 Y175.745 E3.5475
G1 X112.190 Y175.747 E3.5478
G1 X111.263 Y176.021 E3.5921
G1 X111.253 Y176.023 E3.5926
G1 X111.112 Y176.050 E3.5992
G1 X111.102 Y176.052 E3.5996
G1 X110.389 Y176.120 E3.6325
G1 X110.374 Y176.120 E3.6332
G1 X110.161 Y176.111 E3.6429
G1 X110.147 Y176.109 E3.6436
G1 X109.608 Y176.007 E3.6687
G1 X109.600 Y176.005 E3.6691
G1 X109.484 Y175.974 E3.6746
G1 X109.476 Y175.971 E3.6750
G1 X109.011 Y175.803 E3.6977
G1 X109.002 Y175.799 E3.6981
G1 X108.876 Y175.740 E3.7045
G1 X108.868 Y175.736 E3.7050
G1 X108.433 Y175.480 E3.7281
G1 X108.424 Y175.475 E3.7286
G1 X108.305 Y175.388 E3.7353
G1 X108.297 Y175.382 E3.7358
G1 X107.910 Y175.038 E3.7595
G1 X107.903 Y175.031 E3.7600
G1 X107.807 Y174.929 E3.7664
G1 X107.801 Y174.921 E3.7669
G1 X107.473 Y174.497 E3.7914
G1 X107.468 Y174.490 E3.7918
G1 X107.401 Y174.388 E3.7974
G1 X107.397 Y174.381 E3.7978
G1 X107.114 Y173.858 E3.8251
G1 X107.109 Y173.848 E3.8256
G1 X107.048 Y173.698 E3.8330
G1 X107.044 Y173.687 E3.8335
G1 X106.856 Y173.034 E3.8647
G1 X106.853 Y173.022 E3.8653
G1 X106.824 Y172.845 E3.8735
G1 X106.823 Y172.833 E3.8741
G1 X106.789 Y172.064 E3.9094
G1 X106.790 Y172.053 E3.9099
G1 X106.801 Y171.882 E3.9177
G1 X106.803 Y171.871 E3.9183
G1 X106.963 Y171.005 E3.9587
G1 X106.966 Y170.995 E3.9591
G1 X107.005 Y170.857 E3.9657
G1 X107.009 Y170.847 E3.9662
G1 X107.387 Y169.885 E4.0136
G1 X107.390 Y169.877 E4.0140
G1 X107.441 Y169.773 E4.0193
G1 X107.444 Y169.766 E4.0196
G1 X108.130 Y168.591 E4.0821
G1 X108.132 Y168.586 E4.0823
G1 X108.171 Y168.527 E4.0855
G1 X108.174 Y168.523 E4.0858
G1 X109.261 Y167.007 E4.1713
G1 X109.263 Y167.004 E4.1715
G1 X109.287 Y166.972 E4.1733
G1 X109.289 Y166.970 E4.1734
G1 X110.888 Y164.976 E4.2907
G1 X110.889 Y164.975 E4.2907
G1 X110.904 Y164.957 E4.2918
G1 X110.905 Y164.956 E4.2919
G1 X113.117 Y162.367 E4.4480
G1 X115.587 Y159.392 E4.6254
G1 X117.969 Y156.236 E4.8067
G1 X119.911 Y153.134 E4.9746
G1 X121.119 Y150.262 E5.1175
G1 X121.817 Y147.492 E5.2485
G1 X122.177 Y144.739 E5.3758
G1 X122.366 Y141.961 E5.5035
G1 X122.973 Y124.981 E6.2828
G1 X123.005 Y124.907 E6.2865
G1 X123.725 Y124.205 E6.3326
G1 X123.867 Y124.067 F1500
G92 E0
G1 E-0.8000 F1800
G1 X142.731 Y117.228 F7800
G1 E0.1200 F1800
G92 E0
G1 X142.767 Y117.161 E0.0035 F1500
G1 X143.624 Y116.427 E0.0552
G1 X143.696 Y116.401 E0.0587
G1 X145.706 Y116.421 E0.1509
G1 X145.781 Y116.452 E0.1546
G1 X146.642 Y117.292 E0.2098
G1 X146.675 Y117.366 E0.2135
G1 X147.285 Y134.352 E0.9931
G1 X147.498 Y137.161 E1.1223
G1 X147.880 Y139.948 E1.2513
G1 X148.594 Y142.741 E1.3835
G1 X149.812 Y145.618 E1.5268
G1 X151.750 Y148.703 E1.6939
G1 X154.121 Y151.830 E1.8738
G1 X156.576 Y154.775 E2.0497
G1 X158.773 Y157.338 E2.2045
G1 X158.774 Y157.340 E2.2046
G1 X158.789 Y157.358 E2.2057
G1 X158.790 Y157.359 E2.2058
G1 X160.380 Y159.337 E2.3222
G1 X160.382 Y159.340 E2.3223
G1 X160.407 Y159.372 E2.3242
G1 X160.409 Y159.375 E2.3243
G1 X161.491 Y160.883 E2.4095
G1 X161.494 Y160.887 E2.4097
G1 X161.533 Y160.947 E2.4130
G1 X161.535 Y160.951 E2.4132
G1 X162.219 Y162.125 E2.4755
G1 X162.223 Y162.132 E2.4759
G1 X162.274 Y162.236 E2.4812
G1 X162.277 Y162.243 E2.4815
G1 X162.655 Y163.206 E2.5290
G1 X162.658 Y163.215 E2.5294
G1 X162.698 Y163.354 E2.5360
G1 X162.700 Y163.363 E2.5365
G1 X162.861 Y164.229 E2.5769
G1 X162.862 Y164.241 E2.5774
G1 X162.874 Y164.411 E2.5852
G1 X162.874 Y164.423 E2.5858
G1 X162.841 Y165.191 E2.6210
G1 X162.840 Y165.204 E2.6216
G1 X162.811 Y165.381 E2.6298
G1 X162.808 Y165.393 E2.6304
G1 X162.620 Y166.046 E2.6616
G1 X162.616 Y166.056 E2.6621
G1 X162.555 Y166.206 E2.6695
G1 X162.550 Y166.216 E2.6700
G1 X162.267 Y166.739 E2.6973
G1 X162.262 Y166.746 E2.6977
G1 X162.196 Y166.849 E2.7033
G1 X162.191 Y166.856 E2.7037
G1 X161.863 Y167.280 E2.7283
G1 X161.857 Y167.287 E2.7287
G1 X161.761 Y167.390 E2.7352
G1 X161.754 Y167.396 E2.7356
G1 X161.367 Y167.740 E2.7593
G1 X161.359 Y167.747 E2.7598
G1 X161.240 Y167.833 E2.7666
G1 X161.231 Y167.839 E2.7670
G1 X160.796 Y168.094 E2.7902
G1 X160.787 Y168.099 E2.7906
G1 X160.662 Y168.158 E2.7970
G1 X160.653 Y168.162 E2.7974
G1 X160.187 Y168.329 E2.8201
G1 X160.179 Y168.332 E2.8205
G1 X160.064 Y168.364 E2.8260
G1 X160.056 Y168.365 E2.8264
G1 X159.517 Y168.467 E2.8515
G1 X159.503 Y168.469 E2.8522
G1 X159.291 Y168.479 E2.8619
G1 X159.276 Y168.479 E2.8626
G1 X158.559 Y168.411 E2.8956
G1 X158.549 Y168.409 E2.8961
G1 X158.412 Y168.383 E2.9025
G1 X158.403 Y168.381 E2.9029
G1 X157.456 Y168.109 E2.9481
G1 X157.451 Y168.108 E2.9483
G1 X157.384 Y168.085 E2.9516
G1 X157.380 Y168.084 E2.9518
