;FLAVOR:RepRap
;TIME:1751
;Filament used: 1.09594m
;Layer height: 0.15
;Generated with Cura_SteamEngine 2.6.2
M190 S60
M104 S220
M109 S220
G21 ;metric values
G90 ;absolute positioning
M82 ;set extruder to absolute mode
M107 ;start with the fan off
G92 E0 ;zero the extruded length
G1 F200 E3 ;extrude 3mm of feed stock
G92 E0 ;zero the extruded length again
G1 F9000
M117 Printing...
;LAYER_COUNT:39
;LAYER:0
M107
M204 S5000
G0 F2400 X76.718 Y76.107 Z0.3
G0 X76.336 Y76.502
M204 S200
;TYPE:SKIRT
G1 F1200 X76.718 Y76.107 E0.02735
G1 X77.352 Y75.649 E0.06627
G1 X78.104 Y75.216 E0.10945
G1 X78.6 Y74.976 E0.13687
G1 X79.006 Y74.842 E0.15815
G1 X79.431 Y74.727 E0.18006
G1 X79.971 Y74.622 E0.20744
G1 X80.421 Y74.595 E0.22987
G1 X104.588 Y74.598 E1.43256
G1 X105.137 Y74.638 E1.45995
G1 X105.884 Y74.827 E1.4983
G1 X106.692 Y75.121 E1.54109
G1 X107.194 Y75.346 E1.56846
G1 X107.83 Y75.776 E1.60667
G1 X108.5 Y76.337 E1.65016
G1 X108.895 Y76.72 E1.67754
G1 X109.351 Y77.352 E1.71632
G1 X109.784 Y78.104 E1.7595
G1 X110.024 Y78.6 E1.78693
G1 X110.159 Y79.01 E1.80841
G1 X110.273 Y79.433 E1.83021
G1 X110.378 Y79.973 E1.85759
G1 X110.404 Y80.392 E1.87848
G1 X110.425 Y83.362 E2.02629
G1 X114.823 Y85.927 E2.27966
G1 X115.48 Y86.412 E2.3203
G1 X116.318 Y87.183 E2.37697
G1 X116.695 Y87.584 E2.40436
G1 X117.003 Y88.025 E2.43113
G1 X117.59 Y89.005 E2.48798
G1 X117.838 Y89.496 E2.51535
G1 X118.008 Y90.002 E2.54192
G1 X118.296 Y91.113 E2.59903
G1 X118.395 Y91.654 E2.6264
G1 X118.417 Y92.068 E2.64703
G1 X118.416 Y92.944 E2.69063
G1 X118.354 Y93.623 E2.72456
G1 X118.252 Y94.18 E2.75274
G1 X118.071 Y94.833 E2.78646
G1 X117.763 Y95.651 E2.82996
G1 X117.532 Y96.15 E2.85733
G1 X117.315 Y96.498 E2.87773
G1 X116.663 Y97.424 E2.93409
G1 X116.314 Y97.849 E2.96146
G1 X115.916 Y98.213 E2.9883
G1 X115.008 Y98.932 E3.04594
G1 X114.561 Y99.237 E3.07287
G1 X110.42 Y101.645 E3.31126
G1 X110.391 Y104.611 E3.45887
G1 X110.396 Y104.715 E3.46405
G1 X110.341 Y105.263 E3.49146
G1 X110.163 Y105.923 E3.52548
G1 X109.873 Y106.709 E3.56717
G1 X109.645 Y107.21 E3.59457
G1 X109.223 Y107.83 E3.63189
G1 X108.663 Y108.499 E3.67531
G1 X108.28 Y108.895 E3.70272
G1 X107.648 Y109.351 E3.74151
G1 X106.896 Y109.784 E3.78469
G1 X106.4 Y110.024 E3.81211
G1 X105.994 Y110.158 E3.83339
G1 X105.569 Y110.273 E3.8553
G1 X105.029 Y110.378 E3.88268
G1 X104.582 Y110.405 E3.90496
G1 X80.574 Y110.424 E5.09973
G1 X80.025 Y110.384 E5.12713
G1 X79.542 Y110.282 E5.15169
G1 X78.755 Y110.06 E5.19239
G1 X78.237 Y109.872 E5.21981
G1 X77.604 Y109.512 E5.25605
G1 X76.9 Y109.017 E5.29888
G1 X76.473 Y108.669 E5.32629
G1 X75.974 Y108.089 E5.36437
G1 X75.478 Y107.38 E5.40743
G1 X75.196 Y106.907 E5.43484
G1 X74.934 Y106.232 E5.47087
G1 X74.72 Y105.47 E5.51026
G1 X74.61 Y104.931 E5.53763
G1 X74.579 Y104.46 E5.56112
G1 X74.568 Y101.634 E5.70176
G1 X70.176 Y99.072 E5.9548
G1 X69.519 Y98.587 E5.99544
G1 X68.68 Y97.815 E6.05218
G1 X68.303 Y97.414 E6.07957
G1 X67.99 Y96.964 E6.10685
G1 X67.4 Y95.973 E6.16425
G1 X67.153 Y95.481 E6.19164
G1 X66.985 Y94.977 E6.21808
G1 X66.702 Y93.875 E6.2747
G1 X66.604 Y93.333 E6.30211
G1 X66.583 Y92.928 E6.3223
G1 X66.584 Y92.053 E6.36584
G1 X66.647 Y91.371 E6.39992
G1 X66.75 Y90.811 E6.42826
G1 X66.931 Y90.159 E6.46193
G1 X67.237 Y89.348 E6.50507
G1 X67.468 Y88.848 E6.53248
G1 X67.685 Y88.503 E6.55276
G1 X68.338 Y87.576 E6.60919
G1 X68.687 Y87.15 E6.6366
G1 X69.084 Y86.787 E6.66337
G1 X69.992 Y86.068 E6.72101
G1 X70.439 Y85.763 E6.74794
G1 X74.58 Y83.355 E6.98633
G1 X74.609 Y80.387 E7.13404
G1 X74.604 Y80.285 E7.13912
G1 X74.659 Y79.737 E7.16653
G1 X74.837 Y79.078 E7.2005
G1 X75.126 Y78.294 E7.24208
G1 X75.353 Y77.793 E7.26946
G1 X75.775 Y77.173 E7.30678
G1 X76.336 Y76.502 E7.3503
M204 S5000
G0 F2400 X76.642 Y76.758
M204 S200
G1 F1200 X77.005 Y76.386 E7.37617
G1 X77.551 Y75.994 E7.40962
G1 X78.303 Y75.561 E7.4528
G1 X78.773 Y75.337 E7.47871
G1 X79.11 Y75.227 E7.49636
G1 X79.535 Y75.112 E7.51827
G1 X80.046 Y75.015 E7.54415
G1 X80.421 Y74.994 E7.56284
G1 X104.588 Y74.997 E8.76553
G1 X105.107 Y75.037 E8.79143
G1 X105.748 Y75.201 E8.82436
G1 X106.556 Y75.495 E8.86715
G1 X107.03 Y75.71 E8.89305
G1 X107.574 Y76.082 E8.92585
G1 X108.244 Y76.643 E8.96933
G1 X108.616 Y77.007 E8.99523
G1 X109.006 Y77.551 E9.02855
G1 X109.439 Y78.303 E9.07173
G1 X109.663 Y78.773 E9.09764
G1 X109.774 Y79.113 E9.11544
G1 X109.888 Y79.536 E9.13724
G1 X109.985 Y80.048 E9.16317
G1 X110.005 Y80.395 E9.18047
G1 X110.028 Y83.593 E9.33963
G1 X114.622 Y86.272 E9.60428
G1 X115.21 Y86.706 E9.64065
G1 X116.048 Y87.477 E9.69732
G1 X116.403 Y87.858 E9.72324
G1 X116.661 Y88.23 E9.74577
G1 X117.248 Y89.21 E9.80262
G1 X117.48 Y89.676 E9.82852
G1 X117.621 Y90.102 E9.85085
G1 X117.909 Y91.213 E9.90797
G1 X118.001 Y91.725 E9.93386
G1 X118.018 Y92.068 E9.95095
G1 X118.017 Y92.944 E9.99454
G1 X117.962 Y93.551 E10.02487
G1 X117.86 Y94.108 E10.05305
G1 X117.697 Y94.692 E10.08323
G1 X117.389 Y95.51 E10.12673
G1 X117.169 Y95.982 E10.15264
G1 X116.988 Y96.268 E10.16949
G1 X116.336 Y97.194 E10.22585
G1 X116.005 Y97.595 E10.25172
G1 X115.669 Y97.9 E10.2743
G1 X114.761 Y98.619 E10.33194
G1 X114.36 Y98.892 E10.35608
G1 X110.023 Y101.414 E10.60576
G1 X109.994 Y104.472 E10.75795
G1 X109.996 Y104.493 E10.759
G1 X109.993 Y104.571 E10.76288
G1 X109.992 Y104.644 E10.76651
G1 X109.99 Y104.644 E10.76661
G1 X109.974 Y105.013 E10.78499
G1 X109.873 Y105.524 E10.81092
G1 X109.788 Y105.785 E10.82458
G1 X109.498 Y106.571 E10.86627
G1 X109.281 Y107.044 E10.89217
G1 X108.917 Y107.574 E10.92416
G1 X108.357 Y108.243 E10.96758
G1 X107.993 Y108.616 E10.99352
G1 X107.449 Y109.006 E11.02683
G1 X106.697 Y109.439 E11.07001
G1 X106.227 Y109.663 E11.09592
G1 X105.89 Y109.773 E11.11357
G1 X105.465 Y109.888 E11.13548
G1 X104.954 Y109.985 E11.16136
G1 X104.582 Y110.006 E11.1799
G1 X80.574 Y110.025 E12.37467
G1 X80.055 Y109.985 E12.40058
G1 X79.65 Y109.898 E12.42119
G1 X78.863 Y109.676 E12.46189
G1 X78.374 Y109.496 E12.48782
G1 X77.833 Y109.186 E12.51885
G1 X77.129 Y108.691 E12.56168
G1 X76.727 Y108.36 E12.58759
G1 X76.301 Y107.86 E12.62028
G1 X75.805 Y107.151 E12.66334
G1 X75.54 Y106.703 E12.68925
G1 X75.318 Y106.124 E12.7201
G1 X75.104 Y105.362 E12.75949
G1 X75.002 Y104.852 E12.78538
G1 X74.978 Y104.459 E12.80497
G1 X74.966 Y101.404 E12.95701
G1 X70.377 Y98.727 E13.2214
G1 X69.789 Y98.293 E13.25777
G1 X68.95 Y97.521 E13.31451
G1 X68.595 Y97.14 E13.34042
G1 X68.332 Y96.76 E13.36342
G1 X67.742 Y95.769 E13.42082
G1 X67.511 Y95.303 E13.4467
G1 X67.372 Y94.878 E13.46895
G1 X67.089 Y93.776 E13.52557
G1 X66.998 Y93.263 E13.5515
G1 X66.982 Y92.928 E13.56819
G1 X66.983 Y92.053 E13.61174
G1 X67.039 Y91.443 E13.64222
G1 X67.142 Y90.883 E13.67056
G1 X67.304 Y90.3 E13.70067
G1 X67.61 Y89.489 E13.74381
G1 X67.831 Y89.017 E13.76974
G1 X68.011 Y88.733 E13.78648
G1 X68.664 Y87.806 E13.84291
G1 X68.995 Y87.404 E13.86882
G1 X69.331 Y87.1 E13.89137
G1 X70.239 Y86.381 E13.94901
G1 X70.64 Y86.108 E13.97315
G1 X74.977 Y83.586 E14.22282
G1 X75.006 Y80.528 E14.37501
G1 X75.004 Y80.507 E14.37606
G1 X75.007 Y80.429 E14.37995
G1 X75.008 Y80.356 E14.38358
G1 X75.01 Y80.356 E14.38368
G1 X75.026 Y79.987 E14.40206
G1 X75.127 Y79.476 E14.42798
G1 X75.211 Y79.216 E14.44158
G1 X75.5 Y78.432 E14.48316
G1 X75.717 Y77.959 E14.50906
G1 X76.081 Y77.429 E14.54106
G1 X76.642 Y76.758 E14.58458
M204 S5000
G0 F2400 X76.948 Y77.014
M204 S200
G1 F1200 X77.291 Y76.666 E14.6089
G1 X77.751 Y76.34 E14.63696
G1 X78.503 Y75.907 E14.68014
G1 X78.945 Y75.699 E14.70445
G1 X79.214 Y75.612 E14.71852
G1 X79.639 Y75.497 E14.74043
G1 X80.12 Y75.408 E14.76478
G1 X80.421 Y75.393 E14.77977
G1 X104.588 Y75.396 E15.98246
G1 X105.076 Y75.436 E16.00682
G1 X105.611 Y75.576 E16.03434
G1 X106.419 Y75.87 E16.07713
G1 X106.864 Y76.075 E16.10152
G1 X107.317 Y76.388 E16.12892
G1 X107.987 Y76.949 E16.17241
G1 X108.335 Y77.293 E16.19676
G1 X108.66 Y77.751 E16.22471
G1 X109.093 Y78.503 E16.26789
G1 X109.301 Y78.945 E16.2922
G1 X109.389 Y79.217 E16.30643
G1 X109.503 Y79.64 E16.32823
G1 X109.591 Y80.121 E16.35256
G1 X109.606 Y80.397 E16.36632
G1 X109.631 Y83.823 E16.53682
G1 X114.421 Y86.617 E16.81279
G1 X114.939 Y86.999 E16.84482
G1 X115.777 Y87.77 E16.90148
G1 X116.109 Y88.13 E16.92586
G1 X116.319 Y88.435 E16.94428
G1 X116.906 Y89.415 E17.00113
G1 X117.122 Y89.854 E17.02548
G1 X117.235 Y90.202 E17.04369
G1 X117.523 Y91.313 E17.10081
G1 X117.607 Y91.795 E17.12516
G1 X117.619 Y92.067 E17.13871
G1 X117.618 Y92.943 E17.1823
G1 X117.569 Y93.479 E17.20909
G1 X117.467 Y94.036 E17.23727
G1 X117.324 Y94.552 E17.26391
G1 X117.016 Y95.37 E17.30741
G1 X116.807 Y95.812 E17.33174
G1 X116.662 Y96.038 E17.3451
G1 X116.01 Y96.964 E17.40146
G1 X115.697 Y97.34 E17.42581
G1 X115.421 Y97.587 E17.44424
G1 X114.513 Y98.306 E17.50188
G1 X114.16 Y98.547 E17.52315
G1 X109.627 Y101.183 E17.78411
G1 X109.593 Y104.64 E17.95616
G1 X109.59 Y104.64 E17.95631
G1 X109.593 Y104.804 E17.96447
G1 X109.521 Y105.288 E17.98882
G1 X109.414 Y105.647 E18.00746
G1 X109.124 Y106.433 E18.04916
G1 X108.918 Y106.876 E18.07347
G1 X108.611 Y107.318 E18.10025
G1 X108.051 Y107.987 E18.14367
G1 X107.708 Y108.335 E18.16799
G1 X107.249 Y108.66 E18.19597
G1 X106.497 Y109.093 E18.23916
G1 X106.055 Y109.301 E18.26347
G1 X105.786 Y109.388 E18.27754
G1 X105.361 Y109.503 E18.29945
G1 X104.88 Y109.592 E18.32379
G1 X104.581 Y109.607 E18.33869
G1 X80.573 Y109.626 E19.53346
G1 X80.086 Y109.586 E19.55778
G1 X79.758 Y109.514 E19.57449
G1 X78.971 Y109.292 E19.61518
G1 X78.513 Y109.121 E19.63951
G1 X78.062 Y108.859 E19.66547
G1 X77.358 Y108.364 E19.7083
G1 X76.983 Y108.051 E19.73261
G1 X76.628 Y107.632 E19.75994
G1 X76.132 Y106.923 E19.803
G1 X75.885 Y106.501 E19.82733
G1 X75.702 Y106.016 E19.85313
G1 X75.488 Y105.254 E19.89252
G1 X75.395 Y104.774 E19.91685
G1 X75.377 Y104.457 E19.93265
G1 X75.364 Y101.174 E20.09603
G1 X70.578 Y98.382 E20.37177
G1 X70.059 Y97.999 E20.40387
G1 X69.22 Y97.227 E20.46061
G1 X68.889 Y96.868 E20.48491
G1 X68.675 Y96.556 E20.50374
G1 X68.085 Y95.565 E20.56114
G1 X67.87 Y95.126 E20.58546
G1 X67.758 Y94.778 E20.60366
G1 X67.475 Y93.676 E20.66028
G1 X67.393 Y93.195 E20.68456
G1 X67.381 Y92.929 E20.69781
G1 X67.382 Y92.054 E20.74136
G1 X67.431 Y91.516 E20.76824
G1 X67.534 Y90.956 E20.79658
G1 X67.678 Y90.44 E20.82324
G1 X67.984 Y89.629 E20.86638
G1 X68.193 Y89.188 E20.89066
G1 X68.337 Y88.962 E20.904
G1 X68.99 Y88.035 E20.96043
G1 X69.303 Y87.66 E20.98474
G1 X69.579 Y87.413 E21.00317
G1 X70.487 Y86.694 E21.06081
G1 X70.84 Y86.453 E21.08208
G1 X75.373 Y83.817 E21.34303
G1 X75.407 Y80.36 E21.51508
G1 X75.41 Y80.36 E21.51523
G1 X75.407 Y80.196 E21.52339
G1 X75.479 Y79.712 E21.54774
G1 X75.586 Y79.354 E21.56634
G1 X75.875 Y78.57 E21.60792
G1 X76.081 Y78.126 E21.63228
G1 X76.387 Y77.685 E21.65899
G1 X76.948 Y77.014 E21.70252
M204 S5000
G0 F2400 X77.254 Y77.27
M204 S200
G1 F1200 X77.575 Y76.948 E21.72515
G1 X77.95 Y76.686 E21.74791
G1 X78.702 Y76.253 E21.7911
G1 X79.318 Y75.997 E21.82429
G1 X79.743 Y75.882 E21.8462
G1 X80.192 Y75.802 E21.8689
G1 X80.421 Y75.792 E21.88031
G1 X104.588 Y75.795 E23.08299
G1 X105.042 Y75.835 E23.10567
G1 X105.475 Y75.951 E23.12798
G1 X106.283 Y76.245 E23.17077
G1 X106.695 Y76.438 E23.19341
G1 X107.061 Y76.694 E23.21564
G1 X107.731 Y77.255 E23.25913
G1 X108.053 Y77.577 E23.28179
G1 X108.314 Y77.95 E23.30444
G1 X108.747 Y78.702 E23.34763
G1 X109.004 Y79.321 E23.38098
G1 X109.118 Y79.744 E23.40278
G1 X109.207 Y80.4 E23.43573
G1 X109.233 Y84.052 E23.61748
G1 X114.22 Y86.961 E23.90479
G1 X114.669 Y87.293 E23.93258
G1 X115.507 Y88.064 E23.98925
G1 X115.814 Y88.4 E24.0119
G1 X115.976 Y88.64 E24.02631
G1 X116.563 Y89.62 E24.08316
G1 X116.762 Y90.03 E24.10584
G1 X116.849 Y90.302 E24.12005
G1 X117.137 Y91.413 E24.17717
G1 X117.22 Y92.067 E24.20998
G1 X117.219 Y92.943 E24.25357
G1 X117.177 Y93.407 E24.27676
G1 X117.075 Y93.964 E24.30494
G1 X116.951 Y94.411 E24.32802
G1 X116.643 Y95.229 E24.37152
G1 X116.336 Y95.808 E24.40414
G1 X115.684 Y96.734 E24.4605
G1 X115.39 Y97.082 E24.48317
G1 X115.173 Y97.275 E24.49762
G1 X114.265 Y97.994 E24.55526
G1 X113.959 Y98.202 E24.57367
G1 X109.23 Y100.952 E24.84591
G1 X109.195 Y104.569 E25.02592
G1 X109.2 Y104.638 E25.02937
G1 X109.155 Y105.09 E25.05197
G1 X109.04 Y105.509 E25.07359
G1 X108.75 Y106.295 E25.11529
G1 X108.555 Y106.706 E25.13793
G1 X108.305 Y107.062 E25.15957
G1 X107.745 Y107.731 E25.20299
G1 X107.423 Y108.053 E25.22565
G1 X107.05 Y108.314 E25.24831
G1 X106.298 Y108.747 E25.29149
G1 X105.682 Y109.003 E25.32469
G1 X105.257 Y109.118 E25.3466
G1 X104.581 Y109.208 E25.38054
G1 X80.573 Y109.227 E26.57531
G1 X80.12 Y109.187 E26.59794
G1 X79.867 Y109.13 E26.61085
G1 X79.08 Y108.908 E26.65154
G1 X78.654 Y108.746 E26.67422
G1 X78.292 Y108.533 E26.69512
G1 X77.588 Y108.038 E26.73795
G1 X77.24 Y107.745 E26.76059
G1 X76.954 Y107.403 E26.78278
G1 X76.458 Y106.694 E26.82584
G1 X76.231 Y106.3 E26.84847
G1 X76.087 Y105.908 E26.86925
G1 X75.873 Y105.146 E26.90864
G1 X75.788 Y104.699 E26.93128
G1 X75.776 Y104.455 E26.94344
G1 X75.762 Y100.945 E27.11812
G1 X70.779 Y98.038 E27.40521
G1 X70.33 Y97.706 E27.433
G1 X69.491 Y96.934 E27.48974
G1 X69.184 Y96.598 E27.51239
G1 X69.018 Y96.352 E27.52716
G1 X68.428 Y95.361 E27.58456
G1 X68.23 Y94.951 E27.60722
G1 X68.145 Y94.679 E27.6214
G1 X67.862 Y93.577 E27.67802
G1 X67.78 Y92.929 E27.71053
G1 X67.781 Y92.054 E27.75407
G1 X67.824 Y91.588 E27.77736
G1 X67.927 Y91.028 E27.8057
G1 X68.051 Y90.581 E27.82878
G1 X68.357 Y89.77 E27.87192
G1 X68.663 Y89.192 E27.90446
G1 X69.316 Y88.265 E27.96089
G1 X69.61 Y87.918 E27.98353
G1 X69.827 Y87.725 E27.99798
G1 X70.735 Y87.006 E28.05562
G1 X71.041 Y86.798 E28.07403
G1 X75.77 Y84.048 E28.34627
G1 X75.805 Y80.431 E28.52628
G1 X75.8 Y80.362 E28.52972
G1 X75.845 Y79.91 E28.55233
G1 X75.96 Y79.492 E28.5739
G1 X76.249 Y78.708 E28.61549
G1 X76.443 Y78.296 E28.63815
G1 X76.693 Y77.941 E28.65976
G1 X77.254 Y77.27 E28.70328
M204 S5000
G0 F2400 X76.207 Y80.368
M204 S200
G1 F1200 X76.223 Y80.065 E28.71838
G1 X76.334 Y79.63 E28.74073
G1 X76.623 Y78.846 E28.78231
G1 X76.805 Y78.469 E28.80314
G1 X76.999 Y78.197 E28.81977
G1 X77.56 Y77.526 E28.86329
G1 X77.858 Y77.232 E28.88413
G1 X78.149 Y77.032 E28.9017
G1 X78.901 Y76.599 E28.94488
G1 X79.423 Y76.382 E28.97302
G1 X79.848 Y76.267 E28.99493
G1 X80.421 Y76.191 E29.02369
G1 X104.588 Y76.194 E30.22637
G1 X105.005 Y76.234 E30.24722
G1 X105.339 Y76.326 E30.26446
G1 X106.147 Y76.62 E30.30725
G1 X106.524 Y76.8 E30.32804
G1 X106.805 Y77 E30.34521
G1 X107.475 Y77.561 E30.38869
G1 X107.769 Y77.859 E30.40953
G1 X107.968 Y78.149 E30.42703
G1 X108.401 Y78.901 E30.47021
G1 X108.618 Y79.425 E30.49844
G1 X108.732 Y79.848 E30.52024
G1 X108.808 Y80.403 E30.54812
G1 X108.836 Y84.283 E30.74121
G1 X114.019 Y87.306 E31.03981
G1 X114.399 Y87.587 E31.06333
G1 X115.237 Y88.358 E31.12
G1 X115.517 Y88.669 E31.14083
G1 X115.634 Y88.845 E31.15135
G1 X116.221 Y89.825 E31.2082
G1 X116.463 Y90.402 E31.23933
G1 X116.751 Y91.513 E31.29645
G1 X116.821 Y92.067 E31.32424
G1 X116.82 Y92.943 E31.36783
G1 X116.784 Y93.335 E31.38743
G1 X116.682 Y93.892 E31.41561
G1 X116.577 Y94.27 E31.43513
G1 X116.269 Y95.088 E31.47863
G1 X116.01 Y95.579 E31.50625
G1 X115.358 Y96.505 E31.56261
G1 X115.085 Y96.822 E31.58343
G1 X114.926 Y96.962 E31.59398
G1 X114.018 Y97.681 E31.65161
G1 X113.758 Y97.857 E31.66724
G1 X108.833 Y100.721 E31.95076
G1 X108.796 Y104.498 E32.13874
G1 X108.799 Y104.517 E32.13969
G1 X108.795 Y104.584 E32.14303
G1 X108.795 Y104.632 E32.14542
G1 X108.793 Y104.632 E32.14552
G1 X108.777 Y104.935 E32.16062
G1 X108.665 Y105.371 E32.18302
G1 X108.375 Y106.157 E32.22472
G1 X108.194 Y106.534 E32.24553
G1 X107.999 Y106.806 E32.26218
G1 X107.439 Y107.475 E32.3056
G1 X107.141 Y107.769 E32.32643
G1 X106.851 Y107.968 E32.34394
G1 X106.099 Y108.401 E32.38712
G1 X105.577 Y108.618 E32.41525
G1 X105.152 Y108.733 E32.43717
G1 X104.581 Y108.809 E32.46583
G1 X80.573 Y108.828 E33.6606
G1 X79.975 Y108.746 E33.69064
G1 X79.188 Y108.524 E33.73133
G1 X78.798 Y108.372 E33.75216
G1 X78.521 Y108.207 E33.76821
G1 X77.817 Y107.712 E33.81104
G1 X77.5 Y107.439 E33.83186
G1 X77.281 Y107.174 E33.84897
G1 X76.785 Y106.465 E33.89203
G1 X76.579 Y106.101 E33.91284
