;FLAVOR:RepRap
;TIME:7064
;Filament used: 5.32654m
;Layer height: 0.15
;Generated with Cura_SteamEngine 2.6.2
M190 S60
M104 S220
M109 S220
G21 ;metric values
G90 ;absolute positioning
M82 ;set extruder to absolute mode
M107 ;start with the fan off
G92 E0 ;zero the extruded length
G1 F200 E3 ;extrude 3mm of feed stock
G92 E0 ;zero the extruded length again
G1 F9000
M117 Printing...
;LAYER_COUNT:71
;LAYER:0
M107
M204 S5000
G0 F2400 X60.283 Y58.336 Z0.3
M204 S200
;TYPE:SKIRT
G1 F1200 X60.705 Y57.982 E0.02741
G1 X60.995 Y57.792 E0.04467
G1 X61.088 Y57.737 E0.05004
G1 X61.581 Y57.492 E0.07744
G1 X62.104 Y57.321 E0.10482
G1 X62.646 Y57.227 E0.1322
G1 X63.022 Y57.209 E0.15093
G1 X83.87 Y57.229 E1.18844
G1 X84.418 Y57.269 E1.21579
G1 X84.956 Y57.389 E1.24322
G1 X85.47 Y57.585 E1.27059
G1 X86.052 Y57.923 E1.30409
G1 X87.037 Y58.618 E1.36408
G1 X87.96 Y59.139 E1.41683
G1 X88.909 Y59.552 E1.46833
G1 X89.859 Y59.854 E1.51794
G1 X91.502 Y60.152 E1.60104
G1 X92.5 Y60.204 E1.65077
G1 X93.546 Y60.15 E1.7029
G1 X94.583 Y59.989 E1.75512
G1 X95.588 Y59.725 E1.80683
G1 X96.58 Y59.353 E1.85956
G1 X97.477 Y58.906 E1.90943
G1 X99.112 Y57.832 E2.00678
G1 X99.593 Y57.564 E2.03419
G1 X100.108 Y57.368 E2.06161
G1 X100.645 Y57.249 E2.08898
G1 X101.194 Y57.209 E2.11637
G1 X121.982 Y57.209 E3.1509
G1 X122.531 Y57.249 E3.17829
G1 X123.068 Y57.368 E3.20567
G1 X123.583 Y57.563 E3.23307
G1 X123.912 Y57.737 E3.25159
G1 X124.005 Y57.792 E3.25697
G1 X124.457 Y58.106 E3.28436
G1 X124.859 Y58.482 E3.31175
G1 X125.202 Y58.912 E3.33912
G1 X125.385 Y59.207 E3.3564
G1 X129.526 Y66.624 E3.77914
G1 X129.633 Y66.831 E3.79074
G1 X130.69 Y69.032 E3.91225
G1 X130.79 Y69.259 E3.92459
G1 X131.695 Y71.51 E4.04533
G1 X131.777 Y71.733 E4.05715
G1 X132.541 Y74.042 E4.17819
G1 X132.61 Y74.275 E4.19028
G1 X133.225 Y76.63 E4.31141
G1 X133.29 Y76.927 E4.32654
G1 X133.927 Y80.524 E4.50833
G1 X133.968 Y80.825 E4.52345
G1 X134.199 Y83.247 E4.64453
G1 X134.214 Y83.49 E4.65664
G1 X134.289 Y85.924 E4.77783
G1 X134.289 Y86.167 E4.78992
G1 X134.208 Y88.602 E4.91117
G1 X134.185 Y88.915 E4.92679
G1 X133.76 Y92.564 E5.10961
G1 X133.753 Y92.563 E5.10996
G1 X133.711 Y92.914 E5.12756
G1 X132.957 Y96.457 E5.30782
G1 X132.882 Y96.753 E5.32302
G1 X132.172 Y99.131 E5.44652
G1 X132.094 Y99.363 E5.4587
G1 X131.248 Y101.646 E5.57987
G1 X131.156 Y101.871 E5.59197
G1 X130.166 Y104.095 E5.71311
G1 X130.06 Y104.313 E5.72518
G1 X128.929 Y106.47 E5.84638
G1 X128.778 Y106.733 E5.86148
G1 X126.828 Y109.824 E6.04335
G1 X126.657 Y110.073 E6.05838
G1 X125.202 Y112.017 E6.17923
G1 X125.05 Y112.207 E6.19133
G1 X123.469 Y114.058 E6.31248
G1 X123.303 Y114.24 E6.32474
G1 X121.6 Y115.99 E6.44626
G1 X121.428 Y116.155 E6.45812
G1 X119.629 Y117.785 E6.57893
G1 X119.443 Y117.944 E6.59111
G1 X117.536 Y119.46 E6.71234
G1 X117.339 Y119.606 E6.72455
G1 X115.34 Y120.994 E6.84566
G1 X115.086 Y121.156 E6.86065
G1 X111.934 Y122.992 E7.04218
G1 X111.667 Y123.133 E7.05721
G1 X109.47 Y124.188 E7.1785
G1 X109.245 Y124.288 E7.19075
G1 X106.99 Y125.196 E7.31173
G1 X106.765 Y125.278 E7.32364
G1 X104.456 Y126.042 E7.44468
G1 X104.223 Y126.111 E7.45677
G1 X101.868 Y126.726 E7.5779
G1 X101.632 Y126.78 E7.58995
G1 X99.234 Y127.245 E7.71151
G1 X98.99 Y127.284 E7.72381
G1 X96.574 Y127.591 E7.84501
G1 X96.334 Y127.614 E7.857
G1 X93.903 Y127.767 E7.97822
G1 X93.657 Y127.774 E7.99047
G1 X91.229 Y127.769 E8.1113
G1 X90.991 Y127.761 E8.12315
G1 X88.565 Y127.603 E8.24414
G1 X88.306 Y127.577 E8.25709
G1 X85.859 Y127.248 E8.37997
G1 X85.86 Y127.242 E8.38027
G1 X85.574 Y127.208 E8.3946
G1 X82.038 Y126.455 E8.57452
G1 X81.745 Y126.38 E8.58957
G1 X79.406 Y125.683 E8.71103
G1 X79.176 Y125.606 E8.7231
G1 X76.892 Y124.763 E8.84426
G1 X76.668 Y124.672 E8.85629
G1 X74.443 Y123.685 E8.97742
G1 X74.223 Y123.579 E8.98958
G1 X72.066 Y122.451 E9.11071
G1 X71.856 Y122.333 E9.1227
G1 X69.778 Y121.072 E9.24367
G1 X69.57 Y120.936 E9.25603
G1 X67.523 Y119.502 E9.38041
G1 X67.331 Y119.358 E9.39236
G1 X65.512 Y117.904 E9.50825
G1 X65.334 Y117.753 E9.51986
G1 X63.534 Y116.123 E9.64071
G1 X63.357 Y115.951 E9.65299
G1 X61.659 Y114.199 E9.77441
G1 X61.496 Y114.02 E9.78646
G1 X59.916 Y112.166 E9.90768
G1 X59.728 Y111.927 E9.92282
G1 X57.593 Y108.971 E10.10428
G1 X57.425 Y108.717 E10.11944
G1 X56.16 Y106.632 E10.2408
G1 X56.041 Y106.422 E10.25281
G1 X54.917 Y104.271 E10.37359
G1 X54.812 Y104.052 E10.38568
G1 X53.825 Y101.827 E10.50681
G1 X53.733 Y101.602 E10.51891
G1 X52.888 Y99.312 E10.64038
G1 X52.811 Y99.081 E10.6525
G1 X52.117 Y96.749 E10.77358
G1 X52.043 Y96.457 E10.78858
G1 X51.289 Y92.914 E10.96884
G1 X51.231 Y92.555 E10.98694
G1 X50.814 Y88.905 E11.16977
G1 X50.791 Y88.6 E11.18499
G1 X50.711 Y86.169 E11.30603
G1 X50.711 Y85.927 E11.31808
G1 X50.786 Y83.488 E11.43951
G1 X50.801 Y83.244 E11.45168
G1 X51.032 Y80.827 E11.57251
G1 X51.073 Y80.527 E11.58758
G1 X51.71 Y76.927 E11.76952
G1 X51.775 Y76.631 E11.7846
G1 X52.388 Y74.282 E11.90541
G1 X52.457 Y74.049 E11.9175
G1 X53.221 Y71.738 E12.03863
G1 X53.303 Y71.513 E12.05055
G1 X54.21 Y69.258 E12.17151
G1 X54.31 Y69.031 E12.18385
G1 X55.366 Y66.833 E12.30521
G1 X55.473 Y66.627 E12.31676
G1 X59.615 Y59.207 E12.73966
G1 X59.917 Y58.747 E12.76704
G1 X60.283 Y58.336 E12.79443
M204 S5000
G0 F2400 X60.251 Y58.968
M204 S200
G1 F1200 X60.602 Y58.583 E12.82036
G1 X61.198 Y58.135 E12.85746
G1 X61.291 Y58.08 E12.86284
G1 X61.758 Y57.851 E12.88872
G1 X62.255 Y57.695 E12.91465
G1 X63.021 Y57.608 E12.95301
G1 X83.869 Y57.628 E13.99052
G1 X84.388 Y57.668 E14.01643
G1 X84.895 Y57.788 E14.04236
G1 X85.377 Y57.983 E14.06823
G1 X85.822 Y58.249 E14.09403
G1 X86.82 Y58.953 E14.15481
G1 X87.787 Y59.499 E14.21008
G1 X88.767 Y59.925 E14.26326
G1 X89.767 Y60.243 E14.31548
G1 X91.457 Y60.55 E14.40096
G1 X92.5 Y60.604 E14.45293
G1 X93.579 Y60.548 E14.5067
G1 X94.667 Y60.379 E14.56149
G1 X95.707 Y60.107 E14.61499
G1 X96.741 Y59.718 E14.66997
G1 X97.678 Y59.252 E14.72205
G1 X99.332 Y58.165 E14.82055
G1 X99.787 Y57.913 E14.84643
G1 X100.276 Y57.735 E14.87233
G1 X100.787 Y57.633 E14.89826
G1 X101.194 Y57.608 E14.91855
G1 X121.982 Y57.608 E15.95308
G1 X122.501 Y57.648 E15.97898
G1 X123.008 Y57.767 E16.0049
G1 X123.709 Y58.08 E16.0431
G1 X123.802 Y58.135 E16.04848
G1 X124.228 Y58.434 E16.07438
G1 X124.604 Y58.794 E16.10029
G1 X125.037 Y59.401 E16.13739
G1 X129.178 Y66.818 E16.56013
G1 X129.274 Y67.004 E16.57055
G1 X130.331 Y69.205 E16.69206
G1 X130.42 Y69.408 E16.70309
G1 X131.325 Y71.659 E16.82383
G1 X131.398 Y71.858 E16.83438
G1 X132.162 Y74.167 E16.95541
G1 X132.224 Y74.376 E16.96626
G1 X132.839 Y76.731 E17.08739
G1 X132.897 Y76.997 E17.10094
G1 X133.534 Y80.594 E17.28273
G1 X133.571 Y80.863 E17.29624
G1 X133.802 Y83.285 E17.41732
G1 X133.815 Y83.503 E17.42819
G1 X133.89 Y85.937 E17.54938
G1 X133.89 Y86.154 E17.56018
G1 X133.809 Y88.589 E17.68142
G1 X133.788 Y88.868 E17.69535
G1 X133.376 Y92.403 E17.87246
G1 X133.371 Y92.527 E17.87863
G1 X133.321 Y92.831 E17.89396
G1 X132.567 Y96.374 E18.07423
G1 X132.499 Y96.638 E18.0878
G1 X131.789 Y99.016 E18.2113
G1 X131.72 Y99.225 E18.22226
G1 X130.874 Y101.508 E18.34342
G1 X130.792 Y101.708 E18.35418
G1 X129.802 Y103.932 E18.47533
G1 X129.707 Y104.128 E18.48617
G1 X128.576 Y106.285 E18.60737
G1 X128.441 Y106.52 E18.62086
G1 X126.491 Y109.611 E18.80274
G1 X126.338 Y109.834 E18.8162
G1 X124.883 Y111.778 E18.93704
G1 X124.746 Y111.948 E18.9479
G1 X123.165 Y113.799 E19.06905
G1 X123.017 Y113.962 E19.08
G1 X121.314 Y115.712 E19.20152
G1 X121.161 Y115.86 E19.21212
G1 X119.362 Y117.49 E19.33293
G1 X119.195 Y117.631 E19.3438
G1 X117.288 Y119.147 E19.46504
G1 X117.112 Y119.278 E19.47596
G1 X115.113 Y120.666 E19.59707
G1 X114.885 Y120.811 E19.61052
G1 X111.733 Y122.647 E19.79205
G1 X111.494 Y122.774 E19.80552
G1 X109.297 Y123.829 E19.9268
G1 X109.096 Y123.917 E19.93772
G1 X106.841 Y124.825 E20.0587
G1 X106.64 Y124.899 E20.06936
G1 X104.331 Y125.663 E20.1904
G1 X104.122 Y125.725 E20.20124
G1 X101.767 Y126.34 E20.32237
G1 X101.556 Y126.388 E20.33314
G1 X99.158 Y126.853 E20.4547
G1 X98.94 Y126.888 E20.46569
G1 X96.524 Y127.195 E20.58689
G1 X96.309 Y127.215 E20.59764
G1 X93.878 Y127.368 E20.71886
G1 X93.658 Y127.375 E20.72981
G1 X91.23 Y127.37 E20.85064
G1 X91.017 Y127.363 E20.86125
G1 X88.591 Y127.205 E20.98223
G1 X88.359 Y127.182 E20.99383
G1 X86.052 Y126.872 E21.10968
G1 X85.962 Y126.868 E21.11416
G1 X85.658 Y126.818 E21.12949
G1 X82.122 Y126.065 E21.30941
G1 X81.859 Y125.998 E21.32291
G1 X79.52 Y125.301 E21.44437
G1 X79.314 Y125.232 E21.45519
G1 X77.03 Y124.389 E21.57634
G1 X76.83 Y124.308 E21.58708
G1 X74.605 Y123.321 E21.70822
G1 X74.408 Y123.226 E21.7191
G1 X72.251 Y122.098 E21.84024
G1 X72.063 Y121.992 E21.85098
G1 X69.985 Y120.731 E21.97194
G1 X69.799 Y120.609 E21.98301
G1 X67.752 Y119.175 E22.10739
G1 X67.58 Y119.047 E22.11806
G1 X65.761 Y117.593 E22.23395
G1 X65.602 Y117.457 E22.24436
G1 X63.802 Y115.827 E22.36521
G1 X63.643 Y115.674 E22.37619
G1 X61.945 Y113.922 E22.49761
G1 X61.799 Y113.761 E22.50843
G1 X60.219 Y111.907 E22.62965
G1 X60.051 Y111.693 E22.64319
G1 X57.916 Y108.737 E22.82465
G1 X57.766 Y108.51 E22.8382
G1 X56.501 Y106.425 E22.95956
G1 X56.395 Y106.237 E22.9703
G1 X55.271 Y104.086 E23.09108
G1 X55.176 Y103.89 E23.10192
G1 X54.189 Y101.665 E23.22305
G1 X54.108 Y101.464 E23.23384
G1 X53.263 Y99.174 E23.35531
G1 X53.194 Y98.968 E23.36612
G1 X52.5 Y96.636 E23.48721
G1 X52.433 Y96.374 E23.50066
G1 X51.679 Y92.831 E23.68093
G1 X51.627 Y92.51 E23.69711
G1 X51.21 Y88.86 E23.87994
G1 X51.19 Y88.587 E23.89356
G1 X51.11 Y86.156 E24.01461
G1 X51.11 Y85.94 E24.02536
G1 X51.185 Y83.501 E24.14679
G1 X51.198 Y83.282 E24.15771
G1 X51.429 Y80.865 E24.27854
G1 X51.466 Y80.597 E24.29201
G1 X52.103 Y76.997 E24.47394
G1 X52.161 Y76.732 E24.48744
G1 X52.774 Y74.383 E24.60826
G1 X52.835 Y74.174 E24.61909
G1 X53.599 Y71.863 E24.74022
G1 X53.673 Y71.662 E24.75088
G1 X54.58 Y69.407 E24.87184
G1 X54.67 Y69.204 E24.88289
G1 X55.726 Y67.006 E25.00425
G1 X55.821 Y66.822 E25.01455
G1 X59.963 Y59.402 E25.43745
G1 X60.251 Y58.968 E25.46337
M204 S5000
G0 F2400 X60.312 Y59.596
M204 S200
G1 F1200 X60.584 Y59.19 E25.48769
G1 X60.919 Y58.834 E25.51202
G1 X61.401 Y58.479 E25.54181
G1 X61.494 Y58.424 E25.54718
G1 X61.934 Y58.21 E25.57153
G1 X62.403 Y58.071 E25.59588
G1 X63.021 Y58.007 E25.6268
G1 X83.869 Y58.027 E26.66431
G1 X84.356 Y58.067 E26.68862
G1 X84.83 Y58.187 E26.71296
G1 X85.279 Y58.381 E26.7373
G1 X85.592 Y58.575 E26.75562
G1 X86.61 Y59.293 E26.81762
G1 X87.598 Y59.851 E26.87409
G1 X88.632 Y60.301 E26.93021
G1 X89.667 Y60.63 E26.98425
G1 X91.413 Y60.947 E27.07256
G1 X92.5 Y61.003 E27.12673
G1 X93.623 Y60.945 E27.18269
G1 X94.752 Y60.77 E27.23955
G1 X95.829 Y60.487 E27.29497
G1 X96.897 Y60.086 E27.35174
G1 X97.881 Y59.596 E27.40644
G1 X99.551 Y58.499 E27.50588
G1 X99.98 Y58.264 E27.53022
G1 X100.441 Y58.103 E27.55452
G1 X100.923 Y58.019 E27.57887
G1 X101.194 Y58.007 E27.59237
G1 X121.982 Y58.007 E28.62689
G1 X122.469 Y58.047 E28.65121
G1 X122.944 Y58.166 E28.67558
G1 X123.506 Y58.424 E28.70636
G1 X123.599 Y58.479 E28.71173
G1 X123.998 Y58.761 E28.73605
G1 X124.345 Y59.105 E28.76036
G1 X124.688 Y59.596 E28.79017
G1 X128.829 Y67.013 E29.21291
G1 X128.914 Y67.176 E29.22206
G1 X129.971 Y69.377 E29.34357
G1 X130.05 Y69.557 E29.35335
G1 X130.955 Y71.808 E29.47409
G1 X131.019 Y71.984 E29.48341
G1 X131.783 Y74.293 E29.60445
G1 X131.838 Y74.477 E29.614
G1 X132.453 Y76.832 E29.73513
G1 X132.504 Y77.066 E29.74705
G1 X133.141 Y80.663 E29.92884
G1 X133.173 Y80.901 E29.94079
G1 X133.404 Y83.323 E30.06187
G1 X133.417 Y83.515 E30.07145
G1 X133.492 Y85.949 E30.19263
G1 X133.491 Y86.141 E30.20219
G1 X133.41 Y88.576 E30.32343
G1 X133.392 Y88.822 E30.33571
G1 X132.989 Y92.28 E30.50896
G1 X132.99 Y92.318 E30.51086
G1 X132.93 Y92.748 E30.53246
G1 X132.176 Y96.291 E30.71273
G1 X132.117 Y96.524 E30.72469
G1 X131.407 Y98.902 E30.8482
G1 X131.346 Y99.086 E30.85784
G1 X130.5 Y101.369 E30.97901
G1 X130.427 Y101.546 E30.98853
G1 X129.437 Y103.77 E31.10968
G1 X129.354 Y103.943 E31.11923
G1 X128.223 Y106.1 E31.24044
G1 X128.103 Y106.307 E31.25235
G1 X126.153 Y109.398 E31.43422
G1 X126.018 Y109.594 E31.44607
G1 X124.563 Y111.538 E31.56691
G1 X124.443 Y111.689 E31.57651
G1 X122.862 Y113.54 E31.69765
G1 X122.731 Y113.683 E31.7073
G1 X121.028 Y115.433 E31.82882
G1 X120.893 Y115.564 E31.83818
G1 X119.094 Y117.194 E31.95899
G1 X118.947 Y117.319 E31.9686
G1 X117.04 Y118.835 E32.08983
G1 X116.884 Y118.95 E32.09948
G1 X114.885 Y120.338 E32.22059
G1 X114.684 Y120.466 E32.23245
G1 X111.532 Y122.302 E32.41398
G1 X111.322 Y122.414 E32.42582
G1 X109.125 Y123.469 E32.54711
G1 X108.947 Y123.547 E32.55678
G1 X106.692 Y124.455 E32.67776
G1 X106.514 Y124.52 E32.68719
G1 X104.205 Y125.284 E32.80823
G1 X104.021 Y125.339 E32.81778
G1 X101.666 Y125.954 E32.93891
G1 X101.48 Y125.996 E32.9484
G1 X99.082 Y126.461 E33.06996
G1 X98.889 Y126.492 E33.07969
G1 X96.473 Y126.799 E33.20089
G1 X96.284 Y126.817 E33.21034
G1 X93.853 Y126.97 E33.33156
G1 X93.659 Y126.976 E33.34122
G1 X91.231 Y126.971 E33.46205
G1 X91.042 Y126.965 E33.47146
G1 X88.616 Y126.807 E33.59244
G1 X88.412 Y126.786 E33.60265
G1 X86.186 Y126.487 E33.71442
G1 X86.171 Y126.487 E33.71517
G1 X85.741 Y126.427 E33.73677
G1 X82.205 Y125.674 E33.91669
G1 X81.973 Y125.615 E33.9286
G1 X79.634 Y124.918 E34.05006
G1 X79.453 Y124.858 E34.05955
G1 X77.169 Y124.015 E34.18071
G1 X76.991 Y123.943 E34.19027
G1 X74.766 Y122.956 E34.3114
G1 X74.593 Y122.872 E34.32097
G1 X72.436 Y121.744 E34.44211
G1 X72.27 Y121.651 E34.45158
G1 X70.192 Y120.39 E34.57254
G1 X70.028 Y120.282 E34.58231
G1 X67.981 Y118.848 E34.70669
G1 X67.829 Y118.735 E34.71612
G1 X66.01 Y117.281 E34.83201
G1 X65.87 Y117.162 E34.84115
G1 X64.07 Y115.532 E34.962
G1 X63.93 Y115.396 E34.97171
G1 X62.232 Y113.644 E35.09313
G1 X62.103 Y113.502 E35.10268
G1 X60.523 Y111.648 E35.22391
G1 X60.375 Y111.459 E35.23585
G1 X58.24 Y108.503 E35.41732
G1 X58.107 Y108.304 E35.42923
G1 X56.842 Y106.219 E35.55059
G1 X56.748 Y106.052 E35.56013
G1 X55.624 Y103.901 E35.68091
G1 X55.541 Y103.729 E35.69041
G1 X54.554 Y101.504 E35.81155
G1 X54.482 Y101.326 E35.8211
G1 X53.637 Y99.036 E35.94258
G1 X53.576 Y98.854 E35.95213
G1 X52.882 Y96.522 E36.07321
G1 X52.824 Y96.291 E36.08506
G1 X52.07 Y92.748 E36.26533
G1 X52.023 Y92.465 E36.27961
G1 X51.606 Y88.815 E36.46243
G1 X51.589 Y88.573 E36.47451
G1 X51.509 Y86.142 E36.59555
G1 X51.508 Y85.952 E36.60501
G1 X51.583 Y83.513 E36.72644
G1 X51.596 Y83.32 E36.73607
G1 X51.827 Y80.903 E36.8569
G1 X51.859 Y80.667 E36.86875
G1 X52.496 Y77.067 E37.05069
G1 X52.547 Y76.832 E37.06266
G1 X53.16 Y74.483 E37.18347
G1 X53.214 Y74.3 E37.19297
G1 X53.978 Y71.989 E37.3141
G1 X54.043 Y71.811 E37.32353
G1 X54.95 Y69.556 E37.44449
G1 X55.029 Y69.377 E37.45422
G1 X56.085 Y67.179 E37.57558
G1 X56.17 Y67.016 E37.58473
G1 X60.312 Y59.596 E38.00762
M204 S5000
G0 F2400 X60.66 Y59.791
M204 S200
G1 F1200 X60.916 Y59.414 E38.0303
G1 X61.234 Y59.088 E38.05296
G1 X61.605 Y58.822 E38.07568
G1 X61.698 Y58.767 E38.08106
G1 X62.108 Y58.571 E38.10368
G1 X62.547 Y58.449 E38.12635
G1 X63.02 Y58.406 E38.14999
G1 X83.868 Y58.426 E39.1875
G1 X84.322 Y58.466 E39.21018
G1 X84.761 Y58.585 E39.23281
G1 X85.362 Y58.901 E39.26661
G1 X86.4 Y59.633 E39.32982
G1 X87.417 Y60.207 E39.38793
G1 X88.49 Y60.674 E39.44617
G1 X89.576 Y61.02 E39.50289
G1 X91.358 Y61.343 E39.59302
G1 X92.5 Y61.402 E39.64993
G1 X93.676 Y61.341 E39.70853
G1 X94.827 Y61.163 E39.76649
G1 X95.953 Y60.867 E39.82443
G1 X97.052 Y60.455 E39.88284
G1 X98.077 Y59.944 E39.93983
G1 X99.77 Y58.832 E40.04064
G1 X100.171 Y58.616 E40.0633
G1 X100.603 Y58.474 E40.08593
G1 X101.194 Y58.406 E40.11554
G1 X121.982 Y58.406 E41.15006
G1 X122.435 Y58.446 E41.1727
G1 X122.875 Y58.564 E41.19537
G1 X123.302 Y58.767 E41.2189
G1 X123.395 Y58.822 E41.22427
G1 X123.765 Y59.087 E41.24692
G1 X124.083 Y59.413 E41.26958
G1 X124.34 Y59.79 E41.29229
G1 X128.481 Y67.207 E41.71503
G1 X128.554 Y67.349 E41.72298
G1 X129.611 Y69.55 E41.84449
G1 X129.68 Y69.705 E41.85293
G1 X130.585 Y71.956 E41.97367
G1 X130.641 Y72.109 E41.98178
G1 X131.405 Y74.418 E42.10281
G1 X131.452 Y74.578 E42.11111
G1 X132.067 Y76.933 E42.23224
G1 X132.111 Y77.136 E42.24258
