;FLAVOR:RepRap
;TIME:13530
;Filament used: 9.51136m
;Layer height: 0.15
;Generated with Cura_SteamEngine 2.6.2
M190 S60
M104 S220
M109 S220
G21 ;metric values
G90 ;absolute positioning
M82 ;set extruder to absolute mode
M107 ;start with the fan off
G92 E0 ;zero the extruded length
G1 F200 E3 ;extrude 3mm of feed stock
G92 E0 ;zero the extruded length again
G1 F9000
M117 Printing...
;LAYER_COUNT:285
;LAYER:0
M107
M204 S5000
G0 F2400 X32.962 Y33.257 Z0.3
G0 X33.257 Y32.962
M204 S200
;TYPE:SKIRT
G1 F1200 X33.674 Y32.602 E0.02742
G1 X34.138 Y32.307 E0.05478
G1 X34.64 Y32.081 E0.08218
G1 X35.169 Y31.931 E0.10954
G1 X35.938 Y31.852 E0.14801
G1 X36.27 Y31.852 E0.16453
G1 X36.819 Y31.892 E0.19193
G1 X37.356 Y32.011 E0.2193
G1 X37.871 Y32.206 E0.2467
G1 X38.351 Y32.474 E0.27406
G1 X38.957 Y32.968 E0.31297
G1 X41.25 Y35.272 E0.47474
G1 X44.789 Y33.867 E0.66423
G1 X45.314 Y33.702 E0.69162
G1 X45.858 Y33.614 E0.71904
G1 X46.408 Y33.606 E0.74641
G1 X46.954 Y33.678 E0.77382
G1 X47.483 Y33.828 E0.80119
G1 X47.985 Y34.053 E0.82856
G1 X48.45 Y34.349 E0.85599
G1 X48.881 Y34.723 E0.88439
G1 X51.932 Y37.803 E1.10014
G1 X52.29 Y38.221 E1.12753
G1 X52.584 Y38.687 E1.15495
G1 X52.807 Y39.19 E1.18233
G1 X52.955 Y39.72 E1.20972
G1 X53.024 Y40.266 E1.23711
G1 X53.014 Y40.816 E1.26448
G1 X52.925 Y41.359 E1.29186
G1 X52.757 Y41.883 E1.31925
G1 X52.516 Y42.378 E1.34665
G1 X52.205 Y42.832 E1.37403
G1 X51.832 Y43.237 E1.40143
G1 X51.504 Y43.511 E1.4227
G1 X51.124 Y43.794 E1.44628
G1 X51.317 Y43.867 E1.45655
G1 X51.797 Y44.135 E1.48391
G1 X52.234 Y44.47 E1.51131
G1 X52.618 Y44.865 E1.53873
G1 X52.941 Y45.311 E1.56613
G1 X53.195 Y45.798 E1.59347
G1 X53.377 Y46.318 E1.62088
G1 X53.393 Y46.399 E1.62499
G1 X53.567 Y46.438 E1.63387
G1 X54.082 Y46.633 E1.66127
G1 X54.562 Y46.901 E1.68863
G1 X54.999 Y47.236 E1.71603
G1 X55.383 Y47.631 E1.74345
G1 X55.706 Y48.077 E1.77085
G1 X55.96 Y48.564 E1.79819
G1 X56.142 Y49.084 E1.8256
G1 X56.159 Y49.173 E1.83011
G1 X56.344 Y49.214 E1.83954
G1 X56.859 Y49.409 E1.86695
G1 X57.339 Y49.677 E1.89431
G1 X57.776 Y50.012 E1.92171
G1 X58.16 Y50.407 E1.94912
G1 X58.483 Y50.853 E1.97653
G1 X58.737 Y51.34 E2.00386
G1 X58.919 Y51.86 E2.03128
G1 X58.936 Y51.948 E2.03574
G1 X59.117 Y51.988 E2.04497
G1 X59.632 Y52.183 E2.07237
G1 X60.112 Y52.451 E2.09973
G1 X60.549 Y52.786 E2.12713
G1 X60.933 Y53.181 E2.15455
G1 X61.256 Y53.627 E2.18195
G1 X61.51 Y54.114 E2.20929
G1 X61.692 Y54.634 E2.2367
G1 X61.702 Y54.684 E2.23924
G1 X61.843 Y54.715 E2.24642
G1 X62.358 Y54.91 E2.27383
G1 X62.838 Y55.178 E2.30119
G1 X63.275 Y55.513 E2.32859
G1 X63.659 Y55.908 E2.35601
G1 X63.982 Y56.354 E2.38341
G1 X64.19 Y56.753 E2.4058
G1 X64.679 Y56.789 E2.4302
G1 X65.216 Y56.908 E2.45758
G1 X65.731 Y57.103 E2.48498
G1 X66.211 Y57.371 E2.51234
G1 X66.648 Y57.706 E2.53974
G1 X67.032 Y58.101 E2.56716
G1 X67.355 Y58.547 E2.59456
G1 X67.609 Y59.034 E2.6219
G1 X67.791 Y59.554 E2.64931
G1 X67.815 Y59.678 E2.6556
G1 X68.031 Y59.726 E2.66661
G1 X68.546 Y59.921 E2.69402
G1 X69.026 Y60.189 E2.72137
G1 X69.463 Y60.524 E2.74878
G1 X69.847 Y60.919 E2.77619
G1 X70.17 Y61.365 E2.8036
G1 X70.424 Y61.852 E2.83093
G1 X70.606 Y62.372 E2.85835
G1 X70.62 Y62.444 E2.862
G1 X70.786 Y62.481 E2.87046
G1 X71.301 Y62.676 E2.89787
G1 X71.781 Y62.944 E2.92523
G1 X72.218 Y63.279 E2.95263
G1 X72.602 Y63.674 E2.98004
G1 X72.925 Y64.12 E3.00745
G1 X73.179 Y64.607 E3.03478
G1 X73.361 Y65.127 E3.0622
G1 X73.366 Y65.152 E3.06347
G1 X73.482 Y65.178 E3.06938
G1 X73.997 Y65.373 E3.09679
G1 X74.477 Y65.641 E3.12415
G1 X74.914 Y65.976 E3.15155
G1 X75.298 Y66.371 E3.17897
G1 X75.621 Y66.817 E3.20637
G1 X75.875 Y67.304 E3.2337
G1 X76.057 Y67.824 E3.26112
G1 X76.161 Y68.364 E3.28849
G1 X76.18 Y68.696 E3.30504
G1 X76.567 Y68.912 E3.32709
G1 X77.004 Y69.247 E3.3545
G1 X77.388 Y69.642 E3.38191
G1 X77.711 Y70.088 E3.40932
G1 X77.886 Y70.423 E3.42813
G1 X78.342 Y70.456 E3.45088
G1 X78.879 Y70.575 E3.47825
G1 X79.394 Y70.77 E3.50566
G1 X79.874 Y71.038 E3.53301
G1 X80.311 Y71.373 E3.56042
G1 X80.695 Y71.768 E3.58783
G1 X81.018 Y72.214 E3.61524
G1 X81.272 Y72.701 E3.64257
G1 X81.454 Y73.221 E3.66999
G1 X81.463 Y73.267 E3.67232
G1 X81.604 Y73.298 E3.6795
G1 X82.119 Y73.493 E3.70691
G1 X82.599 Y73.761 E3.73427
G1 X83.036 Y74.096 E3.76167
G1 X83.42 Y74.491 E3.78909
G1 X83.743 Y74.937 E3.81649
G1 X83.997 Y75.424 E3.84382
G1 X84.179 Y75.944 E3.87124
G1 X84.192 Y76.011 E3.87464
G1 X84.35 Y76.046 E3.88269
G1 X84.865 Y76.241 E3.9101
G1 X85.345 Y76.509 E3.93746
G1 X85.782 Y76.844 E3.96486
G1 X86.166 Y77.239 E3.99227
G1 X86.489 Y77.685 E4.01968
G1 X86.743 Y78.172 E4.04701
G1 X86.925 Y78.692 E4.07443
G1 X86.939 Y78.766 E4.07818
G1 X87.11 Y78.804 E4.08689
G1 X87.625 Y78.999 E4.1143
G1 X88.105 Y79.267 E4.14166
G1 X88.542 Y79.602 E4.16906
G1 X88.926 Y79.997 E4.19648
G1 X89.249 Y80.443 E4.22388
G1 X89.503 Y80.93 E4.25121
G1 X89.685 Y81.45 E4.27863
G1 X89.704 Y81.547 E4.28355
G1 X89.896 Y81.59 E4.29334
G1 X90.411 Y81.785 E4.32075
G1 X90.891 Y82.053 E4.34811
G1 X91.328 Y82.388 E4.37551
G1 X91.712 Y82.783 E4.40292
G1 X92.035 Y83.229 E4.43033
G1 X92.289 Y83.716 E4.45766
G1 X92.471 Y84.236 E4.48508
G1 X92.488 Y84.322 E4.48944
G1 X92.666 Y84.362 E4.49852
G1 X93.181 Y84.557 E4.52593
G1 X93.661 Y84.825 E4.55329
G1 X94.098 Y85.16 E4.58069
G1 X94.482 Y85.555 E4.6081
G1 X94.805 Y86.001 E4.63551
G1 X95.059 Y86.488 E4.66284
G1 X95.241 Y87.008 E4.69026
G1 X95.249 Y87.049 E4.69234
G1 X95.383 Y87.079 E4.69917
G1 X95.898 Y87.274 E4.72658
G1 X96.378 Y87.542 E4.75394
G1 X96.815 Y87.877 E4.78134
G1 X97.199 Y88.272 E4.80875
G1 X97.522 Y88.718 E4.83616
G1 X97.776 Y89.205 E4.86349
G1 X97.958 Y89.725 E4.89091
G1 X97.965 Y89.762 E4.89278
G1 X98.094 Y89.791 E4.89936
G1 X98.609 Y89.986 E4.92677
G1 X99.089 Y90.254 E4.95413
G1 X99.526 Y90.589 E4.98153
G1 X99.91 Y90.984 E5.00894
G1 X100.233 Y91.43 E5.03635
G1 X100.487 Y91.917 E5.06368
G1 X100.669 Y92.437 E5.0911
G1 X100.677 Y92.478 E5.09318
G1 X100.811 Y92.508 E5.10001
G1 X101.326 Y92.703 E5.12742
G1 X101.806 Y92.971 E5.15478
G1 X102.243 Y93.306 E5.18218
G1 X102.627 Y93.701 E5.20959
G1 X102.95 Y94.147 E5.237
G1 X103.204 Y94.634 E5.26433
G1 X103.386 Y95.154 E5.29175
G1 X103.49 Y95.694 E5.31912
G1 X103.511 Y96.05 E5.33686
G1 X103.95 Y96.295 E5.36188
G1 X104.387 Y96.63 E5.38929
G1 X104.771 Y97.025 E5.4167
G1 X105.094 Y97.471 E5.44411
G1 X105.281 Y97.829 E5.46421
G1 X105.748 Y97.863 E5.48751
G1 X106.285 Y97.982 E5.51488
G1 X106.8 Y98.177 E5.54229
G1 X107.28 Y98.445 E5.56964
G1 X107.717 Y98.78 E5.59705
G1 X108.101 Y99.175 E5.62446
G1 X108.424 Y99.621 E5.65187
G1 X108.678 Y100.108 E5.6792
G1 X108.86 Y100.628 E5.70662
G1 X108.863 Y100.644 E5.70743
G1 X108.971 Y100.668 E5.71293
G1 X109.486 Y100.863 E5.74034
G1 X109.966 Y101.131 E5.7677
G1 X110.403 Y101.466 E5.7951
G1 X110.787 Y101.861 E5.82251
G1 X111.11 Y102.307 E5.84992
G1 X111.364 Y102.794 E5.87725
G1 X111.546 Y103.314 E5.90467
G1 X111.65 Y103.854 E5.93204
G1 X111.67 Y104.197 E5.94914
G1 X112.082 Y104.427 E5.97262
G1 X112.519 Y104.762 E6.00002
G1 X112.903 Y105.157 E6.02744
G1 X113.226 Y105.603 E6.05484
G1 X113.414 Y105.963 E6.07505
G1 X113.883 Y105.997 E6.09845
G1 X114.42 Y106.116 E6.12583
G1 X114.935 Y106.311 E6.15323
G1 X115.415 Y106.579 E6.18059
G1 X115.852 Y106.914 E6.20799
G1 X116.236 Y107.309 E6.23541
G1 X116.559 Y107.755 E6.26281
G1 X116.813 Y108.242 E6.29015
G1 X116.995 Y108.762 E6.31756
G1 X117.006 Y108.817 E6.32035
G1 X117.155 Y108.85 E6.32795
G1 X117.67 Y109.045 E6.35535
G1 X118.15 Y109.313 E6.38271
G1 X118.587 Y109.648 E6.41012
G1 X118.971 Y110.043 E6.43753
G1 X119.294 Y110.489 E6.46494
G1 X119.548 Y110.976 E6.49227
G1 X119.73 Y111.496 E6.51969
G1 X119.834 Y112.036 E6.54705
G1 X119.855 Y112.404 E6.5654
G1 X120.319 Y112.663 E6.59184
G1 X120.756 Y112.998 E6.61924
G1 X121.14 Y113.393 E6.64666
G1 X121.463 Y113.839 E6.67407
G1 X121.692 Y114.278 E6.69871
G1 X122.204 Y114.315 E6.72425
G1 X122.741 Y114.434 E6.75162
G1 X123.256 Y114.629 E6.77903
G1 X123.736 Y114.897 E6.80639
G1 X124.173 Y115.232 E6.83379
G1 X124.557 Y115.627 E6.86121
G1 X124.88 Y116.073 E6.88861
G1 X125.134 Y116.56 E6.91594
G1 X125.316 Y117.08 E6.94336
G1 X125.337 Y117.188 E6.94884
G1 X125.54 Y117.233 E6.95918
G1 X126.055 Y117.428 E6.98659
G1 X126.535 Y117.696 E7.01395
G1 X126.972 Y118.031 E7.04135
G1 X127.356 Y118.426 E7.06877
G1 X127.679 Y118.872 E7.09617
G1 X127.933 Y119.359 E7.1235
G1 X128.115 Y119.879 E7.15092
G1 X128.219 Y120.419 E7.17829
G1 X128.239 Y120.77 E7.19579
G1 X128.673 Y121.012 E7.22051
G1 X129.11 Y121.347 E7.24792
G1 X129.494 Y121.742 E7.27533
G1 X129.817 Y122.188 E7.30274
G1 X130.071 Y122.675 E7.33007
G1 X130.253 Y123.195 E7.35749
G1 X130.263 Y123.249 E7.36022
G1 X130.413 Y123.282 E7.36786
G1 X130.928 Y123.477 E7.39527
G1 X131.408 Y123.745 E7.42263
G1 X131.845 Y124.08 E7.45003
G1 X132.229 Y124.475 E7.47745
G1 X132.552 Y124.921 E7.50485
G1 X132.741 Y125.284 E7.52522
G1 X133.207 Y125.318 E7.54847
G1 X133.744 Y125.437 E7.57584
G1 X134.259 Y125.632 E7.60325
G1 X134.739 Y125.9 E7.63061
G1 X135.176 Y126.235 E7.65801
G1 X135.56 Y126.63 E7.68542
G1 X135.883 Y127.076 E7.71283
G1 X136.137 Y127.563 E7.74016
G1 X136.319 Y128.083 E7.76758
G1 X136.423 Y128.623 E7.79495
G1 X136.443 Y128.971 E7.81229
G1 X136.877 Y129.213 E7.83702
G1 X137.314 Y129.548 E7.86442
G1 X137.698 Y129.943 E7.89184
G1 X138.021 Y130.389 E7.91924
G1 X138.275 Y130.876 E7.94658
G1 X138.452 Y131.382 E7.97326
G1 X138.532 Y131.4 E7.97734
G1 X139.047 Y131.595 E8.00474
G1 X139.527 Y131.863 E8.0321
G1 X139.964 Y132.198 E8.0595
G1 X140.348 Y132.593 E8.08692
G1 X140.671 Y133.039 E8.11432
G1 X140.794 Y133.275 E8.12757
G1 X141.192 Y133.304 E8.14743
G1 X141.729 Y133.423 E8.1748
G1 X142.244 Y133.618 E8.2022
G1 X142.724 Y133.886 E8.22956
G1 X143.161 Y134.221 E8.25696
G1 X143.545 Y134.616 E8.28438
G1 X143.868 Y135.062 E8.31178
G1 X144.122 Y135.549 E8.33912
G1 X144.299 Y136.056 E8.36584
G1 X144.381 Y136.074 E8.37002
G1 X144.896 Y136.269 E8.39743
G1 X145.376 Y136.537 E8.42478
G1 X145.813 Y136.872 E8.45219
G1 X146.197 Y137.267 E8.4796
G1 X146.52 Y137.713 E8.50701
G1 X146.774 Y138.2 E8.53434
G1 X146.956 Y138.72 E8.56176
G1 X146.96 Y138.741 E8.56282
G1 X147.072 Y138.766 E8.56853
G1 X147.587 Y138.961 E8.59594
G1 X148.067 Y139.229 E8.6233
G1 X148.504 Y139.564 E8.6507
G1 X148.888 Y139.959 E8.67811
G1 X149.211 Y140.405 E8.70552
G1 X149.465 Y140.892 E8.73285
G1 X149.647 Y141.412 E8.76027
G1 X149.655 Y141.453 E8.76235
G1 X149.791 Y141.483 E8.76928
G1 X150.306 Y141.678 E8.79669
G1 X150.786 Y141.946 E8.82404
G1 X151.223 Y142.281 E8.85145
G1 X151.607 Y142.676 E8.87886
G1 X151.93 Y143.122 E8.90627
G1 X152.184 Y143.609 E8.9336
G1 X152.366 Y144.129 E8.96102
G1 X152.47 Y144.669 E8.98838
G1 X152.496 Y145.115 E9.01062
G1 X152.496 Y146.654 E9.08721
G1 X152.698 Y146.977 E9.10617
G1 X152.919 Y147.481 E9.13355
G1 X153.064 Y148.012 E9.16095
G1 X153.136 Y148.746 E9.19765
G1 X153.136 Y149.075 E9.21402
G1 X153.096 Y149.624 E9.24142
G1 X152.977 Y150.161 E9.26879
G1 X152.782 Y150.676 E9.29619
G1 X152.514 Y151.156 E9.32355
G1 X152.026 Y151.756 E9.36204
G1 X151.758 Y152.024 E9.3809
G1 X151.341 Y152.384 E9.40832
G1 X150.877 Y152.679 E9.43568
G1 X150.375 Y152.905 E9.46308
G1 X149.846 Y153.055 E9.49044
G1 X149.077 Y153.134 E9.52891
G1 X148.749 Y153.134 E9.54524
G1 X148.2 Y153.094 E9.57263
G1 X147.663 Y152.975 E9.6
G1 X147.148 Y152.78 E9.62741
G1 X146.668 Y152.512 E9.65476
G1 X146.093 Y152.048 E9.69153
G1 X145.948 Y151.906 E9.70163
G1 X145.705 Y151.906 E9.71373
G1 X145.156 Y151.866 E9.74112
G1 X144.619 Y151.747 E9.76849
G1 X144.104 Y151.552 E9.7959
G1 X143.624 Y151.284 E9.82326
G1 X143.187 Y150.949 E9.85066
G1 X142.803 Y150.554 E9.87807
G1 X142.48 Y150.108 E9.90548
G1 X142.226 Y149.621 E9.93281
G1 X142.044 Y149.101 E9.96023
G1 X142.036 Y149.06 E9.96231
G1 X141.9 Y149.03 E9.96924
G1 X141.385 Y148.835 E9.99665
G1 X140.905 Y148.567 E10.024
G1 X140.468 Y148.232 E10.05141
G1 X140.084 Y147.837 E10.07882
G1 X139.761 Y147.391 E10.10623
G1 X139.507 Y146.904 E10.13356
G1 X139.325 Y146.384 E10.16098
G1 X139.321 Y146.363 E10.16204
G1 X139.209 Y146.338 E10.16775
G1 X138.694 Y146.143 E10.19516
G1 X138.214 Y145.875 E10.22252
G1 X137.777 Y145.54 E10.24992
G1 X137.393 Y145.145 E10.27733
G1 X137.07 Y144.699 E10.30474
G1 X136.816 Y144.212 E10.33207
G1 X136.639 Y143.705 E10.3588
G1 X136.557 Y143.687 E10.36298
G1 X136.042 Y143.492 E10.39038
G1 X135.562 Y143.224 E10.41774
G1 X135.125 Y142.889 E10.44514
G1 X134.741 Y142.494 E10.47256
G1 X134.418 Y142.048 E10.49996
G1 X134.295 Y141.812 E10.51321
G1 X133.897 Y141.783 E10.53306
G1 X133.36 Y141.664 E10.56044
G1 X132.845 Y141.469 E10.58784
G1 X132.365 Y141.201 E10.6152
G1 X131.928 Y140.866 E10.6426
G1 X131.544 Y140.471 E10.67002
G1 X131.221 Y140.025 E10.69742
G1 X130.967 Y139.538 E10.72476
G1 X130.79 Y139.032 E10.75143
G1 X130.71 Y139.014 E10.75551
G1 X130.195 Y138.819 E10.78292
G1 X129.715 Y138.551 E10.81028
G1 X129.278 Y138.216 E10.83768
G1 X128.894 Y137.821 E10.8651
G1 X128.571 Y137.375 E10.8925
G1 X128.317 Y136.888 E10.91984
G1 X128.135 Y136.368 E10.94725
G1 X128.031 Y135.828 E10.97462
G1 X128.011 Y135.48 E10.99197
G1 X127.577 Y135.238 E11.0167
G1 X127.14 Y134.903 E11.0441
G1 X126.756 Y134.508 E11.07151
G1 X126.433 Y134.062 E11.09892
G1 X126.244 Y133.699 E11.11928
G1 X125.778 Y133.665 E11.14254
G1 X125.241 Y133.546 E11.16991
G1 X124.726 Y133.351 E11.19731
G1 X124.246 Y133.083 E11.22467
G1 X123.809 Y132.748 E11.25208
G1 X123.425 Y132.353 E11.27949
G1 X123.102 Y131.907 E11.3069
G1 X122.848 Y131.42 E11.33423
G1 X122.666 Y130.9 E11.36165
G1 X122.656 Y130.846 E11.36438
G1 X122.506 Y130.813 E11.37202
G1 X121.991 Y130.618 E11.39943
G1 X121.511 Y130.35 E11.42679
G1 X121.074 Y130.015 E11.45419
G1 X120.69 Y129.62 E11.4816
G1 X120.367 Y129.174 E11.50901
G1 X120.113 Y128.687 E11.53634
G1 X119.931 Y128.167 E11.56376
G1 X119.827 Y127.627 E11.59113
G1 X119.807 Y127.276 E11.60862
G1 X119.373 Y127.034 E11.63335
G1 X118.936 Y126.699 E11.66076
G1 X118.552 Y126.304 E11.68817
G1 X118.229 Y125.858 E11.71558
G1 X117.975 Y125.371 E11.74291
G1 X117.793 Y124.851 E11.77033
G1 X117.772 Y124.743 E11.7758
G1 X117.569 Y124.698 E11.78615
G1 X117.054 Y124.503 E11.81355
G1 X116.574 Y124.235 E11.84091
G1 X116.137 Y123.9 E11.86832
G1 X115.753 Y123.505 E11.89573
G1 X115.43 Y123.059 E11.92314
G1 X115.201 Y122.62 E11.94778
G1 X114.689 Y122.583 E11.97332
G1 X114.152 Y122.464 E12.00069
G1 X113.637 Y122.269 E12.0281
G1 X113.157 Y122.001 E12.05546
G1 X112.72 Y121.666 E12.08286
G1 X112.336 Y121.271 E12.11028
G1 X112.013 Y120.825 E12.13768
G1 X111.759 Y120.338 E12.16501
G1 X111.577 Y119.818 E12.19243
G1 X111.473 Y119.278 E12.2198
G1 X111.452 Y118.91 E12.23814
G1 X110.988 Y118.651 E12.26459
G1 X110.551 Y118.316 E12.29199
G1 X110.167 Y117.921 E12.31941
G1 X109.844 Y117.475 E12.34681
G1 X109.59 Y116.988 E12.37414
G1 X109.408 Y116.468 E12.40156
G1 X109.397 Y116.413 E12.40435
G1 X109.248 Y116.38 E12.41195
G1 X108.733 Y116.185 E12.43935
G1 X108.253 Y115.917 E12.46671
G1 X107.816 Y115.582 E12.49411
G1 X107.432 Y115.187 E12.52153
G1 X107.109 Y114.741 E12.54893
G1 X106.921 Y114.381 E12.56915
G1 X106.452 Y114.347 E12.59255
G1 X105.915 Y114.228 E12.61992
G1 X105.4 Y114.033 E12.64732
G1 X104.92 Y113.765 E12.67468
G1 X104.483 Y113.43 E12.70208
G1 X104.099 Y113.035 E12.7295
G1 X103.776 Y112.589 E12.7569
G1 X103.522 Y112.102 E12.78424
G1 X103.34 Y111.582 E12.81166
G1 X103.236 Y111.042 E12.83902
G1 X103.216 Y110.699 E12.85612
G1 X102.804 Y110.469 E12.8796
G1 X102.367 Y110.134 E12.90701
G1 X101.983 Y109.739 E12.93442
G1 X101.66 Y109.293 E12.96183
G1 X101.406 Y108.806 E12.98916
G1 X101.224 Y108.286 E13.01658
G1 X101.221 Y108.27 E13.01739
G1 X101.113 Y108.246 E13.02289
G1 X100.598 Y108.051 E13.0503
G1 X100.118 Y107.783 E13.07766
G1 X99.681 Y107.448 E13.10506
G1 X99.297 Y107.053 E13.13247
G1 X98.974 Y106.607 E13.15988
G1 X98.787 Y106.249 E13.17998
G1 X98.32 Y106.215 E13.20328
G1 X97.783 Y106.096 E13.23065
G1 X97.268 Y105.901 E13.25806
G1 X96.788 Y105.633 E13.28542
G1 X96.351 Y105.298 E13.31282
G1 X95.967 Y104.903 E13.34024
G1 X95.644 Y104.457 E13.36764
G1 X95.39 Y103.97 E13.39497
G1 X95.208 Y103.45 E13.42239
G1 X95.104 Y102.91 E13.44976
G1 X95.083 Y102.554 E13.46751
