;FLAVOR:Marlin
;TIME:625
;Filament used: 0.433501m
;Layer height: 0.2
;Generated with Cura_SteamEngine 2.7.0
M190 S60
M104 S220
M109 S220
G21 ;metric values
G90 ;absolute positioning
M82 ;set extruder to absolute mode
M107 ;start with the fan off
G92 E0 ;zero the extruded length
G1 F200 E3 ;extrude 3mm of feed stock
G92 E0 ;zero the extruded length again
G1 F9000
M117 Printing...
;LAYER_COUNT:47
;LAYER:0
M107
M204 S5000
G0 F2400 X77.579 Y86.488 Z0.3
G0 X77.154 Y86.939
M204 S200
;TYPE:SKIRT
G1 F1200 X77.579 Y86.488 E0.03084
G1 X78.058 Y86.095 E0.06167
G1 X78.346 Y85.904 E0.07887
G1 X78.63 Y85.73 E0.09545
G1 X79.178 Y85.441 E0.12628
G1 X79.758 Y85.225 E0.15708
G1 X80.273 Y85.101 E0.18344
G1 X80.661 Y85.03 E0.20307
G1 X81.528 Y84.952 E0.24639
G1 X103.658 Y84.969 E1.3477
G1 X104.275 Y85.009 E1.37847
G1 X105.121 Y85.199 E1.42162
G1 X105.426 Y85.297 E1.43756
G1 X106.002 Y85.524 E1.46837
G1 X106.544 Y85.823 E1.49918
G1 X106.972 Y86.131 E1.52542
G1 X107.273 Y86.374 E1.54467
G1 X107.728 Y86.793 E1.57545
G1 X108.126 Y87.268 E1.60629
G1 X108.454 Y87.779 E1.63651
G1 X108.626 Y88.089 E1.65416
G1 X108.891 Y88.649 E1.68499
G1 X109.081 Y89.238 E1.71579
G1 X109.194 Y89.847 E1.74661
G1 X109.227 Y90.343 E1.77135
G1 X109.285 Y94.169 E1.96177
G1 X109.255 Y94.788 E1.99261
G1 X109.132 Y95.448 E2.02603
G1 X108.999 Y95.96 E2.05235
G1 X108.805 Y96.548 E2.08316
G1 X108.537 Y97.106 E2.11397
G1 X108.056 Y97.807 E2.15628
G1 X107.848 Y98.059 E2.17254
G1 X107.424 Y98.51 E2.20334
G1 X106.945 Y98.903 E2.23418
G1 X106.665 Y99.089 E2.25091
G1 X106.381 Y99.264 E2.26751
G1 X105.834 Y99.554 E2.29832
G1 X105.254 Y99.771 E2.32914
G1 X104.726 Y99.899 E2.35617
G1 X104.337 Y99.97 E2.37585
G1 X103.472 Y100.048 E2.41908
G1 X81.342 Y100.031 E3.52039
G1 X80.725 Y99.991 E3.55116
G1 X79.879 Y99.801 E3.59431
G1 X79.574 Y99.703 E3.61025
G1 X78.998 Y99.476 E3.64106
G1 X78.456 Y99.177 E3.67186
G1 X78.028 Y98.869 E3.69811
G1 X77.727 Y98.626 E3.71736
G1 X77.272 Y98.207 E3.74814
G1 X76.874 Y97.732 E3.77898
G1 X76.546 Y97.221 E3.8092
G1 X76.374 Y96.911 E3.82684
G1 X76.109 Y96.351 E3.85767
G1 X75.919 Y95.762 E3.88847
G1 X75.788 Y94.975 E3.92817
G1 X75.72 Y94.143 E3.96972
G1 X75.704 Y93.719 E3.99083
G1 X75.726 Y90.561 E4.148
G1 X75.77 Y89.943 E4.17883
G1 X75.894 Y89.336 E4.20966
G1 X75.992 Y89.019 E4.22617
G1 X76.113 Y88.671 E4.24451
G1 X76.354 Y88.101 E4.27531
G1 X76.666 Y87.566 E4.30613
G1 X76.945 Y87.192 E4.32935
G1 X77.154 Y86.939 E4.34568
M204 S5000
G0 F2400 X77.253 Y87.446
M204 S200
G1 F1200 X77.462 Y87.193 E4.36201
G1 X77.87 Y86.762 E4.39155
G1 X78.555 Y86.244 E4.43428
G1 X78.839 Y86.07 E4.45086
G1 X79.364 Y85.795 E4.48035
G1 X79.921 Y85.593 E4.50984
G1 X80.345 Y85.494 E4.53151
G1 X80.733 Y85.423 E4.55114
G1 X81.527 Y85.351 E4.59081
G1 X103.657 Y85.368 E5.69212
G1 X104.249 Y85.408 E5.72165
G1 X104.999 Y85.579 E5.75993
G1 X105.304 Y85.677 E5.77588
G1 X105.855 Y85.896 E5.80538
G1 X106.371 Y86.187 E5.83486
G1 X106.721 Y86.442 E5.85642
G1 X107.022 Y86.685 E5.87567
G1 X107.457 Y87.087 E5.90514
G1 X107.834 Y87.545 E5.93466
G1 X108.105 Y87.973 E5.95987
G1 X108.277 Y88.283 E5.97752
G1 X108.529 Y88.819 E6.00699
G1 X108.706 Y89.385 E6.03651
G1 X108.806 Y89.969 E6.06599
G1 X108.828 Y90.349 E6.08493
G1 X108.886 Y94.175 E6.27536
G1 X108.856 Y94.767 E6.30486
G1 X108.746 Y95.347 E6.33424
G1 X108.613 Y95.859 E6.36056
G1 X108.425 Y96.422 E6.3901
G1 X108.164 Y96.954 E6.41959
G1 X107.748 Y97.553 E6.45588
G1 X107.54 Y97.805 E6.47214
G1 X107.133 Y98.236 E6.50165
G1 X106.456 Y98.749 E6.54392
G1 X106.172 Y98.924 E6.56052
G1 X105.647 Y99.201 E6.59006
G1 X105.09 Y99.404 E6.61956
G1 X104.654 Y99.507 E6.64186
G1 X104.265 Y99.578 E6.66153
G1 X103.473 Y99.649 E6.70111
G1 X81.343 Y99.632 E7.80242
G1 X80.751 Y99.592 E7.83195
G1 X80.001 Y99.421 E7.87023
G1 X79.696 Y99.323 E7.88617
G1 X79.145 Y99.104 E7.91568
G1 X78.629 Y98.813 E7.94516
G1 X78.279 Y98.558 E7.96671
G1 X77.978 Y98.315 E7.98596
G1 X77.543 Y97.913 E8.01544
G1 X77.166 Y97.455 E8.04496
G1 X76.895 Y97.027 E8.07017
G1 X76.723 Y96.717 E8.08781
G1 X76.471 Y96.181 E8.11729
G1 X76.294 Y95.615 E8.1468
G1 X76.186 Y94.942 E8.18072
G1 X76.118 Y94.11 E8.22226
G1 X76.103 Y93.721 E8.24164
G1 X76.125 Y90.563 E8.3988
G1 X76.169 Y89.972 E8.42829
G1 X76.369 Y89.15 E8.47039
G1 X76.49 Y88.802 E8.48873
G1 X76.722 Y88.256 E8.51825
G1 X77.025 Y87.747 E8.54773
G1 X77.253 Y87.446 E8.56652
M204 S5000
G0 F2400 X77.561 Y87.7
M204 S200
G1 F1200 X77.77 Y87.447 E8.58285
G1 X78.16 Y87.038 E8.61098
G1 X78.763 Y86.584 E8.64854
G1 X79.047 Y86.41 E8.66512
G1 X79.549 Y86.149 E8.69327
G1 X80.082 Y85.962 E8.72138
G1 X80.416 Y85.886 E8.73843
G1 X80.804 Y85.815 E8.75806
G1 X81.527 Y85.75 E8.79418
G1 X103.657 Y85.767 E9.89549
G1 X104.221 Y85.807 E9.92363
G1 X104.877 Y85.959 E9.95714
G1 X105.182 Y86.057 E9.97309
G1 X105.707 Y86.267 E10.00123
G1 X106.196 Y86.55 E10.02934
G1 X106.47 Y86.752 E10.04628
G1 X106.771 Y86.995 E10.06554
G1 X107.185 Y87.38 E10.09367
G1 X107.54 Y87.82 E10.12181
G1 X107.756 Y88.166 E10.1421
G1 X107.928 Y88.476 E10.15975
G1 X108.167 Y88.989 E10.18791
G1 X108.33 Y89.53 E10.21603
G1 X108.43 Y90.355 E10.25739
G1 X108.488 Y94.181 E10.44781
G1 X108.456 Y94.746 E10.47597
G1 X108.36 Y95.247 E10.50136
G1 X108.227 Y95.759 E10.52769
G1 X108.046 Y96.295 E10.55584
G1 X107.792 Y96.8 E10.58397
G1 X107.44 Y97.299 E10.61436
G1 X107.232 Y97.551 E10.63062
G1 X106.843 Y97.96 E10.65871
G1 X106.246 Y98.41 E10.69592
G1 X105.962 Y98.585 E10.71252
G1 X105.461 Y98.846 E10.74063
G1 X104.929 Y99.035 E10.76873
G1 X104.583 Y99.114 E10.78639
G1 X104.194 Y99.185 E10.80607
G1 X103.473 Y99.25 E10.84209
G1 X81.343 Y99.233 E11.9434
G1 X80.779 Y99.193 E11.97154
G1 X80.123 Y99.041 E12.00505
G1 X79.818 Y98.943 E12.021
G1 X79.293 Y98.733 E12.04914
G1 X78.804 Y98.45 E12.07725
G1 X78.53 Y98.248 E12.09419
G1 X78.229 Y98.005 E12.11345
G1 X77.815 Y97.62 E12.14158
G1 X77.46 Y97.18 E12.16972
G1 X77.244 Y96.834 E12.19001
G1 X77.072 Y96.524 E12.20766
G1 X76.833 Y96.011 E12.23582
G1 X76.67 Y95.47 E12.26394
G1 X76.583 Y94.91 E12.29214
G1 X76.515 Y94.078 E12.33369
G1 X76.502 Y93.724 E12.35131
G1 X76.524 Y90.566 E12.50848
G1 X76.568 Y90.003 E12.53658
G1 X76.746 Y89.281 E12.57359
G1 X76.867 Y88.933 E12.59192
G1 X77.09 Y88.414 E12.62003
G1 X77.384 Y87.931 E12.64817
G1 X77.561 Y87.7 E12.66266
M204 S5000
G0 F2400 X78.077 Y87.701
M204 S200
G1 F1200 X78.449 Y87.314 E12.68937
G1 X78.972 Y86.924 E12.72184
G1 X79.256 Y86.75 E12.73841
G1 X79.733 Y86.505 E12.7651
G1 X80.488 Y86.279 E12.80432
G1 X80.876 Y86.208 E12.82395
G1 X81.527 Y86.149 E12.85648
G1 X103.657 Y86.166 E13.95779
G1 X104.191 Y86.206 E13.98444
G1 X104.755 Y86.339 E14.01328
G1 X105.06 Y86.437 E14.02922
G1 X105.557 Y86.638 E14.0559
G1 X106.22 Y87.063 E14.09509
G1 X106.521 Y87.306 E14.11434
G1 X106.912 Y87.673 E14.14103
G1 X107.244 Y88.094 E14.16771
G1 X107.407 Y88.36 E14.18324
G1 X107.579 Y88.67 E14.20088
G1 X107.804 Y89.157 E14.22758
G1 X107.953 Y89.672 E14.25426
G1 X108.031 Y90.361 E14.28876
G1 X108.089 Y94.187 E14.47919
G1 X108.057 Y94.723 E14.50591
G1 X107.973 Y95.147 E14.52742
G1 X107.84 Y95.659 E14.55375
G1 X107.667 Y96.166 E14.58041
G1 X107.421 Y96.643 E14.60712
G1 X107.133 Y97.045 E14.63173
G1 X106.925 Y97.297 E14.64799
G1 X106.553 Y97.684 E14.6747
G1 X106.037 Y98.07 E14.70677
G1 X105.753 Y98.245 E14.72337
G1 X105.277 Y98.492 E14.75006
G1 X104.511 Y98.722 E14.78986
G1 X104.122 Y98.793 E14.80954
G1 X103.473 Y98.851 E14.84197
G1 X81.343 Y98.834 E15.94328
G1 X80.809 Y98.794 E15.96992
G1 X80.245 Y98.661 E15.99876
G1 X79.94 Y98.563 E16.0147
G1 X79.443 Y98.362 E16.04138
G1 X78.78 Y97.937 E16.08058
G1 X78.479 Y97.694 E16.09983
G1 X78.088 Y97.327 E16.12651
G1 X77.756 Y96.906 E16.1532
G1 X77.593 Y96.64 E16.16872
G1 X77.421 Y96.33 E16.18636
G1 X77.196 Y95.843 E16.21306
G1 X77.047 Y95.328 E16.23974
G1 X76.981 Y94.877 E16.26243
G1 X76.913 Y94.045 E16.30397
G1 X76.901 Y93.727 E16.31981
G1 X76.923 Y90.569 E16.47697
G1 X76.967 Y90.035 E16.50363
G1 X77.123 Y89.412 E16.53559
G1 X77.244 Y89.064 E16.55393
G1 X77.457 Y88.572 E16.58061
G1 X77.868 Y87.954 E16.61755
G1 X78.077 Y87.701 E16.63388
M204 S5000
G0 F2400 X78.385 Y87.955
M204 S200
G1 F1200 X78.737 Y87.592 E16.65904
G1 X79.18 Y87.264 E16.68647
G1 X79.464 Y87.09 E16.70305
G1 X79.915 Y86.861 E16.72822
G1 X80.56 Y86.671 E16.76168
G1 X80.948 Y86.6 E16.78131
G1 X81.526 Y86.548 E16.81019
G1 X103.656 Y86.565 E17.9115
G1 X104.16 Y86.605 E17.93666
G1 X104.633 Y86.718 E17.96086
G1 X104.938 Y86.816 E17.97681
G1 X105.406 Y87.009 E18.002
G1 X105.969 Y87.373 E18.03536
G1 X106.27 Y87.616 E18.05462
G1 X106.637 Y87.964 E18.07978
G1 X107.058 Y88.553 E18.11581
G1 X107.23 Y88.863 E18.13346
G1 X107.44 Y89.324 E18.15867
G1 X107.574 Y89.811 E18.1838
G1 X107.632 Y90.367 E18.21162
G1 X107.69 Y94.193 E18.40205
G1 X107.657 Y94.698 E18.42723
G1 X107.587 Y95.047 E18.44495
G1 X107.454 Y95.559 E18.47127
G1 X107.289 Y96.036 E18.49639
G1 X107.05 Y96.482 E18.52157
G1 X106.825 Y96.791 E18.54059
G1 X106.617 Y97.043 E18.55686
G1 X106.265 Y97.406 E18.58202
G1 X105.828 Y97.73 E18.60909
G1 X105.544 Y97.905 E18.62569
G1 X105.094 Y98.136 E18.65087
G1 X104.44 Y98.329 E18.6848
G1 X104.051 Y98.4 E18.70448
G1 X103.474 Y98.452 E18.73331
G1 X81.344 Y98.435 E19.83462
G1 X80.84 Y98.395 E19.85978
G1 X80.367 Y98.282 E19.88398
G1 X80.062 Y98.184 E19.89993
G1 X79.594 Y97.991 E19.92512
G1 X79.031 Y97.627 E19.95848
G1 X78.73 Y97.384 E19.97773
G1 X78.363 Y97.036 E20.0029
G1 X77.942 Y96.447 E20.03893
G1 X77.77 Y96.137 E20.05658
G1 X77.56 Y95.676 E20.08179
G1 X77.426 Y95.189 E20.10692
G1 X77.379 Y94.845 E20.1242
G1 X77.311 Y94.013 E20.16574
G1 X77.3 Y93.73 E20.17984
G1 X77.322 Y90.572 E20.337
G1 X77.366 Y90.068 E20.36218
G1 X77.499 Y89.543 E20.38913
G1 X77.62 Y89.195 E20.40747
G1 X77.824 Y88.732 E20.43264
G1 X78.176 Y88.208 E20.46406
G1 X78.385 Y87.955 E20.48039
M204 S5000
G1 F1500 E18.48039
G0 F2400 X80.301 Y89.588
G0 X81.207 Y90.493
G0 X81.499 Y90.74
M204 S200
;TYPE:WALL-INNER
G1 F1500 E20.48039
G1 F1200 X103.336 Y90.739 E21.56712
G1 X103.499 Y90.739 E21.57523
G1 X103.504 Y90.812 E21.57887
G1 X103.504 Y90.975 E21.58698
G1 X103.496 Y94.263 E21.75061
G1 X81.499 Y94.26 E22.8453
G1 X81.499 Y90.74 E23.02048
M204 S5000
G0 F2400 X81.519 Y90.335
M204 S200
G1 F1200 X103.484 Y90.336 E24.11358
G1 X103.567 Y90.344 E24.11773
G1 X103.644 Y90.365 E24.1217
G1 X103.699 Y90.39 E24.12471
G1 X103.761 Y90.434 E24.12849
G1 X103.807 Y90.481 E24.13176
G1 X103.85 Y90.541 E24.13544
G1 X103.876 Y90.6 E24.13864
G1 X103.894 Y90.666 E24.14205
G1 X103.903 Y90.8 E24.14873
G1 X103.903 Y94.243 E24.32007
G1 X103.895 Y94.331 E24.32447
G1 X103.877 Y94.399 E24.32797
G1 X103.848 Y94.462 E24.33142
G1 X103.808 Y94.519 E24.33489
G1 X103.757 Y94.57 E24.33848
G1 X103.7 Y94.61 E24.34194
G1 X103.637 Y94.639 E24.3454
G1 X103.569 Y94.657 E24.3489
G1 X103.481 Y94.665 E24.35329
G1 X81.516 Y94.664 E25.44639
G1 X81.433 Y94.656 E25.45054
G1 X81.356 Y94.635 E25.45451
G1 X81.301 Y94.61 E25.45752
G1 X81.239 Y94.566 E25.4613
G1 X81.193 Y94.519 E25.46458
G1 X81.15 Y94.459 E25.46825
G1 X81.124 Y94.401 E25.47141
G1 X81.104 Y94.327 E25.47523
G1 X81.097 Y94.225 E25.48032
G1 X81.097 Y90.753 E25.6531
G1 X81.105 Y90.669 E25.6573
G1 X81.123 Y90.601 E25.6608
G1 X81.152 Y90.538 E25.66425
G1 X81.192 Y90.481 E25.66772
G1 X81.243 Y90.43 E25.67131
G1 X81.3 Y90.39 E25.67477
G1 X81.363 Y90.361 E25.67823
G1 X81.431 Y90.343 E25.68173
G1 X81.519 Y90.335 E25.68612
M204 S5000
G0 F2400 X81.505 Y89.937
M204 S200
;TYPE:WALL-OUTER
G1 F1200 X103.498 Y89.938 E26.78062
G1 X103.641 Y89.951 E26.78776
G1 X103.78 Y89.989 E26.79493
G1 X103.899 Y90.045 E26.80148
G1 X104.021 Y90.131 E26.80891
G1 X104.115 Y90.226 E26.81556
G1 X104.195 Y90.34 E26.82249
G1 X104.253 Y90.467 E26.82944
G1 X104.288 Y90.601 E26.83633
G1 X104.301 Y90.786 E26.84556
G1 X104.301 Y94.262 E27.01854
G1 X104.288 Y94.402 E27.02554
G1 X104.253 Y94.536 E27.03243
G1 X104.194 Y94.661 E27.03931
G1 X104.115 Y94.774 E27.04617
G1 X104.012 Y94.877 E27.05342
G1 X103.899 Y94.956 E27.06028
G1 X103.774 Y95.015 E27.06716
G1 X103.64 Y95.05 E27.07405
G1 X103.495 Y95.063 E27.0813
G1 X81.502 Y95.062 E28.17579
G1 X81.359 Y95.049 E28.18294
G1 X81.22 Y95.011 E28.19011
G1 X81.101 Y94.955 E28.19665
G1 X80.979 Y94.869 E28.20408
G1 X80.885 Y94.774 E28.21073
G1 X80.805 Y94.66 E28.21766
G1 X80.747 Y94.533 E28.22461
G1 X80.71 Y94.394 E28.23177
G1 X80.699 Y94.243 E28.2393
G1 X80.699 Y90.738 E28.41373
G1 X80.712 Y90.598 E28.42073
G1 X80.747 Y90.464 E28.42762
G1 X80.806 Y90.339 E28.4345
G1 X80.885 Y90.226 E28.44136
G1 X80.988 Y90.123 E28.44861
G1 X81.101 Y90.044 E28.45547
G1 X81.226 Y89.985 E28.46235
G1 X81.36 Y89.95 E28.46924
G1 X81.505 Y89.937 E28.47649
M204 S5000
G0 F2400 X81.705 Y89.937
G0 X81.704 Y90.435
G0 X82.229 Y94.079
M204 S200
;TYPE:SKIN
G1 F1200 X81.678 Y93.528 E28.51527
M204 S5000
G0 F2400 X81.678 Y92.964
M204 S200
G1 F1200 X82.793 Y94.079 E28.59374
G1 X82.863 Y94.149
M204 S5000
G0 F2400 X83.357 Y94.079
M204 S200
G1 F1200 X81.678 Y92.399 E28.71194
G1 X81.609 Y92.329
M204 S5000
G0 F2400 X81.678 Y91.835
M204 S200
G1 F1200 X83.922 Y94.079 E28.86987
G1 X83.992 Y94.149
M204 S5000
G0 F2400 X84.486 Y94.079
M204 S200
G1 F1200 X81.678 Y91.271 E29.0675
G1 X81.608 Y91.201
M204 S5000
G0 F2400 X81.89 Y90.919
M204 S200
G1 F1200 X85.05 Y94.079 E29.28989
G1 X85.12 Y94.149
M204 S5000
G0 F2400 X85.615 Y94.079
M204 S200
G1 F1200 X82.455 Y90.919 E29.51229
G1 X82.385 Y90.849
M204 S5000
G0 F2400 X83.019 Y90.919
M204 S200
G1 F1200 X86.18 Y94.079 E29.73472
G1 X86.25 Y94.149
M204 S5000
G0 F2400 X86.744 Y94.079
M204 S200
G1 F1200 X83.583 Y90.919 E29.95716
G1 X83.513 Y90.849
M204 S5000
G0 F2400 X84.147 Y90.919
M204 S200
G1 F1200 X87.308 Y94.079 E30.17959
G1 X87.378 Y94.149
M204 S5000
G0 F2400 X87.872 Y94.079
M204 S200
G1 F1200 X84.712 Y90.919 E30.40199
G1 X84.642 Y90.849
M204 S5000
G0 F2400 X85.276 Y90.919
M204 S200
G1 F1200 X88.437 Y94.079 E30.62442
G1 X88.507 Y94.149
M204 S5000
G0 F2400 X89.002 Y94.08
M204 S200
G1 F1200 X85.84 Y90.919 E30.84692
G1 X85.77 Y90.85
M204 S5000
G0 F2400 X86.404 Y90.919
M204 S200
G1 F1200 X89.566 Y94.08 E31.06943
G1 X89.636 Y94.149
M204 S5000
G0 F2400 X90.13 Y94.08
M204 S200
G1 F1200 X86.969 Y90.919 E31.29189
G1 X86.899 Y90.849
M204 S5000
G0 F2400 X87.533 Y90.919
M204 S200
G1 F1200 X90.694 Y94.08 E31.51436
G1 X90.764 Y94.15
M204 S5000
G0 F2400 X91.259 Y94.08
M204 S200
G1 F1200 X88.097 Y90.919 E31.73687
G1 X88.027 Y90.85
M204 S5000
G0 F2400 X88.661 Y90.919
M204 S200
G1 F1200 X91.823 Y94.08 E31.95937
G1 X91.893 Y94.149
M204 S5000
G0 F2400 X92.387 Y94.08
M204 S200
G1 F1200 X89.226 Y90.919 E32.18184
G1 X89.156 Y90.849
M204 S5000
G0 F2400 X89.79 Y90.919
M204 S200
G1 F1200 X92.952 Y94.081 E32.40438
G1 X93.022 Y94.151
M204 S5000
G0 F2400 X93.516 Y94.081
M204 S200
G1 F1200 X90.354 Y90.919 E32.62691
G1 X90.284 Y90.849
M204 S5000
G0 F2400 X90.919 Y90.919
M204 S200
G1 F1200 X94.081 Y94.081 E32.84945
G1 X94.151 Y94.151
M204 S5000
G0 F2400 X94.645 Y94.081
M204 S200
G1 F1200 X91.483 Y90.919 E33.07199
G1 X91.413 Y90.849
M204 S5000
G0 F2400 X92.047 Y90.919
M204 S200
G1 F1200 X95.209 Y94.081 E33.29453
G1 X95.279 Y94.151
M204 S5000
G0 F2400 X95.774 Y94.081
M204 S200
G1 F1200 X92.611 Y90.919 E33.5171
G1 X92.541 Y90.85
M204 S5000
G0 F2400 X93.176 Y90.919
M204 S200
G1 F1200 X96.339 Y94.081 E33.73968
G1 X96.409 Y94.15
M204 S5000
G0 F2400 X96.903 Y94.081
M204 S200
G1 F1200 X93.74 Y90.919 E33.96225
G1 X93.67 Y90.85
M204 S5000
G0 F2400 X94.304 Y90.919
M204 S200
G1 F1200 X97.467 Y94.081 E34.18482
G1 X97.537 Y94.15
M204 S5000
G0 F2400 X98.031 Y94.081
M204 S200
G1 F1200 X94.868 Y90.919 E34.4074
G1 X94.798 Y90.85
M204 S5000
G0 F2400 X95.433 Y90.919
M204 S200
G1 F1200 X98.596 Y94.081 E34.62997
G1 X98.666 Y94.15
M204 S5000
G0 F2400 X99.16 Y94.081
M204 S200
G1 F1200 X95.997 Y90.919 E34.85254
G1 X95.927 Y90.85
M204 S5000
G0 F2400 X96.561 Y90.919
M204 S200
G1 F1200 X99.725 Y94.082 E35.07519
G1 X99.795 Y94.152
M204 S5000
G0 F2400 X100.289 Y94.082
M204 S200
G1 F1200 X97.126 Y90.919 E35.2978
G1 X97.056 Y90.849
M204 S5000
G0 F2400 X97.69 Y90.919
M204 S200
G1 F1200 X100.853 Y94.082 E35.52041
G1 X100.923 Y94.152
M204 S5000
G0 F2400 X101.418 Y94.082
M204 S200
G1 F1200 X98.254 Y90.919 E35.74305
G1 X98.184 Y90.849
M204 S5000
