;FLAVOR:Marlin
;TIME:5829
;Filament used: 4.40129m
;Layer height: 0.2
;Generated with Cura_SteamEngine 2.7.0
M190 S60
M104 S220
M109 S220
G21 ;metric values
G90 ;absolute positioning
M82 ;set extruder to absolute mode
M107 ;start with the fan off
G92 E0 ;zero the extruded length
G1 F200 E3 ;extrude 3mm of feed stock
G92 E0 ;zero the extruded length again
G1 F9000
M117 Printing...
;LAYER_COUNT:120
;LAYER:0
M107
M204 S5000
G0 F2400 X50.555 Y80.937 Z0.3
M204 S200
;TYPE:SKIRT
G1 F1200 X51.106 Y80.655 E0.0308
G1 X51.689 Y80.447 E0.06161
G1 X52.294 Y80.315 E0.09242
G1 X52.882 Y80.263 E0.1218
G1 X59.08 Y80.098 E0.43036
G1 X64.453 Y79.641 E0.69871
G1 X69.788 Y78.881 E0.96689
G1 X75.081 Y77.82 E1.23554
G1 X77.643 Y77.191 E1.36683
G1 X80.24 Y76.478 E1.50085
G1 X85.397 Y74.819 E1.77044
G1 X90.419 Y72.884 E2.03827
G1 X96.507 Y70.098 E2.37146
G1 X97.085 Y69.877 E2.40226
G1 X97.687 Y69.733 E2.43306
G1 X98.505 Y69.663 E2.47392
G1 X102.504 Y69.665 E2.67293
G1 X103.122 Y69.705 E2.70375
G1 X103.73 Y69.825 E2.73459
G1 X104.317 Y70.022 E2.76541
G1 X104.676 Y70.186 E2.78505
G1 X110.205 Y72.997 E3.09372
G1 X115.12 Y75.137 E3.3605
G1 X120.201 Y77.014 E3.63006
G1 X125.331 Y78.587 E3.89709
G1 X130.637 Y79.89 E4.16899
G1 X132.942 Y80.356 E4.28602
G1 X133.54 Y80.518 E4.31685
G1 X134.112 Y80.755 E4.34766
G1 X134.648 Y81.064 E4.37845
G1 X135.14 Y81.44 E4.40927
G1 X135.58 Y81.876 E4.44009
G1 X135.96 Y82.364 E4.47087
G1 X136.274 Y82.898 E4.5017
G1 X136.516 Y83.468 E4.53252
G1 X136.683 Y84.064 E4.56332
G1 X136.772 Y84.677 E4.59415
G1 X136.787 Y85.058 E4.61312
G1 X136.786 Y88.965 E4.80756
G1 X136.746 Y89.583 E4.83838
G1 X136.627 Y90.191 E4.86921
G1 X136.43 Y90.778 E4.90002
G1 X136.152 Y91.348 E4.93158
G1 X135.581 Y92.345 E4.98876
G1 X135.239 Y92.861 E5.01957
G1 X134.999 Y93.152 E5.03834
G1 X133.474 Y94.863 E5.1524
G1 X132.828 Y95.466 E5.19638
G1 X129.806 Y97.804 E5.38652
G1 X125.675 Y101.318 E5.65642
G1 X121.79 Y105.02 E5.92348
G1 X118.087 Y108.973 E6.19304
G1 X117.275 Y109.923 E6.25523
G1 X117.24 Y109.963 E6.25787
G1 X116.318 Y111.018 E6.3276
G1 X115.882 Y111.457 E6.35839
G1 X115.37 Y111.851 E6.39054
G1 X114.359 Y112.526 E6.45104
G1 X113.823 Y112.836 E6.48185
G1 X113.252 Y113.074 E6.51264
G1 X112.613 Y113.245 E6.54556
G1 X111.396 Y113.482 E6.60726
G1 X110.782 Y113.56 E6.63806
G1 X110.359 Y113.569 E6.65912
G1 X103.665 Y113.402 E6.99235
G1 X103.332 Y113.382 E7.00895
G1 X99.279 Y112.998 E7.21156
G1 X93.889 Y112.767 E7.48004
G1 X88.493 Y112.84 E7.7486
G1 X83.079 Y113.221 E8.01869
G1 X80.642 Y113.462 E8.14056
G1 X80.223 Y113.485 E8.16145
G1 X74.427 Y113.549 E8.44991
G1 X73.809 Y113.516 E8.4807
G1 X73.419 Y113.453 E8.50036
G1 X72.346 Y113.235 E8.55485
G1 X71.749 Y113.073 E8.58564
G1 X71.177 Y112.835 E8.61647
G1 X70.635 Y112.522 E8.64762
G1 X69.624 Y111.846 E8.70814
G1 X69.133 Y111.469 E8.73895
G1 X68.691 Y111.029 E8.76999
G1 X65.752 Y107.691 E8.99132
G1 X61.978 Y103.809 E9.26075
G1 X58.027 Y100.177 E9.52783
G1 X53.816 Y96.724 E9.79884
G1 X52.302 Y95.577 E9.89337
G1 X51.653 Y94.984 E9.93712
G1 X50.104 Y93.284 E10.05157
G1 X49.717 Y92.801 E10.08237
G1 X49.517 Y92.489 E10.10081
G1 X48.878 Y91.405 E10.16343
G1 X48.599 Y90.853 E10.19421
G1 X48.393 Y90.269 E10.22503
G1 X48.264 Y89.664 E10.25582
G1 X48.214 Y88.97 E10.29044
G1 X48.214 Y85.057 E10.48518
G1 X48.254 Y84.439 E10.516
G1 X48.373 Y83.832 E10.54678
G1 X48.57 Y83.245 E10.57759
G1 X48.84 Y82.688 E10.6084
G1 X49.18 Y82.17 E10.63923
G1 X49.584 Y81.701 E10.67004
G1 X50.045 Y81.288 E10.70084
G1 X50.555 Y80.937 E10.73165
M204 S5000
G0 F2400 X50.935 Y81.18
M204 S200
G1 F1200 X51.475 Y80.937 E10.76112
G1 X52.043 Y80.768 E10.79061
G1 X52.893 Y80.662 E10.83324
G1 X59.108 Y80.497 E11.14264
G1 X64.492 Y80.039 E11.41154
G1 X69.852 Y79.275 E11.68098
G1 X75.181 Y78.207 E11.95146
G1 X77.739 Y77.579 E12.08254
G1 X80.351 Y76.861 E12.21735
G1 X85.542 Y75.191 E12.48872
G1 X90.564 Y73.257 E12.75653
G1 X96.673 Y70.461 E13.09088
G1 X97.227 Y70.251 E13.12036
G1 X97.805 Y70.118 E13.14988
G1 X98.505 Y70.062 E13.18483
G1 X102.504 Y70.064 E13.38384
G1 X103.096 Y70.104 E13.41337
G1 X103.676 Y70.224 E13.44284
G1 X104.495 Y70.541 E13.48655
G1 X110.049 Y73.365 E13.79662
G1 X114.958 Y75.502 E14.06307
G1 X120.072 Y77.391 E14.33437
G1 X125.24 Y78.976 E14.60339
G1 X130.536 Y80.276 E14.87477
G1 X132.863 Y80.747 E14.99292
G1 X133.435 Y80.904 E15.02244
G1 X133.98 Y81.136 E15.05192
G1 X134.49 Y81.439 E15.08144
G1 X134.953 Y81.808 E15.1109
G1 X135.364 Y82.236 E15.14043
G1 X135.712 Y82.715 E15.1699
G1 X135.994 Y83.237 E15.19942
G1 X136.202 Y83.792 E15.22892
G1 X136.334 Y84.37 E15.25842
G1 X136.388 Y85.058 E15.29277
G1 X136.387 Y88.965 E15.4872
G1 X136.347 Y89.557 E15.51673
G1 X136.228 Y90.137 E15.54619
G1 X136.031 Y90.696 E15.57569
G1 X135.806 Y91.149 E15.60086
G1 X135.235 Y92.146 E15.65804
G1 X134.906 Y92.64 E15.68758
G1 X134.701 Y92.887 E15.70355
G1 X133.176 Y94.598 E15.81761
G1 X132.584 Y95.15 E15.85789
G1 X129.552 Y97.495 E16.04865
G1 X125.413 Y101.016 E16.31907
G1 X121.506 Y104.74 E16.58768
G1 X117.796 Y108.7 E16.85773
G1 X116.972 Y109.664 E16.92084
G1 X116.94 Y109.7 E16.92324
G1 X116.018 Y110.755 E16.99296
G1 X115.599 Y111.174 E17.02245
G1 X115.149 Y111.519 E17.05067
G1 X114.138 Y112.194 E17.11117
G1 X113.623 Y112.489 E17.1407
G1 X113.074 Y112.712 E17.17019
G1 X112.536 Y112.853 E17.19787
G1 X111.319 Y113.09 E17.25957
G1 X110.731 Y113.164 E17.28907
G1 X110.369 Y113.17 E17.30708
G1 X103.675 Y113.003 E17.64032
G1 X103.37 Y112.984 E17.65552
G1 X99.315 Y112.599 E17.85823
G1 X93.901 Y112.368 E18.12791
G1 X88.477 Y112.441 E18.39786
G1 X83.045 Y112.824 E18.66886
G1 X80.602 Y113.065 E18.79102
G1 X80.219 Y113.086 E18.81011
G1 X74.423 Y113.15 E19.09857
G1 X73.831 Y113.116 E19.12808
G1 X73.499 Y113.062 E19.14482
G1 X72.426 Y112.844 E19.19931
G1 X71.854 Y112.687 E19.22883
G1 X71.309 Y112.455 E19.2583
G1 X70.857 Y112.19 E19.28438
G1 X69.846 Y111.514 E19.3449
G1 X69.377 Y111.152 E19.37439
G1 X68.99 Y110.765 E19.40162
G1 X66.045 Y107.421 E19.62338
G1 X62.253 Y103.519 E19.89415
G1 X58.286 Y99.874 E20.16225
G1 X54.071 Y96.417 E20.43354
G1 X52.543 Y95.259 E20.52895
G1 X51.948 Y94.715 E20.56907
G1 X50.399 Y93.015 E20.68353
G1 X50.03 Y92.551 E20.71303
G1 X49.861 Y92.287 E20.72863
G1 X49.222 Y91.203 E20.79125
G1 X48.956 Y90.673 E20.82076
G1 X48.764 Y90.112 E20.85027
G1 X48.649 Y89.531 E20.87975
G1 X48.613 Y88.97 E20.90772
G1 X48.613 Y85.057 E21.10245
G1 X48.653 Y84.466 E21.13193
G1 X48.772 Y83.885 E21.16145
G1 X48.968 Y83.326 E21.19093
G1 X49.238 Y82.798 E21.22044
G1 X49.576 Y82.311 E21.24994
G1 X49.977 Y81.874 E21.27946
G1 X50.432 Y81.495 E21.30893
G1 X50.935 Y81.18 E21.33846
M204 S5000
G0 F2400 X51.311 Y81.438
M204 S200
G1 F1200 X51.838 Y81.235 E21.36657
G1 X52.389 Y81.108 E21.39471
G1 X52.904 Y81.06 E21.42045
G1 X59.133 Y80.894 E21.73054
G1 X64.548 Y80.434 E22.001
G1 X69.915 Y79.669 E22.27079
G1 X75.262 Y78.597 E22.54218
G1 X77.869 Y77.957 E22.67577
G1 X80.465 Y77.244 E22.80974
G1 X85.66 Y75.573 E23.08132
G1 X90.728 Y73.621 E23.35159
G1 X96.839 Y70.824 E23.68605
G1 X97.368 Y70.625 E23.71418
G1 X97.92 Y70.504 E23.7423
G1 X98.505 Y70.461 E23.77149
G1 X102.504 Y70.463 E23.9705
G1 X103.068 Y70.503 E23.99864
G1 X103.62 Y70.623 E24.02675
G1 X104.314 Y70.897 E24.06389
G1 X109.86 Y73.717 E24.37352
G1 X114.839 Y75.884 E24.64375
G1 X119.937 Y77.768 E24.91422
G1 X125.117 Y79.356 E25.18385
G1 X130.459 Y80.668 E25.4576
G1 X132.784 Y81.138 E25.57564
G1 X133.328 Y81.289 E25.60374
G1 X133.846 Y81.516 E25.63188
G1 X134.327 Y81.813 E25.66002
G1 X134.761 Y82.175 E25.68814
G1 X135.14 Y82.594 E25.71626
G1 X135.456 Y83.063 E25.7444
G1 X135.703 Y83.571 E25.77251
G1 X135.875 Y84.109 E25.80062
G1 X135.97 Y84.667 E25.82879
G1 X135.989 Y85.058 E25.84827
G1 X135.988 Y88.965 E26.04271
G1 X135.948 Y89.529 E26.07084
G1 X135.829 Y90.081 E26.09895
G1 X135.633 Y90.611 E26.12707
G1 X135.459 Y90.951 E26.14607
G1 X134.888 Y91.948 E26.20325
G1 X134.404 Y92.621 E26.24451
G1 X132.879 Y94.332 E26.35857
G1 X132.34 Y94.834 E26.39522
G1 X129.309 Y97.178 E26.5859
G1 X125.144 Y100.722 E26.85806
G1 X121.221 Y104.46 E27.12772
G1 X117.483 Y108.45 E27.39981
G1 X116.668 Y109.404 E27.46226
G1 X116.639 Y109.438 E27.46448
G1 X115.717 Y110.493 E27.53421
G1 X115.316 Y110.891 E27.56232
G1 X114.927 Y111.187 E27.58665
G1 X113.916 Y111.862 E27.64714
G1 X113.425 Y112.142 E27.67527
G1 X112.899 Y112.35 E27.70342
G1 X112.46 Y112.461 E27.72596
G1 X111.243 Y112.698 E27.78766
G1 X110.682 Y112.767 E27.81579
G1 X110.379 Y112.771 E27.83087
G1 X103.685 Y112.604 E28.1641
G1 X103.408 Y112.587 E28.17791
G1 X99.332 Y112.2 E28.38167
G1 X93.912 Y111.968 E28.65165
G1 X88.461 Y112.043 E28.92294
G1 X83.014 Y112.426 E29.19468
G1 X80.563 Y112.668 E29.31725
G1 X80.214 Y112.687 E29.33465
G1 X74.418 Y112.751 E29.62311
G1 X73.578 Y112.671 E29.6651
G1 X72.505 Y112.453 E29.71959
G1 X71.96 Y112.302 E29.74773
G1 X71.443 Y112.075 E29.77583
G1 X71.079 Y111.858 E29.79692
G1 X70.068 Y111.182 E29.85744
G1 X69.621 Y110.836 E29.88557
G1 X69.29 Y110.501 E29.90901
G1 X66.339 Y107.15 E30.13122
G1 X62.545 Y103.246 E30.40214
G1 X58.536 Y99.561 E30.67313
G1 X54.325 Y96.109 E30.9441
G1 X52.784 Y94.941 E31.04033
G1 X52.243 Y94.447 E31.07679
G1 X50.694 Y92.747 E31.19124
G1 X50.205 Y92.084 E31.23224
G1 X49.566 Y91 E31.29486
G1 X49.314 Y90.494 E31.32299
G1 X49.136 Y89.958 E31.3511
G1 X49.035 Y89.402 E31.37922
G1 X49.012 Y88.97 E31.40075
G1 X49.012 Y85.057 E31.59548
G1 X49.052 Y84.493 E31.62362
G1 X49.171 Y83.941 E31.65172
G1 X49.367 Y83.411 E31.67985
G1 X49.635 Y82.913 E31.70799
G1 X49.971 Y82.459 E31.7361
G1 X50.368 Y82.056 E31.76425
G1 X50.818 Y81.714 E31.79238
G1 X51.311 Y81.438 E31.8205
M204 S5000
G0 F2400 X51.682 Y81.712
M204 S200
G1 F1200 X52.194 Y81.552 E31.84719
G1 X52.914 Y81.459 E31.88332
G1 X59.161 Y81.293 E32.19431
G1 X64.584 Y80.832 E32.46517
G1 X69.978 Y80.063 E32.73631
G1 X75.372 Y78.981 E33.0101
G1 X77.947 Y78.35 E33.14203
G1 X80.58 Y77.626 E33.27793
G1 X85.79 Y75.95 E33.55029
G1 X90.873 Y73.993 E33.82135
G1 X97.005 Y71.186 E34.15697
G1 X97.508 Y71 E34.18366
G1 X98.033 Y70.891 E34.21034
G1 X98.505 Y70.86 E34.23388
G1 X102.504 Y70.862 E34.43289
G1 X103.038 Y70.902 E34.45954
G1 X103.561 Y71.021 E34.48623
G1 X104.133 Y71.253 E34.51695
G1 X109.685 Y74.076 E34.82692
G1 X114.683 Y76.252 E35.09819
G1 X119.808 Y78.145 E35.37008
G1 X125.03 Y79.746 E35.6419
G1 X130.353 Y81.053 E35.91467
G1 X132.705 Y81.529 E36.03409
G1 X133.221 Y81.675 E36.06078
G1 X133.71 Y81.895 E36.08746
G1 X134.16 Y82.185 E36.1141
G1 X134.563 Y82.54 E36.14083
G1 X134.909 Y82.95 E36.16753
G1 X135.189 Y83.407 E36.1942
G1 X135.399 Y83.9 E36.22087
G1 X135.533 Y84.419 E36.24755
G1 X135.59 Y85.058 E36.27947
G1 X135.589 Y88.965 E36.47391
G1 X135.549 Y89.5 E36.5006
G1 X135.43 Y90.022 E36.52725
G1 X135.113 Y90.753 E36.5669
G1 X134.542 Y91.75 E36.62408
G1 X134.106 Y92.356 E36.66123
G1 X132.581 Y94.067 E36.77529
G1 X132.096 Y94.519 E36.80828
G1 X129.043 Y96.881 E37.00038
G1 X124.892 Y100.412 E37.27159
G1 X120.928 Y104.189 E37.54407
G1 X117.192 Y108.177 E37.81601
G1 X116.365 Y109.145 E37.87937
G1 X116.339 Y109.175 E37.88135
G1 X115.417 Y110.23 E37.95108
G1 X115.035 Y110.607 E37.97779
G1 X114.705 Y110.855 E37.99833
G1 X113.694 Y111.53 E38.05883
G1 X113.228 Y111.794 E38.08548
G1 X112.727 Y111.985 E38.11216
G1 X112.384 Y112.07 E38.12975
G1 X111.167 Y112.307 E38.19145
G1 X110.389 Y112.372 E38.2303
G1 X103.695 Y112.205 E38.56354
G1 X103.445 Y112.19 E38.576
G1 X99.366 Y111.803 E38.77991
G1 X93.906 Y111.569 E39.05187
G1 X88.445 Y111.644 E39.32367
G1 X82.983 Y112.028 E39.59616
G1 X80.524 Y112.271 E39.71913
G1 X80.21 Y112.288 E39.73478
G1 X74.414 Y112.352 E40.02324
G1 X73.657 Y112.28 E40.06108
G1 X72.584 Y112.062 E40.11557
G1 X72.068 Y111.916 E40.14226
G1 X71.58 Y111.696 E40.16889
G1 X71.301 Y111.527 E40.18513
G1 X70.29 Y110.851 E40.24565
G1 X69.867 Y110.52 E40.27238
G1 X69.589 Y110.238 E40.29209
G1 X66.623 Y106.87 E40.51543
G1 X62.819 Y102.956 E40.78705
G1 X58.805 Y99.267 E41.05835
G1 X54.564 Y95.789 E41.3313
G1 X53.025 Y94.623 E41.42739
G1 X52.538 Y94.178 E41.46022
G1 X50.989 Y92.478 E41.57468
G1 X50.549 Y91.882 E41.61154
G1 X49.91 Y90.798 E41.67417
G1 X49.672 Y90.317 E41.70087
G1 X49.509 Y89.806 E41.72756
G1 X49.424 Y89.277 E41.75423
G1 X49.411 Y88.97 E41.76952
G1 X49.411 Y85.057 E41.96425
G1 X49.451 Y84.522 E41.99095
G1 X49.57 Y83.999 E42.01764
G1 X49.765 Y83.5 E42.04431
G1 X50.033 Y83.035 E42.07101
G1 X50.366 Y82.615 E42.09769
G1 X50.758 Y82.25 E42.12434
G1 X51.2 Y81.946 E42.15104
G1 X51.682 Y81.712 E42.17771
M204 S5000
G0 F2400 X51.579 Y82.195
M204 S200
G1 F1200 X52.047 Y82.005 E42.20284
G1 X52.54 Y81.892 E42.22801
G1 X52.925 Y81.858 E42.24725
G1 X59.171 Y81.692 E42.55819
G1 X64.638 Y81.227 E42.83124
G1 X70.044 Y80.456 E43.103
G1 X75.449 Y79.373 E43.37733
G1 X78.043 Y78.737 E43.51024
G1 X80.71 Y78.003 E43.6479
G1 X85.929 Y76.325 E43.92072
G1 X91.023 Y74.363 E44.19238
G1 X97.171 Y71.549 E44.52886
G1 X97.646 Y71.376 E44.55402
G1 X98.142 Y71.279 E44.57917
G1 X98.505 Y71.259 E44.59726
G1 X102.504 Y71.261 E44.79628
G1 X103.008 Y71.301 E44.82144
G1 X103.499 Y71.42 E44.84658
G1 X103.952 Y71.608 E44.87099
G1 X109.529 Y74.443 E45.18233
G1 X114.521 Y76.617 E45.4533
G1 X119.695 Y78.528 E45.72778
G1 X124.906 Y80.126 E45.99903
G1 X130.298 Y81.45 E46.27534
G1 X132.626 Y81.921 E46.39354
G1 X133.112 Y82.06 E46.4187
G1 X133.57 Y82.274 E46.44385
G1 X133.988 Y82.557 E46.46897
G1 X134.357 Y82.903 E46.49415
G1 X134.667 Y83.302 E46.51929
G1 X134.91 Y83.746 E46.54448
G1 X135.08 Y84.222 E46.56964
G1 X135.173 Y84.719 E46.5948
G1 X135.191 Y85.058 E46.61169
G1 X135.19 Y88.965 E46.80613
G1 X135.15 Y89.469 E46.83129
G1 X135.031 Y89.96 E46.85643
G1 X134.767 Y90.554 E46.88878
G1 X134.196 Y91.551 E46.94595
G1 X133.808 Y92.09 E46.97901
G1 X132.283 Y93.801 E47.09307
G1 X131.852 Y94.203 E47.1224
G1 X128.8 Y96.564 E47.31442
G1 X124.613 Y100.126 E47.58799
G1 X120.652 Y103.9 E47.86026
G1 X116.901 Y107.904 E48.1333
G1 X116.062 Y108.886 E48.19758
G1 X116.039 Y108.913 E48.19935
G1 X115.117 Y109.968 E48.26907
G1 X114.755 Y110.321 E48.29423
G1 X114.484 Y110.523 E48.31106
G1 X113.473 Y111.198 E48.37155
G1 X113.032 Y111.445 E48.39671
G1 X112.557 Y111.619 E48.42188
G1 X112.308 Y111.678 E48.43462
G1 X111.091 Y111.915 E48.49632
G1 X110.399 Y111.973 E48.53088
G1 X103.705 Y111.806 E48.86411
G1 X103.483 Y111.793 E48.87518
G1 X99.383 Y111.404 E49.08013
G1 X93.918 Y111.17 E49.35235
G1 X88.429 Y111.245 E49.62554
G1 X82.916 Y111.633 E49.90057
G1 X80.485 Y111.873 E50.02214
G1 X80.205 Y111.889 E50.0361
G1 X74.409 Y111.953 E50.32456
G1 X73.737 Y111.889 E50.35815
G1 X72.664 Y111.671 E50.41264
G1 X72.178 Y111.531 E50.43781
G1 X71.522 Y111.195 E50.47449
G1 X70.511 Y110.519 E50.53501
G1 X70.115 Y110.206 E50.56013
G1 X69.888 Y109.974 E50.57629
G1 X66.916 Y106.599 E50.80008
G1 X63.093 Y102.666 E51.07304
G1 X59.064 Y98.963 E51.34537
G1 X54.83 Y95.491 E51.61786
G1 X53.265 Y94.305 E51.71558
G1 X52.833 Y93.909 E51.74474
G1 X51.284 Y92.209 E51.8592
G1 X50.892 Y91.679 E51.89201
G1 X50.253 Y90.595 E51.95463
G1 X50.032 Y90.141 E51.97975
G1 X49.885 Y89.657 E52.00493
G1 X49.81 Y88.97 E52.03932
G1 X49.81 Y85.057 E52.23405
G1 X49.85 Y84.553 E52.25921
G1 X49.969 Y84.062 E52.28435
G1 X50.163 Y83.595 E52.30952
G1 X50.429 Y83.165 E52.33468
G1 X50.759 Y82.782 E52.35984
G1 X51.146 Y82.456 E52.38502
G1 X51.579 Y82.195 E52.41018
M204 S5000
G1 F1500 E50.41018
G0 F2400 X52.397 Y89.256
G0 X53.093 Y90.442
G0 X54.735 Y92.249
G0 X56.707 Y93.671
G0 X58.941 Y94.654
G0 X61.331 Y95.152
G0 X63.76 Y95.144
G0 X67.501 Y94.453
M204 S200
;TYPE:SUPPORT
G1 F1500 E52.41018
G1 F1200 X68.944 Y94.644 E52.48262
G1 X70.299 Y95.206 E52.55562
G1 X70.366 Y95.264 E52.56004
G1 X68.936 Y94.678 E52.63694
G1 X67.405 Y94.466 E52.71386
G1 X67.501 Y94.453 E52.71868
M204 S5000
G1 F1500 E50.71868
G0 F2400 X63.669 Y95.152
G0 X61.24 Y95.144
G0 X58.856 Y94.627
G0 X56.628 Y93.625
G0 X54.666 Y92.189
G0 X53.038 Y90.371
G0 X52.397 Y89.256
G0 X52.336 Y89.036
G0 X52.339 Y84.891
G0 X52.843 Y84.387
G0 X72.157 Y84.387
G0 X72.661 Y84.891
G0 X72.899 Y85.749
M204 S200
G1 F1500 E52.71868
G1 F1200 X72.899 Y84.547 E52.7785
G1 X72.581 Y84.229 E52.80088
G1 X77.47 Y84.229 E53.04418
G1 X76.98 Y85.749 E53.12366
