;FLAVOR:Marlin
;TIME:6270
;Filament used: 4.93349m
;Layer height: 0.2
;Generated with Cura_SteamEngine 2.7.0
M190 S60
M104 S220
M109 S220
G21 ;metric values
G90 ;absolute positioning
M82 ;set extruder to absolute mode
M107 ;start with the fan off
G92 E0 ;zero the extruded length
G1 F200 E3 ;extrude 3mm of feed stock
G92 E0 ;zero the extruded length again
G1 F9000
M117 Printing...
;LAYER_COUNT:100
;LAYER:0
M107
M204 S5000
G0 F2400 X74.347 Y73.726 Z0.3
M204 S200
;TYPE:SKIRT
G1 F1200 X74.789 Y73.293 E0.03079
G1 X75.09 Y73.053 E0.04995
G1 X78.132 Y70.829 E0.23748
G1 X78.655 Y70.497 E0.26831
G1 X78.96 Y70.343 E0.28531
G1 X81.012 Y69.4 E0.3977
G1 X81.59 Y69.178 E0.42851
G1 X82.192 Y69.033 E0.45933
G1 X82.539 Y68.986 E0.47675
G1 X85.4 Y68.701 E0.61984
G1 X90.792 Y67.925 E0.89094
G1 X93.765 Y67.368 E1.04146
G1 X94.636 Y67.286 E1.085
G1 X96.82 Y67.28 E1.19369
G1 X97.438 Y67.318 E1.2245
G1 X97.786 Y67.376 E1.24206
G1 X100.582 Y67.943 E1.38404
G1 X107.694 Y69.014 E1.74196
G1 X108.299 Y69.146 E1.77278
G1 X108.882 Y69.354 E1.80358
G1 X109.434 Y69.636 E1.83443
G1 X109.944 Y69.986 E1.86521
G1 X110.405 Y70.4 E1.89605
G1 X110.809 Y70.869 E1.92685
G1 X111.149 Y71.386 E1.95765
G1 X111.519 Y72.208 E2.00251
G1 X112.479 Y75.02 E2.15038
G1 X114.446 Y80.111 E2.42199
G1 X116.568 Y84.855 E2.68061
G1 X116.685 Y85.14 E2.69595
G1 X117.251 Y86.661 E2.77671
G1 X117.429 Y87.254 E2.80752
G1 X117.511 Y87.708 E2.83048
G1 X117.665 Y88.878 E2.88921
G1 X117.702 Y89.31 E2.91079
G1 X117.747 Y90.424 E2.96627
G1 X117.732 Y91.043 E2.99708
G1 X117.692 Y91.365 E3.01323
G1 X117.409 Y93.16 E3.10367
G1 X117.274 Y93.764 E3.13447
G1 X117.153 Y94.122 E3.15327
G1 X115.618 Y98.148 E3.3677
G1 X113.917 Y103.279 E3.63671
G1 X112.493 Y108.556 E3.90871
G1 X111.675 Y112.272 E4.09807
G1 X111.503 Y112.867 E4.12889
G1 X111.256 Y113.435 E4.15972
G1 X110.938 Y113.966 E4.19052
G1 X110.554 Y114.452 E4.22134
G1 X110.111 Y114.884 E4.25214
G1 X109.615 Y115.255 E4.28296
G1 X109.076 Y115.56 E4.31378
G1 X108.503 Y115.793 E4.34456
G1 X107.627 Y115.995 E4.3893
G1 X105.565 Y116.271 E4.49283
G1 X100.191 Y117.199 E4.76423
G1 X97.817 Y117.71 E4.88508
G1 X97.204 Y117.801 E4.91592
G1 X96.808 Y117.817 E4.93565
G1 X94.805 Y117.817 E5.03533
G1 X94.187 Y117.777 E5.06615
G1 X93.58 Y117.658 E5.09693
G1 X92.993 Y117.461 E5.12774
G1 X92.344 Y117.137 E5.16384
G1 X89.537 Y115.459 E5.32659
G1 X84.767 Y112.886 E5.5963
G1 X79.008 Y110.188 E5.91279
G1 X78.235 Y109.733 E5.95743
G1 X75.199 Y107.54 E6.14381
G1 X74.721 Y107.146 E6.17464
G1 X74.453 Y106.872 E6.19372
G1 X71.93 Y104.087 E6.38073
G1 X71.544 Y103.602 E6.41158
G1 X71.339 Y103.279 E6.43061
G1 X69.45 Y100.033 E6.61752
G1 X69.174 Y99.479 E6.64832
G1 X69.039 Y99.119 E6.66745
G1 X67.862 Y95.539 E6.85499
G1 X67.707 Y94.94 E6.88579
G1 X67.65 Y94.556 E6.9051
G1 X67.247 Y90.822 E7.09201
G1 X67.22 Y90.203 E7.12284
G1 X67.244 Y89.82 E7.14194
G1 X67.626 Y86.074 E7.32933
G1 X67.728 Y85.464 E7.36011
G1 X67.831 Y85.094 E7.37922
G1 X68.979 Y81.522 E7.56594
G1 X69.206 Y80.946 E7.59675
G1 X69.385 Y80.603 E7.616
G1 X71.262 Y77.331 E7.80372
G1 X71.604 Y76.815 E7.83453
G1 X71.848 Y76.518 E7.85366
G1 X74.347 Y73.726 E8.04013
M204 S5000
G0 F2400 X74.645 Y73.993
M204 S200
G1 F1200 X75.069 Y73.578 E8.06966
G1 X75.326 Y73.375 E8.08596
G1 X78.368 Y71.151 E8.27349
G1 X79.127 Y70.706 E8.31727
G1 X81.179 Y69.763 E8.42966
G1 X81.733 Y69.552 E8.45916
G1 X82.579 Y69.383 E8.50209
G1 X85.45 Y69.097 E8.64568
G1 X90.853 Y68.32 E8.91733
G1 X93.839 Y67.76 E9.06852
G1 X94.637 Y67.685 E9.10841
G1 X96.821 Y67.679 E9.21709
G1 X97.412 Y67.717 E9.24657
G1 X97.707 Y67.767 E9.26146
G1 X100.522 Y68.338 E9.4044
G1 X107.635 Y69.409 E9.76237
G1 X108.214 Y69.537 E9.79188
G1 X108.77 Y69.741 E9.82135
G1 X109.294 Y70.018 E9.85085
G1 X109.776 Y70.363 E9.88035
G1 X110.207 Y70.77 E9.90985
G1 X110.579 Y71.231 E9.93933
G1 X110.886 Y71.739 E9.96887
G1 X111.141 Y72.337 E10.00122
G1 X112.107 Y75.167 E10.15004
G1 X114.07 Y80.247 E10.42106
G1 X116.204 Y85.018 E10.68116
G1 X116.311 Y85.28 E10.69525
G1 X116.877 Y86.801 E10.77601
G1 X117.046 Y87.369 E10.8055
G1 X117.115 Y87.76 E10.82526
G1 X117.269 Y88.93 E10.88399
G1 X117.303 Y89.327 E10.90382
G1 X117.348 Y90.441 E10.9593
G1 X117.298 Y91.303 E11.00227
G1 X117.015 Y93.098 E11.0927
G1 X116.884 Y93.676 E11.1222
G1 X116.78 Y93.98 E11.13819
G1 X115.239 Y98.02 E11.35337
G1 X113.529 Y103.183 E11.62403
G1 X112.108 Y108.448 E11.89543
G1 X111.285 Y112.187 E12.08595
G1 X111.119 Y112.756 E12.11545
G1 X110.878 Y113.297 E12.14492
G1 X110.566 Y113.801 E12.17442
G1 X110.189 Y114.259 E12.20394
G1 X109.754 Y114.661 E12.23342
G1 X109.269 Y115.002 E12.26292
G1 X108.742 Y115.274 E12.29244
G1 X108.184 Y115.473 E12.32192
G1 X107.574 Y115.599 E12.35292
G1 X105.522 Y115.873 E12.45594
G1 X100.112 Y116.808 E12.72917
G1 X97.733 Y117.32 E12.85027
G1 X97.146 Y117.405 E12.87979
G1 X96.808 Y117.418 E12.89662
G1 X94.805 Y117.418 E12.9963
G1 X94.214 Y117.378 E13.02578
G1 X93.633 Y117.259 E13.05529
G1 X93.074 Y117.063 E13.08477
G1 X92.548 Y116.795 E13.11415
G1 X89.717 Y115.102 E13.27831
G1 X84.948 Y112.53 E13.54795
G1 X79.178 Y109.827 E13.86505
G1 X78.468 Y109.409 E13.90605
G1 X75.432 Y107.216 E14.09243
G1 X74.976 Y106.838 E14.12191
G1 X74.748 Y106.604 E14.13817
G1 X72.225 Y103.819 E14.32518
G1 X71.858 Y103.354 E14.35466
G1 X71.684 Y103.079 E14.37085
G1 X69.795 Y99.833 E14.55775
G1 X69.532 Y99.301 E14.58729
G1 X69.418 Y98.994 E14.60359
G1 X68.241 Y95.414 E14.79113
G1 X68.094 Y94.84 E14.82062
G1 X68.046 Y94.513 E14.83706
G1 X67.643 Y90.779 E15.02397
G1 X67.62 Y90.187 E15.05345
G1 X67.641 Y89.861 E15.06971
G1 X68.023 Y86.115 E15.2571
G1 X68.122 Y85.531 E15.28657
G1 X68.211 Y85.216 E15.30286
G1 X69.359 Y81.644 E15.48958
G1 X69.578 Y81.093 E15.51909
G1 X69.731 Y80.801 E15.53549
G1 X71.608 Y77.529 E15.72322
G1 X71.937 Y77.036 E15.75271
G1 X72.146 Y76.785 E15.76897
G1 X74.645 Y73.993 E15.95544
M204 S5000
G0 F2400 X74.942 Y74.259
M204 S200
G1 F1200 X75.561 Y73.698 E15.99701
G1 X78.603 Y71.474 E16.18454
G1 X79.294 Y71.068 E16.22443
G1 X81.346 Y70.125 E16.33681
G1 X81.875 Y69.926 E16.36494
G1 X82.618 Y69.78 E16.40262
G1 X85.502 Y69.492 E16.54686
G1 X90.91 Y68.715 E16.81876
G1 X93.912 Y68.152 E16.97076
G1 X94.638 Y68.084 E17.00704
G1 X96.822 Y68.078 E17.11573
G1 X97.627 Y68.158 E17.15599
G1 X100.461 Y68.732 E17.29989
G1 X107.575 Y69.804 E17.65792
G1 X108.127 Y69.927 E17.68606
G1 X108.656 Y70.127 E17.71421
G1 X109.151 Y70.4 E17.74234
G1 X109.602 Y70.739 E17.77042
G1 X110.002 Y71.139 E17.79857
G1 X110.341 Y71.592 E17.82673
G1 X110.613 Y72.087 E17.85483
G1 X110.764 Y72.466 E17.87514
G1 X111.736 Y75.313 E18.02485
G1 X113.701 Y80.399 E18.29619
G1 X115.84 Y85.181 E18.55689
G1 X115.937 Y85.419 E18.56968
G1 X116.503 Y86.94 E18.65045
G1 X116.662 Y87.482 E18.67856
G1 X116.72 Y87.812 E18.69523
G1 X116.874 Y88.982 E18.75396
G1 X116.905 Y89.343 E18.77199
G1 X116.95 Y90.457 E18.82747
G1 X116.904 Y91.241 E18.86656
G1 X116.621 Y93.036 E18.95699
G1 X116.408 Y93.837 E18.99824
G1 X114.859 Y97.898 E19.21454
G1 X113.148 Y103.063 E19.48531
G1 X111.718 Y108.365 E19.7586
G1 X110.895 Y112.101 E19.94898
G1 X110.735 Y112.643 E19.9771
G1 X110.5 Y113.157 E20.00523
G1 X110.195 Y113.632 E20.03332
G1 X109.826 Y114.06 E20.06144
G1 X109.4 Y114.432 E20.08959
G1 X108.926 Y114.74 E20.11772
G1 X108.413 Y114.978 E20.14586
G1 X107.872 Y115.141 E20.17398
G1 X107.521 Y115.204 E20.19173
G1 X105.454 Y115.48 E20.29551
G1 X100.034 Y116.417 E20.56924
G1 X97.649 Y116.93 E20.69064
G1 X96.808 Y117.019 E20.73273
G1 X94.805 Y117.019 E20.83241
G1 X94.241 Y116.979 E20.86055
G1 X93.689 Y116.86 E20.88865
G1 X93.159 Y116.664 E20.91677
G1 X92.753 Y116.452 E20.93956
G1 X89.932 Y114.765 E21.10314
G1 X85.114 Y112.166 E21.37557
G1 X79.347 Y109.465 E21.69249
G1 X78.702 Y109.086 E21.72972
G1 X75.666 Y106.893 E21.9161
G1 X75.044 Y106.336 E21.95765
G1 X72.521 Y103.551 E22.14466
G1 X72.029 Y102.878 E22.18615
G1 X70.14 Y99.632 E22.37305
G1 X69.797 Y98.87 E22.41464
G1 X68.62 Y95.29 E22.60218
G1 X68.443 Y94.47 E22.64393
G1 X68.04 Y90.736 E22.83083
G1 X68.038 Y89.901 E22.87238
G1 X68.42 Y86.155 E23.05977
G1 X68.591 Y85.338 E23.10131
G1 X69.739 Y81.766 E23.28803
G1 X70.077 Y81 E23.3297
G1 X71.954 Y77.728 E23.51742
G1 X72.443 Y77.051 E23.55898
G1 X74.942 Y74.259 E23.74545
M204 S5000
G0 F2400 X75.239 Y74.525
M204 S200
G1 F1200 X75.797 Y74.02 E23.78291
G1 X78.839 Y71.796 E23.97044
G1 X79.46 Y71.431 E24.00628
G1 X81.512 Y70.488 E24.11867
G1 X82.015 Y70.301 E24.14538
G1 X82.658 Y70.177 E24.17796
G1 X85.552 Y69.888 E24.3227
G1 X90.994 Y69.106 E24.59631
G1 X93.986 Y68.545 E24.7478
G1 X94.639 Y68.483 E24.78044
G1 X96.823 Y68.477 E24.88913
G1 X97.548 Y68.549 E24.92539
G1 X100.381 Y69.123 E25.06924
G1 X107.516 Y70.198 E25.42832
G1 X108.039 Y70.317 E25.45502
G1 X108.538 Y70.513 E25.4817
G1 X109.003 Y70.78 E25.50838
G1 X109.423 Y71.114 E25.53509
G1 X109.788 Y71.506 E25.56174
G1 X110.092 Y71.948 E25.58844
G1 X110.386 Y72.595 E25.6238
G1 X111.356 Y75.438 E25.7733
G1 X113.336 Y80.561 E26.04662
G1 X115.475 Y85.343 E26.30732
G1 X115.563 Y85.558 E26.31889
G1 X116.129 Y87.079 E26.39965
G1 X116.278 Y87.594 E26.42633
G1 X116.324 Y87.864 E26.43996
G1 X116.478 Y89.034 E26.49869
G1 X116.506 Y89.359 E26.51492
G1 X116.551 Y90.473 E26.57041
G1 X116.51 Y91.178 E26.60555
G1 X116.227 Y92.973 E26.69598
G1 X116.035 Y93.695 E26.73316
G1 X114.481 Y97.77 E26.9502
G1 X112.768 Y102.938 E27.22115
G1 X111.332 Y108.262 E27.49557
G1 X110.506 Y112.015 E27.68681
G1 X110.352 Y112.529 E27.71351
G1 X110.123 Y113.014 E27.7402
G1 X109.825 Y113.459 E27.76686
G1 X109.464 Y113.856 E27.79356
G1 X109.048 Y114.194 E27.82023
G1 X108.587 Y114.467 E27.8469
G1 X108.09 Y114.668 E27.87358
G1 X107.468 Y114.808 E27.90531
G1 X105.386 Y115.086 E28.00984
G1 X99.979 Y116.021 E28.28291
G1 X97.565 Y116.54 E28.40579
G1 X96.808 Y116.62 E28.44367
G1 X94.805 Y116.62 E28.54335
G1 X94.27 Y116.58 E28.57005
G1 X93.747 Y116.461 E28.59675
G1 X93.248 Y116.266 E28.62341
G1 X92.958 Y116.11 E28.63979
G1 X90.131 Y114.42 E28.8037
G1 X85.294 Y111.811 E29.0772
G1 X79.516 Y109.104 E29.39474
G1 X78.936 Y108.762 E29.42825
G1 X75.9 Y106.569 E29.61463
G1 X75.34 Y106.068 E29.65202
G1 X72.817 Y103.283 E29.83904
G1 X72.373 Y102.677 E29.87642
G1 X70.484 Y99.431 E30.06333
G1 X70.176 Y98.745 E30.10075
G1 X68.999 Y95.165 E30.28829
G1 X68.84 Y94.427 E30.32586
G1 X68.437 Y90.693 E30.51276
G1 X68.435 Y89.942 E30.55014
G1 X68.817 Y86.196 E30.73753
G1 X68.971 Y85.46 E30.77495
G1 X70.119 Y81.888 E30.96166
G1 X70.423 Y81.198 E30.99919
G1 X72.3 Y77.926 E31.18691
G1 X72.74 Y77.317 E31.2243
G1 X75.239 Y74.525 E31.41077
M204 S5000
G0 F2400 X75.537 Y74.791
M204 S200
G1 F1200 X76.032 Y74.342 E31.44403
G1 X79.074 Y72.118 E31.63156
G1 X79.627 Y71.793 E31.66348
G1 X81.679 Y70.85 E31.77587
G1 X82.153 Y70.676 E31.801
G1 X82.698 Y70.574 E31.82859
G1 X85.603 Y70.284 E31.97388
G1 X91.051 Y69.501 E32.24778
G1 X94.059 Y68.937 E32.40009
G1 X94.64 Y68.882 E32.42913
G1 X96.824 Y68.876 E32.53782
G1 X97.469 Y68.94 E32.57007
G1 X100.321 Y69.518 E32.71489
G1 X107.457 Y70.593 E33.07402
G1 X107.949 Y70.707 E33.09916
G1 X108.417 Y70.898 E33.12431
G1 X108.85 Y71.16 E33.1495
G1 X109.235 Y71.487 E33.17464
G1 X109.565 Y71.87 E33.1998
G1 X109.83 Y72.301 E33.22498
G1 X110.009 Y72.724 E33.24783
G1 X110.982 Y75.576 E33.3978
G1 X112.97 Y80.719 E33.6722
G1 X115.111 Y85.506 E33.93317
G1 X115.189 Y85.697 E33.94343
G1 X115.755 Y87.218 E34.0242
G1 X115.929 Y87.916 E34.06
G1 X116.083 Y89.086 E34.11872
G1 X116.107 Y89.375 E34.13316
G1 X116.152 Y90.489 E34.18864
G1 X116.116 Y91.116 E34.21989
G1 X115.833 Y92.911 E34.31033
G1 X115.662 Y93.553 E34.34339
G1 X114.113 Y97.615 E34.55974
G1 X112.383 Y102.835 E34.83341
G1 X110.942 Y108.179 E35.10885
G1 X110.116 Y111.929 E35.29995
G1 X109.969 Y112.413 E35.32512
G1 X109.747 Y112.867 E35.35027
G1 X109.457 Y113.281 E35.37542
G1 X109.104 Y113.644 E35.40062
G1 X108.7 Y113.947 E35.42575
G1 X108.252 Y114.182 E35.45093
G1 X107.773 Y114.344 E35.47609
G1 X107.415 Y114.413 E35.49424
G1 X105.318 Y114.693 E35.59952
G1 X99.877 Y115.634 E35.87432
G1 X97.481 Y116.149 E35.99628
G1 X96.808 Y116.221 E36.02996
G1 X94.805 Y116.221 E36.12964
G1 X94.301 Y116.181 E36.1548
G1 X93.81 Y116.062 E36.17994
G1 X93.163 Y115.767 E36.21533
G1 X90.32 Y114.067 E36.38018
G1 X85.489 Y111.461 E36.65335
G1 X79.686 Y108.743 E36.97224
G1 X79.169 Y108.439 E37.00209
G1 X76.133 Y106.246 E37.18847
G1 X75.635 Y105.8 E37.22174
G1 X73.112 Y103.015 E37.40875
G1 X72.718 Y102.477 E37.44194
G1 X70.829 Y99.231 E37.62884
G1 X70.555 Y98.62 E37.66216
G1 X69.378 Y95.04 E37.84971
G1 X69.236 Y94.384 E37.88311
G1 X68.833 Y90.65 E38.07001
G1 X68.832 Y89.982 E38.10326
G1 X69.214 Y86.236 E38.29064
G1 X69.35 Y85.582 E38.32389
G1 X70.498 Y82.01 E38.5106
G1 X70.769 Y81.397 E38.54396
G1 X72.646 Y78.125 E38.73168
G1 X73.038 Y77.583 E38.76497
G1 X75.537 Y74.791 E38.95144
M204 S5000
G1 F1500 E36.95144
G0 F2400 X82.996 Y73.086
G0 X94.569 Y72.851
M204 S200
;TYPE:SUPPORT
G1 F1500 E38.95144
G1 F1200 X94.819 Y72.263 E38.98324
G1 X96.696 Y72.264 E39.07665
G1 X96.932 Y72.851 E39.10813
G1 X94.569 Y72.851 E39.22573
M204 S5000
G0 F2400 X95.976 Y72.691
M204 S200
G1 F1200 X95.976 Y72.424 E39.23902
M204 S5000
G1 F1500 E37.23902
G0 F2400 X82.819 Y73.124
G0 X80.621 Y74.116
G0 X77.482 Y76.407
G0 X74.878 Y79.312
G0 X72.929 Y82.71
G0 X71.736 Y86.405
G0 X71.337 Y90.295
G0 X71.757 Y94.184
G0 X72.964 Y97.874
G0 X74.932 Y101.259
G0 X77.551 Y104.153
G0 X80.689 Y106.425
G0 X84.278 Y108.013
G0 X94.843 Y111.911
G0 X99.157 Y111.911
G0 X99.661 Y111.407
G0 X99.899 Y83.677
M204 S200
G1 F1500 E39.23902
G1 F1200 X100.101 Y83.569 E39.25042
G1 X100.101 Y96.923 E39.91499
G1 X99.899 Y96.815 E39.92638
G1 X99.899 Y83.677 E40.5802
M204 S5000
G0 F2400 X99.899 Y102.518
M204 S200
G1 F1200 X100.101 Y102.518 E40.59026
G1 X100.101 Y109.982 E40.96171
G1 X99.899 Y109.982 E40.97176
G1 X99.899 Y102.518 E41.34321
M204 S5000
G1 F1500 E39.34321
G0 F2400 X99.661 Y111.407
G0 X99.157 Y111.911
G0 X96.959 Y112.149
M204 S200
G1 F1500 E41.34321
G1 F1200 X96.673 Y112.832 E41.38006
G1 X94.916 Y112.832 E41.46749
G1 X94.553 Y112.149 E41.50599
G1 X96.959 Y112.149 E41.62572
M204 S5000
G0 F2400 X95.976 Y112.309
M204 S200
G1 F1200 X95.976 Y112.672 E41.64379
M204 S5000
G1 F1500 E39.64379
G0 F2400 X95.976 Y111.915
G0 X95.976 Y110.633
G0 X97.805 Y110.254
M204 S200
;TYPE:WALL-INNER
G1 F1500 E41.64379
G1 F1200 X95.996 Y110.254 E41.73381
G1 X95.996 Y106.503 E41.92048
G1 X95.996 Y106.502 E41.92053
G1 X95.996 Y106.257 E41.93273
G1 X95.756 Y106.308 E41.94019
G1 X91.778 Y107.155 E42.14259
G1 X88.222 Y107.155 E42.31956
G1 X84.75 Y106.416 E42.49622
G1 X81.493 Y104.965 E42.67366
G1 X78.866 Y103.055 E42.8353
G1 X78.627 Y102.881 E42.85001
G1 X78.028 Y102.216 E42.89455
G1 X77.064 Y101.146 E42.96622
G1 X76.248 Y100.24 E43.0269
G1 X74.47 Y97.162 E43.2038
G1 X73.374 Y93.789 E43.3803
G1 X73.001 Y90.25 E43.55739
G1 X73.374 Y86.711 E43.73449
G1 X74.47 Y83.338 E43.91098
G1 X76.248 Y80.26 E44.08788
G1 X77.081 Y79.335 E44.14983
G1 X78.025 Y78.286 E44.22006
G1 X78.628 Y77.616 E44.26492
G1 X78.858 Y77.449 E44.27906
G1 X81.5 Y75.53 E44.44157
G1 X83.259 Y74.746 E44.53741
G1 X106.004 Y74.746 E45.66932
G1 X106.004 Y83.345 E46.09725
G1 X107.483 Y83.707 E46.17303
G1 X108.968 Y84.487 E46.25651
G1 X110.241 Y85.615 E46.34115
G1 X111.197 Y86.997 E46.42478
G1 X111.794 Y88.573 E46.50865
G1 X111.996 Y90.25 E46.59271
G1 X111.794 Y91.927 E46.67677
G1 X111.197 Y93.503 E46.76064
G1 X110.241 Y94.885 E46.84426
G1 X108.968 Y96.013 E46.92891
G1 X107.483 Y96.793 E47.01238
G1 X106.004 Y97.155 E47.08816
G1 X106.004 Y110.254 E47.74004
G1 X101.996 Y110.254 E47.9395
G1 X101.996 Y92.858 E48.80522
G1 X101.996 Y92.857 E48.80527
G1 X101.996 Y92.377 E48.82915
G1 X102.336 Y92.717 E48.84203
G1 X103.122 Y93.503 E48.89735
G1 X105 Y94.006 E48.9941
G1 X106.878 Y93.503 E49.09085
G1 X108.253 Y92.128 E49.18763
G1 X108.756 Y90.25 E49.28438
G1 X108.253 Y88.372 E49.38113
G1 X106.878 Y86.997 E49.4779
G1 X105 Y86.494 E49.57466
G1 X103.122 Y86.997 E49.67141
G1 X102.336 Y87.783 E49.72673
G1 X101.996 Y88.123 E49.75066
G1 X101.996 Y87.643 E49.76351
G1 X101.996 Y87.642 E49.76356
G1 X101.996 Y82.188 E50.03498
G1 X102.634 Y81.083 E50.09848
G1 X102.634 Y79.618 E50.17139
