;FLAVOR:Marlin
;TIME:2523
;Filament used: 2.59331m
;Layer height: 0.2
;Generated with Cura_SteamEngine 2.7.0
M190 S60
M104 S220
M109 S220
G21 ;metric values
G90 ;absolute positioning
M82 ;set extruder to absolute mode
M107 ;start with the fan off
G92 E0 ;zero the extruded length
G1 F200 E3 ;extrude 3mm of feed stock
G92 E0 ;zero the extruded length again
G1 F9000
M117 Printing...
;LAYER_COUNT:23
;LAYER:0
M107
M204 S5000
G0 F2400 X56.703 Y78.597 Z0.3
G0 X57.045 Y78.366
M204 S200
;TYPE:SKIRT
G1 F1200 X57.714 Y77.955 E0.03907
G1 X58.377 Y77.615 E0.07615
G1 X59.093 Y77.316 E0.11477
G1 X59.678 Y77.115 E0.14555
G1 X60.122 Y77.016 E0.16819
G1 X61.611 Y76.758 E0.2434
G1 X61.976 Y76.71 E0.26172
G1 X64.036 Y76.514 E0.3647
G1 X69.433 Y75.783 E0.63573
G1 X74.76 Y74.752 E0.90575
G1 X77.312 Y74.145 E1.0363
G1 X79.948 Y73.439 E1.1721
G1 X86 Y71.593 E1.48698
G1 X86.26 Y71.521 E1.50041
G1 X87.634 Y71.185 E1.5708
G1 X88.172 Y71.086 E1.59802
G1 X90.594 Y70.78 E1.71951
G1 X91.145 Y70.742 E1.747
G1 X92.966 Y70.723 E1.83763
G1 X93.48 Y70.745 E1.86323
G1 X96.528 Y71.041 E2.01563
G1 X97.21 Y71.158 E2.05007
G1 X99.661 Y71.761 E2.17568
G1 X99.917 Y71.832 E2.1889
G1 X106.135 Y73.733 E2.51248
G1 X111.436 Y75.01 E2.78383
G1 X113.987 Y75.509 E2.91319
G1 X119.367 Y76.33 E3.18403
G1 X124.048 Y76.837 E3.41834
G1 X124.658 Y76.943 E3.44915
G1 X125.116 Y77.078 E3.47292
G1 X126.364 Y77.515 E3.53872
G1 X126.934 Y77.757 E3.56954
G1 X127.294 Y77.958 E3.59006
G1 X127.95 Y78.362 E3.6284
G1 X128.557 Y78.805 E3.66579
G1 X129.161 Y79.323 E3.70539
G1 X129.789 Y79.975 E3.75044
G1 X130.433 Y80.783 E3.80186
G1 X130.895 Y81.478 E3.8434
G1 X131.26 Y82.148 E3.88137
G1 X131.52 Y82.709 E3.91214
G1 X131.638 Y83.052 E3.93019
G1 X132.018 Y84.307 E3.99544
G1 X132.159 Y84.91 E4.02626
G1 X132.217 Y85.442 E4.05289
G1 X132.289 Y86.794 E4.12027
G1 X132.296 Y87.056 E4.13332
G1 X132.269 Y104.787 E5.01571
G1 X132.228 Y105.403 E5.04643
G1 X132.134 Y106.121 E5.08247
G1 X132.015 Y106.728 E5.11325
G1 X131.908 Y107.077 E5.13142
G1 X131.468 Y108.339 E5.19793
G1 X131.227 Y108.909 E5.22873
G1 X131.023 Y109.275 E5.24958
G1 X130.619 Y109.931 E5.28792
G1 X130.098 Y110.627 E5.33118
G1 X129.432 Y111.366 E5.38069
G1 X128.988 Y111.798 E5.41152
G1 X128.621 Y112.083 E5.43465
G1 X127.528 Y112.849 E5.50107
G1 X127 Y113.17 E5.53182
G1 X126.266 Y113.48 E5.57147
G1 X124.773 Y113.968 E5.64964
G1 X124.173 Y114.122 E5.68047
G1 X123.625 Y114.193 E5.70797
G1 X122.674 Y114.261 E5.75541
G1 X122.324 Y114.273 E5.77284
G1 X97.909 Y114.232 E6.98787
G1 X97.741 Y114.229 E6.99623
G1 X93.787 Y114.084 E7.19313
G1 X88.385 Y114.163 E7.462
G1 X86.487 Y114.262 E7.55658
G1 X86.236 Y114.268 E7.56907
G1 X62.33 Y114.26 E8.75877
G1 X61.892 Y114.24 E8.78059
G1 X61.252 Y114.181 E8.81257
G1 X60.564 Y114.066 E8.84729
G1 X59.837 Y113.89 E8.88451
G1 X58.992 Y113.6 E8.92897
G1 X58.037 Y113.169 E8.98111
G1 X57.49 Y112.879 E9.01192
G1 X57.1 Y112.61 E9.0355
G1 X56.044 Y111.804 E9.10161
G1 X55.577 Y111.398 E9.13241
G1 X55.283 Y111.078 E9.15403
G1 X54.772 Y110.47 E9.19356
G1 X54.273 Y109.753 E9.23703
G1 X53.781 Y108.887 E9.2866
G1 X53.511 Y108.33 E9.3174
G1 X53.36 Y107.907 E9.33975
G1 X52.98 Y106.651 E9.40506
G1 X52.84 Y106.048 E9.43586
G1 X52.79 Y105.635 E9.45657
G1 X52.728 Y104.841 E9.4962
G1 X52.713 Y104.468 E9.51478
G1 X52.714 Y86.481 E10.40991
G1 X52.743 Y85.954 E10.43618
G1 X52.857 Y84.923 E10.4878
G1 X52.965 Y84.313 E10.51863
G1 X53.099 Y83.86 E10.54213
G1 X53.54 Y82.605 E10.60833
G1 X53.783 Y82.035 E10.63917
G1 X54.061 Y81.556 E10.66673
G1 X54.616 Y80.714 E10.71692
G1 X54.989 Y80.22 E10.74772
G1 X55.294 Y79.898 E10.7698
G1 X56.23 Y78.997 E10.83445
G1 X56.703 Y78.597 E10.86528
G1 X57.045 Y78.366 E10.88582
M204 S5000
G0 F2400 X57.254 Y78.706
M204 S200
G1 F1200 X57.923 Y78.295 E10.92489
G1 X58.531 Y77.984 E10.95888
G1 X59.247 Y77.685 E10.99749
G1 X59.808 Y77.494 E11.02698
G1 X60.19 Y77.41 E11.04645
G1 X61.679 Y77.152 E11.12165
G1 X62.014 Y77.107 E11.13847
G1 X64.103 Y76.908 E11.2429
G1 X69.491 Y76.179 E11.51348
G1 X74.832 Y75.145 E11.78422
G1 X77.445 Y74.523 E11.91789
G1 X80.016 Y73.834 E12.05035
G1 X86.116 Y71.974 E12.36772
G1 X86.355 Y71.909 E12.38004
G1 X87.729 Y71.573 E12.45044
G1 X88.222 Y71.482 E12.47538
G1 X90.644 Y71.176 E12.59687
G1 X91.149 Y71.141 E12.62207
G1 X92.97 Y71.122 E12.71269
G1 X93.441 Y71.143 E12.73616
G1 X96.489 Y71.439 E12.88856
G1 X97.114 Y71.545 E12.9201
G1 X99.565 Y72.148 E13.04572
G1 X99.8 Y72.213 E13.05785
G1 X106.037 Y74.12 E13.38242
G1 X111.358 Y75.402 E13.6548
G1 X113.901 Y75.899 E13.78375
G1 X119.333 Y76.728 E14.0572
G1 X124.005 Y77.234 E14.29107
G1 X124.588 Y77.337 E14.32053
G1 X124.984 Y77.455 E14.34109
G1 X126.232 Y77.892 E14.4069
G1 X126.777 Y78.125 E14.4364
G1 X127.085 Y78.298 E14.45398
G1 X127.741 Y78.702 E14.49232
G1 X128.297 Y79.108 E14.52658
G1 X128.901 Y79.626 E14.56618
G1 X129.477 Y80.223 E14.60746
G1 X130.121 Y81.031 E14.65888
G1 X130.544 Y81.669 E14.69698
G1 X130.909 Y82.339 E14.73495
G1 X131.157 Y82.877 E14.76443
G1 X131.256 Y83.168 E14.77972
G1 X131.636 Y84.423 E14.84498
G1 X131.769 Y85 E14.87445
G1 X131.819 Y85.463 E14.89762
G1 X131.891 Y86.815 E14.965
G1 X131.897 Y87.056 E14.977
G1 X131.87 Y104.787 E15.85939
G1 X131.833 Y105.351 E15.88752
G1 X131.739 Y106.069 E15.92356
G1 X131.622 Y106.65 E15.95305
G1 X131.531 Y106.946 E15.96846
G1 X131.091 Y108.208 E16.03497
G1 X130.858 Y108.753 E16.06447
G1 X130.683 Y109.066 E16.08231
G1 X130.279 Y109.722 E16.12066
G1 X129.801 Y110.36 E16.16033
G1 X129.135 Y111.099 E16.20984
G1 X128.71 Y111.511 E16.23929
G1 X128.393 Y111.756 E16.25923
G1 X127.3 Y112.522 E16.32565
G1 X126.792 Y112.828 E16.35517
G1 X126.142 Y113.1 E16.39023
G1 X124.649 Y113.588 E16.4684
G1 X124.075 Y113.734 E16.49787
G1 X123.597 Y113.795 E16.52186
G1 X122.646 Y113.863 E16.5693
G1 X122.325 Y113.874 E16.58529
G1 X97.91 Y113.833 E17.80031
G1 X97.756 Y113.83 E17.80798
G1 X93.816 Y113.686 E18.00419
G1 X88.331 Y113.766 E18.27718
G1 X86.466 Y113.863 E18.37012
G1 X86.237 Y113.869 E18.38152
G1 X62.331 Y113.861 E19.57121
G1 X61.928 Y113.842 E19.59129
G1 X61.288 Y113.783 E19.62327
G1 X60.657 Y113.679 E19.6551
G1 X59.93 Y113.503 E19.69232
G1 X59.156 Y113.237 E19.73305
G1 X58.201 Y112.806 E19.78519
G1 X57.679 Y112.526 E19.81467
G1 X57.342 Y112.293 E19.83506
G1 X56.286 Y111.487 E19.90117
G1 X55.84 Y111.097 E19.93066
G1 X55.588 Y110.821 E19.94926
G1 X55.077 Y110.213 E19.98878
G1 X54.62 Y109.556 E20.02861
G1 X54.128 Y108.69 E20.07818
G1 X53.871 Y108.156 E20.10767
G1 X53.742 Y107.791 E20.12693
G1 X53.362 Y106.535 E20.19224
G1 X53.229 Y105.958 E20.22171
G1 X53.187 Y105.604 E20.23945
G1 X53.125 Y104.81 E20.27908
G1 X53.112 Y104.468 E20.29611
G1 X53.113 Y86.481 E21.19124
G1 X53.14 Y85.998 E21.21532
G1 X53.254 Y84.967 E21.26694
G1 X53.358 Y84.383 E21.29646
G1 X53.476 Y83.992 E21.31678
G1 X53.917 Y82.737 E21.38298
G1 X54.15 Y82.193 E21.41243
G1 X54.394 Y81.775 E21.43652
G1 X54.949 Y80.933 E21.48671
G1 X55.308 Y80.461 E21.51622
G1 X55.571 Y80.185 E21.53519
G1 X56.507 Y79.284 E21.59985
G1 X56.96 Y78.903 E21.6293
G1 X57.254 Y78.706 E21.64692
M204 S5000
G0 F2400 X57.463 Y79.045
M204 S200
G1 F1200 X58.132 Y78.634 E21.68599
G1 X58.684 Y78.352 E21.71684
G1 X59.4 Y78.053 E21.75545
G1 X59.936 Y77.872 E21.78361
G1 X60.258 Y77.803 E21.79999
G1 X61.747 Y77.545 E21.8752
G1 X62.052 Y77.504 E21.89051
G1 X64.145 Y77.305 E21.99514
G1 X69.567 Y76.571 E22.26743
G1 X74.926 Y75.533 E22.53908
G1 X77.502 Y74.92 E22.67086
G1 X80.153 Y74.21 E22.80744
G1 X86.233 Y72.356 E23.12377
G1 X86.449 Y72.296 E23.13492
G1 X87.823 Y71.96 E23.20531
G1 X88.272 Y71.878 E23.22803
G1 X90.694 Y71.572 E23.34952
G1 X91.153 Y71.54 E23.37242
G1 X92.974 Y71.521 E23.46304
G1 X93.402 Y71.54 E23.48436
G1 X96.45 Y71.836 E23.63676
G1 X97.019 Y71.933 E23.66549
G1 X99.47 Y72.536 E23.7911
G1 X99.684 Y72.595 E23.80215
G1 X105.928 Y74.504 E24.12708
G1 X111.262 Y75.789 E24.40013
G1 X113.857 Y76.296 E24.53171
G1 X119.254 Y77.12 E24.80341
G1 X123.962 Y77.63 E25.03907
G1 X124.518 Y77.731 E25.06719
G1 X124.852 Y77.832 E25.08456
G1 X126.1 Y78.269 E25.15036
G1 X126.619 Y78.493 E25.1785
G1 X126.875 Y78.638 E25.19314
G1 X127.531 Y79.042 E25.23148
G1 X128.038 Y79.411 E25.26268
G1 X128.642 Y79.929 E25.30228
G1 X129.165 Y80.472 E25.3398
G1 X129.809 Y81.28 E25.39122
G1 X130.194 Y81.859 E25.42582
G1 X130.559 Y82.529 E25.46379
G1 X130.874 Y83.283 E25.50446
G1 X131.254 Y84.538 E25.56971
G1 X131.38 Y85.09 E25.59789
G1 X131.42 Y85.484 E25.6176
G1 X131.492 Y86.836 E25.68498
G1 X131.498 Y87.055 E25.69588
G1 X131.471 Y104.786 E26.57827
G1 X131.437 Y105.299 E26.60386
G1 X131.343 Y106.017 E26.6399
G1 X131.154 Y106.814 E26.68066
G1 X130.714 Y108.076 E26.74717
G1 X130.491 Y108.595 E26.77528
G1 X130.343 Y108.856 E26.79021
G1 X129.939 Y109.512 E26.82855
G1 X129.505 Y110.093 E26.86464
G1 X128.839 Y110.832 E26.91415
G1 X128.432 Y111.224 E26.94227
G1 X128.164 Y111.429 E26.95907
G1 X127.071 Y112.195 E27.02549
G1 X126.586 Y112.486 E27.05363
G1 X126.018 Y112.721 E27.08423
G1 X124.525 Y113.209 E27.16239
G1 X123.977 Y113.346 E27.1905
G1 X123.568 Y113.397 E27.21102
G1 X122.617 Y113.465 E27.25846
G1 X122.325 Y113.475 E27.273
G1 X97.91 Y113.434 E28.48803
G1 X97.77 Y113.431 E28.495
G1 X93.824 Y113.286 E28.69151
G1 X88.333 Y113.367 E28.9648
G1 X86.446 Y113.465 E29.05883
G1 X86.237 Y113.47 E29.06924
G1 X62.331 Y113.462 E30.25893
G1 X61.965 Y113.445 E30.27716
G1 X61.325 Y113.386 E30.30915
G1 X60.751 Y113.291 E30.3381
G1 X60.024 Y113.115 E30.37533
G1 X59.32 Y112.873 E30.41237
G1 X58.365 Y112.442 E30.46452
G1 X57.868 Y112.174 E30.49262
G1 X57.584 Y111.976 E30.50984
G1 X56.528 Y111.17 E30.57596
G1 X56.104 Y110.796 E30.60409
G1 X55.893 Y110.564 E30.6197
G1 X55.382 Y109.956 E30.65922
G1 X54.967 Y109.359 E30.69541
G1 X54.475 Y108.493 E30.74497
G1 X54.231 Y107.983 E30.77311
G1 X54.124 Y107.676 E30.78929
G1 X53.744 Y106.42 E30.85459
G1 X53.619 Y105.869 E30.88271
G1 X53.585 Y105.573 E30.89754
G1 X53.523 Y104.779 E30.93717
G1 X53.511 Y104.468 E30.95266
G1 X53.512 Y86.481 E31.84779
G1 X53.536 Y86.042 E31.86967
G1 X53.65 Y85.011 E31.92129
G1 X53.752 Y84.455 E31.94942
G1 X53.852 Y84.125 E31.96658
G1 X54.293 Y82.87 E32.03278
G1 X54.518 Y82.351 E32.06093
G1 X54.727 Y81.995 E32.08148
G1 X55.282 Y81.153 E32.13166
G1 X55.626 Y80.704 E32.15981
G1 X55.847 Y80.473 E32.17572
G1 X56.783 Y79.572 E32.24038
G1 X57.217 Y79.209 E32.26853
G1 X57.463 Y79.045 E32.28325
M204 S5000
G0 F2400 X57.672 Y79.385
M204 S200
G1 F1200 X58.341 Y78.974 E32.32232
G1 X58.838 Y78.72 E32.3501
G1 X59.554 Y78.421 E32.38871
G1 X60.063 Y78.252 E32.4154
G1 X60.327 Y78.196 E32.42883
G1 X61.816 Y77.938 E32.50404
G1 X62.089 Y77.901 E32.51775
G1 X64.211 Y77.699 E32.62383
G1 X69.627 Y76.966 E32.89581
G1 X75.003 Y75.925 E33.16832
G1 X77.584 Y75.311 E33.30035
G1 X80.282 Y74.588 E33.43936
G1 X86.349 Y72.738 E33.75501
G1 X86.544 Y72.684 E33.76508
G1 X87.918 Y72.348 E33.83547
G1 X88.322 Y72.273 E33.85592
G1 X90.744 Y71.967 E33.97741
G1 X91.157 Y71.939 E33.99801
G1 X92.978 Y71.92 E34.08864
G1 X93.364 Y71.937 E34.10787
G1 X96.412 Y72.233 E34.26027
G1 X96.924 Y72.32 E34.28611
G1 X99.375 Y72.923 E34.41172
G1 X99.567 Y72.976 E34.42163
G1 X105.833 Y74.892 E34.74772
G1 X111.179 Y76.18 E35.02138
G1 X113.77 Y76.686 E35.15275
G1 X119.22 Y77.518 E35.42712
G1 X123.919 Y78.027 E35.66233
G1 X124.446 Y78.124 E35.689
G1 X124.72 Y78.208 E35.70326
G1 X125.968 Y78.645 E35.76907
G1 X126.666 Y78.978 E35.80756
G1 X127.322 Y79.382 E35.8459
G1 X127.778 Y79.714 E35.87397
G1 X128.382 Y80.232 E35.91357
G1 X128.853 Y80.721 E35.94735
G1 X129.497 Y81.529 E35.99877
G1 X129.843 Y82.05 E36.0299
G1 X130.208 Y82.72 E36.06787
G1 X130.493 Y83.399 E36.10451
G1 X130.873 Y84.654 E36.16977
G1 X130.989 Y85.177 E36.19643
G1 X131.022 Y85.506 E36.21288
G1 X131.094 Y86.858 E36.28026
G1 X131.099 Y87.054 E36.29002
G1 X131.072 Y104.785 E37.17241
G1 X131.042 Y105.247 E37.19545
G1 X130.948 Y105.965 E37.23149
G1 X130.777 Y106.683 E37.26822
G1 X130.337 Y107.945 E37.33473
G1 X130.003 Y108.647 E37.37342
G1 X129.599 Y109.303 E37.41176
G1 X129.208 Y109.825 E37.44422
G1 X128.542 Y110.564 E37.49373
G1 X128.155 Y110.935 E37.52041
G1 X127.935 Y111.102 E37.53415
G1 X126.842 Y111.868 E37.60057
G1 X126.381 Y112.142 E37.62726
G1 X125.894 Y112.342 E37.65346
G1 X124.401 Y112.83 E37.73163
G1 X123.88 Y112.958 E37.75833
G1 X123.54 Y112.999 E37.77537
G1 X122.589 Y113.067 E37.82282
G1 X122.326 Y113.076 E37.83591
G1 X97.911 Y113.035 E39.05094
G1 X97.785 Y113.033 E39.05721
G1 X93.814 Y112.887 E39.25496
G1 X88.306 Y112.968 E39.5291
G1 X86.425 Y113.066 E39.62284
G1 X86.237 Y113.071 E39.6322
G1 X62.331 Y113.063 E40.82189
G1 X62.002 Y113.048 E40.83828
G1 X61.362 Y112.989 E40.87026
G1 X60.845 Y112.903 E40.89635
G1 X60.118 Y112.727 E40.93357
G1 X59.485 Y112.509 E40.96689
G1 X58.53 Y112.078 E41.01903
G1 X58.059 Y111.822 E41.04571
G1 X57.826 Y111.659 E41.05986
G1 X56.77 Y110.853 E41.12597
G1 X56.199 Y110.308 E41.16525
G1 X55.688 Y109.7 E41.20478
G1 X55.314 Y109.162 E41.23739
G1 X54.822 Y108.296 E41.28695
G1 X54.506 Y107.56 E41.32681
G1 X54.126 Y106.304 E41.39212
G1 X53.983 Y105.542 E41.4307
G1 X53.921 Y104.748 E41.47033
G1 X53.91 Y104.468 E41.48428
G1 X53.911 Y86.481 E42.37941
G1 X53.933 Y86.085 E42.39915
G1 X54.047 Y85.054 E42.45077
G1 X54.145 Y84.527 E42.47744
G1 X54.229 Y84.257 E42.49152
G1 X54.67 Y83.002 E42.55772
G1 X54.884 Y82.511 E42.58437
G1 X55.06 Y82.214 E42.60155
G1 X55.615 Y81.372 E42.65174
G1 X56.124 Y80.76 E42.69135
G1 X57.06 Y79.859 E42.75601
G1 X57.672 Y79.385 E42.79453
M204 S5000
G0 F2400 X57.881 Y79.725
M204 S200
G1 F1200 X58.55 Y79.314 E42.8336
G1 X58.992 Y79.088 E42.85831
G1 X59.708 Y78.789 E42.89692
G1 X60.395 Y78.589 E42.93253
G1 X61.884 Y78.331 E43.00774
G1 X62.127 Y78.298 E43.01994
G1 X64.253 Y78.096 E43.12622
G1 X69.686 Y77.36 E43.39906
G1 X75.097 Y76.313 E43.67334
G1 X77.707 Y75.691 E43.80686
G1 X80.357 Y74.982 E43.94338
G1 X86.465 Y73.119 E44.26117
G1 X86.639 Y73.072 E44.27014
G1 X88.013 Y72.736 E44.34054
G1 X88.372 Y72.669 E44.35871
G1 X90.794 Y72.363 E44.4802
G1 X91.162 Y72.338 E44.49856
G1 X92.983 Y72.319 E44.58918
G1 X93.325 Y72.334 E44.60622
G1 X96.373 Y72.63 E44.75862
G1 X96.828 Y72.708 E44.78159
G1 X99.279 Y73.311 E44.9072
G1 X99.451 Y73.358 E44.91608
G1 X105.725 Y75.276 E45.24257
G1 X111.083 Y76.567 E45.51684
G1 X113.726 Y77.084 E45.65087
G1 X119.164 Y77.913 E45.92462
G1 X123.876 Y78.424 E46.16049
G1 X124.589 Y78.585 E46.19687
G1 X125.837 Y79.022 E46.26267
G1 X126.457 Y79.317 E46.29684
G1 X127.113 Y79.721 E46.33518
G1 X127.518 Y80.017 E46.36014
G1 X128.122 Y80.535 E46.39974
G1 X128.541 Y80.97 E46.4298
G1 X129.185 Y81.778 E46.48122
G1 X129.493 Y82.241 E46.50889
G1 X129.858 Y82.911 E46.54686
G1 X130.111 Y83.515 E46.57945
G1 X130.491 Y84.77 E46.64471
G1 X130.599 Y85.264 E46.66987
G1 X130.623 Y85.527 E46.68302
G1 X130.695 Y86.879 E46.75039
G1 X130.7 Y87.054 E46.75911
G1 X130.673 Y104.785 E47.6415
G1 X130.646 Y105.195 E47.66195
G1 X130.552 Y105.913 E47.69798
G1 X130.401 Y106.551 E47.73061
G1 X129.961 Y107.813 E47.79712
G1 X129.664 Y108.438 E47.83156
G1 X129.26 Y109.094 E47.8699
G1 X128.912 Y109.558 E47.89876
G1 X128.246 Y110.297 E47.94827
G1 X127.706 Y110.776 E47.98419
G1 X126.613 Y111.542 E48.05062
G1 X126.177 Y111.798 E48.07578
G1 X125.77 Y111.963 E48.09763
G1 X124.277 Y112.451 E48.1758
G1 X123.786 Y112.569 E48.20093
G1 X123.511 Y112.601 E48.21471
G1 X122.56 Y112.669 E48.26216
G1 X122.327 Y112.677 E48.27376
G1 X97.912 Y112.636 E49.48878
G1 X97.8 Y112.634 E49.49436
G1 X93.823 Y112.488 E49.69241
G1 X88.306 Y112.569 E49.967
G1 X86.404 Y112.668 E50.06178
G1 X86.237 Y112.672 E50.07009
G1 X62.331 Y112.664 E51.25978
G1 X62.038 Y112.65 E51.27438
G1 X61.398 Y112.591 E51.30637
G1 X60.939 Y112.515 E51.32952
G1 X60.212 Y112.339 E51.36675
G1 X59.649 Y112.146 E51.39636
G1 X58.694 Y111.715 E51.44851
G1 X58.068 Y111.342 E51.48477
G1 X57.012 Y110.536 E51.55088
G1 X56.504 Y110.051 E51.58583
G1 X55.993 Y109.443 E51.62536
G1 X55.661 Y108.965 E51.65432
G1 X55.169 Y108.099 E51.70389
G1 X54.888 Y107.445 E51.73931
G1 X54.508 Y106.189 E51.80461
G1 X54.381 Y105.511 E51.83894
G1 X54.319 Y104.717 E51.87858
G1 X54.309 Y104.468 E51.89098
G1 X54.31 Y86.481 E52.78611
G1 X54.329 Y86.129 E52.80365
G1 X54.443 Y85.098 E52.85527
