;FLAVOR:Marlin
;TIME:7115
;Filament used: 5.24239m
;Layer height: 0.2
;Generated with Cura_SteamEngine 2.7.0
M190 S60
M104 S220
M109 S220
G21 ;metric values
G90 ;absolute positioning
M82 ;set extruder to absolute mode
M107 ;start with the fan off
G92 E0 ;zero the extruded length
G1 F200 E3 ;extrude 3mm of feed stock
G92 E0 ;zero the extruded length again
G1 F9000
M117 Printing...
;LAYER_COUNT:187
;LAYER:0
M107
M204 S5000
G0 F2400 X77.48 Y78.964 Z0.3
M204 S200
;TYPE:SKIRT
G1 F1200 X77.939 Y78.55 E0.03076
G1 X78.449 Y78.198 E0.0616
G1 X78.999 Y77.914 E0.0924
G1 X79.787 Y77.65 E0.13376
G1 X84.649 Y76.474 E0.3827
G1 X86.635 Y75.921 E0.48529
G1 X87.241 Y75.794 E0.51611
G1 X87.923 Y75.746 E0.55013
G1 X92.095 Y75.749 E0.75775
G1 X92.846 Y75.809 E0.79524
G1 X98.774 Y76.753 E1.09397
G1 X104.13 Y77.286 E1.36183
G1 X109.491 Y77.519 E1.62888
G1 X110.107 Y77.585 E1.65971
G1 X110.709 Y77.731 E1.69054
G1 X111.287 Y77.953 E1.72135
G1 X111.831 Y78.247 E1.75212
G1 X112.536 Y78.786 E1.79629
G1 X112.614 Y78.858 E1.80157
G1 X112.827 Y79.067 E1.81642
G1 X112.98 Y79.227 E1.82744
G1 X113.378 Y79.702 E1.85828
G1 X113.712 Y80.223 E1.88907
G1 X113.976 Y80.783 E1.91988
G1 X114.165 Y81.372 E1.95067
G1 X114.277 Y81.981 E1.98148
G1 X114.31 Y82.523 E2.00851
G1 X114.36 Y95.287 E2.64372
G1 X114.496 Y98.453 E2.80142
G1 X114.5 Y98.665 E2.81197
G1 X114.495 Y102.545 E3.00506
G1 X114.454 Y103.163 E3.03589
G1 X114.334 Y103.77 E3.06668
G1 X114.137 Y104.357 E3.09749
G1 X113.866 Y104.914 E3.12832
G1 X113.525 Y105.431 E3.15914
G1 X113.217 Y105.799 E3.18302
G1 X113.116 Y105.908 E3.19042
G1 X112.931 Y106.097 E3.20358
G1 X112.694 Y106.326 E3.21998
G1 X112.222 Y106.727 E3.2508
G1 X111.702 Y107.063 E3.28161
G1 X111.143 Y107.33 E3.31244
G1 X110.555 Y107.522 E3.34322
G1 X109.718 Y107.66 E3.38544
G1 X105.102 Y108.005 E3.6158
G1 X99.756 Y108.676 E3.88393
G1 X92.824 Y110.004 E4.23518
G1 X91.921 Y110.09 E4.28032
G1 X88.353 Y110.09 E4.45788
G1 X87.735 Y110.05 E4.4887
G1 X87.128 Y109.931 E4.51948
G1 X86.744 Y109.812 E4.53949
G1 X79.232 Y107.136 E4.93634
G1 X78.663 Y106.891 E4.96717
G1 X78.131 Y106.575 E4.99796
G1 X77.644 Y106.193 E5.02877
G1 X77.395 Y105.954 E5.04594
G1 X77.243 Y105.797 E5.05682
G1 X76.842 Y105.325 E5.08764
G1 X76.505 Y104.806 E5.11843
G1 X76.238 Y104.247 E5.14926
G1 X76.045 Y103.659 E5.18006
G1 X75.929 Y103.051 E5.21087
G1 X75.893 Y102.461 E5.24028
G1 X75.893 Y82.543 E6.23151
G1 X75.933 Y81.925 E6.26233
G1 X76.052 Y81.318 E6.29311
G1 X76.249 Y80.731 E6.32393
G1 X76.519 Y80.174 E6.35473
G1 X76.859 Y79.656 E6.38557
G1 X77.254 Y79.196 E6.41574
G1 X77.48 Y78.964 E6.43186
M204 S5000
G0 F2400 X77.539 Y79.475
M204 S200
G1 F1200 X77.765 Y79.243 E6.44798
G1 X78.207 Y78.847 E6.47751
G1 X78.697 Y78.514 E6.50699
G1 X79.228 Y78.25 E6.5365
G1 X79.881 Y78.037 E6.57069
G1 X84.787 Y76.85 E6.82188
G1 X86.742 Y76.306 E6.92287
G1 X87.322 Y76.186 E6.95234
G1 X87.923 Y76.145 E6.98232
G1 X92.095 Y76.148 E7.18994
G1 X92.784 Y76.203 E7.22434
G1 X98.726 Y77.149 E7.52377
G1 X104.09 Y77.683 E7.79203
G1 X109.474 Y77.917 E8.06022
G1 X110.063 Y77.983 E8.08972
G1 X110.638 Y78.127 E8.11922
G1 X111.188 Y78.347 E8.1487
G1 X111.704 Y78.64 E8.17823
G1 X112.265 Y79.079 E8.21368
G1 X112.343 Y79.151 E8.21896
G1 X112.539 Y79.343 E8.23261
G1 X112.692 Y79.503 E8.24363
G1 X113.072 Y79.958 E8.27313
G1 X113.387 Y80.46 E8.30263
G1 X113.632 Y81 E8.33214
G1 X113.802 Y81.568 E8.36164
G1 X113.894 Y82.153 E8.39111
G1 X113.911 Y82.525 E8.40964
G1 X113.961 Y95.306 E9.0457
G1 X114.097 Y98.47 E9.2033
G1 X114.101 Y98.665 E9.21301
G1 X114.096 Y102.545 E9.4061
G1 X114.055 Y103.136 E9.43558
G1 X113.935 Y103.717 E9.46511
G1 X113.739 Y104.276 E9.49459
G1 X113.468 Y104.803 E9.52408
G1 X113.129 Y105.29 E9.55361
G1 X112.924 Y105.528 E9.56924
G1 X112.823 Y105.637 E9.57663
G1 X112.653 Y105.81 E9.5887
G1 X112.416 Y106.039 E9.60511
G1 X111.963 Y106.421 E9.63459
G1 X111.463 Y106.739 E9.66408
G1 X110.924 Y106.987 E9.69361
G1 X110.357 Y107.16 E9.72311
G1 X109.689 Y107.262 E9.75674
G1 X105.061 Y107.608 E9.9877
G1 X99.694 Y108.281 E10.25688
G1 X92.749 Y109.612 E10.60879
G1 X91.921 Y109.691 E10.65018
G1 X88.353 Y109.691 E10.82775
G1 X87.762 Y109.651 E10.85723
G1 X87.181 Y109.532 E10.88674
G1 X86.877 Y109.436 E10.90261
G1 X79.365 Y106.76 E11.29946
G1 X78.822 Y106.524 E11.32892
G1 X78.315 Y106.217 E11.35842
G1 X77.682 Y105.676 E11.39986
G1 X77.53 Y105.519 E11.41073
G1 X77.147 Y105.067 E11.44021
G1 X76.829 Y104.567 E11.4697
G1 X76.581 Y104.028 E11.49923
G1 X76.407 Y103.462 E11.5287
G1 X76.312 Y102.877 E11.55819
G1 X76.292 Y102.461 E11.57892
G1 X76.292 Y82.543 E12.57015
G1 X76.332 Y81.952 E12.59963
G1 X76.451 Y81.371 E12.62914
G1 X76.647 Y80.812 E12.65862
G1 X76.917 Y80.284 E12.68813
G1 X77.255 Y79.797 E12.71763
G1 X77.539 Y79.475 E12.739
M204 S5000
G0 F2400 X78.051 Y79.521
M204 S200
G1 F1200 X78.473 Y79.145 E12.76713
G1 X78.944 Y78.833 E12.79524
G1 X79.454 Y78.589 E12.82338
G1 X79.975 Y78.425 E12.85056
G1 X84.871 Y77.24 E13.10125
G1 X86.849 Y76.69 E13.20342
G1 X87.402 Y76.578 E13.2315
G1 X87.923 Y76.544 E13.25748
G1 X92.095 Y76.547 E13.4651
G1 X92.721 Y76.597 E13.49635
G1 X98.673 Y77.545 E13.79629
G1 X104.07 Y78.082 E14.0662
G1 X109.457 Y78.316 E14.33454
G1 X110.018 Y78.38 E14.36264
G1 X110.565 Y78.523 E14.39078
G1 X111.086 Y78.742 E14.4189
G1 X111.571 Y79.032 E14.44702
G1 X111.995 Y79.372 E14.47407
G1 X112.073 Y79.444 E14.47935
G1 X112.251 Y79.619 E14.49178
G1 X112.404 Y79.779 E14.50279
G1 X112.764 Y80.214 E14.53089
G1 X113.06 Y80.696 E14.55904
G1 X113.285 Y81.214 E14.58715
G1 X113.435 Y81.759 E14.61528
G1 X113.512 Y82.526 E14.65364
G1 X113.562 Y95.325 E15.29059
G1 X113.698 Y98.487 E15.4481
G1 X113.702 Y98.664 E15.45691
G1 X113.697 Y102.544 E15.65
G1 X113.656 Y103.108 E15.67814
G1 X113.537 Y103.66 E15.70624
G1 X113.34 Y104.19 E15.73438
G1 X113.071 Y104.687 E15.7625
G1 X112.632 Y105.256 E15.79827
G1 X112.531 Y105.365 E15.80566
G1 X112.376 Y105.523 E15.81668
G1 X112.139 Y105.752 E15.83308
G1 X111.706 Y106.115 E15.8612
G1 X111.226 Y106.413 E15.88932
G1 X110.708 Y106.641 E15.91748
G1 X110.164 Y106.793 E15.94559
G1 X109.659 Y106.864 E15.97097
G1 X105.023 Y107.21 E16.20232
G1 X99.642 Y107.886 E16.47222
G1 X92.673 Y109.221 E16.82534
G1 X91.921 Y109.292 E16.86293
G1 X88.353 Y109.292 E17.04049
G1 X87.789 Y109.252 E17.06863
G1 X87.011 Y109.06 E17.10851
G1 X79.499 Y106.384 E17.50536
G1 X78.982 Y106.157 E17.53346
G1 X78.501 Y105.86 E17.56159
G1 X77.969 Y105.399 E17.59662
G1 X77.817 Y105.242 E17.6075
G1 X77.453 Y104.809 E17.63565
G1 X77.154 Y104.329 E17.66379
G1 X76.926 Y103.812 E17.69191
G1 X76.773 Y103.268 E17.72003
G1 X76.691 Y102.461 E17.7604
G1 X76.691 Y82.543 E18.75163
G1 X76.731 Y81.979 E18.77977
G1 X76.85 Y81.427 E18.80787
G1 X77.046 Y80.897 E18.83599
G1 X77.314 Y80.399 E18.86414
G1 X77.825 Y79.753 E18.90513
G1 X78.051 Y79.521 E18.92124
M204 S5000
G0 F2400 X78.337 Y79.8
M204 S200
G1 F1200 X78.739 Y79.445 E18.94793
G1 X79.189 Y79.153 E18.97463
G1 X79.677 Y78.932 E19.00129
G1 X80.069 Y78.813 E19.02168
G1 X84.982 Y77.624 E19.27323
G1 X86.956 Y77.075 E19.3752
G1 X87.481 Y76.97 E19.40184
G1 X87.923 Y76.943 E19.42388
G1 X92.095 Y76.946 E19.6315
G1 X92.658 Y76.991 E19.65961
G1 X98.622 Y77.941 E19.96015
G1 X104.03 Y78.479 E20.23061
G1 X109.439 Y78.714 E20.50005
G1 X109.972 Y78.778 E20.52676
G1 X110.489 Y78.919 E20.55343
G1 X110.979 Y79.136 E20.5801
G1 X111.432 Y79.423 E20.60679
G1 X111.724 Y79.665 E20.62566
G1 X111.802 Y79.737 E20.63095
G1 X111.962 Y79.895 E20.64214
G1 X112.115 Y80.055 E20.65315
G1 X112.456 Y80.469 E20.67984
G1 X112.731 Y80.929 E20.70652
G1 X112.935 Y81.425 E20.73321
G1 X113.063 Y81.945 E20.75986
G1 X113.113 Y82.528 E20.78898
G1 X113.163 Y95.318 E21.42548
G1 X113.3 Y98.504 E21.58418
G1 X113.303 Y98.664 E21.59214
G1 X113.298 Y102.544 E21.78523
G1 X113.257 Y103.078 E21.81189
G1 X113.138 Y103.601 E21.83858
G1 X112.942 Y104.1 E21.86526
G1 X112.674 Y104.565 E21.89197
G1 X112.339 Y104.985 E21.91871
G1 X112.238 Y105.094 E21.9261
G1 X112.099 Y105.236 E21.93599
G1 X111.862 Y105.465 E21.95239
G1 X111.45 Y105.808 E21.97907
G1 X110.991 Y106.086 E22.00577
G1 X110.496 Y106.292 E22.03246
G1 X109.976 Y106.423 E22.05914
G1 X109.629 Y106.466 E22.07654
G1 X104.983 Y106.813 E22.3084
G1 X99.58 Y107.491 E22.57939
G1 X92.598 Y108.829 E22.93317
G1 X91.921 Y108.893 E22.96702
G1 X88.353 Y108.893 E23.14458
G1 X87.818 Y108.853 E23.17128
G1 X87.145 Y108.684 E23.20581
G1 X79.633 Y106.008 E23.60266
G1 X79.143 Y105.791 E23.62933
G1 X78.69 Y105.504 E23.65602
G1 X78.255 Y105.121 E23.68486
G1 X78.103 Y104.964 E23.69573
G1 X77.76 Y104.552 E23.72241
G1 X77.482 Y104.094 E23.74908
G1 X77.275 Y103.599 E23.77578
G1 X77.144 Y103.08 E23.80242
G1 X77.09 Y102.461 E23.83334
G1 X77.09 Y82.543 E24.82457
G1 X77.13 Y82.008 E24.85127
G1 X77.249 Y81.485 E24.87796
G1 X77.444 Y80.986 E24.90462
G1 X77.712 Y80.521 E24.93133
G1 X78.111 Y80.032 E24.96274
G1 X78.337 Y79.8 E24.97886
M204 S5000
G0 F2400 X78.623 Y80.078
M204 S200
G1 F1200 X79.003 Y79.745 E25.004
G1 X79.431 Y79.476 E25.02916
G1 X79.896 Y79.278 E25.05431
G1 X80.162 Y79.201 E25.06809
G1 X85.064 Y78.015 E25.31908
G1 X87.062 Y77.459 E25.42229
G1 X87.559 Y77.362 E25.44749
G1 X87.922 Y77.342 E25.46558
G1 X92.094 Y77.345 E25.6732
G1 X92.595 Y77.385 E25.69821
G1 X98.569 Y78.336 E25.99926
G1 X104.01 Y78.878 E26.27137
G1 X109.422 Y79.113 E26.54095
G1 X109.924 Y79.175 E26.56613
G1 X110.41 Y79.315 E26.5913
G1 X110.867 Y79.53 E26.61643
G1 X111.453 Y79.959 E26.65257
G1 X111.531 Y80.031 E26.65786
G1 X111.674 Y80.17 E26.66778
G1 X111.827 Y80.33 E26.6788
G1 X112.146 Y80.722 E26.70395
G1 X112.4 Y81.16 E26.72915
G1 X112.582 Y81.631 E26.75427
G1 X112.687 Y82.126 E26.77946
G1 X112.714 Y82.53 E26.79961
G1 X112.764 Y95.336 E27.43691
G1 X112.901 Y98.521 E27.59556
G1 X112.904 Y98.663 E27.60263
G1 X112.899 Y102.543 E27.79572
G1 X112.858 Y103.047 E27.82088
G1 X112.739 Y103.538 E27.84602
G1 X112.544 Y104.005 E27.87121
G1 X112.277 Y104.434 E27.89635
G1 X112.046 Y104.714 E27.91442
G1 X111.945 Y104.823 E27.92181
G1 X111.822 Y104.949 E27.93058
G1 X111.585 Y105.178 E27.94698
G1 X111.194 Y105.5 E27.97218
G1 X110.758 Y105.756 E27.99735
G1 X110.288 Y105.94 E28.02246
G1 X109.6 Y106.068 E28.05729
G1 X104.942 Y106.416 E28.28974
G1 X99.518 Y107.097 E28.56179
G1 X92.523 Y108.437 E28.91623
G1 X91.921 Y108.494 E28.94632
G1 X88.353 Y108.494 E29.12389
G1 X87.849 Y108.454 E29.14905
G1 X87.279 Y108.308 E29.17833
G1 X79.767 Y105.632 E29.57518
G1 X79.306 Y105.426 E29.60031
G1 X78.883 Y105.149 E29.62547
G1 X78.542 Y104.844 E29.64824
G1 X78.39 Y104.687 E29.65911
G1 X78.068 Y104.297 E29.68428
G1 X77.812 Y103.861 E29.70944
G1 X77.627 Y103.391 E29.73458
G1 X77.519 Y102.897 E29.75974
G1 X77.489 Y102.461 E29.78149
G1 X77.489 Y82.543 E30.77272
G1 X77.529 Y82.039 E30.79788
G1 X77.648 Y81.548 E30.82303
G1 X77.842 Y81.081 E30.84819
G1 X78.108 Y80.651 E30.87335
G1 X78.397 Y80.31 E30.8956
G1 X78.623 Y80.078 E30.91172
M204 S5000
G0 F2400 X80.996 Y82.499
M204 S200
;TYPE:SUPPORT
G1 F1200 X81.699 Y82.499 E30.9467
G1 X81.698 Y102.501 E31.94211
G1 X80.996 Y102.501 E31.97705
G1 X80.878 Y102.383 E31.98535
G1 X80.878 Y82.617 E32.96902
G1 X80.996 Y82.499 E32.97732
M204 S5000
G0 F2400 X81.04 Y85.312
M204 S200
G1 F1200 X81.538 Y85.312 E33.0021
M204 S5000
G0 F2400 X81.538 Y87.978
M204 S200
G1 F1200 X81.04 Y87.978 E33.02689
M204 S5000
G0 F2400 X81.04 Y90.644
M204 S200
G1 F1200 X81.538 Y90.644 E33.05167
M204 S5000
G0 F2400 X81.538 Y93.31
M204 S200
G1 F1200 X81.039 Y93.31 E33.0765
M204 S5000
G0 F2400 X81.039 Y95.976
M204 S200
G1 F1200 X81.538 Y95.976 E33.10134
M204 S5000
G0 F2400 X81.538 Y98.642
M204 S200
G1 F1200 X81.039 Y98.642 E33.12617
M204 S5000
G0 F2400 X81.039 Y101.308
M204 S200
G1 F1200 X81.538 Y101.308 E33.151
M204 S5000
G1 F1500 E31.151
G0 F2400 X81.937 Y82.343
G0 X82.441 Y81.839
G0 X87.673 Y81.601
M204 S200
G1 F1500 E33.151
G1 F1200 X88.037 Y80.732 E33.19789
G1 X91.963 Y80.734 E33.39327
G1 X92.326 Y81.601 E33.44004
G1 X87.673 Y81.601 E33.6716
M204 S5000
G0 F2400 X87.978 Y81.441
M204 S200
G1 F1200 X87.978 Y81.288 E33.67922
M204 S5000
G0 F2400 X90.644 Y81.441
M204 S200
G1 F1200 X90.644 Y80.894 E33.70644
M204 S5000
G1 F1500 E31.70644
G0 F2400 X90.94 Y81.836
G0 X90.964 Y81.912
G0 X94.871 Y94.341
G0 X94.895 Y94.418
G0 X94.966 Y94.641
M204 S200
G1 F1500 E33.70644
G1 F1200 X95.75 Y94.431 E33.74683
G1 X96.533 Y94.641 E33.78717
G1 X97.11 Y95.218 E33.82778
G1 X97.319 Y96 E33.86806
G1 X97.11 Y96.782 E33.90835
G1 X96.537 Y97.356 E33.94871
G1 X95.745 Y97.568 E33.98951
G1 X94.965 Y97.357 E34.02972
G1 X94.391 Y96.78 E34.07023
G1 X94.181 Y96 E34.11043
G1 X94.396 Y95.212 E34.15107
G1 X94.966 Y94.641 E34.19123
M204 S5000
G0 F2400 X95.976 Y94.658
M204 S200
G1 F1200 X95.976 Y97.341 E34.32475
M204 S5000
G0 F2400 X97.147 Y95.976
M204 S200
G1 F1200 X94.354 Y95.976 E34.46374
M204 S5000
G1 F1500 E32.46374
G0 F2400 X94.14 Y96.828
G0 X94.12 Y96.905
G0 X92.575 Y103.085
G0 X92.556 Y103.163
G0 X92.498 Y103.399
M204 S200
G1 F1500 E34.46374
G1 F1200 X91.784 Y105.105 E34.55578
G1 X88.476 Y105.105 E34.7204
G1 X87.751 Y103.399 E34.81265
G1 X92.498 Y103.399 E35.04889
M204 S5000
G0 F2400 X92.083 Y103.974
M204 S200
G1 F1200 X88.169 Y103.974 E35.24367
M204 S5000
G0 F2400 X90.644 Y103.559
M204 S200
G1 F1200 X90.644 Y104.945 E35.31264
M204 S5000
G1 F1500 E33.31264
G0 F2400 X107.157 Y103.161
G0 X107.899 Y102.687
M204 S200
G1 F1500 E35.31264
G1 F1200 X107.899 Y82.499 E36.31731
G1 X109.206 Y82.499 E36.38235
G1 X109.324 Y82.616 E36.39062
G1 X109.325 Y92.883 E36.90156
G1 X107.931 Y94.278 E36.99971
G1 X107.931 Y97.965 E37.18319
G1 X108.329 Y98.363 E37.2112
G1 X109.284 Y98.363 E37.25873
G1 X109.51 Y98.589 E37.27464
G1 X109.51 Y102.461 E37.46733
G1 X109.284 Y102.687 E37.48323
G1 X107.899 Y102.687 E37.55216
M204 S5000
G0 F2400 X108.059 Y101.308
M204 S200
G1 F1200 X109.35 Y101.308 E37.61641
M204 S5000
G0 F2400 X109.306 Y102.438
M204 S200
G1 F1200 X109.306 Y98.612 E37.80681
M204 S5000
G0 F2400 X109.336 Y98.642
M204 S200
G1 F1200 X108.059 Y98.642 E37.87036
M204 S5000
G0 F2400 X108.059 Y93.31
M204 S200
G1 F1200 X108.671 Y93.31 E37.90082
M204 S5000
G0 F2400 X109.165 Y90.644
M204 S200
G1 F1200 X108.059 Y90.644 E37.95586
M204 S5000
G0 F2400 X108.059 Y87.978
M204 S200
G1 F1200 X109.165 Y87.978 E38.0109
M204 S5000
G0 F2400 X109.165 Y85.312
M204 S200
G1 F1200 X108.059 Y85.312 E38.06594
M204 S5000
G1 F1500 E36.06594
G0 F2400 X107.665 Y85.312
G0 X106.383 Y85.312
G0 X106.004 Y83.496
M204 S200
;TYPE:WALL-INNER
G1 F1500 E38.06594
G1 F1200 X106.004 Y101.504 E38.96211
G1 X83.792 Y101.504 E40.06751
G1 X83.593 Y101.504 E40.07741
G1 X83.593 Y101.305 E40.08382
G1 X83.594 Y83.496 E40.97009
G1 X106.004 Y83.496 E42.08533
M204 S5000
G0 F2400 X97.516 Y92.942
M204 S200
G1 F1200 X95.75 Y92.469 E42.17632
G1 X93.984 Y92.942 E42.2673
G1 X92.692 Y94.234 E42.35823
G1 X92.219 Y96 E42.44921
G1 X92.692 Y97.766 E42.5402
G1 X93.984 Y99.058 E42.63113
G1 X95.75 Y99.531 E42.72211
G1 X97.516 Y99.058 E42.81309
G1 X98.808 Y97.766 E42.90402
G1 X99.281 Y96 E42.99501
G1 X98.808 Y94.234 E43.08599
G1 X97.516 Y92.942 E43.17692
M204 S5000
G0 F2400 X97.309 Y93.3
M204 S200
G1 F1200 X95.75 Y92.882 E43.25725
G1 X94.191 Y93.3 E43.33757
G1 X93.05 Y94.441 E43.41787
G1 X92.632 Y96 E43.4982
G1 X93.05 Y97.559 E43.57852
G1 X94.191 Y98.7 E43.65882
G1 X95.75 Y99.118 E43.73915
G1 X97.309 Y98.7 E43.81947
G1 X98.45 Y97.559 E43.89978
G1 X98.868 Y96 E43.9801
G1 X98.45 Y94.441 E44.06043
G1 X97.309 Y93.3 E44.14073
M204 S5000
G0 F2400 X97.359 Y93.214
G0 X106.333 Y101.833
G0 X106.403 Y101.903
M204 S200
G1 F1200 X83.393 Y101.903 E45.28583
G1 X83.194 Y101.903 E45.29574
G1 X83.194 Y101.704 E45.30214
G1 X83.195 Y83.097 E46.22813
G1 X106.403 Y83.097 E47.38309
G1 X106.403 Y101.903 E48.31898
M204 S5000
G0 F2400 X106.801 Y102.301
M204 S200
;TYPE:WALL-OUTER
G1 F1200 X82.995 Y102.301 E49.50369
G1 X82.796 Y102.301 E49.5136
G1 X82.796 Y102.102 E49.52
G1 X82.797 Y82.699 E50.4856
G1 X106.801 Y82.699 E51.68017
G1 X106.801 Y102.301 E52.65568
M204 S5000
G0 F2400 X106.601 Y102.301
G0 X106.333 Y101.833
G0 X98.573 Y97.482
G0 X98.093 Y97.353
M204 S200
G1 F1200 X98.456 Y96 E52.72539
G1 X98.093 Y94.647 E52.7951
G1 X97.103 Y93.657 E52.86478
G1 X95.75 Y93.294 E52.93449
G1 X94.397 Y93.657 E53.00421
