;FLAVOR:Marlin
;TIME:6307
;Filament used: 4.96818m
;Layer height: 0.2
;Generated with Cura_SteamEngine 2.7.0
M190 S60
M104 S220
M109 S220
G21 ;metric values
G90 ;absolute positioning
M82 ;set extruder to absolute mode
M107 ;start with the fan off
G92 E0 ;zero the extruded length
G1 F200 E3 ;extrude 3mm of feed stock
G92 E0 ;zero the extruded length again
G1 F9000
M117 Printing...
;LAYER_COUNT:100
;LAYER:0
M107
M204 S5000
G0 F2400 X74.347 Y73.726 Z0.3
M204 S200
;TYPE:SKIRT
G1 F1200 X74.789 Y73.293 E0.03079
G1 X75.09 Y73.053 E0.04995
G1 X78.132 Y70.829 E0.23748
G1 X78.655 Y70.497 E0.26831
G1 X78.96 Y70.343 E0.28531
G1 X81.012 Y69.4 E0.3977
G1 X81.59 Y69.178 E0.42851
G1 X82.192 Y69.033 E0.45933
G1 X82.539 Y68.986 E0.47675
G1 X85.4 Y68.701 E0.61984
G1 X90.792 Y67.925 E0.89094
G1 X93.765 Y67.368 E1.04146
G1 X94.636 Y67.286 E1.085
G1 X96.82 Y67.28 E1.19369
G1 X97.438 Y67.318 E1.2245
G1 X97.786 Y67.376 E1.24206
G1 X100.582 Y67.943 E1.38404
G1 X107.694 Y69.014 E1.74196
G1 X108.299 Y69.146 E1.77278
G1 X108.882 Y69.354 E1.80358
G1 X109.434 Y69.636 E1.83443
G1 X109.944 Y69.986 E1.86521
G1 X110.405 Y70.4 E1.89605
G1 X110.809 Y70.869 E1.92685
G1 X111.149 Y71.386 E1.95765
G1 X111.519 Y72.208 E2.00251
G1 X112.479 Y75.02 E2.15038
G1 X114.446 Y80.111 E2.42199
G1 X116.568 Y84.855 E2.68061
G1 X116.685 Y85.14 E2.69595
G1 X117.251 Y86.661 E2.77671
G1 X117.429 Y87.254 E2.80752
G1 X117.511 Y87.708 E2.83048
G1 X117.665 Y88.878 E2.88921
G1 X117.702 Y89.31 E2.91079
G1 X117.747 Y90.424 E2.96627
G1 X117.712 Y91.227 E3.00627
G1 X117.514 Y92.773 E3.08384
G1 X117.414 Y93.31 E3.11102
G1 X116.34 Y97.676 E3.33477
G1 X115.796 Y100.279 E3.46711
G1 X115.326 Y102.916 E3.60041
G1 X114.546 Y108.722 E3.89195
G1 X114.425 Y109.329 E3.92275
G1 X114.226 Y109.916 E3.95359
G1 X113.953 Y110.471 E3.98437
G1 X113.61 Y110.987 E4.01521
G1 X113.383 Y111.264 E4.03303
G1 X110.597 Y114.409 E4.24212
G1 X110.157 Y114.845 E4.27295
G1 X109.665 Y115.221 E4.30376
G1 X109.129 Y115.53 E4.33455
G1 X108.557 Y115.768 E4.36538
G1 X107.664 Y115.98 E4.41106
G1 X105.579 Y116.268 E4.51581
G1 X100.191 Y117.199 E4.78792
G1 X97.817 Y117.71 E4.90877
G1 X97.204 Y117.801 E4.93961
G1 X96.808 Y117.817 E4.95933
G1 X94.804 Y117.817 E5.05906
G1 X94.186 Y117.777 E5.08988
G1 X93.579 Y117.658 E5.12066
G1 X92.992 Y117.461 E5.15148
G1 X92.343 Y117.138 E5.18755
G1 X89.52 Y115.45 E5.35124
G1 X84.76 Y112.882 E5.6204
G1 X79.008 Y110.188 E5.93649
G1 X78.233 Y109.732 E5.98124
G1 X75.198 Y107.539 E6.16758
G1 X74.721 Y107.145 E6.19837
G1 X74.453 Y106.872 E6.21741
G1 X71.93 Y104.087 E6.40442
G1 X71.544 Y103.602 E6.43527
G1 X71.339 Y103.279 E6.45431
G1 X69.45 Y100.033 E6.64121
G1 X69.174 Y99.479 E6.67201
G1 X69.039 Y99.119 E6.69114
G1 X67.862 Y95.539 E6.87869
G1 X67.707 Y94.94 E6.90948
G1 X67.65 Y94.556 E6.9288
G1 X67.247 Y90.822 E7.1157
G1 X67.22 Y90.203 E7.14653
G1 X67.244 Y89.82 E7.16563
G1 X67.626 Y86.074 E7.35302
G1 X67.728 Y85.464 E7.3838
G1 X67.831 Y85.094 E7.40291
G1 X68.979 Y81.522 E7.58963
G1 X69.206 Y80.946 E7.62044
G1 X69.385 Y80.603 E7.63969
G1 X71.262 Y77.331 E7.82742
G1 X71.604 Y76.815 E7.85822
G1 X71.848 Y76.518 E7.87735
G1 X74.347 Y73.726 E8.06382
M204 S5000
G0 F2400 X74.645 Y73.993
M204 S200
G1 F1200 X75.069 Y73.578 E8.09335
G1 X75.326 Y73.375 E8.10965
G1 X78.368 Y71.151 E8.29718
G1 X79.127 Y70.706 E8.34096
G1 X81.179 Y69.763 E8.45335
G1 X81.733 Y69.552 E8.48285
G1 X82.579 Y69.383 E8.52579
G1 X85.45 Y69.097 E8.66937
G1 X90.853 Y68.32 E8.94102
G1 X93.839 Y67.76 E9.09221
G1 X94.637 Y67.685 E9.1321
G1 X96.821 Y67.679 E9.24079
G1 X97.412 Y67.717 E9.27026
G1 X97.707 Y67.767 E9.28515
G1 X100.522 Y68.338 E9.42809
G1 X107.635 Y69.409 E9.78606
G1 X108.214 Y69.537 E9.81557
G1 X108.77 Y69.741 E9.84505
G1 X109.294 Y70.018 E9.87454
G1 X109.776 Y70.363 E9.90404
G1 X110.207 Y70.77 E9.93354
G1 X110.579 Y71.231 E9.96302
G1 X110.886 Y71.739 E9.99256
G1 X111.141 Y72.337 E10.02491
G1 X112.107 Y75.167 E10.17373
G1 X114.07 Y80.247 E10.44475
G1 X116.204 Y85.018 E10.70485
G1 X116.311 Y85.28 E10.71894
G1 X116.877 Y86.801 E10.7997
G1 X117.046 Y87.369 E10.82919
G1 X117.115 Y87.76 E10.84895
G1 X117.269 Y88.93 E10.90768
G1 X117.303 Y89.327 E10.92751
G1 X117.348 Y90.441 E10.98299
G1 X117.316 Y91.177 E11.01966
G1 X117.118 Y92.723 E11.09722
G1 X117.027 Y93.214 E11.12207
G1 X115.953 Y97.582 E11.34592
G1 X115.4 Y100.225 E11.4803
G1 X114.934 Y102.84 E11.61249
G1 X114.151 Y108.669 E11.90518
G1 X114.033 Y109.25 E11.93468
G1 X113.837 Y109.81 E11.96421
G1 X113.568 Y110.338 E11.9937
G1 X113.084 Y111 E12.03451
G1 X110.298 Y114.145 E12.2436
G1 X109.876 Y114.561 E12.27309
G1 X109.402 Y114.916 E12.30256
G1 X108.884 Y115.205 E12.33208
G1 X108.332 Y115.421 E12.36158
G1 X107.609 Y115.585 E12.39847
G1 X105.517 Y115.874 E12.50357
G1 X100.112 Y116.808 E12.77654
G1 X97.733 Y117.32 E12.89764
G1 X97.146 Y117.405 E12.92716
G1 X96.808 Y117.418 E12.94399
G1 X94.804 Y117.418 E13.04372
G1 X94.213 Y117.378 E13.0732
G1 X93.632 Y117.259 E13.10271
G1 X93.073 Y117.063 E13.13219
G1 X92.548 Y116.795 E13.16153
G1 X89.736 Y115.114 E13.32457
G1 X84.94 Y112.526 E13.59577
G1 X79.177 Y109.827 E13.91247
G1 X78.467 Y109.409 E13.95347
G1 X75.432 Y107.216 E14.13981
G1 X74.976 Y106.837 E14.16932
G1 X74.748 Y106.604 E14.18554
G1 X72.225 Y103.819 E14.37255
G1 X71.858 Y103.354 E14.40203
G1 X71.684 Y103.079 E14.41823
G1 X69.795 Y99.833 E14.60513
G1 X69.532 Y99.301 E14.63466
G1 X69.418 Y98.994 E14.65096
G1 X68.241 Y95.414 E14.8385
G1 X68.094 Y94.84 E14.86799
G1 X68.046 Y94.513 E14.88444
G1 X67.643 Y90.779 E15.07134
G1 X67.62 Y90.187 E15.10083
G1 X67.641 Y89.861 E15.11708
G1 X68.023 Y86.115 E15.30447
G1 X68.122 Y85.531 E15.33395
G1 X68.211 Y85.216 E15.35024
G1 X69.359 Y81.644 E15.53696
G1 X69.578 Y81.093 E15.56646
G1 X69.731 Y80.801 E15.58287
G1 X71.608 Y77.529 E15.77059
G1 X71.937 Y77.036 E15.80009
G1 X72.146 Y76.785 E15.81634
G1 X74.645 Y73.993 E16.00281
M204 S5000
G0 F2400 X74.942 Y74.259
M204 S200
G1 F1200 X75.561 Y73.698 E16.04439
G1 X78.603 Y71.474 E16.23192
G1 X79.294 Y71.068 E16.2718
G1 X81.346 Y70.125 E16.38419
G1 X81.875 Y69.926 E16.41232
G1 X82.618 Y69.78 E16.45
G1 X85.502 Y69.492 E16.59424
G1 X90.91 Y68.715 E16.86613
G1 X93.912 Y68.152 E17.01813
G1 X94.638 Y68.084 E17.05442
G1 X96.822 Y68.078 E17.16311
G1 X97.627 Y68.158 E17.20337
G1 X100.461 Y68.732 E17.34727
G1 X107.575 Y69.804 E17.70529
G1 X108.127 Y69.927 E17.73344
G1 X108.656 Y70.127 E17.76158
G1 X109.151 Y70.4 E17.78972
G1 X109.602 Y70.739 E17.81779
G1 X110.002 Y71.139 E17.84594
G1 X110.341 Y71.592 E17.8741
G1 X110.613 Y72.087 E17.90221
G1 X110.764 Y72.466 E17.92251
G1 X111.736 Y75.313 E18.07222
G1 X113.701 Y80.399 E18.34357
G1 X115.84 Y85.181 E18.60427
G1 X115.937 Y85.419 E18.61706
G1 X116.503 Y86.94 E18.69782
G1 X116.662 Y87.482 E18.72593
G1 X116.72 Y87.812 E18.74261
G1 X116.874 Y88.982 E18.80133
G1 X116.905 Y89.343 E18.81936
G1 X116.95 Y90.457 E18.87485
G1 X116.921 Y91.126 E18.90817
G1 X116.723 Y92.672 E18.98574
G1 X116.639 Y93.119 E19.00837
G1 X115.563 Y97.494 E19.23259
G1 X115.01 Y100.139 E19.36706
G1 X114.538 Y102.786 E19.50087
G1 X113.755 Y108.616 E19.79361
G1 X113.641 Y109.17 E19.82175
G1 X113.449 Y109.701 E19.84985
G1 X113.185 Y110.201 E19.87799
G1 X112.786 Y110.735 E19.91117
G1 X110 Y113.88 E20.12026
G1 X109.596 Y114.276 E20.14841
G1 X109.14 Y114.61 E20.17654
G1 X108.642 Y114.877 E20.20466
G1 X108.112 Y115.071 E20.23275
G1 X107.555 Y115.189 E20.26108
G1 X105.479 Y115.476 E20.36538
G1 X100.034 Y116.417 E20.64037
G1 X97.649 Y116.93 E20.76177
G1 X96.808 Y117.019 E20.80386
G1 X94.804 Y117.019 E20.90359
G1 X94.24 Y116.979 E20.93173
G1 X93.688 Y116.86 E20.95983
G1 X93.158 Y116.664 E20.98795
G1 X92.753 Y116.453 E21.01068
G1 X89.908 Y114.752 E21.17563
G1 X85.142 Y112.181 E21.44513
G1 X79.346 Y109.466 E21.76364
G1 X78.7 Y109.086 E21.80094
G1 X75.665 Y106.893 E21.98728
G1 X75.044 Y106.336 E22.0288
G1 X72.521 Y103.551 E22.21581
G1 X72.029 Y102.878 E22.2573
G1 X70.14 Y99.632 E22.4442
G1 X69.797 Y98.87 E22.48579
G1 X68.62 Y95.29 E22.67333
G1 X68.443 Y94.47 E22.71508
G1 X68.04 Y90.736 E22.90198
G1 X68.038 Y89.901 E22.94353
G1 X68.42 Y86.155 E23.13092
G1 X68.591 Y85.338 E23.17246
G1 X69.739 Y81.766 E23.35918
G1 X70.077 Y81 E23.40085
G1 X71.954 Y77.728 E23.58857
G1 X72.443 Y77.051 E23.63013
G1 X74.942 Y74.259 E23.8166
M204 S5000
G0 F2400 X75.239 Y74.525
M204 S200
G1 F1200 X75.797 Y74.02 E23.85406
G1 X78.839 Y71.796 E24.04159
G1 X79.46 Y71.431 E24.07743
G1 X81.512 Y70.488 E24.18982
G1 X82.015 Y70.301 E24.21652
G1 X82.658 Y70.177 E24.24911
G1 X85.552 Y69.888 E24.39385
G1 X90.994 Y69.106 E24.66746
G1 X93.986 Y68.545 E24.81895
G1 X94.639 Y68.483 E24.85159
G1 X96.823 Y68.477 E24.96028
G1 X97.548 Y68.549 E24.99654
G1 X100.381 Y69.123 E25.14039
G1 X107.516 Y70.198 E25.49947
G1 X108.039 Y70.317 E25.52617
G1 X108.538 Y70.513 E25.55285
G1 X109.003 Y70.78 E25.57953
G1 X109.423 Y71.114 E25.60623
G1 X109.788 Y71.506 E25.63289
G1 X110.092 Y71.948 E25.65959
G1 X110.386 Y72.595 E25.69495
G1 X111.356 Y75.438 E25.84444
G1 X113.336 Y80.561 E26.11777
G1 X115.475 Y85.343 E26.37847
G1 X115.563 Y85.558 E26.39003
G1 X116.129 Y87.079 E26.4708
G1 X116.278 Y87.594 E26.49748
G1 X116.324 Y87.864 E26.51111
G1 X116.478 Y89.034 E26.56984
G1 X116.506 Y89.359 E26.58607
G1 X116.551 Y90.473 E26.64155
G1 X116.525 Y91.075 E26.67154
G1 X116.327 Y92.621 E26.74911
G1 X116.252 Y93.024 E26.76951
G1 X115.175 Y97.401 E26.99383
G1 X114.613 Y100.091 E27.13059
G1 X114.146 Y102.709 E27.26293
G1 X113.36 Y108.563 E27.55687
G1 X113.249 Y109.088 E27.58358
G1 X113.062 Y109.59 E27.61024
G1 X112.802 Y110.059 E27.63692
G1 X112.487 Y110.47 E27.66269
G1 X109.701 Y113.615 E27.87178
G1 X109.317 Y113.989 E27.89846
G1 X108.881 Y114.302 E27.92517
G1 X108.403 Y114.546 E27.95188
G1 X107.895 Y114.717 E27.97855
G1 X107.5 Y114.794 E27.99858
G1 X105.388 Y115.086 E28.10468
G1 X99.979 Y116.021 E28.37786
G1 X97.565 Y116.54 E28.50074
G1 X96.808 Y116.62 E28.53862
G1 X94.804 Y116.62 E28.63835
G1 X94.269 Y116.58 E28.66505
G1 X93.746 Y116.461 E28.69174
G1 X93.247 Y116.266 E28.7184
G1 X92.957 Y116.11 E28.73479
G1 X90.114 Y114.41 E28.89964
G1 X85.308 Y111.817 E29.1714
G1 X79.515 Y109.104 E29.48974
G1 X78.934 Y108.762 E29.52329
G1 X75.899 Y106.569 E29.70963
G1 X75.34 Y106.068 E29.74699
G1 X72.817 Y103.283 E29.934
G1 X72.373 Y102.677 E29.97139
G1 X70.484 Y99.431 E30.15829
G1 X70.176 Y98.745 E30.19571
G1 X68.999 Y95.165 E30.38326
G1 X68.84 Y94.427 E30.42082
G1 X68.437 Y90.693 E30.60773
G1 X68.435 Y89.942 E30.6451
G1 X68.817 Y86.196 E30.83249
G1 X68.971 Y85.46 E30.86991
G1 X70.119 Y81.888 E31.05663
G1 X70.423 Y81.198 E31.09415
G1 X72.3 Y77.926 E31.28187
G1 X72.74 Y77.317 E31.31926
G1 X75.239 Y74.525 E31.50574
M204 S5000
G0 F2400 X75.537 Y74.791
M204 S200
G1 F1200 X76.032 Y74.342 E31.539
G1 X79.074 Y72.118 E31.72653
G1 X79.627 Y71.793 E31.75845
G1 X81.679 Y70.85 E31.87083
G1 X82.153 Y70.676 E31.89596
G1 X82.698 Y70.574 E31.92355
G1 X85.603 Y70.284 E32.06884
G1 X91.051 Y69.501 E32.34275
G1 X94.059 Y68.937 E32.49505
G1 X94.64 Y68.882 E32.5241
G1 X96.824 Y68.876 E32.63278
G1 X97.469 Y68.94 E32.66504
G1 X100.321 Y69.518 E32.80986
G1 X107.457 Y70.593 E33.16899
G1 X107.949 Y70.707 E33.19412
G1 X108.417 Y70.898 E33.21928
G1 X108.85 Y71.16 E33.24446
G1 X109.235 Y71.487 E33.2696
G1 X109.565 Y71.87 E33.29476
G1 X109.83 Y72.301 E33.31994
G1 X110.009 Y72.724 E33.3428
G1 X110.982 Y75.576 E33.49276
G1 X112.97 Y80.719 E33.76716
G1 X115.111 Y85.506 E34.02813
G1 X115.189 Y85.697 E34.0384
G1 X115.755 Y87.218 E34.11916
G1 X115.929 Y87.916 E34.15496
G1 X116.083 Y89.086 E34.21369
G1 X116.107 Y89.375 E34.22812
G1 X116.152 Y90.489 E34.28361
G1 X116.129 Y91.025 E34.3103
G1 X115.931 Y92.571 E34.38787
G1 X115.864 Y92.928 E34.40595
G1 X114.787 Y97.307 E34.63036
G1 X114.223 Y100.005 E34.76753
G1 X113.754 Y102.633 E34.90038
G1 X112.965 Y108.51 E35.19548
G1 X112.858 Y109.004 E35.22063
G1 X112.675 Y109.475 E35.24578
G1 X112.42 Y109.912 E35.27096
G1 X112.188 Y110.206 E35.2896
G1 X109.402 Y113.351 E35.49869
G1 X109.038 Y113.702 E35.52385
G1 X108.623 Y113.991 E35.54902
G1 X108.168 Y114.211 E35.57417
G1 X107.445 Y114.399 E35.61135
G1 X105.326 Y114.692 E35.7178
G1 X99.877 Y115.634 E35.993
G1 X97.481 Y116.149 E36.11496
G1 X96.808 Y116.221 E36.14864
G1 X94.804 Y116.221 E36.24837
G1 X94.3 Y116.181 E36.27353
G1 X93.809 Y116.062 E36.29868
G1 X93.162 Y115.768 E36.33404
G1 X90.312 Y114.065 E36.49927
G1 X85.481 Y111.458 E36.77246
G1 X79.685 Y108.743 E37.09097
G1 X79.168 Y108.439 E37.12082
G1 X76.133 Y106.246 E37.30716
G1 X75.635 Y105.8 E37.34043
G1 X73.112 Y103.015 E37.52744
G1 X72.718 Y102.477 E37.56063
G1 X70.829 Y99.231 E37.74753
G1 X70.555 Y98.62 E37.78086
G1 X69.378 Y95.04 E37.9684
G1 X69.236 Y94.384 E38.0018
G1 X68.833 Y90.65 E38.1887
G1 X68.832 Y89.982 E38.22195
G1 X69.214 Y86.236 E38.40934
G1 X69.35 Y85.582 E38.44258
G1 X70.498 Y82.01 E38.6293
G1 X70.769 Y81.397 E38.66265
G1 X72.646 Y78.125 E38.85037
G1 X73.038 Y77.583 E38.88366
G1 X75.537 Y74.791 E39.07013
M204 S5000
G1 F1500 E37.07013
G0 F2400 X82.996 Y73.086
G0 X94.569 Y72.851
M204 S200
;TYPE:SUPPORT
G1 F1500 E39.07013
G1 F1200 X94.819 Y72.263 E39.10193
G1 X96.696 Y72.264 E39.19534
G1 X96.932 Y72.851 E39.22683
G1 X94.569 Y72.851 E39.34442
M204 S5000
G0 F2400 X95.976 Y72.691
M204 S200
G1 F1200 X95.976 Y72.424 E39.35771
M204 S5000
G1 F1500 E37.35771
G0 F2400 X82.819 Y73.124
G0 X80.621 Y74.116
G0 X77.482 Y76.407
G0 X74.878 Y79.312
G0 X72.929 Y82.71
G0 X71.736 Y86.405
G0 X71.337 Y90.295
G0 X71.757 Y94.184
G0 X72.964 Y97.874
G0 X74.932 Y101.259
G0 X77.551 Y104.153
G0 X80.689 Y106.425
G0 X84.279 Y108.013
G0 X94.843 Y111.911
G0 X99.157 Y111.911
G0 X99.661 Y111.407
G0 X99.899 Y83.683
M204 S200
G1 F1500 E39.35771
G1 F1200 X100.101 Y83.575 E39.36911
G1 X100.101 Y96.764 E40.02546
G1 X99.916 Y96.819 E40.03507
G1 X99.899 Y96.81 E40.03603
G1 X99.899 Y83.683 E40.6893
M204 S5000
G0 F2400 X99.899 Y102.506
M204 S200
G1 F1200 X100.101 Y102.506 E40.69935
G1 X100.101 Y109.994 E41.07199
G1 X99.899 Y109.994 E41.08205
G1 X99.899 Y102.506 E41.45469
M204 S5000
G1 F1500 E39.45469
G0 F2400 X100.339 Y111.407
G0 X100.843 Y111.911
G0 X107.157 Y111.911
G0 X107.661 Y111.407
G0 X107.899 Y103.858
M204 S200
G1 F1500 E41.45469
G1 F1200 X109.605 Y104.601 E41.54729
G1 X109.604 Y107.952 E41.71406
G1 X107.899 Y108.631 E41.80539
G1 X107.899 Y103.858 E42.04292
M204 S5000
G0 F2400 X109.306 Y104.645
M204 S200
G1 F1200 X109.306 Y107.898 E42.20481
M204 S5000
G0 F2400 X109.444 Y106.64
M204 S200
G1 F1200 X108.059 Y106.64 E42.27373
M204 S5000
G1 F1500 E40.27373
G0 F2400 X107.661 Y111.407
G0 X107.157 Y111.911
G0 X96.959 Y112.149
M204 S200
G1 F1500 E42.27373
G1 F1200 X96.673 Y112.832 E42.31058
G1 X94.916 Y112.832 E42.39802
G1 X94.553 Y112.149 E42.43651
G1 X96.959 Y112.149 E42.55625
M204 S5000
G0 F2400 X95.976 Y112.309
M204 S200
G1 F1200 X95.976 Y112.672 E42.57431
M204 S5000
G1 F1500 E40.57431
G0 F2400 X95.976 Y111.915
G0 X95.976 Y110.633
G0 X97.805 Y110.254
M204 S200
;TYPE:WALL-INNER
G1 F1500 E42.57431
G1 F1200 X95.996 Y110.254 E42.66434
G1 X95.996 Y106.503 E42.85101
G1 X95.996 Y106.502 E42.85106
G1 X95.996 Y106.257 E42.86325
G1 X95.756 Y106.308 E42.87071
G1 X91.778 Y107.155 E43.07312
G1 X88.223 Y107.155 E43.25003
G1 X84.75 Y106.416 E43.42674
G1 X81.493 Y104.965 E43.60418
G1 X78.627 Y102.881 E43.78053
G1 X78.24 Y102.451 E43.80932
G1 X78.021 Y102.208 E43.8256
G1 X77.691 Y101.841 E43.85016
G1 X76.248 Y100.24 E43.95742
G1 X74.47 Y97.162 E44.13432
G1 X73.374 Y93.789 E44.31082
G1 X73.001 Y90.25 E44.48791
G1 X73.374 Y86.711 E44.66501
G1 X74.47 Y83.338 E44.84151
G1 X76.248 Y80.26 E45.01841
G1 X77.693 Y78.654 E45.12592
G1 X78.01 Y78.302 E45.14949
G1 X78.229 Y78.059 E45.16577
G1 X78.627 Y77.617 E45.19537
G1 X81.5 Y75.53 E45.37209
G1 X83.259 Y74.746 E45.46793
G1 X106.004 Y74.746 E46.59984
G1 X106.004 Y83.345 E47.02778
G1 X107.483 Y83.707 E47.10355
G1 X108.968 Y84.487 E47.18703
G1 X110.241 Y85.615 E47.27167
G1 X111.197 Y86.997 E47.3553
G1 X111.794 Y88.573 E47.43917
G1 X111.996 Y90.25 E47.52323
G1 X111.794 Y91.927 E47.60729
G1 X111.197 Y93.503 E47.69116
G1 X110.241 Y94.885 E47.77479
G1 X108.968 Y96.013 E47.85943
G1 X107.483 Y96.793 E47.94291
G1 X106.004 Y97.155 E48.01868
G1 X106.004 Y110.254 E48.67056
