;FLAVOR:Marlin
;TIME:688
;Filament used: 0.508874m
;Layer height: 0.2
;Generated with Cura_SteamEngine 2.7.0
M190 S60
M104 S220
M109 S220
G21 ;metric values
G90 ;absolute positioning
M82 ;set extruder to absolute mode
M107 ;start with the fan off
G92 E0 ;zero the extruded length
G1 F200 E3 ;extrude 3mm of feed stock
G92 E0 ;zero the extruded length again
G1 F9000
M117 Printing...
;LAYER_COUNT:43
;LAYER:0
M107
M204 S5000
G0 F2400 X83.547 Y70.511 Z0.3
M204 S200
;TYPE:SKIRT
G1 F1200 X83.951 Y70.042 E0.03081
G1 X84.432 Y69.613 E0.06288
G1 X85.042 Y69.139 E0.10132
G1 X85.555 Y68.791 E0.13217
G1 X86.108 Y68.512 E0.163
G1 X86.823 Y68.208 E0.20166
G1 X87.408 Y68.003 E0.23251
G1 X88.159 Y67.857 E0.27059
G1 X89.224 Y67.736 E0.32393
G1 X89.841 Y67.706 E0.35467
G1 X91.806 Y67.737 E0.45247
G1 X92.438 Y67.789 E0.48403
G1 X92.954 Y67.866 E0.50999
G1 X93.559 Y67.996 E0.54079
G1 X94.036 Y68.159 E0.56587
G1 X94.762 Y68.451 E0.60481
G1 X95.32 Y68.719 E0.63562
G1 X95.867 Y69.077 E0.66815
G1 X96.509 Y69.563 E0.70823
G1 X97.167 Y70.166 E0.75264
G1 X99.989 Y73.279 E0.96174
G1 X100.375 Y73.763 E0.99255
G1 X100.694 Y74.294 E1.02338
G1 X100.943 Y74.861 E1.0542
G1 X101.117 Y75.455 E1.085
G1 X101.212 Y76.066 E1.11577
G1 X101.232 Y76.499 E1.13734
G1 X101.236 Y108.49 E2.72939
G1 X101.196 Y109.108 E2.76021
G1 X101.077 Y109.716 E2.79104
G1 X100.881 Y110.303 E2.82184
G1 X100.61 Y110.86 E2.85267
G1 X100.27 Y111.377 E2.88346
G1 X99.996 Y111.709 E2.90488
G1 X97.188 Y114.812 E3.11315
G1 X96.577 Y115.379 E3.15463
G1 X95.96 Y115.859 E3.19353
G1 X95.448 Y116.207 E3.22434
G1 X94.892 Y116.488 E3.25534
G1 X94.177 Y116.792 E3.29401
G1 X93.592 Y116.997 E3.32485
G1 X92.841 Y117.143 E3.36293
G1 X91.776 Y117.264 E3.41627
G1 X91.202 Y117.295 E3.44488
G1 X89.433 Y117.283 E3.53291
G1 X88.825 Y117.24 E3.56325
G1 X88.113 Y117.144 E3.599
G1 X87.506 Y117.022 E3.62981
G1 X86.964 Y116.841 E3.65825
G1 X86.238 Y116.549 E3.69719
G1 X85.68 Y116.281 E3.728
G1 X85.141 Y115.928 E3.76006
G1 X84.515 Y115.456 E3.79908
G1 X84.045 Y115.053 E3.82989
G1 X83.617 Y114.572 E3.86193
G1 X83.14 Y113.959 E3.90058
G1 X82.792 Y113.447 E3.93139
G1 X82.51 Y112.888 E3.96255
G1 X82.207 Y112.174 E4.00115
G1 X82.003 Y111.589 E4.03198
G1 X81.857 Y110.842 E4.06986
G1 X81.736 Y109.779 E4.1231
G1 X81.705 Y109.194 E4.15226
G1 X81.715 Y108.075 E4.20795
G1 X81.763 Y107.44 E4.23964
G1 X82.16 Y104.655 E4.37964
G1 X82.694 Y99.291 E4.6479
G1 X82.925 Y93.898 E4.91653
G1 X82.85 Y88.501 E5.18514
G1 X82.472 Y83.147 E5.45225
G1 X81.752 Y77.488 E5.73614
G1 X81.714 Y76.883 E5.76631
G1 X81.714 Y75.509 E5.83469
G1 X81.754 Y74.89 E5.86555
G1 X81.852 Y74.137 E5.90334
G1 X81.971 Y73.53 E5.93413
G1 X82.159 Y72.965 E5.96376
G1 X82.452 Y72.237 E6.00281
G1 X82.72 Y71.679 E6.03362
G1 X83.073 Y71.139 E6.06572
G1 X83.547 Y70.511 E6.10488
M204 S5000
G0 F2400 X83.865 Y70.751
M204 S200
G1 F1200 X84.254 Y70.303 E6.13441
G1 X84.677 Y69.928 E6.16254
G1 X85.287 Y69.454 E6.20098
G1 X85.779 Y69.123 E6.23049
G1 X86.265 Y68.88 E6.25753
G1 X86.98 Y68.576 E6.2962
G1 X87.539 Y68.381 E6.32566
G1 X88.204 Y68.253 E6.35936
G1 X89.269 Y68.132 E6.4127
G1 X89.834 Y68.105 E6.44085
G1 X91.799 Y68.136 E6.53866
G1 X92.379 Y68.183 E6.56761
G1 X92.895 Y68.26 E6.59358
G1 X93.474 Y68.387 E6.62308
G1 X93.887 Y68.53 E6.64483
G1 X94.613 Y68.822 E6.68377
G1 X95.147 Y69.079 E6.71326
G1 X95.626 Y69.395 E6.74182
G1 X96.268 Y69.881 E6.78189
G1 X96.872 Y70.434 E6.82265
G1 X99.694 Y73.547 E7.03175
G1 X100.061 Y74.012 E7.06123
G1 X100.363 Y74.522 E7.09072
G1 X100.593 Y75.068 E7.12021
G1 X100.748 Y75.64 E7.1497
G1 X100.833 Y76.499 E7.19266
G1 X100.837 Y108.49 E8.7847
G1 X100.797 Y109.082 E8.81423
G1 X100.678 Y109.663 E8.84375
G1 X100.482 Y110.222 E8.87323
G1 X100.212 Y110.75 E8.90274
G1 X99.7 Y111.441 E8.94554
G1 X96.892 Y114.544 E9.1538
G1 X96.332 Y115.064 E9.19183
G1 X95.715 Y115.544 E9.23073
G1 X95.224 Y115.876 E9.26023
G1 X94.735 Y116.12 E9.28743
G1 X94.02 Y116.424 E9.32609
G1 X93.461 Y116.619 E9.35556
G1 X92.796 Y116.747 E9.38926
G1 X91.731 Y116.868 E9.4426
G1 X91.205 Y116.896 E9.46881
G1 X89.436 Y116.884 E9.55685
G1 X88.878 Y116.845 E9.58469
G1 X88.166 Y116.749 E9.62044
G1 X87.586 Y116.63 E9.6499
G1 X87.113 Y116.47 E9.67475
G1 X86.387 Y116.178 E9.7137
G1 X85.853 Y115.921 E9.74319
G1 X85.381 Y115.61 E9.77132
G1 X84.755 Y115.138 E9.81033
G1 X84.307 Y114.75 E9.83983
G1 X83.932 Y114.327 E9.86796
G1 X83.455 Y113.714 E9.90662
G1 X83.123 Y113.223 E9.93611
G1 X82.877 Y112.732 E9.96344
G1 X82.574 Y112.018 E10.00204
G1 X82.38 Y111.458 E10.03153
G1 X82.253 Y110.797 E10.06503
G1 X82.132 Y109.734 E10.11827
G1 X82.104 Y109.198 E10.14498
G1 X82.114 Y108.079 E10.20067
G1 X82.158 Y107.497 E10.22972
G1 X82.556 Y104.705 E10.37007
G1 X83.093 Y99.313 E10.63973
G1 X83.324 Y93.91 E10.90886
G1 X83.249 Y88.485 E11.17887
G1 X82.869 Y83.105 E11.44727
G1 X82.148 Y77.438 E11.73156
G1 X82.113 Y76.883 E11.75924
G1 X82.113 Y75.509 E11.82762
G1 X82.15 Y74.942 E11.85589
G1 X82.248 Y74.189 E11.89368
G1 X82.364 Y73.607 E11.92322
G1 X82.529 Y73.114 E11.94909
G1 X82.822 Y72.386 E11.98814
G1 X83.08 Y71.853 E12.01761
G1 X83.391 Y71.379 E12.04582
G1 X83.865 Y70.751 E12.08498
M204 S5000
G0 F2400 X84.184 Y70.991
M204 S200
G1 F1200 X84.555 Y70.566 E12.11306
G1 X84.922 Y70.243 E12.13739
G1 X85.532 Y69.769 E12.17583
G1 X86.002 Y69.455 E12.20396
G1 X86.421 Y69.247 E12.22724
G1 X87.136 Y68.943 E12.2659
G1 X87.67 Y68.759 E12.29401
G1 X88.249 Y68.65 E12.32333
G1 X89.314 Y68.529 E12.37667
G1 X89.828 Y68.503 E12.40229
G1 X91.793 Y68.534 E12.50009
G1 X92.32 Y68.578 E12.5264
G1 X92.836 Y68.655 E12.55237
G1 X93.388 Y68.778 E12.58051
G1 X93.738 Y68.9 E12.59896
G1 X94.464 Y69.192 E12.6379
G1 X94.972 Y69.439 E12.66601
G1 X95.385 Y69.713 E12.69068
G1 X96.027 Y70.199 E12.73075
G1 X96.576 Y70.702 E12.7678
G1 X99.398 Y73.815 E12.9769
G1 X99.747 Y74.259 E13.00501
G1 X100.03 Y74.749 E13.03317
G1 X100.241 Y75.273 E13.06128
G1 X100.376 Y75.822 E13.08942
G1 X100.434 Y76.5 E13.12328
G1 X100.438 Y108.491 E14.71533
G1 X100.398 Y109.054 E14.74342
G1 X100.279 Y109.607 E14.77157
G1 X100.083 Y110.137 E14.79969
G1 X99.815 Y110.634 E14.82779
G1 X99.404 Y111.174 E14.86156
G1 X96.596 Y114.277 E15.06982
G1 X96.087 Y114.75 E15.1044
G1 X95.47 Y115.23 E15.14331
G1 X95 Y115.544 E15.17143
G1 X94.579 Y115.753 E15.19483
G1 X93.864 Y116.057 E15.23349
G1 X93.33 Y116.241 E15.2616
G1 X92.751 Y116.35 E15.29092
G1 X91.686 Y116.471 E15.34426
G1 X91.208 Y116.497 E15.36808
G1 X89.439 Y116.485 E15.45612
G1 X88.932 Y116.449 E15.48142
G1 X88.22 Y116.353 E15.51717
G1 X87.666 Y116.238 E15.54533
G1 X87.262 Y116.1 E15.56657
G1 X86.536 Y115.808 E15.60552
G1 X86.028 Y115.561 E15.63363
G1 X85.621 Y115.291 E15.65793
G1 X84.995 Y114.819 E15.69695
G1 X84.569 Y114.448 E15.72506
G1 X84.247 Y114.082 E15.74932
G1 X83.77 Y113.469 E15.78797
G1 X83.455 Y113 E15.81609
G1 X83.245 Y112.576 E15.83964
G1 X82.942 Y111.862 E15.87824
G1 X82.758 Y111.327 E15.90639
G1 X82.65 Y110.752 E15.93551
G1 X82.529 Y109.689 E15.98875
G1 X82.503 Y109.201 E16.01307
G1 X82.513 Y108.082 E16.06876
G1 X82.553 Y107.553 E16.09516
G1 X82.952 Y104.754 E16.23586
G1 X83.492 Y99.333 E16.50698
G1 X83.724 Y93.921 E16.77655
G1 X83.647 Y88.469 E17.0479
G1 X83.266 Y83.063 E17.3176
G1 X82.544 Y77.388 E17.6023
G1 X82.512 Y76.883 E17.62748
G1 X82.512 Y75.509 E17.69586
G1 X82.545 Y74.993 E17.72159
G1 X82.643 Y74.24 E17.75938
G1 X82.756 Y73.686 E17.78752
G1 X82.899 Y73.263 E17.80974
G1 X83.192 Y72.535 E17.84879
G1 X83.44 Y72.027 E17.87692
G1 X83.71 Y71.619 E17.90127
G1 X84.184 Y70.991 E17.94043
M204 S5000
G0 F2400 X84.502 Y71.232
M204 S200
G1 F1200 X84.856 Y70.829 E17.96712
G1 X85.167 Y70.558 E17.98765
G1 X85.777 Y70.084 E18.02609
G1 X86.223 Y69.788 E18.05273
G1 X86.577 Y69.614 E18.07236
G1 X87.292 Y69.31 E18.11103
G1 X87.8 Y69.137 E18.13773
G1 X88.294 Y69.046 E18.16273
G1 X89.359 Y68.925 E18.21607
G1 X89.822 Y68.902 E18.23914
G1 X91.787 Y68.933 E18.33694
G1 X92.261 Y68.972 E18.36061
G1 X92.777 Y69.049 E18.38658
G1 X93.3 Y69.168 E18.41327
G1 X93.589 Y69.27 E18.42852
G1 X94.315 Y69.562 E18.46746
G1 X94.796 Y69.799 E18.49415
G1 X95.144 Y70.031 E18.51496
G1 X95.786 Y70.517 E18.55503
G1 X96.28 Y70.97 E18.58839
G1 X99.102 Y74.083 E18.79749
G1 X99.432 Y74.506 E18.82419
G1 X99.695 Y74.973 E18.85086
G1 X99.886 Y75.474 E18.87755
G1 X100 Y75.998 E18.90423
G1 X100.035 Y76.5 E18.92928
G1 X100.039 Y108.491 E20.52132
G1 X99.999 Y109.025 E20.54797
G1 X99.88 Y109.548 E20.57466
G1 X99.685 Y110.048 E20.60137
G1 X99.418 Y110.512 E20.62801
G1 X99.109 Y110.906 E20.65293
G1 X96.301 Y114.009 E20.8612
G1 X95.842 Y114.435 E20.89236
G1 X95.225 Y114.915 E20.93126
G1 X94.778 Y115.211 E20.95794
G1 X94.423 Y115.386 E20.97764
G1 X93.708 Y115.69 E21.01631
G1 X93.2 Y115.863 E21.04301
G1 X92.706 Y115.954 E21.06801
G1 X91.641 Y116.075 E21.12135
G1 X91.211 Y116.098 E21.14278
G1 X89.442 Y116.086 E21.23082
G1 X88.985 Y116.054 E21.25362
G1 X88.273 Y115.958 E21.28937
G1 X87.749 Y115.847 E21.31603
G1 X87.411 Y115.73 E21.33383
G1 X86.685 Y115.438 E21.37277
G1 X86.204 Y115.201 E21.39945
G1 X85.861 Y114.973 E21.41995
G1 X85.235 Y114.501 E21.45897
G1 X84.832 Y114.147 E21.48566
G1 X84.562 Y113.837 E21.50612
G1 X84.085 Y113.224 E21.54477
G1 X83.788 Y112.778 E21.57144
G1 X83.612 Y112.42 E21.59129
G1 X83.309 Y111.706 E21.62989
G1 X83.137 Y111.198 E21.65658
G1 X83.046 Y110.707 E21.68143
G1 X82.925 Y109.644 E21.73468
G1 X82.902 Y109.205 E21.75655
G1 X82.912 Y108.086 E21.81224
G1 X82.948 Y107.61 E21.836
G1 X83.349 Y104.804 E21.97706
G1 X83.889 Y99.373 E22.24867
G1 X84.123 Y93.915 E22.52054
G1 X84.046 Y88.453 E22.79238
G1 X83.663 Y83.018 E23.06353
G1 X82.94 Y77.337 E23.34853
G1 X82.911 Y76.883 E23.37117
G1 X82.911 Y75.509 E23.43955
G1 X82.941 Y75.045 E23.46268
G1 X83.039 Y74.292 E23.50047
G1 X83.148 Y73.766 E23.52721
G1 X83.269 Y73.412 E23.54582
G1 X83.562 Y72.684 E23.58488
G1 X83.799 Y72.203 E23.61156
G1 X84.028 Y71.86 E23.63209
G1 X84.502 Y71.232 E23.67124
M204 S5000
G0 F2400 X84.821 Y71.472
M204 S200
G1 F1200 X85.156 Y71.094 E23.69638
G1 X85.412 Y70.873 E23.71321
G1 X86.022 Y70.399 E23.75165
G1 X86.444 Y70.121 E23.7768
G1 X86.733 Y69.981 E23.79278
G1 X87.448 Y69.677 E23.83145
G1 X87.927 Y69.517 E23.85658
G1 X88.339 Y69.442 E23.87742
G1 X89.404 Y69.321 E23.93076
G1 X89.815 Y69.301 E23.95124
G1 X91.78 Y69.332 E24.04904
G1 X92.202 Y69.367 E24.07011
G1 X92.718 Y69.444 E24.09608
G1 X93.44 Y69.64 E24.13331
G1 X94.166 Y69.932 E24.17225
G1 X94.619 Y70.157 E24.19742
G1 X94.903 Y70.35 E24.21451
G1 X95.545 Y70.836 E24.25458
G1 X95.985 Y71.238 E24.28424
G1 X98.807 Y74.351 E24.49334
G1 X99.116 Y74.751 E24.5185
G1 X99.358 Y75.195 E24.54366
G1 X99.527 Y75.671 E24.5688
G1 X99.619 Y76.168 E24.59395
G1 X99.636 Y76.5 E24.6105
G1 X99.64 Y108.491 E26.20254
G1 X99.6 Y108.995 E26.2277
G1 X99.481 Y109.486 E26.25285
G1 X99.287 Y109.953 E26.27801
G1 X99.021 Y110.383 E26.30317
G1 X98.813 Y110.638 E26.31955
G1 X96.005 Y113.741 E26.52782
G1 X95.597 Y114.12 E26.55553
G1 X94.98 Y114.6 E26.59443
G1 X94.558 Y114.878 E26.61958
G1 X94.267 Y115.019 E26.63567
G1 X93.552 Y115.323 E26.67434
G1 X93.073 Y115.483 E26.69947
G1 X92.661 Y115.558 E26.72031
G1 X91.596 Y115.679 E26.77365
G1 X91.213 Y115.699 E26.79274
G1 X89.444 Y115.687 E26.88077
G1 X89.038 Y115.658 E26.90103
G1 X88.326 Y115.562 E26.93678
G1 X87.832 Y115.455 E26.96194
G1 X87.56 Y115.36 E26.97628
G1 X86.834 Y115.068 E27.01522
G1 X86.381 Y114.843 E27.04039
G1 X86.101 Y114.654 E27.0572
G1 X85.475 Y114.182 E27.09622
G1 X85.097 Y113.847 E27.12135
G1 X84.877 Y113.592 E27.13811
G1 X84.4 Y112.979 E27.17677
G1 X84.122 Y112.557 E27.20192
G1 X83.979 Y112.264 E27.21814
G1 X83.676 Y111.55 E27.25674
G1 X83.516 Y111.071 E27.28187
G1 X83.443 Y110.662 E27.30255
G1 X83.322 Y109.599 E27.35579
G1 X83.301 Y109.208 E27.37528
G1 X83.311 Y108.089 E27.43097
G1 X83.343 Y107.666 E27.45208
G1 X83.745 Y104.852 E27.59354
G1 X84.288 Y99.393 E27.86655
G1 X84.522 Y93.927 E28.13882
G1 X84.445 Y88.437 E28.41206
G1 X84.06 Y82.976 E28.6845
G1 X83.336 Y77.287 E28.9699
G1 X83.31 Y76.883 E28.99005
G1 X83.31 Y75.509 E29.05843
G1 X83.337 Y75.096 E29.07902
G1 X83.435 Y74.343 E29.11681
G1 X83.539 Y73.848 E29.14198
G1 X83.639 Y73.561 E29.15711
G1 X83.932 Y72.833 E29.19616
G1 X84.158 Y72.381 E29.22131
G1 X84.347 Y72.1 E29.23816
G1 X84.821 Y71.472 E29.27732
M204 S5000
G1 F1500 E27.27732
G0 F2400 X86.642 Y73.246
G0 X86.699 Y73.302
G0 X89.465 Y75.996
G0 X89.522 Y76.052
G0 X90.19 Y76.702
M204 S200
;TYPE:SUPPORT
G1 F1500 E29.27732
G1 F1200 X90.218 Y76.66 E29.27983
G1 X90.54 Y76.546 E29.29683
G1 X90.58 Y76.487 E29.30038
G1 X90.814 Y76.404 E29.31273
G1 X91.324 Y76.343 E29.3383
G1 X91.344 Y76.499 E29.34612
G1 X91.316 Y76.714 E29.35691
G1 X91.23 Y76.921 E29.36807
G1 X91.094 Y77.098 E29.37918
G1 X90.924 Y77.229 E29.38986
G1 X90.714 Y77.316 E29.40117
G1 X90.499 Y77.344 E29.41196
G1 X90.286 Y77.316 E29.42265
G1 X90.079 Y77.23 E29.4338
G1 X89.902 Y77.094 E29.44491
G1 X89.798 Y76.959 E29.45339
G1 X90.19 Y76.702 E29.47672
M204 S5000
G0 F2400 X90.644 Y76.677
M204 S200
G1 F1200 X90.644 Y77.165 E29.50101
M204 S5000
G1 F1500 E27.50101
G0 F2400 X90.496 Y77.58
G0 X90.469 Y77.655
G0 X89.304 Y80.942
G0 X89.277 Y81.017
G0 X89.182 Y81.29
M204 S200
G1 F1500 E29.50101
G1 F1200 X90.23 Y83.033 E29.60222
G1 X91.074 Y84.817 E29.70044
G1 X91.734 Y86.66 E29.79786
G1 X92.212 Y88.576 E29.89613
G1 X92.502 Y90.525 E29.99419
G1 X92.596 Y92.503 E30.09274
G1 X92.502 Y94.475 E30.19099
G1 X92.212 Y96.424 E30.28905
G1 X91.734 Y98.34 E30.38732
G1 X91.074 Y100.183 E30.48474
G1 X90.224 Y101.977 E30.58354
G1 X89.215 Y103.665 E30.6814
G1 X88.87 Y104.129 E30.71018
G1 X88.872 Y80.874 E31.86747
G1 X89.182 Y81.29 E31.89329
M204 S5000
G0 F2400 X89.032 Y82.646
M204 S200
G1 F1200 X89.81 Y82.646 E31.93201
M204 S5000
G0 F2400 X90.644 Y84.283
M204 S200
G1 F1200 X90.644 Y100.717 E32.74986
M204 S5000
G0 F2400 X90.363 Y101.308
M204 S200
G1 F1200 X89.031 Y101.308 E32.81614
M204 S5000
G0 F2400 X89.031 Y98.642
M204 S200
G1 F1200 X91.456 Y98.642 E32.93682
M204 S5000
G0 F2400 X92.116 Y95.976
M204 S200
G1 F1200 X89.031 Y95.976 E33.09035
M204 S5000
G0 F2400 X89.031 Y93.31
M204 S200
G1 F1200 X92.397 Y93.31 E33.25786
M204 S5000
G0 F2400 X92.347 Y90.644
M204 S200
G1 F1200 X89.032 Y90.644 E33.42283
M204 S5000
G0 F2400 X89.032 Y87.978
M204 S200
G1 F1200 X91.898 Y87.978 E33.56546
M204 S5000
G0 F2400 X91.082 Y85.312
M204 S200
G1 F1200 X89.032 Y85.312 E33.66748
M204 S5000
G1 F1500 E31.66748
G0 F2400 X90.164 Y102.567
G0 X90.169 Y102.647
G0 X90.477 Y107.342
G0 X90.483 Y107.421
G0 X90.499 Y107.656
M204 S200
G1 F1500 E33.66748
G1 F1200 X90.714 Y107.684 E33.67827
G1 X90.925 Y107.772 E33.68965
G1 X91.097 Y107.904 E33.70044
G1 X91.228 Y108.075 E33.71116
G1 X91.316 Y108.286 E33.72254
G1 X91.344 Y108.499 E33.73323
G1 X91.319 Y108.686 E33.74262
G1 X91.064 Y108.686 E33.75531
G1 X90.508 Y108.487 E33.78469
G1 X90.211 Y108.24 E33.80392
G1 X89.804 Y108.035 E33.8266
G1 X89.905 Y107.903 E33.83487
G1 X90.076 Y107.771 E33.84562
G1 X90.286 Y107.684 E33.85693
G1 X90.499 Y107.656 E33.86762
M204 S5000
G0 F2400 X90.644 Y107.836
M204 S200
G1 F1200 X90.644 Y108.365 E33.89395
M204 S5000
G1 F1500 E31.89395
G0 F2400 X91.463 Y108.028
G0 X92.63 Y107.546
G0 X93.504 Y107.504
M204 S200
;TYPE:WALL-INNER
G1 F1500 E33.89395
G1 F1200 X93.504 Y107.646 E33.90101
G1 X93.504 Y107.787 E33.90803
G1 X93.504 Y108.5 E33.94351
G1 X93.504 Y109.213 E33.979
G1 X93.504 Y109.354 E33.98601
G1 X93.504 Y109.431 E33.98985
G1 X93.427 Y110.018 E34.01931
G1 X93.229 Y110.494 E34.04496
G1 X92.91 Y110.91 E34.07105
G1 X92.494 Y111.229 E34.09714
G1 X92.018 Y111.427 E34.1228
G1 X91.431 Y111.504 E34.15226
G1 X91.354 Y111.504 E34.15609
G1 X91.213 Y111.504 E34.16311
G1 X90.5 Y111.504 E34.19859
G1 X89.787 Y111.504 E34.23407
G1 X89.646 Y111.504 E34.24109
G1 X89.569 Y111.504 E34.24492
G1 X88.982 Y111.427 E34.27439
G1 X88.506 Y111.229 E34.30004
G1 X88.09 Y110.91 E34.32613
G1 X87.771 Y110.494 E34.35222
G1 X87.573 Y110.018 E34.37788
G1 X87.496 Y109.431 E34.40734
G1 X87.496 Y109.354 E34.41117
G1 X87.496 Y109.213 E34.41819
G1 X87.496 Y108.56 E34.45068
G1 X87.663 Y108.409 E34.46189
G1 X87.771 Y108.312 E34.46911
G1 X87.746 Y108.5
G1 X87.749 Y108.526
G1 X87.839 Y109.213 E34.49521
G1 X87.892 Y109.343 E34.50171
