;FLAVOR:Marlin
;TIME:3659
;Filament used: 3.07157m
;Layer height: 0.2
;Generated with Cura_SteamEngine 2.7.0
M190 S60
M104 S220
M109 S220
G21 ;metric values
G90 ;absolute positioning
M82 ;set extruder to absolute mode
M107 ;start with the fan off
G92 E0 ;zero the extruded length
G1 F200 E3 ;extrude 3mm of feed stock
G92 E0 ;zero the extruded length again
G1 F9000
M117 Printing...
;LAYER_COUNT:55
;LAYER:0
M107
M204 S5000
G0 F2400 X61.793 Y78.218 Z0.3
G0 X61.42 Y78.539
M204 S200
;TYPE:SKIRT
G1 F1200 X61.793 Y78.218 E0.02449
G1 X62.287 Y77.845 E0.05529
G1 X62.809 Y77.547 E0.08521
G1 X63.284 Y77.314 E0.11154
G1 X63.856 Y77.078 E0.14233
G1 X64.565 Y76.897 E0.17875
G1 X65.196 Y76.786 E0.21063
G1 X66.027 Y76.713 E0.25214
G1 X118.973 Y76.714 E2.88703
G1 X119.591 Y76.754 E2.91785
G1 X120.131 Y76.856 E2.9452
G1 X121.039 Y77.082 E2.99176
G1 X121.629 Y77.27 E3.02258
G1 X122.19 Y77.532 E3.05339
G1 X122.601 Y77.786 E3.07743
G1 X123.028 Y78.08 E3.10323
G1 X123.514 Y78.463 E3.13403
G1 X123.937 Y78.894 E3.16408
G1 X124.255 Y79.262 E3.18829
G1 X124.629 Y79.756 E3.21912
G1 X124.984 Y80.396 E3.25554
G1 X125.328 Y81.145 E3.29656
G1 X125.596 Y81.882 E3.33559
G1 X126.468 Y85.072 E3.50016
G1 X126.581 Y85.602 E3.52713
G1 X127.041 Y88.568 E3.6765
G1 X127.088 Y88.988 E3.69753
G1 X127.25 Y91.446 E3.82012
G1 X127.258 Y91.912 E3.84332
G1 X127.148 Y95.403 E4.01713
G1 X127.101 Y95.939 E4.04391
G1 X126.659 Y98.992 E4.19743
G1 X126.572 Y99.441 E4.22019
G1 X125.924 Y102.099 E4.35634
G1 X125.799 Y102.524 E4.37838
G1 X125.396 Y103.695 E4.44001
G1 X125.157 Y104.266 E4.47082
G1 X124.99 Y104.574 E4.48826
G1 X124.581 Y105.266 E4.52826
G1 X124.232 Y105.778 E4.55909
G1 X123.82 Y106.24 E4.5899
G1 X123.591 Y106.452 E4.60543
G1 X123.234 Y106.761 E4.62893
G1 X122.74 Y107.135 E4.65976
G1 X122.236 Y107.426 E4.68872
G1 X121.745 Y107.671 E4.71603
G1 X121.175 Y107.912 E4.74683
G1 X120.435 Y108.103 E4.78486
G1 X119.804 Y108.214 E4.81675
G1 X118.973 Y108.287 E4.85826
G1 X66.027 Y108.286 E7.49315
G1 X65.409 Y108.246 E7.52396
G1 X64.99 Y108.173 E7.54513
G1 X64.204 Y107.999 E7.58519
G1 X63.61 Y107.826 E7.61598
G1 X63.042 Y107.578 E7.64683
G1 X62.674 Y107.367 E7.66794
G1 X62.109 Y107.009 E7.70122
G1 X61.609 Y106.645 E7.732
G1 X61.018 Y106.06 E7.77338
G1 X60.722 Y105.711 E7.79616
G1 X60.353 Y105.214 E7.82696
G1 X60.041 Y104.651 E7.859
G1 X59.728 Y103.986 E7.89557
G1 X59.446 Y103.226 E7.93591
G1 X58.545 Y99.978 E8.10366
G1 X58.428 Y99.438 E8.13115
G1 X57.966 Y96.486 E8.27985
G1 X57.918 Y96.056 E8.30138
G1 X57.751 Y93.495 E8.4291
G1 X57.743 Y93.031 E8.4522
G1 X57.852 Y89.593 E8.62338
G1 X57.9 Y89.057 E8.65016
G1 X58.342 Y86.007 E8.80353
G1 X58.428 Y85.559 E8.82623
G1 X59.076 Y82.901 E8.96238
G1 X59.201 Y82.475 E8.98447
G1 X59.606 Y81.299 E9.04637
G1 X59.845 Y80.728 E9.07718
G1 X60.015 Y80.416 E9.09486
G1 X60.422 Y79.729 E9.1346
G1 X60.771 Y79.218 E9.16539
G1 X61.183 Y78.756 E9.1962
G1 X61.42 Y78.539 E9.21219
M204 S5000
G0 F2400 X61.68 Y78.841
M204 S200
G1 F1200 X62.053 Y78.52 E9.23668
G1 X62.527 Y78.165 E9.26615
G1 X62.985 Y77.905 E9.29236
G1 X63.46 Y77.672 E9.31869
G1 X64.008 Y77.448 E9.34815
G1 X64.634 Y77.289 E9.38029
G1 X65.265 Y77.178 E9.41218
G1 X66.027 Y77.112 E9.45024
G1 X118.973 Y77.113 E12.08512
G1 X119.564 Y77.153 E12.1146
G1 X120.035 Y77.243 E12.13847
G1 X120.943 Y77.469 E12.18503
G1 X121.507 Y77.651 E12.21452
G1 X122.042 Y77.907 E12.24404
G1 X122.375 Y78.114 E12.26355
G1 X122.802 Y78.408 E12.28935
G1 X123.266 Y78.777 E12.31886
G1 X123.635 Y79.155 E12.34514
G1 X123.953 Y79.523 E12.36935
G1 X124.309 Y79.997 E12.39885
G1 X124.622 Y80.563 E12.43104
G1 X124.966 Y81.312 E12.47205
G1 X125.211 Y81.988 E12.50784
G1 X126.083 Y85.178 E12.67241
G1 X126.187 Y85.663 E12.6971
G1 X126.647 Y88.629 E12.84647
G1 X126.689 Y89.014 E12.86574
G1 X126.851 Y91.472 E12.98833
G1 X126.859 Y91.899 E13.00958
G1 X126.749 Y95.39 E13.1834
G1 X126.706 Y95.882 E13.20798
G1 X126.264 Y98.935 E13.3615
G1 X126.184 Y99.346 E13.38233
G1 X125.536 Y102.004 E13.51848
G1 X125.422 Y102.394 E13.5387
G1 X125.019 Y103.565 E13.60033
G1 X124.646 Y104.371 E13.64453
G1 X124.237 Y105.063 E13.68454
G1 X123.902 Y105.552 E13.71403
G1 X123.33 Y106.151 E13.75525
G1 X122.973 Y106.46 E13.77875
G1 X122.499 Y106.816 E13.80825
G1 X122.058 Y107.069 E13.83355
G1 X121.567 Y107.314 E13.86086
G1 X121.02 Y107.543 E13.89037
G1 X120.366 Y107.711 E13.92397
G1 X119.735 Y107.822 E13.95586
G1 X118.973 Y107.888 E13.99392
G1 X66.027 Y107.887 E16.6288
G1 X65.436 Y107.847 E16.65828
G1 X65.077 Y107.783 E16.67643
G1 X64.291 Y107.609 E16.71649
G1 X63.722 Y107.442 E16.746
G1 X63.181 Y107.2 E16.7755
G1 X62.888 Y107.03 E16.79236
G1 X62.323 Y106.672 E16.82564
G1 X61.844 Y106.322 E16.85517
G1 X61.323 Y105.802 E16.8918
G1 X61.027 Y105.453 E16.91457
G1 X60.675 Y104.976 E16.94407
G1 X60.402 Y104.482 E16.97216
G1 X60.089 Y103.817 E17.00874
G1 X59.83 Y103.119 E17.04579
G1 X58.929 Y99.871 E17.21353
G1 X58.822 Y99.376 E17.23873
G1 X58.36 Y96.424 E17.38743
G1 X58.316 Y96.03 E17.40716
G1 X58.149 Y93.469 E17.53488
G1 X58.142 Y93.044 E17.55603
G1 X58.251 Y89.606 E17.72721
G1 X58.294 Y89.114 E17.75179
G1 X58.736 Y86.064 E17.90516
G1 X58.816 Y85.654 E17.92595
G1 X59.464 Y82.996 E18.0621
G1 X59.579 Y82.605 E18.08238
G1 X59.984 Y81.429 E18.14428
G1 X60.214 Y80.883 E18.17376
G1 X60.358 Y80.62 E18.18869
G1 X60.765 Y79.933 E18.22842
G1 X61.101 Y79.444 E18.25795
G1 X61.68 Y78.841 E18.29955
M204 S5000
G0 F2400 X61.94 Y79.144
M204 S200
G1 F1200 X62.313 Y78.823 E18.32404
G1 X62.767 Y78.485 E18.35221
G1 X63.16 Y78.264 E18.37465
G1 X63.635 Y78.031 E18.40098
G1 X64.159 Y77.818 E18.42913
G1 X64.703 Y77.682 E18.45703
G1 X65.334 Y77.571 E18.48892
G1 X66.027 Y77.511 E18.52353
G1 X118.973 Y77.512 E21.15842
G1 X119.537 Y77.552 E21.18655
G1 X119.939 Y77.63 E21.20693
G1 X120.847 Y77.856 E21.2535
G1 X121.384 Y78.031 E21.28161
G1 X121.891 Y78.28 E21.30972
G1 X122.148 Y78.443 E21.32486
G1 X122.575 Y78.737 E21.35066
G1 X123.017 Y79.09 E21.37881
G1 X123.333 Y79.416 E21.40141
G1 X123.651 Y79.784 E21.42561
G1 X123.989 Y80.237 E21.45374
G1 X124.259 Y80.729 E21.48167
G1 X124.603 Y81.478 E21.52268
G1 X124.827 Y82.093 E21.55526
G1 X125.699 Y85.283 E21.71983
G1 X125.793 Y85.724 E21.74227
G1 X126.253 Y88.69 E21.89164
G1 X126.291 Y89.04 E21.90916
G1 X126.453 Y91.498 E22.03175
G1 X126.46 Y91.887 E22.05111
G1 X126.35 Y95.378 E22.22493
G1 X126.311 Y95.825 E22.24726
G1 X125.869 Y98.878 E22.40078
G1 X125.796 Y99.252 E22.41974
G1 X125.148 Y101.91 E22.55589
G1 X125.044 Y102.264 E22.57425
G1 X124.641 Y103.435 E22.63588
G1 X124.303 Y104.168 E22.67605
G1 X123.894 Y104.86 E22.71606
G1 X123.573 Y105.325 E22.74418
G1 X123.068 Y105.849 E22.78039
G1 X122.711 Y106.158 E22.80389
G1 X122.259 Y106.497 E22.83201
G1 X121.88 Y106.712 E22.85369
G1 X121.389 Y106.957 E22.881
G1 X120.867 Y107.173 E22.90911
G1 X120.297 Y107.318 E22.93838
G1 X119.666 Y107.429 E22.97027
G1 X118.973 Y107.489 E23.00488
G1 X66.027 Y107.488 E25.63977
G1 X65.463 Y107.448 E25.6679
G1 X65.163 Y107.393 E25.68308
G1 X64.377 Y107.219 E25.72315
G1 X63.835 Y107.059 E25.75127
G1 X63.101 Y106.693 E25.79209
G1 X62.536 Y106.335 E25.82537
G1 X62.081 Y106 E25.85349
G1 X61.627 Y105.544 E25.88551
G1 X61.331 Y105.195 E25.90829
G1 X60.997 Y104.739 E25.93642
G1 X60.763 Y104.312 E25.96065
G1 X60.45 Y103.647 E25.99723
G1 X60.214 Y103.013 E26.03089
G1 X59.313 Y99.765 E26.19863
G1 X59.216 Y99.314 E26.22159
G1 X58.754 Y96.362 E26.37029
G1 X58.714 Y96.004 E26.38821
G1 X58.547 Y93.443 E26.51593
G1 X58.541 Y93.056 E26.5352
G1 X58.65 Y89.618 E26.70638
G1 X58.689 Y89.172 E26.72866
G1 X59.131 Y86.122 E26.88203
G1 X59.204 Y85.748 E26.90099
G1 X59.852 Y83.09 E27.03714
G1 X59.956 Y82.735 E27.05555
G1 X60.361 Y81.559 E27.11745
G1 X60.701 Y80.823 E27.15779
G1 X61.108 Y80.136 E27.19753
G1 X61.43 Y79.672 E27.22564
G1 X61.94 Y79.144 E27.26217
M204 S5000
G0 F2400 X62.2 Y79.446
M204 S200
G1 F1200 X62.573 Y79.125 E27.28666
G1 X63.005 Y78.807 E27.31336
G1 X63.336 Y78.622 E27.33223
G1 X63.811 Y78.389 E27.35856
G1 X64.309 Y78.189 E27.38526
G1 X64.772 Y78.075 E27.40899
G1 X65.403 Y77.964 E27.44088
G1 X66.027 Y77.91 E27.47205
G1 X118.973 Y77.911 E30.10693
G1 X119.508 Y77.951 E30.13363
G1 X119.842 Y78.018 E30.15058
G1 X120.75 Y78.244 E30.19715
G1 X121.26 Y78.411 E30.22385
G1 X121.922 Y78.772 E30.26138
G1 X122.349 Y79.066 E30.28718
G1 X122.767 Y79.402 E30.31387
G1 X123.031 Y79.677 E30.33284
G1 X123.349 Y80.045 E30.35704
G1 X123.669 Y80.476 E30.38376
G1 X123.897 Y80.896 E30.40754
G1 X124.241 Y81.645 E30.44856
G1 X124.442 Y82.198 E30.47784
G1 X125.314 Y85.388 E30.64242
G1 X125.398 Y85.785 E30.66261
G1 X125.858 Y88.751 E30.81198
G1 X125.893 Y89.066 E30.82775
G1 X126.055 Y91.524 E30.95034
G1 X126.061 Y91.874 E30.96776
G1 X125.951 Y95.365 E31.14158
G1 X125.916 Y95.768 E31.16171
G1 X125.474 Y98.821 E31.31523
G1 X125.409 Y99.157 E31.33226
G1 X124.761 Y101.815 E31.46841
G1 X124.667 Y102.134 E31.48496
G1 X124.264 Y103.305 E31.54659
G1 X123.959 Y103.965 E31.58277
G1 X123.55 Y104.657 E31.62277
G1 X123.244 Y105.097 E31.64945
G1 X122.807 Y105.547 E31.68066
G1 X122.45 Y105.856 E31.70416
G1 X122.02 Y106.176 E31.73083
G1 X121.702 Y106.355 E31.74899
G1 X121.211 Y106.6 E31.7763
G1 X120.715 Y106.803 E31.80297
G1 X120.228 Y106.925 E31.82796
G1 X119.597 Y107.036 E31.85984
G1 X118.973 Y107.09 E31.89101
G1 X66.027 Y107.089 E34.5259
G1 X65.249 Y107.004 E34.56484
G1 X64.463 Y106.83 E34.60491
G1 X63.95 Y106.675 E34.63158
G1 X63.315 Y106.356 E34.66694
G1 X62.75 Y105.998 E34.70023
G1 X62.319 Y105.678 E34.72694
G1 X61.931 Y105.286 E34.75439
G1 X61.635 Y104.937 E34.77716
G1 X61.32 Y104.503 E34.80385
G1 X61.124 Y104.142 E34.82429
G1 X60.811 Y103.477 E34.86087
G1 X60.599 Y102.906 E34.89118
G1 X59.698 Y99.658 E35.05892
G1 X59.61 Y99.252 E35.0796
G1 X59.148 Y96.3 E35.22829
G1 X59.113 Y95.978 E35.24441
G1 X58.946 Y93.417 E35.37213
G1 X58.94 Y93.069 E35.38945
G1 X59.049 Y89.631 E35.56063
G1 X59.084 Y89.229 E35.58071
G1 X59.526 Y86.179 E35.73408
G1 X59.591 Y85.843 E35.75112
G1 X60.239 Y83.185 E35.88727
G1 X60.333 Y82.865 E35.90386
G1 X60.738 Y81.689 E35.96576
G1 X61.045 Y81.027 E36.00208
G1 X61.452 Y80.34 E36.04181
G1 X61.759 Y79.9 E36.06851
G1 X62.2 Y79.446 E36.10001
M204 S5000
G0 F2400 X62.461 Y79.749
M204 S200
G1 F1200 X62.834 Y79.428 E36.1245
G1 X63.242 Y79.129 E36.14968
G1 X63.512 Y78.98 E36.16502
G1 X63.987 Y78.747 E36.19135
G1 X64.457 Y78.561 E36.21651
G1 X64.842 Y78.468 E36.23622
G1 X65.473 Y78.357 E36.2681
G1 X66.027 Y78.309 E36.29577
G1 X118.973 Y78.31 E38.93066
G1 X119.477 Y78.35 E38.95582
G1 X119.746 Y78.405 E38.96948
G1 X120.654 Y78.631 E39.01605
G1 X121.133 Y78.791 E39.04118
G1 X121.696 Y79.1 E39.07314
G1 X122.123 Y79.394 E39.09894
G1 X122.515 Y79.713 E39.12409
G1 X122.729 Y79.938 E39.13954
G1 X123.047 Y80.306 E39.16375
G1 X123.347 Y80.713 E39.18891
G1 X123.534 Y81.062 E39.20862
G1 X123.878 Y81.811 E39.24963
G1 X124.057 Y82.303 E39.27569
G1 X124.929 Y85.493 E39.44026
G1 X125.004 Y85.847 E39.45827
G1 X125.464 Y88.813 E39.60764
G1 X125.495 Y89.093 E39.62166
G1 X125.657 Y91.551 E39.74425
G1 X125.662 Y91.862 E39.75973
G1 X125.552 Y95.353 E39.93355
G1 X125.521 Y95.711 E39.95143
G1 X125.079 Y98.764 E40.10495
G1 X125.021 Y99.063 E40.1201
G1 X124.373 Y101.721 E40.25625
G1 X124.29 Y102.004 E40.27093
G1 X123.887 Y103.175 E40.33256
G1 X123.616 Y103.762 E40.36474
G1 X123.207 Y104.454 E40.40474
G1 X122.916 Y104.868 E40.42992
G1 X122.546 Y105.246 E40.45625
G1 X122.189 Y105.555 E40.47974
G1 X121.782 Y105.854 E40.50488
G1 X121.524 Y105.998 E40.51958
G1 X121.033 Y106.243 E40.54689
G1 X120.564 Y106.433 E40.57207
G1 X120.158 Y106.532 E40.59287
G1 X119.527 Y106.643 E40.62475
G1 X118.973 Y106.691 E40.65242
G1 X66.027 Y106.69 E43.28731
G1 X65.335 Y106.614 E43.32195
G1 X64.549 Y106.44 E43.36202
G1 X64.066 Y106.292 E43.38716
G1 X63.528 Y106.019 E43.41718
G1 X62.963 Y105.661 E43.45047
G1 X62.559 Y105.358 E43.4756
G1 X62.236 Y105.028 E43.49858
G1 X61.94 Y104.679 E43.52135
G1 X61.644 Y104.269 E43.54652
G1 X61.485 Y103.972 E43.56328
G1 X61.172 Y103.307 E43.59986
G1 X60.983 Y102.799 E43.62683
G1 X60.082 Y99.551 E43.79457
G1 X60.004 Y99.191 E43.81291
G1 X59.542 Y96.239 E43.9616
G1 X59.511 Y95.952 E43.97597
G1 X59.344 Y93.391 E44.10369
G1 X59.339 Y93.082 E44.11907
G1 X59.448 Y89.644 E44.29025
G1 X59.479 Y89.286 E44.30813
G1 X59.921 Y86.236 E44.4615
G1 X59.979 Y85.937 E44.47666
G1 X60.627 Y83.279 E44.61281
G1 X60.71 Y82.995 E44.62753
G1 X61.115 Y81.819 E44.68943
G1 X61.388 Y81.23 E44.72174
G1 X61.795 Y80.543 E44.76148
G1 X62.086 Y80.13 E44.78662
G1 X62.461 Y79.749 E44.81322
M204 S5000
G1 F1500 E42.81322
G0 F2400 X63.628 Y82.377
G0 X63.66 Y82.45
G0 X66.662 Y89.208
G0 X66.695 Y89.281
G0 X66.792 Y89.498
M204 S200
;TYPE:SUPPORT
G1 F1500 E44.81322
G1 F1200 X66.882 Y89.471 E44.8179
G1 X67.514 Y89.405 E44.84952
G1 X68.12 Y89.469 E44.87985
G1 X68.678 Y89.641 E44.9089
G1 X69.223 Y89.931 E44.93963
G1 X69.691 Y90.316 E44.96979
G1 X70.052 Y90.757 E44.99815
G1 X70.36 Y91.323 E45.03022
G1 X70.529 Y91.88 E45.05918
G1 X70.595 Y92.515 E45.09095
G1 X70.527 Y93.117 E45.1211
G1 X70.345 Y93.705 E45.15174
G1 X70.068 Y94.226 E45.1811
G1 X69.699 Y94.677 E45.2101
G1 X69.197 Y95.084 E45.24226
G1 X68.667 Y95.365 E45.27211
G1 X68.083 Y95.537 E45.30241
G1 X67.524 Y95.589 E45.33035
G1 X66.881 Y95.531 E45.36248
G1 X66.307 Y95.356 E45.39234
G1 X65.783 Y95.075 E45.42193
G1 X65.295 Y94.672 E45.45343
G1 X64.922 Y94.209 E45.48302
G1 X64.636 Y93.667 E45.51352
G1 X64.462 Y93.096 E45.54322
G1 X64.405 Y92.49 E45.57351
G1 X64.466 Y91.898 E45.60313
G1 X64.644 Y91.311 E45.63366
G1 X64.929 Y90.78 E45.66365
G1 X65.324 Y90.3 E45.69458
G1 X65.772 Y89.936 E45.72331
G1 X66.792 Y89.498 E45.77855
M204 S5000
G0 F2400 X66.65 Y89.733
M204 S200
G1 F1200 X66.65 Y95.293 E46.05525
M204 S5000
G0 F2400 X69.316 Y94.782
M204 S200
G1 F1200 X69.316 Y90.215 E46.28253
M204 S5000
G0 F2400 X69.754 Y90.644
M204 S200
G1 F1200 X65.247 Y90.644 E46.50682
M204 S5000
G0 F2400 X64.693 Y93.31
M204 S200
G1 F1200 X70.299 Y93.31 E46.78581
M204 S5000
G1 F1500 E44.78581
G0 F2400 X70.723 Y93.301
G0 X70.803 Y93.299
G0 X73.785 Y93.244
G0 X73.864 Y88.443
G0 X81.136 Y88.443
G0 X81.214 Y93.106
G0 X88.633 Y92.968
G0 X88.741 Y93.249
G0 X96.259 Y93.249
G0 X96.379 Y92.824
G0 X103.785 Y92.686
G0 X103.864 Y88.443
G0 X111.136 Y88.443
G0 X111.213 Y92.548
G0 X114.088 Y92.495
G0 X114.168 Y92.493
G0 X114.405 Y92.49
M204 S200
G1 F1500 E46.78581
G1 F1200 X114.466 Y91.898 E46.81542
G1 X114.644 Y91.311 E46.84595
G1 X114.929 Y90.78 E46.87594
G1 X115.324 Y90.3 E46.90688
G1 X115.772 Y89.936 E46.9356
G1 X116.792 Y89.498 E46.99084
G1 X116.882 Y89.471 E46.99552
G1 X117.514 Y89.405 E47.02714
G1 X118.12 Y89.469 E47.05747
G1 X118.678 Y89.641 E47.08653
G1 X119.223 Y89.931 E47.11725
G1 X119.691 Y90.316 E47.14741
G1 X120.052 Y90.757 E47.17577
G1 X120.36 Y91.323 E47.20784
G1 X120.529 Y91.88 E47.23681
G1 X120.595 Y92.515 E47.26858
G1 X120.527 Y93.117 E47.29873
G1 X120.345 Y93.705 E47.32936
G1 X120.068 Y94.226 E47.35872
G1 X119.699 Y94.677 E47.38772
G1 X119.197 Y95.084 E47.41988
G1 X118.667 Y95.365 E47.44974
G1 X118.083 Y95.537 E47.48003
G1 X117.524 Y95.589 E47.50797
G1 X116.881 Y95.531 E47.5401
G1 X116.307 Y95.356 E47.56997
G1 X115.783 Y95.075 E47.59956
G1 X115.295 Y94.672 E47.63105
G1 X114.922 Y94.209 E47.66064
G1 X114.636 Y93.667 E47.69114
G1 X114.462 Y93.096 E47.72084
G1 X114.405 Y92.49 E47.75114
M204 S5000
G0 F2400 X114.638 Y91.881
M204 S200
G1 F1200 X114.638 Y93.125 E47.81304
M204 S5000
G0 F2400 X114.694 Y93.31
M204 S200
G1 F1200 X120.299 Y93.31 E48.09198
M204 S5000
G0 F2400 X119.97 Y94.071
M204 S200
G1 F1200 X119.97 Y90.941 E48.24775
M204 S5000
G0 F2400 X119.755 Y90.644
M204 S200
G1 F1200 X115.248 Y90.644 E48.47204
M204 S5000
G0 F2400 X117.304 Y89.588
M204 S200
G1 F1200 X117.304 Y95.408 E48.76167
M204 S5000
G1 F1500 E46.76167
G0 F2400 X117.261 Y95.809
G0 X117.137 Y97.083
G0 X117.5 Y97.501
M204 S200
;TYPE:WALL-INNER
G1 F1500 E48.76167
G1 F1200 X118.475 Y97.404 E48.81043
G1 X119.414 Y97.122 E48.85923
G1 X120.279 Y96.657 E48.9081
G1 X120.849 Y96.189 E48.9448
G1 X121.036 Y96.035 E48.95686
G1 X121.296 Y95.718 E48.97726
G1 X121.245 Y96.065 E48.97824
G1 X121.21 Y96.305 E48.98766
G1 X120.915 Y98.295 E49.08777
