;FLAVOR:Marlin
;TIME:6785
;Filament used: 5.54563m
;Layer height: 0.2
;Generated with Cura_SteamEngine 2.7.0
M190 S60
M104 S220
M109 S220
G21 ;metric values
G90 ;absolute positioning
M82 ;set extruder to absolute mode
M107 ;start with the fan off
G92 E0 ;zero the extruded length
G1 F200 E3 ;extrude 3mm of feed stock
G92 E0 ;zero the extruded length again
G1 F9000
M117 Printing...
;LAYER_COUNT:41
;LAYER:0
M107
M204 S5000
G0 F2400 X66.617 Y55.018 Z0.3
G0 X66.83 Y54.771
M204 S200
;TYPE:SKIRT
G1 F1200 X66.913 Y54.677 E0.00624
G1 X67.392 Y54.15 E0.04168
G1 X67.837 Y53.72 E0.07248
G1 X68.334 Y53.351 E0.10328
G1 X68.823 Y53.073 E0.13128
G1 X69.906 Y52.54 E0.19134
G1 X70.478 Y52.303 E0.22216
G1 X71.076 Y52.142 E0.25298
G1 X71.704 Y52.058 E0.28451
G1 X72.929 Y51.976 E0.34561
G1 X73.464 Y51.97 E0.37223
G1 X75.766 Y52.073 E0.48691
G1 X81.191 Y52.099 E0.75689
G1 X86.578 Y51.821 E1.02533
G1 X91.987 Y51.24 E1.29606
G1 X92.605 Y51.214 E1.32684
G1 X92.994 Y51.239 E1.34624
G1 X99.168 Y51.88 E1.65515
G1 X104.515 Y52.116 E1.9215
G1 X111.661 Y51.967 E2.2772
G1 X112.077 Y51.976 E2.29791
G1 X113.29 Y52.056 E2.35841
G1 X113.903 Y52.137 E2.38918
G1 X114.502 Y52.296 E2.42002
G1 X115.084 Y52.535 E2.45133
G1 X116.176 Y53.07 E2.51185
G1 X116.713 Y53.378 E2.54265
G1 X117.206 Y53.752 E2.57345
G1 X117.678 Y54.222 E2.6066
G1 X118.491 Y55.153 E2.66811
G1 X118.868 Y55.645 E2.69895
G1 X119.09 Y56.013 E2.72034
G1 X122.289 Y61.884 E3.05307
G1 X122.439 Y62.183 E3.06972
G1 X124.159 Y65.942 E3.27544
G1 X125.369 Y68.344 E3.40929
G1 X126.623 Y70.665 E3.54058
G1 X129.407 Y75.335 E3.81114
G1 X132.443 Y79.83 E4.08108
G1 X133.662 Y81.494 E4.18374
G1 X133.911 Y81.87 E4.20618
G1 X137.004 Y87.051 E4.50647
G1 X137.286 Y87.602 E4.53727
G1 X137.431 Y87.978 E4.55732
G1 X137.809 Y89.1 E4.61624
G1 X137.968 Y89.698 E4.64704
G1 X138.049 Y90.312 E4.67786
G1 X138.05 Y90.944 E4.70931
G1 X137.971 Y92.151 E4.76951
G1 X137.891 Y92.765 E4.80032
G1 X137.732 Y93.364 E4.83116
G1 X137.537 Y93.853 E4.85736
G1 X137.306 Y94.352 E4.88473
G1 X137.055 Y94.823 E4.91129
G1 X133.994 Y99.873 E5.20516
G1 X131.405 Y104.623 E5.47438
G1 X129.084 Y109.52 E5.74407
G1 X128.08 Y111.875 E5.87148
G1 X127.8 Y112.427 E5.90228
G1 X127.551 Y112.808 E5.92493
G1 X123.896 Y117.851 E6.23488
G1 X122.439 Y120.065 E6.36678
G1 X121.049 Y122.315 E6.4984
G1 X117.583 Y128.616 E6.85628
G1 X117.372 Y128.964 E6.87653
G1 X116.706 Y129.963 E6.93628
G1 X116.33 Y130.455 E6.9671
G1 X115.893 Y130.895 E6.99796
G1 X115.39 Y131.284 E7.0296
G1 X114.372 Y131.968 E7.09064
G1 X113.837 Y132.279 E7.12143
G1 X113.266 Y132.519 E7.15226
G1 X112.626 Y132.692 E7.18525
G1 X111.421 Y132.93 E7.24638
G1 X110.807 Y133.011 E7.2772
G1 X110.414 Y133.02 E7.29676
G1 X105.129 Y132.934 E7.55981
G1 X104.845 Y132.921 E7.57395
G1 X96.54 Y132.293 E7.98844
G1 X91.151 Y132.217 E8.25665
G1 X85.753 Y132.446 E8.52552
G1 X80.945 Y132.905 E8.76588
G1 X80.564 Y132.926 E8.78487
G1 X74.593 Y133.02 E9.08206
G1 X73.975 Y132.99 E9.11285
G1 X73.589 Y132.93 E9.13229
G1 X72.369 Y132.689 E9.19418
G1 X71.77 Y132.53 E9.22502
G1 X71.197 Y132.295 E9.25584
G1 X70.629 Y131.968 E9.28846
G1 X69.62 Y131.292 E9.3489
G1 X69.129 Y130.915 E9.37971
G1 X68.69 Y130.478 E9.41053
G1 X68.302 Y129.974 E9.44219
G1 X67.63 Y128.969 E9.50235
G1 X67.391 Y128.572 E9.52541
G1 X64.981 Y124.084 E9.77892
G1 X62.174 Y119.471 E10.04765
G1 X59.102 Y115.012 E10.31712
G1 X57.497 Y112.873 E10.4502
G1 X57.158 Y112.355 E10.48101
G1 X56.954 Y111.95 E10.50358
G1 X54.449 Y106.34 E10.80933
G1 X51.973 Y101.574 E11.07661
G1 X48.246 Y95.415 E11.43487
G1 X48.044 Y95.045 E11.45585
G1 X47.511 Y93.959 E11.51605
G1 X47.274 Y93.387 E11.54686
G1 X47.114 Y92.789 E11.57767
G1 X47.025 Y92.074 E11.61353
G1 X46.964 Y90.79 E11.6775
G1 X46.975 Y90.171 E11.70831
G1 X47.065 Y89.558 E11.73914
G1 X47.22 Y89.002 E11.76787
G1 X47.595 Y87.912 E11.82523
G1 X47.834 Y87.341 E11.85603
G1 X48.015 Y87.009 E11.87485
G1 X51.093 Y81.865 E12.17318
G1 X51.34 Y81.492 E12.19544
G1 X52.518 Y79.885 E12.2946
G1 X55.557 Y75.396 E12.56437
G1 X58.344 Y70.729 E12.83489
G1 X59.599 Y68.406 E12.96629
G1 X61.979 Y63.523 E13.23662
G1 X63.028 Y61.216 E13.36274
G1 X63.219 Y60.842 E13.38364
G1 X66.074 Y55.79 E13.67242
G1 X66.412 Y55.272 E13.7032
G1 X66.617 Y55.018 E13.71945
G1 X66.83 Y54.771 E13.73568
M204 S5000
G0 F2400 X67.208 Y54.946
M204 S200
G1 F1200 X67.687 Y54.419 E13.77112
G1 X68.115 Y54.008 E13.80065
G1 X68.593 Y53.658 E13.83013
G1 X68.999 Y53.431 E13.85328
G1 X70.082 Y52.898 E13.91335
G1 X70.631 Y52.673 E13.94288
G1 X71.204 Y52.523 E13.97236
G1 X71.73 Y52.456 E13.99874
G1 X72.955 Y52.374 E14.05984
G1 X73.446 Y52.368 E14.08428
G1 X75.771 Y52.472 E14.2001
G1 X81.21 Y52.498 E14.47078
G1 X86.606 Y52.219 E14.73967
G1 X92.03 Y51.637 E15.01115
G1 X92.622 Y51.614 E15.04063
G1 X92.953 Y51.636 E15.05714
G1 X99.126 Y52.277 E15.36599
G1 X104.521 Y52.515 E15.63474
G1 X111.669 Y52.366 E15.99054
G1 X112.05 Y52.375 E16.00951
G1 X113.263 Y52.455 E16.07
G1 X113.851 Y52.533 E16.09952
G1 X114.422 Y52.69 E16.12899
G1 X114.909 Y52.893 E16.15525
G1 X116.001 Y53.428 E16.21576
G1 X116.514 Y53.724 E16.24524
G1 X116.983 Y54.087 E16.27475
G1 X117.378 Y54.485 E16.30266
G1 X118.191 Y55.416 E16.36417
G1 X118.55 Y55.888 E16.39368
G1 X118.74 Y56.204 E16.41203
G1 X121.939 Y62.075 E16.74476
G1 X122.076 Y62.349 E16.76001
G1 X123.802 Y66.12 E16.9664
G1 X125.015 Y68.529 E17.10062
G1 X126.281 Y70.872 E17.23315
G1 X129.063 Y75.537 E17.50346
G1 X132.122 Y80.067 E17.77548
G1 X133.34 Y81.73 E17.87807
G1 X133.568 Y82.074 E17.8986
G1 X136.661 Y87.255 E18.19889
G1 X136.93 Y87.783 E18.22838
G1 X137.053 Y88.105 E18.24553
G1 X137.431 Y89.227 E18.30445
G1 X137.582 Y89.8 E18.33394
G1 X137.654 Y90.389 E18.36347
G1 X137.652 Y90.918 E18.3898
G1 X137.573 Y92.125 E18.44999
G1 X137.494 Y92.713 E18.47952
G1 X137.337 Y93.284 E18.50899
G1 X137.175 Y93.685 E18.53051
G1 X136.944 Y94.184 E18.55788
G1 X136.714 Y94.616 E18.58223
G1 X133.65 Y99.671 E18.8764
G1 X131.044 Y104.454 E19.14747
G1 X128.713 Y109.371 E19.41827
G1 X127.712 Y111.718 E19.54525
G1 X127.444 Y112.246 E19.57472
G1 X127.228 Y112.573 E19.59422
G1 X123.571 Y117.618 E19.90431
G1 X122.092 Y119.865 E20.03818
G1 X120.703 Y122.115 E20.16977
G1 X117.233 Y128.423 E20.52805
G1 X117.04 Y128.743 E20.54665
G1 X116.374 Y129.742 E20.6064
G1 X116.012 Y130.212 E20.63593
G1 X115.591 Y130.629 E20.66541
G1 X115.167 Y130.953 E20.69197
G1 X114.149 Y131.637 E20.75301
G1 X113.636 Y131.933 E20.78248
G1 X113.088 Y132.158 E20.81196
G1 X112.549 Y132.301 E20.83971
G1 X111.344 Y132.539 E20.90084
G1 X110.756 Y132.614 E20.93034
G1 X110.42 Y132.621 E20.94706
G1 X105.135 Y132.535 E21.21011
G1 X104.876 Y132.523 E21.22301
G1 X96.561 Y131.894 E21.63799
G1 X91.14 Y131.818 E21.9078
G1 X85.736 Y132.047 E22.17697
G1 X80.907 Y132.508 E22.41838
G1 X80.558 Y132.527 E22.43578
G1 X74.587 Y132.621 E22.73296
G1 X73.995 Y132.591 E22.76246
G1 X73.666 Y132.539 E22.77904
G1 X72.446 Y132.298 E22.84092
G1 X71.873 Y132.144 E22.87045
G1 X71.327 Y131.914 E22.89994
G1 X70.851 Y131.637 E22.92734
G1 X69.842 Y130.961 E22.98778
G1 X69.373 Y130.599 E23.01727
G1 X68.956 Y130.176 E23.04683
G1 X68.634 Y129.752 E23.07332
G1 X67.962 Y128.747 E23.13349
G1 X67.743 Y128.383 E23.15463
G1 X65.329 Y123.887 E23.40859
G1 X62.519 Y119.27 E23.67756
G1 X59.421 Y114.774 E23.94928
G1 X57.816 Y112.634 E24.08241
G1 X57.493 Y112.137 E24.1119
G1 X57.318 Y111.788 E24.13133
G1 X54.804 Y106.158 E24.43818
G1 X52.322 Y101.38 E24.70612
G1 X48.587 Y95.208 E25.06514
G1 X48.402 Y94.869 E25.08436
G1 X47.869 Y93.783 E25.14456
G1 X47.644 Y93.235 E25.17404
G1 X47.495 Y92.661 E25.20356
G1 X47.424 Y92.055 E25.23392
G1 X47.363 Y90.771 E25.29789
G1 X47.375 Y90.178 E25.32741
G1 X47.466 Y89.592 E25.35692
G1 X47.597 Y89.132 E25.38072
G1 X47.972 Y88.042 E25.43809
G1 X48.202 Y87.495 E25.46762
G1 X48.357 Y87.214 E25.48359
G1 X51.435 Y82.07 E25.78191
G1 X51.662 Y81.728 E25.80234
G1 X52.843 Y80.117 E25.90174
G1 X55.893 Y75.611 E26.17253
G1 X58.691 Y70.926 E26.44409
G1 X59.956 Y68.585 E26.57652
G1 X62.344 Y63.684 E26.84783
G1 X63.392 Y61.381 E26.97375
G1 X63.566 Y61.039 E26.99284
G1 X66.421 Y55.987 E27.28163
G1 X66.919 Y55.278 E27.32475
G1 X67.132 Y55.031 E27.34098
G1 X67.208 Y54.946 E27.34665
M204 S5000
G0 F2400 X67.503 Y55.214
M204 S200
G1 F1200 X67.982 Y54.687 E27.38209
G1 X68.391 Y54.297 E27.41022
G1 X68.851 Y53.968 E27.43836
G1 X69.176 Y53.789 E27.45683
G1 X70.259 Y53.256 E27.5169
G1 X70.782 Y53.043 E27.545
G1 X71.33 Y52.906 E27.57311
G1 X71.757 Y52.854 E27.59452
G1 X72.982 Y52.772 E27.65562
G1 X73.428 Y52.767 E27.67781
G1 X75.751 Y52.871 E27.79353
G1 X81.212 Y52.897 E28.06531
G1 X86.649 Y52.616 E28.33624
G1 X92.072 Y52.034 E28.60767
G1 X92.912 Y52.032 E28.64947
G1 X99.118 Y52.677 E28.95998
G1 X104.512 Y52.914 E29.22867
G1 X111.678 Y52.765 E29.58537
G1 X112.024 Y52.773 E29.60259
G1 X113.237 Y52.853 E29.66309
G1 X113.797 Y52.93 E29.69122
G1 X114.341 Y53.085 E29.71937
G1 X114.733 Y53.252 E29.74058
G1 X115.825 Y53.787 E29.80109
G1 X116.314 Y54.071 E29.82923
G1 X116.757 Y54.421 E29.85733
G1 X117.077 Y54.747 E29.88006
G1 X117.89 Y55.678 E29.94157
G1 X118.231 Y56.129 E29.96971
G1 X118.39 Y56.395 E29.98513
G1 X121.589 Y62.266 E30.31787
G1 X121.713 Y62.515 E30.33171
G1 X123.439 Y66.287 E30.53814
G1 X124.664 Y68.72 E30.6737
G1 X125.934 Y71.068 E30.80655
G1 X128.726 Y75.752 E31.07792
G1 X131.786 Y80.282 E31.34997
G1 X133.019 Y81.966 E31.45384
G1 X133.226 Y82.279 E31.47251
G1 X136.319 Y87.46 E31.7728
G1 X136.573 Y87.964 E31.80089
G1 X136.675 Y88.233 E31.8152
G1 X137.053 Y89.355 E31.87412
G1 X137.195 Y89.902 E31.90225
G1 X137.258 Y90.463 E31.93034
G1 X137.253 Y90.892 E31.95169
G1 X137.174 Y92.099 E32.01189
G1 X137.098 Y92.659 E32.04001
G1 X136.943 Y93.203 E32.06816
G1 X136.813 Y93.518 E32.08512
G1 X136.582 Y94.017 E32.11249
G1 X136.373 Y94.409 E32.13459
G1 X133.306 Y99.469 E32.42905
G1 X130.69 Y104.27 E32.70114
G1 X128.343 Y109.222 E32.97386
G1 X127.345 Y111.561 E33.10041
G1 X127.088 Y112.064 E33.12852
G1 X126.905 Y112.339 E33.14496
G1 X123.247 Y117.386 E33.45516
G1 X121.752 Y119.657 E33.59047
G1 X120.363 Y121.906 E33.72202
G1 X116.884 Y128.231 E34.08126
G1 X116.708 Y128.522 E34.09818
G1 X116.042 Y129.521 E34.15793
G1 X115.696 Y129.968 E34.18606
G1 X115.29 Y130.361 E34.21418
G1 X114.945 Y130.621 E34.23568
G1 X113.927 Y131.305 E34.29672
G1 X113.436 Y131.587 E34.3249
G1 X112.911 Y131.796 E34.35302
G1 X112.472 Y131.909 E34.37558
G1 X111.267 Y132.147 E34.4367
G1 X110.427 Y132.222 E34.47867
G1 X105.142 Y132.136 E34.74172
G1 X104.906 Y132.126 E34.75347
G1 X96.564 Y131.495 E35.1698
G1 X91.129 Y131.418 E35.4403
G1 X85.719 Y131.648 E35.70978
G1 X80.869 Y132.111 E35.95224
G1 X80.552 Y132.129 E35.96804
G1 X74.581 Y132.223 E36.26523
G1 X73.743 Y132.147 E36.3071
G1 X72.523 Y131.906 E36.36899
G1 X71.978 Y131.758 E36.39709
G1 X71.459 Y131.534 E36.42522
G1 X71.073 Y131.305 E36.44756
G1 X70.064 Y130.629 E36.508
G1 X69.618 Y130.282 E36.53612
G1 X69.225 Y129.876 E36.56424
G1 X68.966 Y129.53 E36.58575
G1 X68.294 Y128.525 E36.64592
G1 X68.095 Y128.194 E36.66514
G1 X65.682 Y123.698 E36.91907
G1 X62.847 Y119.041 E37.19039
G1 X59.753 Y114.551 E37.46175
G1 X58.135 Y112.394 E37.59594
G1 X57.829 Y111.919 E37.62406
G1 X57.682 Y111.625 E37.64042
G1 X55.163 Y105.983 E37.94791
G1 X52.668 Y101.18 E38.21726
G1 X48.929 Y95.002 E38.57663
G1 X48.76 Y94.693 E38.59416
G1 X48.227 Y93.607 E38.65436
G1 X48.014 Y93.084 E38.68247
G1 X47.878 Y92.535 E38.71061
G1 X47.823 Y92.036 E38.7356
G1 X47.762 Y90.752 E38.79957
G1 X47.775 Y90.187 E38.82769
G1 X47.867 Y89.629 E38.85584
G1 X47.974 Y89.261 E38.87491
G1 X48.349 Y88.171 E38.93227
G1 X48.699 Y87.419 E38.97355
G1 X51.777 Y82.275 E39.27188
G1 X51.984 Y81.964 E39.29047
G1 X53.168 Y80.349 E39.39012
G1 X56.237 Y75.814 E39.66263
G1 X59.033 Y71.133 E39.93398
G1 X60.29 Y68.806 E40.0656
G1 X62.723 Y63.816 E40.34187
G1 X63.755 Y61.547 E40.46592
G1 X63.913 Y61.235 E40.48332
G1 X66.768 Y56.183 E40.77211
G1 X67.221 Y55.539 E40.81129
G1 X67.434 Y55.292 E40.82752
G1 X67.503 Y55.214 E40.83271
M204 S5000
G0 F2400 X67.799 Y55.482
M204 S200
G1 F1200 X68.278 Y54.955 E40.86815
G1 X68.667 Y54.586 E40.89483
G1 X69.107 Y54.28 E40.9215
G1 X69.352 Y54.147 E40.93538
G1 X70.435 Y53.614 E40.99544
G1 X70.932 Y53.414 E41.02211
G1 X71.454 Y53.289 E41.04882
G1 X71.784 Y53.252 E41.06534
G1 X73.009 Y53.17 E41.12644
G1 X73.411 Y53.166 E41.14645
G1 X75.733 Y53.27 E41.26212
G1 X81.23 Y53.297 E41.53568
G1 X86.678 Y53.015 E41.80717
G1 X92.115 Y52.431 E42.0793
G1 X92.871 Y52.429 E42.11692
G1 X99.077 Y53.074 E42.42743
G1 X104.517 Y53.313 E42.69842
G1 X111.686 Y53.164 E43.05526
G1 X111.998 Y53.171 E43.07079
G1 X113.211 Y53.251 E43.13129
G1 X113.742 Y53.326 E43.15798
G1 X114.256 Y53.479 E43.18467
G1 X114.557 Y53.61 E43.201
G1 X115.649 Y54.145 E43.26152
G1 X116.112 Y54.416 E43.28822
G1 X116.529 Y54.753 E43.3149
G1 X116.777 Y55.01 E43.33267
G1 X117.59 Y55.941 E43.39418
G1 X118.039 Y56.586 E43.43329
G1 X121.238 Y62.457 E43.76602
G1 X121.351 Y62.681 E43.77851
G1 X123.093 Y66.487 E43.98681
G1 X124.306 Y68.897 E44.12108
G1 X125.583 Y71.259 E44.25471
G1 X128.389 Y75.966 E44.52742
G1 X131.461 Y80.514 E44.80055
G1 X132.697 Y82.202 E44.90466
G1 X132.883 Y82.483 E44.92143
G1 X135.976 Y87.664 E45.22172
G1 X136.297 Y88.36 E45.25986
G1 X136.675 Y89.482 E45.31878
G1 X136.808 Y90.001 E45.34545
G1 X136.862 Y90.535 E45.37216
G1 X136.855 Y90.866 E45.38863
G1 X136.776 Y92.073 E45.44883
G1 X136.702 Y92.604 E45.47551
G1 X136.451 Y93.35 E45.51468
G1 X136.22 Y93.849 E45.54204
G1 X136.032 Y94.203 E45.56199
G1 X132.947 Y99.292 E45.85815
G1 X130.335 Y104.086 E46.12984
G1 X127.986 Y109.042 E46.40278
G1 X126.978 Y111.405 E46.53062
G1 X126.732 Y111.881 E46.55729
G1 X126.582 Y112.105 E46.57071
G1 X122.904 Y117.179 E46.88258
G1 X121.431 Y119.418 E47.01595
G1 X120.019 Y121.704 E47.14967
G1 X116.534 Y128.039 E47.50949
G1 X116.376 Y128.3 E47.52467
G1 X115.71 Y129.299 E47.58442
G1 X115.38 Y129.722 E47.61112
G1 X114.991 Y130.091 E47.63781
G1 X114.722 Y130.29 E47.65446
G1 X113.704 Y130.974 E47.71549
G1 X113.238 Y131.239 E47.74217
G1 X112.738 Y131.432 E47.76884
G1 X112.394 Y131.518 E47.78649
G1 X111.189 Y131.756 E47.84761
G1 X110.433 Y131.824 E47.88539
G1 X105.148 Y131.738 E48.14843
G1 X104.936 Y131.728 E48.159
G1 X96.583 Y131.096 E48.57588
G1 X91.135 Y131.019 E48.84703
G1 X85.683 Y131.251 E49.11859
G1 X80.831 Y131.714 E49.36115
G1 X80.546 Y131.73 E49.37536
G1 X74.575 Y131.824 E49.67254
G1 X73.821 Y131.756 E49.71022
G1 X72.601 Y131.515 E49.77211
G1 X72.084 Y131.372 E49.7988
G1 X71.594 Y131.154 E49.82549
G1 X71.295 Y130.974 E49.84286
G1 X70.286 Y130.298 E49.9033
G1 X69.864 Y129.967 E49.92999
G1 X69.496 Y129.577 E49.95667
G1 X69.297 Y129.308 E49.97333
G1 X68.625 Y128.303 E50.03349
G1 X68.446 Y128.005 E50.05079
G1 X66.021 Y123.488 E50.30593
G1 X63.192 Y118.84 E50.57671
G1 X60.073 Y114.313 E50.8503
G1 X58.454 Y112.155 E50.98455
G1 X58.165 Y111.703 E51.01125
G1 X58.047 Y111.462 E51.02461
G1 X55.528 Y105.821 E51.33205
G1 X53.016 Y100.986 E51.60321
G1 X49.27 Y94.795 E51.96331
G1 X49.118 Y94.518 E51.97904
G1 X48.585 Y93.432 E52.03924
G1 X48.385 Y92.934 E52.06595
G1 X48.262 Y92.412 E52.09264
G1 X48.221 Y92.017 E52.1124
G1 X48.16 Y90.733 E52.17637
G1 X48.175 Y90.197 E52.20306
G1 X48.269 Y89.669 E52.22974
G1 X48.352 Y89.391 E52.24418
G1 X48.727 Y88.301 E52.30155
G1 X49.042 Y87.624 E52.33871
G1 X52.12 Y82.48 E52.63703
G1 X52.305 Y82.2 E52.65373
G1 X53.509 Y80.558 E52.75506
G1 X56.565 Y76.042 E53.02642
G1 X59.384 Y71.322 E53.30002
G1 X60.648 Y68.983 E53.43233
G1 X63.074 Y64.008 E53.70778
G1 X64.118 Y61.712 E53.8333
G1 X64.261 Y61.431 E53.84899
G1 X67.116 Y56.379 E54.13778
G1 X67.523 Y55.8 E54.173
G1 X67.736 Y55.553 E54.18923
G1 X67.799 Y55.482 E54.19395
M204 S5000
G0 F2400 X68.094 Y55.751
M204 S200
G1 F1200 X68.573 Y55.224 E54.22939
G1 X68.942 Y54.878 E54.25457
G1 X69.528 Y54.505 E54.28914
G1 X70.611 Y53.972 E54.34921
G1 X71.081 Y53.785 E54.37438
G1 X71.81 Y53.65 E54.41127
G1 X73.035 Y53.568 E54.47237
G1 X73.393 Y53.564 E54.49019
G1 X75.738 Y53.669 E54.60701
G1 X81.231 Y53.696 E54.88037
G1 X86.703 Y53.413 E55.15305
G1 X92.157 Y52.827 E55.42604
G1 X92.83 Y52.826 E55.45953
G1 X99.052 Y53.472 E55.77083
G1 X104.508 Y53.713 E56.04262
