;FLAVOR:Marlin
;TIME:793
;Filament used: 0.327715m
;Layer height: 0.2
;Generated with Cura_SteamEngine 2.7.0
M190 S60
M104 S220
M109 S220
G21 ;metric values
G90 ;absolute positioning
M82 ;set extruder to absolute mode
M107 ;start with the fan off
G92 E0 ;zero the extruded length
G1 F200 E3 ;extrude 3mm of feed stock
G92 E0 ;zero the extruded length again
G1 F9000
M117 Printing...
;LAYER_COUNT:31
;LAYER:0
M107
M204 S5000
G0 F2400 X65.951 Y79.491 Z0.3
M204 S200
;TYPE:SKIRT
G1 F1200 X66.4 Y79.173 E0.02738
G1 X67.043 Y78.864 E0.06288
G1 X67.265 Y78.782 E0.07466
G1 X67.794 Y78.629 E0.10207
G1 X68.58 Y78.547 E0.14139
G1 X114.111 Y78.557 E2.40727
G1 X114.66 Y78.597 E2.43466
G1 X115.197 Y78.716 E2.46203
G1 X115.711 Y78.912 E2.48941
G1 X116.192 Y79.18 E2.51681
G1 X116.476 Y79.386 E2.53427
G1 X116.754 Y79.608 E2.55197
G1 X117.158 Y79.981 E2.57934
G1 X117.503 Y80.41 E2.60674
G1 X117.783 Y80.883 E2.63409
G1 X117.992 Y81.393 E2.66152
G1 X118.124 Y81.927 E2.68889
G1 X118.179 Y82.553 E2.72017
G1 X118.197 Y86.686 E2.92585
G1 X118.159 Y87.236 E2.95329
G1 X118.043 Y87.773 E2.98063
G1 X117.849 Y88.289 E3.00806
G1 X117.584 Y88.771 E3.03543
G1 X117.386 Y89.046 E3.0523
G1 X117.202 Y89.28 E3.06711
G1 X116.831 Y89.687 E3.09452
G1 X116.406 Y90.036 E3.12189
G1 X115.934 Y90.319 E3.14927
G1 X115.426 Y90.532 E3.17669
G1 X114.893 Y90.668 E3.20406
G1 X114.225 Y90.728 E3.23744
G1 X68.492 Y90.762 E5.51336
G1 X67.943 Y90.722 E5.54076
G1 X67.405 Y90.604 E5.56817
G1 X66.891 Y90.409 E5.59553
G1 X66.361 Y90.109 E5.62583
G1 X66.156 Y89.97 E5.63816
G1 X65.725 Y89.629 E5.66551
G1 X65.347 Y89.229 E5.6929
G1 X65.031 Y88.778 E5.7203
G1 X64.725 Y88.138 E5.75561
G1 X64.645 Y87.92 E5.76716
G1 X64.493 Y87.391 E5.79455
G1 X64.413 Y86.6 E5.83412
G1 X64.428 Y82.611 E6.03264
G1 X64.47 Y82.062 E6.06004
G1 X64.591 Y81.525 E6.08743
G1 X64.789 Y81.011 E6.11484
G1 X65.074 Y80.508 E6.14361
G1 X65.212 Y80.303 E6.15591
G1 X65.552 Y79.87 E6.18331
G1 X65.951 Y79.491 E6.2107
M204 S5000
G0 F2400 X66.248 Y79.764
M204 S200
G1 F1200 X66.679 Y79.472 E6.2366
G1 X67.182 Y79.238 E6.26421
G1 X67.404 Y79.156 E6.27599
G1 X67.904 Y79.014 E6.30186
G1 X68.58 Y78.946 E6.33567
G1 X114.111 Y78.956 E8.60154
G1 X114.63 Y78.996 E8.62744
G1 X115.136 Y79.115 E8.65331
G1 X115.619 Y79.31 E8.67923
G1 X116.227 Y79.697 E8.7151
G1 X116.505 Y79.919 E8.73281
G1 X116.885 Y80.275 E8.75872
G1 X117.207 Y80.684 E8.78462
G1 X117.463 Y81.137 E8.81052
G1 X117.646 Y81.624 E8.83641
G1 X117.752 Y82.134 E8.86233
G1 X117.78 Y82.555 E8.88333
G1 X117.798 Y86.688 E9.08901
G1 X117.76 Y87.207 E9.11491
G1 X117.644 Y87.715 E9.14084
G1 X117.451 Y88.198 E9.16673
G1 X117.072 Y88.8 E9.20213
G1 X116.888 Y89.034 E9.21694
G1 X116.536 Y89.417 E9.24283
G1 X116.129 Y89.742 E9.26875
G1 X115.678 Y90.001 E9.29463
G1 X115.192 Y90.187 E9.32053
G1 X114.683 Y90.297 E9.34644
G1 X114.225 Y90.329 E9.36929
G1 X68.492 Y90.363 E11.64522
G1 X67.972 Y90.323 E11.67117
G1 X67.466 Y90.205 E11.69703
G1 X66.983 Y90.01 E11.72295
G1 X66.585 Y89.778 E11.74587
G1 X66.38 Y89.639 E11.7582
G1 X65.973 Y89.315 E11.78409
G1 X65.621 Y88.932 E11.80998
G1 X65.33 Y88.5 E11.8359
G1 X65.1 Y88.001 E11.86324
G1 X65.02 Y87.783 E11.8748
G1 X64.878 Y87.282 E11.90071
G1 X64.812 Y86.601 E11.93476
G1 X64.827 Y82.612 E12.13328
G1 X64.869 Y82.093 E12.15919
G1 X64.99 Y81.587 E12.18508
G1 X65.187 Y81.105 E12.211
G1 X65.405 Y80.731 E12.23254
G1 X65.543 Y80.526 E12.24484
G1 X65.866 Y80.118 E12.27073
G1 X66.248 Y79.764 E12.29665
M204 S5000
G0 F2400 X66.543 Y80.04
M204 S200
G1 F1200 X66.955 Y79.776 E12.321
G1 X67.32 Y79.612 E12.34092
G1 X67.542 Y79.53 E12.35269
G1 X68.013 Y79.399 E12.37702
G1 X68.58 Y79.345 E12.40537
G1 X114.111 Y79.355 E14.67124
G1 X114.598 Y79.395 E14.69556
G1 X115.072 Y79.514 E14.71988
G1 X115.521 Y79.708 E14.74422
G1 X115.978 Y80.009 E14.77145
G1 X116.256 Y80.231 E14.78916
G1 X116.612 Y80.566 E14.81348
G1 X116.908 Y80.955 E14.83781
G1 X117.137 Y81.387 E14.86214
G1 X117.293 Y81.85 E14.88646
G1 X117.381 Y82.557 E14.92191
G1 X117.399 Y86.69 E15.1276
G1 X117.361 Y87.177 E15.1519
G1 X117.244 Y87.652 E15.17625
G1 X117.052 Y88.102 E15.2006
G1 X116.759 Y88.553 E15.22736
G1 X116.575 Y88.787 E15.24218
G1 X116.242 Y89.145 E15.26651
G1 X115.856 Y89.445 E15.29084
G1 X115.426 Y89.677 E15.31515
G1 X114.963 Y89.837 E15.33953
G1 X114.481 Y89.919 E15.36386
G1 X114.224 Y89.93 E15.37666
G1 X68.491 Y89.964 E17.65259
G1 X68.004 Y89.924 E17.67691
G1 X67.53 Y89.806 E17.70122
G1 X67.081 Y89.612 E17.72556
G1 X66.809 Y89.448 E17.74136
G1 X66.604 Y89.309 E17.75369
G1 X66.223 Y89.003 E17.77801
G1 X65.897 Y88.638 E17.80236
G1 X65.635 Y88.226 E17.82666
G1 X65.474 Y87.863 E17.84642
G1 X65.394 Y87.645 E17.85798
G1 X65.264 Y87.174 E17.88229
G1 X65.211 Y86.603 E17.91083
G1 X65.226 Y82.614 E18.10935
G1 X65.268 Y82.127 E18.13367
G1 X65.388 Y81.653 E18.15801
G1 X65.584 Y81.205 E18.18234
G1 X65.736 Y80.954 E18.19695
G1 X65.874 Y80.749 E18.20924
G1 X66.179 Y80.367 E18.23357
G1 X66.543 Y80.04 E18.25792
M204 S5000
G0 F2400 X67.458 Y79.987
M204 S200
G1 F1200 X67.68 Y79.905 E18.2697
G1 X68.119 Y79.785 E18.29235
G1 X68.58 Y79.744 E18.31538
G1 X114.111 Y79.754 E20.58125
G1 X114.564 Y79.794 E20.60388
G1 X115.003 Y79.913 E20.62652
G1 X115.415 Y80.106 E20.64916
G1 X115.729 Y80.321 E20.6681
G1 X116.007 Y80.543 E20.6858
G1 X116.336 Y80.857 E20.70844
G1 X116.605 Y81.224 E20.73108
G1 X116.807 Y81.632 E20.75374
G1 X116.933 Y82.069 E20.77637
G1 X116.982 Y82.559 E20.80088
G1 X117 Y86.692 E21.00656
G1 X116.962 Y87.145 E21.02918
G1 X116.845 Y87.585 E21.05184
G1 X116.654 Y87.998 E21.07449
G1 X116.445 Y88.306 E21.09301
G1 X116.261 Y88.54 E21.10782
G1 X115.949 Y88.872 E21.1305
G1 X115.585 Y89.144 E21.15311
G1 X115.178 Y89.348 E21.17577
G1 X114.742 Y89.478 E21.19841
G1 X114.224 Y89.531 E21.22432
G1 X68.491 Y89.565 E23.50025
G1 X68.038 Y89.525 E23.52288
G1 X67.598 Y89.407 E23.54555
G1 X67.033 Y89.118 E23.57713
G1 X66.828 Y88.979 E23.58946
G1 X66.475 Y88.692 E23.6121
G1 X66.178 Y88.347 E23.63475
G1 X65.946 Y87.955 E23.65742
G1 X65.849 Y87.726 E23.6698
G1 X65.769 Y87.508 E23.68135
G1 X65.65 Y87.068 E23.70404
G1 X65.61 Y86.604 E23.72721
G1 X65.625 Y82.615 E23.92573
G1 X65.667 Y82.162 E23.94837
G1 X65.787 Y81.723 E23.97102
G1 X66.067 Y81.176 E24.0016
G1 X66.205 Y80.971 E24.0139
G1 X66.491 Y80.618 E24.03651
G1 X66.835 Y80.319 E24.05919
G1 X67.226 Y80.086 E24.08184
G1 X67.458 Y79.987 E24.09439
M204 S5000
G0 F2400 X67.818 Y80.279
M204 S200
G1 F1200 X68.223 Y80.172 E24.11524
G1 X68.579 Y80.143 E24.13302
G1 X114.11 Y80.153 E26.39889
G1 X114.527 Y80.193 E26.41973
G1 X114.929 Y80.311 E26.44058
G1 X115.3 Y80.504 E26.4614
G1 X115.48 Y80.633 E26.47242
G1 X115.758 Y80.855 E26.49012
G1 X116.058 Y81.146 E26.51092
G1 X116.298 Y81.489 E26.53175
G1 X116.469 Y81.871 E26.55258
G1 X116.564 Y82.279 E26.57343
G1 X116.583 Y82.56 E26.58745
G1 X116.601 Y86.693 E26.79313
G1 X116.563 Y87.11 E26.81397
G1 X116.446 Y87.512 E26.8348
G1 X116.256 Y87.885 E26.85563
G1 X116.131 Y88.06 E26.86634
G1 X115.947 Y88.294 E26.88115
G1 X115.659 Y88.597 E26.90195
G1 X115.317 Y88.839 E26.9228
G1 X114.936 Y89.012 E26.94363
G1 X114.529 Y89.11 E26.96446
G1 X114.224 Y89.132 E26.97968
G1 X68.491 Y89.166 E29.2556
G1 X68.074 Y89.126 E29.27645
G1 X67.672 Y89.008 E29.2973
G1 X67.257 Y88.788 E29.32068
G1 X67.052 Y88.649 E29.333
G1 X66.73 Y88.382 E29.35382
G1 X66.464 Y88.059 E29.37464
G1 X66.223 Y87.588 E29.40097
G1 X66.143 Y87.37 E29.41253
G1 X66.037 Y86.965 E29.43336
G1 X66.009 Y86.606 E29.45128
G1 X66.024 Y82.617 E29.6498
G1 X66.065 Y82.2 E29.67065
G1 X66.185 Y81.799 E29.69148
G1 X66.398 Y81.399 E29.71403
G1 X66.536 Y81.194 E29.72633
G1 X66.802 Y80.871 E29.74716
G1 X67.124 Y80.604 E29.76797
G1 X67.596 Y80.361 E29.79439
G1 X67.818 Y80.279 E29.80617
M204 S5000
G0 F2400 X67.957 Y80.653
M204 S200
G1 F1200 X68.324 Y80.56 E29.82501
G1 X68.579 Y80.542 E29.83773
G1 X114.11 Y80.552 E32.1036
G1 X114.487 Y80.592 E32.12247
G1 X114.846 Y80.71 E32.14128
G1 X115.231 Y80.945 E32.16372
G1 X115.509 Y81.167 E32.18143
G1 X115.778 Y81.433 E32.20026
G1 X115.985 Y81.749 E32.21906
G1 X116.122 Y82.102 E32.2379
G1 X116.184 Y82.562 E32.261
G1 X116.202 Y86.695 E32.46668
G1 X116.164 Y87.072 E32.48554
G1 X116.047 Y87.432 E32.50438
G1 X115.818 Y87.813 E32.5265
G1 X115.634 Y88.047 E32.54131
G1 X115.37 Y88.318 E32.56014
G1 X115.055 Y88.528 E32.57898
G1 X114.703 Y88.667 E32.59781
G1 X114.223 Y88.733 E32.62193
G1 X68.49 Y88.767 E34.89785
G1 X68.114 Y88.727 E34.91667
G1 X67.754 Y88.61 E34.93551
G1 X67.481 Y88.458 E34.95106
G1 X67.276 Y88.319 E34.96338
G1 X66.987 Y88.074 E34.98224
G1 X66.755 Y87.775 E35.00107
G1 X66.598 Y87.451 E35.01899
G1 X66.518 Y87.233 E35.03055
G1 X66.426 Y86.866 E35.04937
G1 X66.408 Y86.607 E35.06229
G1 X66.423 Y82.618 E35.26081
G1 X66.464 Y82.242 E35.27963
G1 X66.584 Y81.883 E35.29847
G1 X66.729 Y81.622 E35.31333
G1 X66.867 Y81.417 E35.32563
G1 X67.11 Y81.127 E35.34446
G1 X67.409 Y80.895 E35.36329
G1 X67.735 Y80.735 E35.38136
G1 X67.957 Y80.653 E35.39314
M204 S5000
G0 F2400 X67.873 Y81.11
M204 S200
G1 F1200 X68.095 Y81.028 E35.40492
G1 X68.579 Y80.941 E35.42939
G1 X114.11 Y80.951 E37.69526
G1 X114.442 Y80.991 E37.7119
G1 X114.754 Y81.108 E37.72849
G1 X114.982 Y81.256 E37.74201
G1 X115.26 Y81.478 E37.75972
G1 X115.494 Y81.716 E37.77633
G1 X115.665 Y82.003 E37.79295
G1 X115.763 Y82.322 E37.80956
G1 X115.785 Y82.564 E37.82165
G1 X115.803 Y86.697 E38.02734
G1 X115.765 Y87.028 E38.04392
G1 X115.649 Y87.341 E38.06053
G1 X115.504 Y87.567 E38.07389
G1 X115.32 Y87.801 E38.08871
G1 X115.084 Y88.036 E38.10528
G1 X114.799 Y88.209 E38.12187
G1 X114.481 Y88.31 E38.13848
G1 X114.223 Y88.334 E38.15137
G1 X68.49 Y88.368 E40.4273
G1 X68.159 Y88.328 E40.44389
G1 X67.705 Y88.127 E40.4686
G1 X67.5 Y87.988 E40.48092
G1 X67.248 Y87.769 E40.49754
G1 X67.055 Y87.497 E40.51414
G1 X66.973 Y87.313 E40.52416
G1 X66.893 Y87.095 E40.53572
G1 X66.807 Y86.609 E40.56028
G1 X66.822 Y82.62 E40.7588
G1 X66.863 Y82.289 E40.77539
G1 X67.06 Y81.845 E40.79957
G1 X67.198 Y81.64 E40.81186
G1 X67.416 Y81.387 E40.82848
G1 X67.688 Y81.194 E40.84508
G1 X67.873 Y81.11 E40.85519
M204 S5000
G0 F2400 X68.011 Y81.484
M204 S200
G1 F1200 X68.233 Y81.402 E40.86697
G1 X68.579 Y81.34 E40.88446
G1 X114.11 Y81.35 E43.15034
G1 X114.389 Y81.39 E43.16436
G1 X114.733 Y81.568 E43.18364
G1 X115.011 Y81.79 E43.20134
G1 X115.204 Y81.995 E43.21535
G1 X115.332 Y82.246 E43.22938
G1 X115.386 Y82.566 E43.24553
G1 X115.404 Y86.699 E43.45121
G1 X115.365 Y86.978 E43.46523
G1 X115.191 Y87.32 E43.48432
G1 X115.007 Y87.554 E43.49914
G1 X114.803 Y87.749 E43.51318
G1 X114.553 Y87.879 E43.52721
G1 X114.223 Y87.935 E43.54386
G1 X68.49 Y87.969 E45.81979
G1 X68.211 Y87.929 E45.83381
G1 X67.929 Y87.797 E45.84931
G1 X67.724 Y87.658 E45.86164
G1 X67.515 Y87.468 E45.87569
G1 X67.347 Y87.176 E45.89246
G1 X67.267 Y86.958 E45.90401
G1 X67.206 Y86.61 E45.9216
G1 X67.221 Y82.621 E46.12011
G1 X67.262 Y82.342 E46.13415
G1 X67.391 Y82.068 E46.14922
G1 X67.529 Y81.863 E46.16152
G1 X67.718 Y81.653 E46.17558
G1 X68.011 Y81.484 E46.19241
M204 S5000
G0 F2400 X68.149 Y81.858
M204 S200
G1 F1200 X68.371 Y81.776 E46.20419
G1 X68.579 Y81.739 E46.2147
G1 X114.11 Y81.749 E48.48057
G1 X114.324 Y81.789 E48.49141
G1 X114.484 Y81.88 E48.50057
G1 X114.762 Y82.102 E48.51827
G1 X114.905 Y82.267 E48.52914
G1 X114.987 Y82.567 E48.54461
G1 X115.005 Y86.7 E48.7503
G1 X114.966 Y86.915 E48.76117
G1 X114.877 Y87.073 E48.7702
G1 X114.693 Y87.307 E48.78501
G1 X114.529 Y87.451 E48.79587
G1 X114.222 Y87.536 E48.81172
G1 X68.489 Y87.57 E51.08765
G1 X68.275 Y87.53 E51.09848
G1 X68.153 Y87.467 E51.10532
G1 X67.948 Y87.328 E51.11764
G1 X67.793 Y87.175 E51.12848
G1 X67.722 Y87.038 E51.13616
G1 X67.642 Y86.82 E51.14772
G1 X67.605 Y86.612 E51.15823
G1 X67.62 Y82.623 E51.35675
G1 X67.66 Y82.409 E51.36758
G1 X67.722 Y82.291 E51.37421
G1 X67.86 Y82.086 E51.38651
G1 X68.013 Y81.93 E51.39739
G1 X68.149 Y81.858 E51.40504
M204 S5000
G0 F2400 X68.579 Y82.138
M204 S200
G1 F1200 X114.11 Y82.148 E53.67092
G1 X114.235 Y82.192 E53.67751
G1 X114.513 Y82.414 E53.69522
G1 X114.588 Y82.569 E53.70378
G1 X114.606 Y86.702 E53.90947
G1 X114.563 Y86.827 E53.91605
G1 X114.379 Y87.061 E53.93086
G1 X114.222 Y87.137 E53.93954
G1 X68.489 Y87.171 E56.21547
G1 X68.377 Y87.137 E56.22129
G1 X68.172 Y86.998 E56.23362
G1 X68.096 Y86.901 E56.23975
G1 X68.016 Y86.683 E56.25131
G1 X68.004 Y86.613 E56.25484
G1 X68.019 Y82.624 E56.45336
G1 X68.053 Y82.513 E56.45913
G1 X68.191 Y82.308 E56.47143
G1 X68.288 Y82.232 E56.47756
G1 X68.51 Y82.15 E56.48934
G1 X68.579 Y82.138 E56.49283
M204 S5000
G1 F1500 E54.49283
G0 F2400 X68.521 Y81.675
G0 X68.145 Y81.775
G0 X67.747 Y82.098
G0 X67.546 Y82.598
G0 X67.552 Y86.755
G0 X68.58 Y94.047
M204 S200
G1 F1500 E56.49283
G1 F1200 X114.111 Y94.057 E58.7587
G1 X114.66 Y94.097 E58.78609
G1 X115.197 Y94.216 E58.81346
G1 X115.711 Y94.412 E58.84084
G1 X116.192 Y94.68 E58.86824
G1 X116.476 Y94.886 E58.8857
G1 X116.754 Y95.108 E58.90341
G1 X117.158 Y95.481 E58.93077
G1 X117.503 Y95.91 E58.95817
G1 X117.783 Y96.383 E58.98552
G1 X117.992 Y96.893 E59.01295
G1 X118.124 Y97.427 E59.04033
G1 X118.179 Y98.053 E59.0716
G1 X118.197 Y102.186 E59.27728
G1 X118.159 Y102.736 E59.30472
G1 X118.043 Y103.273 E59.33206
G1 X117.849 Y103.789 E59.35949
G1 X117.584 Y104.271 E59.38687
G1 X117.386 Y104.546 E59.40373
G1 X117.202 Y104.78 E59.41854
G1 X116.831 Y105.187 E59.44595
G1 X116.406 Y105.536 E59.47332
G1 X115.934 Y105.819 E59.50071
G1 X115.426 Y106.032 E59.52812
G1 X114.893 Y106.168 E59.55549
G1 X114.225 Y106.228 E59.58887
G1 X68.492 Y106.262 E61.8648
G1 X67.943 Y106.222 E61.89219
G1 X67.405 Y106.104 E61.9196
G1 X66.891 Y105.909 E61.94696
G1 X66.361 Y105.609 E61.97727
G1 X66.156 Y105.47 E61.98959
G1 X65.725 Y105.129 E62.01694
G1 X65.347 Y104.729 E62.04433
G1 X65.031 Y104.278 E62.07174
G1 X64.725 Y103.638 E62.10704
G1 X64.645 Y103.42 E62.1186
G1 X64.493 Y102.891 E62.14599
G1 X64.413 Y102.1 E62.18555
G1 X64.428 Y98.111 E62.38407
G1 X64.47 Y97.562 E62.41147
G1 X64.591 Y97.025 E62.43886
G1 X64.789 Y96.511 E62.46627
G1 X65.074 Y96.008 E62.49505
G1 X65.212 Y95.803 E62.50734
G1 X65.552 Y95.37 E62.53474
G1 X65.951 Y94.991 E62.56213
G1 X66.4 Y94.673 E62.58951
G1 X67.043 Y94.364 E62.62501
G1 X67.265 Y94.282 E62.63679
G1 X67.794 Y94.129 E62.66419
G1 X68.58 Y94.047 E62.70352
M204 S5000
G0 F2400 X68.58 Y94.446
M204 S200
G1 F1200 X114.111 Y94.456 E64.96939
G1 X114.63 Y94.496 E64.9953
G1 X115.136 Y94.615 E65.02117
G1 X115.619 Y94.81 E65.04709
G1 X116.227 Y95.197 E65.08296
G1 X116.505 Y95.419 E65.10066
G1 X116.885 Y95.775 E65.12657
G1 X117.207 Y96.184 E65.15248
G1 X117.463 Y96.637 E65.17837
G1 X117.646 Y97.124 E65.20426
G1 X117.752 Y97.634 E65.23019
G1 X117.78 Y98.055 E65.25118
G1 X117.798 Y102.188 E65.45687
G1 X117.76 Y102.707 E65.48276
G1 X117.644 Y103.215 E65.5087
G1 X117.451 Y103.698 E65.53458
G1 X117.072 Y104.3 E65.56998
G1 X116.888 Y104.534 E65.5848
G1 X116.536 Y104.917 E65.61068
G1 X116.129 Y105.242 E65.6366
G1 X115.678 Y105.501 E65.66248
G1 X115.192 Y105.687 E65.68838
G1 X114.683 Y105.797 E65.7143
G1 X114.225 Y105.829 E65.73715
G1 X68.492 Y105.863 E68.01307
G1 X67.972 Y105.823 E68.03902
G1 X67.466 Y105.705 E68.06488
G1 X66.983 Y105.51 E68.0908
G1 X66.585 Y105.278 E68.11373
G1 X66.38 Y105.139 E68.12606
G1 X65.973 Y104.815 E68.15194
G1 X65.621 Y104.432 E68.17783
G1 X65.33 Y104 E68.20375
G1 X65.1 Y103.501 E68.2311
G1 X65.02 Y103.283 E68.24265
G1 X64.878 Y102.782 E68.26857
G1 X64.812 Y102.101 E68.30262
G1 X64.827 Y98.112 E68.50113
G1 X64.869 Y97.593 E68.52705
G1 X64.99 Y97.087 E68.55294
G1 X65.187 Y96.605 E68.57885
G1 X65.405 Y96.231 E68.60039
G1 X65.543 Y96.026 E68.61269
G1 X65.866 Y95.618 E68.63859
G1 X66.248 Y95.264 E68.66451
G1 X66.679 Y94.972 E68.69041
G1 X67.182 Y94.738 E68.71802
G1 X67.404 Y94.656 E68.7298
G1 X67.904 Y94.514 E68.75567
G1 X68.58 Y94.446 E68.78948
M204 S5000
G0 F2400 X68.58 Y94.845
M204 S200
G1 F1200 X114.111 Y94.855 E71.05535
G1 X114.598 Y94.895 E71.07967
G1 X115.072 Y95.014 E71.10399
G1 X115.521 Y95.208 E71.12833
G1 X115.978 Y95.509 E71.15556
G1 X116.256 Y95.731 E71.17327
G1 X116.612 Y96.066 E71.19759
G1 X116.908 Y96.455 E71.22192
G1 X117.137 Y96.887 E71.24625
G1 X117.293 Y97.35 E71.27057
G1 X117.381 Y98.057 E71.30602
