;FLAVOR:Marlin
;TIME:152
;Filament used: 0.0784676m
;Layer height: 0.2
;Generated with Cura_SteamEngine 2.7.0
M190 S60
M104 S220
M109 S220
G21 ;metric values
G90 ;absolute positioning
M82 ;set extruder to absolute mode
M107 ;start with the fan off
G92 E0 ;zero the extruded length
G1 F200 E3 ;extrude 3mm of feed stock
G92 E0 ;zero the extruded length again
G1 F9000
M117 Printing...
;LAYER_COUNT:28
;LAYER:0
M107
M204 S5000
G0 F2400 X86.838 Y84.938 Z0.3
M204 S200
;TYPE:SKIRT
G1 F1200 X87.371 Y84.409 E0.03737
G1 X87.826 Y84.039 E0.06656
G1 X88.437 Y83.633 E0.10306
G1 X88.965 Y83.352 E0.13283
G1 X89.661 Y83.067 E0.17026
G1 X90.22 Y82.9 E0.19929
G1 X90.947 Y82.758 E0.23615
G1 X91.537 Y82.702 E0.26565
G1 X92.28 Y82.705 E0.30262
G1 X92.868 Y82.765 E0.33204
G1 X93.592 Y82.911 E0.36879
G1 X94.151 Y83.082 E0.39789
G1 X94.838 Y83.368 E0.43492
G1 X95.366 Y83.652 E0.46475
G1 X95.98 Y84.064 E0.50155
G1 X96.433 Y84.437 E0.53075
G1 X96.968 Y84.976 E0.56855
G1 X97.341 Y85.436 E0.59802
G1 X97.739 Y86.036 E0.63385
G1 X98.016 Y86.554 E0.66308
G1 X98.306 Y87.26 E0.70107
G1 X98.474 Y87.824 E0.73035
G1 X98.615 Y88.548 E0.76706
G1 X98.671 Y89.138 E0.79656
G1 X98.668 Y89.88 E0.83348
G1 X98.608 Y90.469 E0.86295
G1 X98.463 Y91.191 E0.89959
G1 X98.291 Y91.755 E0.92894
G1 X98 Y92.451 E0.96648
G1 X97.719 Y92.971 E0.99589
G1 X97.482 Y93.323 E1.01701
G1 X97.483 Y93.325 E1.01712
G1 X98.327 Y93.325 E1.05913
G1 X98.876 Y93.365 E1.08652
G1 X99.413 Y93.484 E1.11389
G1 X99.928 Y93.679 E1.1413
G1 X100.408 Y93.947 E1.16865
G1 X101.008 Y94.435 E1.20714
G1 X101.125 Y94.552 E1.21538
G1 X101.485 Y94.969 E1.24279
G1 X101.78 Y95.433 E1.27016
G1 X102.006 Y95.935 E1.29755
G1 X102.156 Y96.464 E1.32492
G1 X102.235 Y97.233 E1.36339
G1 X102.235 Y98.408 E1.42186
G1 X102.195 Y98.957 E1.44926
G1 X102.076 Y99.494 E1.47663
G1 X101.881 Y100.009 E1.50403
G1 X101.613 Y100.489 E1.53139
G1 X101.125 Y101.089 E1.56988
G1 X101.008 Y101.206 E1.57812
G1 X100.591 Y101.566 E1.60553
G1 X100.127 Y101.861 E1.63289
G1 X99.625 Y102.087 E1.66029
G1 X99.096 Y102.237 E1.68766
G1 X98.327 Y102.316 E1.72613
G1 X86.673 Y102.316 E2.30609
G1 X86.124 Y102.276 E2.33349
G1 X85.587 Y102.157 E2.36086
G1 X85.072 Y101.962 E2.38826
G1 X84.592 Y101.694 E2.41562
G1 X83.992 Y101.206 E2.45411
G1 X83.875 Y101.089 E2.46235
G1 X83.515 Y100.672 E2.48976
G1 X83.22 Y100.208 E2.51712
G1 X82.994 Y99.706 E2.54452
G1 X82.844 Y99.177 E2.57188
G1 X82.765 Y98.408 E2.61036
G1 X82.765 Y97.233 E2.66883
G1 X82.805 Y96.684 E2.69622
G1 X82.924 Y96.147 E2.7236
G1 X83.119 Y95.632 E2.751
G1 X83.387 Y95.152 E2.77836
G1 X83.875 Y94.552 E2.81685
G1 X83.992 Y94.435 E2.82508
G1 X84.409 Y94.075 E2.8525
G1 X84.873 Y93.78 E2.87986
G1 X85.375 Y93.554 E2.90726
G1 X85.904 Y93.404 E2.93462
G1 X86.315 Y93.362 E2.95518
G1 X86.031 Y92.934 E2.98074
G1 X85.75 Y92.406 E3.01051
G1 X85.465 Y91.71 E3.04794
G1 X85.298 Y91.151 E3.07697
G1 X85.156 Y90.425 E3.11379
G1 X85.1 Y89.837 E3.14318
G1 X85.103 Y89.094 E3.18016
G1 X85.163 Y88.505 E3.20962
G1 X85.31 Y87.777 E3.24658
G1 X85.483 Y87.213 E3.27594
G1 X85.771 Y86.525 E3.31306
G1 X86.051 Y86.006 E3.3424
G1 X86.462 Y85.394 E3.37909
G1 X86.838 Y84.938 E3.4085
M204 S5000
G0 F2400 X87.146 Y85.192
M204 S200
G1 F1200 X87.623 Y84.718 E3.44197
G1 X88.078 Y84.348 E3.47115
G1 X88.624 Y83.986 E3.50376
G1 X89.152 Y83.705 E3.53352
G1 X89.775 Y83.449 E3.56704
G1 X90.334 Y83.282 E3.59608
G1 X90.984 Y83.155 E3.62903
G1 X91.574 Y83.099 E3.65853
G1 X92.239 Y83.102 E3.69162
G1 X92.827 Y83.162 E3.72104
G1 X93.475 Y83.292 E3.75393
G1 X94.034 Y83.463 E3.78302
G1 X94.649 Y83.72 E3.81619
G1 X95.177 Y84.004 E3.84603
G1 X95.726 Y84.372 E3.87892
G1 X96.179 Y84.745 E3.90812
G1 X96.658 Y85.228 E3.94197
G1 X97.031 Y85.688 E3.97144
G1 X97.387 Y86.224 E4.00347
G1 X97.664 Y86.742 E4.0327
G1 X97.924 Y87.374 E4.06671
G1 X98.092 Y87.938 E4.09599
G1 X98.218 Y88.585 E4.1288
G1 X98.274 Y89.175 E4.15829
G1 X98.272 Y89.84 E4.19139
G1 X98.212 Y90.429 E4.22085
G1 X98.081 Y91.074 E4.2536
G1 X97.909 Y91.638 E4.28295
G1 X97.649 Y92.262 E4.31659
G1 X97.368 Y92.782 E4.346
G1 X97.037 Y93.274 E4.37551
G1 X97.206 Y93.724 E4.39943
G1 X98.327 Y93.724 E4.45522
G1 X98.846 Y93.764 E4.48113
G1 X99.353 Y93.883 E4.50704
G1 X99.835 Y94.078 E4.53292
G1 X100.283 Y94.344 E4.55885
G1 X100.726 Y94.717 E4.58767
G1 X100.843 Y94.834 E4.5959
G1 X101.181 Y95.23 E4.62181
G1 X101.456 Y95.672 E4.64772
G1 X101.659 Y96.151 E4.67361
G1 X101.787 Y96.656 E4.69953
G1 X101.836 Y97.233 E4.72835
G1 X101.836 Y98.408 E4.78683
G1 X101.796 Y98.927 E4.81273
G1 X101.677 Y99.434 E4.83865
G1 X101.482 Y99.916 E4.86452
G1 X101.216 Y100.364 E4.89045
G1 X100.843 Y100.807 E4.91927
G1 X100.726 Y100.924 E4.92751
G1 X100.33 Y101.262 E4.95342
G1 X99.888 Y101.537 E4.97932
G1 X99.409 Y101.74 E5.00521
G1 X98.904 Y101.868 E5.03114
G1 X98.327 Y101.917 E5.05996
G1 X86.673 Y101.917 E5.63992
G1 X86.154 Y101.877 E5.66583
G1 X85.647 Y101.758 E5.69175
G1 X85.165 Y101.563 E5.71762
G1 X84.717 Y101.297 E5.74355
G1 X84.274 Y100.924 E5.77237
G1 X84.157 Y100.807 E5.7806
G1 X83.819 Y100.411 E5.80651
G1 X83.544 Y99.969 E5.83242
G1 X83.341 Y99.49 E5.85831
G1 X83.213 Y98.985 E5.88424
G1 X83.164 Y98.408 E5.91305
G1 X83.164 Y97.233 E5.97153
G1 X83.204 Y96.714 E5.99743
G1 X83.323 Y96.207 E6.02335
G1 X83.518 Y95.725 E6.04923
G1 X83.784 Y95.277 E6.07516
G1 X84.157 Y94.834 E6.10398
G1 X84.274 Y94.717 E6.11221
G1 X84.67 Y94.379 E6.13812
G1 X85.112 Y94.104 E6.16403
G1 X85.591 Y93.901 E6.18992
G1 X86.096 Y93.773 E6.21584
G1 X86.673 Y93.724 E6.24466
G1 X87.096 Y93.724 E6.26571
G1 X86.744 Y93.29 E6.29352
G1 X86.384 Y92.747 E6.32594
G1 X86.103 Y92.219 E6.35571
G1 X85.847 Y91.596 E6.38923
G1 X85.68 Y91.037 E6.41826
G1 X85.553 Y90.388 E6.45117
G1 X85.497 Y89.8 E6.48057
G1 X85.499 Y89.134 E6.51371
G1 X85.559 Y88.545 E6.54317
G1 X85.691 Y87.894 E6.57623
G1 X85.864 Y87.33 E6.60559
G1 X86.122 Y86.714 E6.63882
G1 X86.402 Y86.195 E6.66817
G1 X86.77 Y85.648 E6.70098
G1 X87.146 Y85.192 E6.73039
M204 S5000
G0 F2400 X87.454 Y85.446
M204 S200
G1 F1200 X87.875 Y85.028 E6.75992
G1 X88.33 Y84.658 E6.7891
G1 X88.812 Y84.338 E6.81789
G1 X89.34 Y84.057 E6.84766
G1 X89.889 Y83.831 E6.8772
G1 X90.448 Y83.664 E6.90624
G1 X91.022 Y83.552 E6.93534
G1 X91.612 Y83.496 E6.96484
G1 X92.199 Y83.498 E6.99405
G1 X92.787 Y83.558 E7.02346
G1 X93.359 Y83.674 E7.05251
G1 X93.918 Y83.845 E7.0816
G1 X94.46 Y84.071 E7.11082
G1 X94.988 Y84.355 E7.14066
G1 X95.472 Y84.68 E7.16967
G1 X95.925 Y85.053 E7.19887
G1 X96.348 Y85.479 E7.22875
G1 X96.721 Y85.939 E7.25822
G1 X97.035 Y86.413 E7.28652
G1 X97.312 Y86.931 E7.31575
G1 X97.541 Y87.488 E7.34572
G1 X97.709 Y88.052 E7.37501
G1 X97.821 Y88.623 E7.40397
G1 X97.877 Y89.213 E7.43346
G1 X97.875 Y89.799 E7.46262
G1 X97.815 Y90.388 E7.49209
G1 X97.7 Y90.958 E7.52102
G1 X97.528 Y91.522 E7.55037
G1 X97.298 Y92.072 E7.58004
G1 X97.017 Y92.592 E7.60945
G1 X96.694 Y93.073 E7.63828
G1 X96.585 Y93.205 E7.6468
G1 X96.93 Y94.123 E7.69561
G1 X98.327 Y94.123 E7.76513
G1 X98.814 Y94.163 E7.78945
G1 X99.289 Y94.282 E7.81382
G1 X99.737 Y94.476 E7.83811
G1 X100.148 Y94.741 E7.86245
G1 X100.443 Y95 E7.88198
G1 X100.56 Y95.117 E7.89022
G1 X100.877 Y95.489 E7.91454
G1 X101.128 Y95.909 E7.93889
G1 X101.308 Y96.363 E7.9632
G1 X101.411 Y96.841 E7.98753
G1 X101.437 Y97.233 E8.00708
G1 X101.437 Y98.408 E8.06556
G1 X101.397 Y98.895 E8.08987
G1 X101.278 Y99.37 E8.11424
G1 X101.084 Y99.818 E8.13854
G1 X100.819 Y100.229 E8.16287
G1 X100.56 Y100.524 E8.18241
G1 X100.443 Y100.641 E8.19064
G1 X100.071 Y100.958 E8.21497
G1 X99.651 Y101.209 E8.23932
G1 X99.197 Y101.389 E8.26362
G1 X98.719 Y101.492 E8.28795
G1 X98.327 Y101.518 E8.30751
G1 X86.673 Y101.518 E8.88747
G1 X86.186 Y101.478 E8.91179
G1 X85.711 Y101.359 E8.93616
G1 X85.263 Y101.165 E8.96045
G1 X84.852 Y100.9 E8.98479
G1 X84.557 Y100.641 E9.00433
G1 X84.44 Y100.524 E9.01256
G1 X84.123 Y100.152 E9.03688
G1 X83.872 Y99.732 E9.06123
G1 X83.692 Y99.278 E9.08554
G1 X83.589 Y98.8 E9.10987
G1 X83.563 Y98.408 E9.12942
G1 X83.563 Y97.233 E9.1879
G1 X83.603 Y96.746 E9.21222
G1 X83.722 Y96.271 E9.23658
G1 X83.916 Y95.823 E9.26088
G1 X84.181 Y95.412 E9.28522
G1 X84.44 Y95.117 E9.30475
G1 X84.557 Y95 E9.31299
G1 X84.929 Y94.683 E9.33731
G1 X85.349 Y94.432 E9.36166
G1 X85.803 Y94.252 E9.38596
G1 X86.281 Y94.149 E9.4103
G1 X86.673 Y94.123 E9.42985
G1 X87.74 Y94.123 E9.48295
G1 X87.74 Y93.814 E9.49833
G1 X87.424 Y93.495 E9.52067
G1 X87.054 Y93.039 E9.54989
G1 X86.736 Y92.559 E9.57855
G1 X86.455 Y92.031 E9.60831
G1 X86.229 Y91.482 E9.63786
G1 X86.062 Y90.923 E9.66689
G1 X85.95 Y90.35 E9.69595
G1 X85.894 Y89.762 E9.72534
G1 X85.896 Y89.175 E9.75456
G1 X85.956 Y88.586 E9.78402
G1 X86.073 Y88.011 E9.81322
G1 X86.246 Y87.447 E9.84258
G1 X86.473 Y86.904 E9.87187
G1 X86.753 Y86.385 E9.90122
G1 X87.078 Y85.902 E9.93019
G1 X87.454 Y85.446 E9.9596
M204 S5000
G0 F2400 X87.762 Y85.7
M204 S200
G1 F1200 X88.126 Y85.337 E9.98518
G1 X88.581 Y84.967 E10.01437
G1 X88.999 Y84.69 E10.03932
G1 X89.527 Y84.409 E10.06909
G1 X90.003 Y84.214 E10.09469
G1 X90.562 Y84.047 E10.12372
G1 X91.06 Y83.95 E10.14897
G1 X91.65 Y83.894 E10.17846
G1 X92.158 Y83.895 E10.20375
G1 X92.746 Y83.955 E10.23316
G1 X93.242 Y84.055 E10.25834
G1 X93.801 Y84.226 E10.28743
G1 X94.271 Y84.423 E10.31279
G1 X94.799 Y84.707 E10.34263
G1 X95.219 Y84.988 E10.36778
G1 X95.672 Y85.361 E10.39698
G1 X96.038 Y85.73 E10.42284
G1 X96.411 Y86.19 E10.45232
G1 X96.683 Y86.601 E10.47684
G1 X96.96 Y87.119 E10.50608
G1 X97.159 Y87.601 E10.53203
G1 X97.327 Y88.165 E10.56131
G1 X97.423 Y88.661 E10.58645
G1 X97.479 Y89.251 E10.61595
G1 X97.478 Y89.759 E10.64123
G1 X97.418 Y90.348 E10.67069
G1 X97.318 Y90.842 E10.69578
G1 X97.146 Y91.406 E10.72512
G1 X96.947 Y91.882 E10.75079
G1 X96.666 Y92.402 E10.78021
G1 X96.386 Y92.819 E10.80521
G1 X96.13 Y93.129 E10.82521
G1 X96.653 Y94.522 E10.89926
G1 X98.327 Y94.522 E10.98257
G1 X98.78 Y94.562 E11.0052
G1 X99.22 Y94.68 E11.02787
G1 X99.632 Y94.874 E11.05053
G1 X100.161 Y95.282 E11.08378
G1 X100.278 Y95.399 E11.09201
G1 X100.571 Y95.748 E11.11469
G1 X100.797 Y96.142 E11.1373
G1 X100.952 Y96.57 E11.15995
G1 X101.038 Y97.233 E11.19322
G1 X101.038 Y98.408 E11.2517
G1 X100.998 Y98.861 E11.27433
G1 X100.88 Y99.301 E11.297
G1 X100.686 Y99.713 E11.31966
G1 X100.278 Y100.242 E11.35291
G1 X100.161 Y100.359 E11.36114
G1 X99.812 Y100.652 E11.38382
G1 X99.418 Y100.878 E11.40642
G1 X98.99 Y101.033 E11.42908
G1 X98.327 Y101.119 E11.46235
G1 X86.673 Y101.119 E12.04231
G1 X86.22 Y101.079 E12.06494
G1 X85.78 Y100.961 E12.08762
G1 X85.368 Y100.767 E12.11028
G1 X84.839 Y100.359 E12.14352
G1 X84.722 Y100.242 E12.15176
G1 X84.429 Y99.893 E12.17444
G1 X84.203 Y99.499 E12.19704
G1 X84.048 Y99.071 E12.21969
G1 X83.962 Y98.408 E12.25296
G1 X83.962 Y97.233 E12.31144
G1 X84.002 Y96.78 E12.33407
G1 X84.12 Y96.34 E12.35674
G1 X84.314 Y95.928 E12.3794
G1 X84.722 Y95.399 E12.41265
G1 X84.839 Y95.282 E12.42088
G1 X85.188 Y94.989 E12.44356
G1 X85.582 Y94.763 E12.46617
G1 X86.01 Y94.608 E12.48882
G1 X86.673 Y94.522 E12.52209
G1 X88.139 Y94.522 E12.59505
G1 X88.139 Y93.644 E12.63874
G1 X88.097 Y93.609 E12.64146
G1 X87.734 Y93.243 E12.66712
G1 X87.364 Y92.787 E12.69634
G1 X87.088 Y92.372 E12.72114
G1 X86.807 Y91.844 E12.75091
G1 X86.612 Y91.368 E12.77651
G1 X86.445 Y90.809 E12.80554
G1 X86.348 Y90.312 E12.83074
G1 X86.292 Y89.724 E12.86014
G1 X86.293 Y89.215 E12.88547
G1 X86.353 Y88.626 E12.91493
G1 X86.454 Y88.128 E12.94022
G1 X86.627 Y87.564 E12.96958
G1 X86.824 Y87.093 E12.99498
G1 X87.104 Y86.574 E13.02433
G1 X87.386 Y86.156 E13.04942
G1 X87.762 Y85.7 E13.07884
M204 S5000
G0 F2400 X88.069 Y85.954
M204 S200
G1 F1200 X88.378 Y85.647 E13.10051
G1 X88.833 Y85.277 E13.1297
G1 X89.187 Y85.042 E13.15084
G1 X89.715 Y84.761 E13.18061
G1 X90.118 Y84.596 E13.20228
G1 X90.677 Y84.429 E13.23131
G1 X91.098 Y84.347 E13.25266
G1 X91.688 Y84.291 E13.28215
G1 X92.118 Y84.292 E13.30355
G1 X92.706 Y84.352 E13.33297
G1 X93.125 Y84.437 E13.35424
G1 X93.684 Y84.608 E13.38333
G1 X94.082 Y84.774 E13.40479
G1 X94.61 Y85.058 E13.43463
G1 X94.965 Y85.297 E13.45593
G1 X95.418 Y85.67 E13.48513
G1 X95.728 Y85.982 E13.50702
G1 X96.101 Y86.442 E13.53649
G1 X96.332 Y86.789 E13.55724
G1 X96.609 Y87.307 E13.58647
G1 X96.777 Y87.715 E13.60843
G1 X96.945 Y88.279 E13.63771
G1 X97.026 Y88.699 E13.659
G1 X97.082 Y89.289 E13.68849
G1 X97.081 Y89.718 E13.70984
G1 X97.021 Y90.307 E13.73931
G1 X96.937 Y90.725 E13.76052
G1 X96.765 Y91.289 E13.78987
G1 X96.596 Y91.693 E13.81166
G1 X96.315 Y92.213 E13.84108
G1 X96.078 Y92.565 E13.86219
G1 X95.703 Y93.02 E13.89154
G1 X95.674 Y93.048 E13.89354
G1 X96.378 Y94.921 E13.99312
G1 X98.327 Y94.921 E14.09011
G1 X98.744 Y94.961 E14.11096
G1 X99.145 Y95.079 E14.13176
G1 X99.517 Y95.272 E14.15262
G1 X99.879 Y95.564 E14.17576
G1 X99.996 Y95.681 E14.184
G1 X100.263 Y96.004 E14.20485
G1 X100.463 Y96.371 E14.22565
G1 X100.59 Y96.77 E14.24649
G1 X100.639 Y97.233 E14.26966
G1 X100.639 Y98.408 E14.32814
G1 X100.599 Y98.825 E14.34898
G1 X100.481 Y99.226 E14.36979
G1 X100.288 Y99.598 E14.39064
G1 X99.996 Y99.96 E14.41379
G1 X99.879 Y100.077 E14.42202
G1 X99.556 Y100.344 E14.44288
G1 X99.189 Y100.544 E14.46368
G1 X98.79 Y100.671 E14.48451
G1 X98.327 Y100.72 E14.50768
G1 X86.673 Y100.72 E15.08765
G1 X86.256 Y100.68 E15.1085
G1 X85.855 Y100.562 E15.1293
G1 X85.483 Y100.369 E15.15016
G1 X85.121 Y100.077 E15.1733
G1 X85.004 Y99.96 E15.18154
G1 X84.737 Y99.637 E15.20239
G1 X84.537 Y99.27 E15.22319
G1 X84.41 Y98.871 E15.24403
G1 X84.361 Y98.408 E15.2672
G1 X84.361 Y97.233 E15.32567
G1 X84.401 Y96.816 E15.34652
G1 X84.519 Y96.415 E15.36732
G1 X84.712 Y96.043 E15.38818
G1 X85.004 Y95.681 E15.41133
G1 X85.121 Y95.564 E15.41956
G1 X85.444 Y95.297 E15.44041
G1 X85.811 Y95.097 E15.46121
G1 X86.21 Y94.97 E15.48205
G1 X86.673 Y94.921 E15.50522
G1 X88.538 Y94.921 E15.59804
G1 X88.538 Y93.456 E15.67094
G1 X88.351 Y93.302 E15.683
G1 X88.044 Y92.992 E15.70471
G1 X87.674 Y92.536 E15.73393
G1 X87.44 Y92.184 E15.75497
G1 X87.159 Y91.656 E15.78473
G1 X86.994 Y91.253 E15.80641
G1 X86.827 Y90.694 E15.83544
G1 X86.745 Y90.274 E15.85674
G1 X86.689 Y89.686 E15.88613
G1 X86.69 Y89.256 E15.90753
G1 X86.75 Y88.667 E15.93699
G1 X86.836 Y88.245 E15.95843
G1 X87.009 Y87.681 E15.98778
G1 X87.175 Y87.283 E16.00924
G1 X87.455 Y86.764 E16.03859
G1 X87.693 Y86.41 E16.05982
G1 X88.069 Y85.954 E16.08923
M204 S5000
G0 F2400 X88.377 Y86.207
M204 S200
G1 F1200 X88.63 Y85.957 E16.10693
G1 X89.085 Y85.587 E16.13612
G1 X89.374 Y85.395 E16.15338
G1 X89.902 Y85.114 E16.18315
G1 X90.232 Y84.978 E16.20091
G1 X90.791 Y84.811 E16.22995
G1 X91.135 Y84.744 E16.24739
G1 X91.725 Y84.688 E16.27688
G1 X92.077 Y84.689 E16.2944
G1 X92.665 Y84.749 E16.32381
G1 X93.008 Y84.819 E16.34123
G1 X93.567 Y84.99 E16.37033
G1 X93.893 Y85.125 E16.38789
G1 X94.421 Y85.409 E16.41772
G1 X94.712 Y85.605 E16.43518
G1 X95.165 Y85.978 E16.46438
G1 X95.418 Y86.233 E16.48226
G1 X95.791 Y86.693 E16.51173
G1 X95.98 Y86.977 E16.52871
G1 X96.257 Y87.495 E16.55794
G1 X96.394 Y87.829 E16.57591
G1 X96.562 Y88.393 E16.6052
G1 X96.629 Y88.736 E16.62259
G1 X96.685 Y89.326 E16.65208
G1 X96.684 Y89.678 E16.6696
G1 X96.624 Y90.267 E16.69906
G1 X96.555 Y90.609 E16.71642
G1 X96.383 Y91.173 E16.74577
G1 X96.245 Y91.503 E16.76357
G1 X95.964 Y92.023 E16.79298
G1 X95.77 Y92.311 E16.81026
G1 X95.395 Y92.766 E16.83961
G1 X95.21 Y92.95 E16.85259
G1 X96.1 Y95.32 E16.97858
G1 X98.327 Y95.32 E17.08941
G1 X98.703 Y95.36 E17.10822
G1 X99.063 Y95.478 E17.12708
G1 X99.39 Y95.668 E17.1459
G1 X99.597 Y95.846 E17.15948
G1 X99.714 Y95.963 E17.16772
G1 X99.952 Y96.257 E17.18654
G1 X100.123 Y96.595 E17.20539
G1 X100.219 Y96.961 E17.22422
G1 X100.24 Y97.233 E17.2378
G1 X100.24 Y98.408 E17.29628
G1 X100.2 Y98.784 E17.31509
G1 X100.082 Y99.144 E17.33395
G1 X99.892 Y99.471 E17.35277
G1 X99.714 Y99.678 E17.36635
G1 X99.597 Y99.795 E17.37459
G1 X99.303 Y100.033 E17.39341
G1 X98.965 Y100.204 E17.41226
G1 X98.599 Y100.3 E17.43109
G1 X98.327 Y100.321 E17.44467
G1 X86.673 Y100.321 E18.02464
G1 X86.297 Y100.281 E18.04345
G1 X85.937 Y100.163 E18.06231
G1 X85.61 Y99.973 E18.08113
G1 X85.403 Y99.795 E18.09471
G1 X85.286 Y99.678 E18.10295
G1 X85.048 Y99.384 E18.12177
G1 X84.877 Y99.046 E18.14062
