;FLAVOR:Marlin
;TIME:153
;Filament used: 0.0785838m
;Layer height: 0.2
;Generated with Cura_SteamEngine 2.7.0
M190 S60
M104 S220
M109 S220
G21 ;metric values
G90 ;absolute positioning
M82 ;set extruder to absolute mode
M107 ;start with the fan off
G92 E0 ;zero the extruded length
G1 F200 E3 ;extrude 3mm of feed stock
G92 E0 ;zero the extruded length again
G1 F9000
M117 Printing...
;LAYER_COUNT:28
;LAYER:0
M107
M204 S5000
G0 F2400 X88.657 Y84.938 Z0.3
M204 S200
;TYPE:SKIRT
G1 F1200 X89.19 Y84.409 E0.03737
G1 X89.645 Y84.039 E0.06656
G1 X90.256 Y83.633 E0.10306
G1 X90.784 Y83.352 E0.13283
G1 X91.48 Y83.067 E0.17026
G1 X92.039 Y82.9 E0.19929
G1 X92.766 Y82.758 E0.23615
G1 X93.356 Y82.702 E0.26565
G1 X94.099 Y82.705 E0.30262
G1 X94.687 Y82.765 E0.33204
G1 X95.411 Y82.911 E0.36879
G1 X95.97 Y83.082 E0.39789
G1 X96.657 Y83.368 E0.43492
G1 X97.185 Y83.652 E0.46475
G1 X97.799 Y84.064 E0.50155
G1 X98.252 Y84.437 E0.53075
G1 X98.787 Y84.976 E0.56855
G1 X99.16 Y85.436 E0.59802
G1 X99.558 Y86.036 E0.63385
G1 X99.835 Y86.554 E0.66308
G1 X100.125 Y87.26 E0.70107
G1 X100.293 Y87.824 E0.73035
G1 X100.434 Y88.548 E0.76706
G1 X100.49 Y89.138 E0.79656
G1 X100.487 Y89.88 E0.83348
G1 X100.427 Y90.469 E0.86295
G1 X100.282 Y91.191 E0.89959
G1 X100.11 Y91.755 E0.92894
G1 X99.819 Y92.451 E0.96648
G1 X99.538 Y92.971 E0.99589
G1 X99.221 Y93.442 E1.02415
G1 X99.413 Y93.484 E1.03393
G1 X99.928 Y93.679 E1.06133
G1 X100.408 Y93.947 E1.08869
G1 X101.008 Y94.435 E1.12718
G1 X101.125 Y94.552 E1.13542
G1 X101.485 Y94.969 E1.16283
G1 X101.78 Y95.433 E1.19019
G1 X102.006 Y95.935 E1.21759
G1 X102.156 Y96.464 E1.24495
G1 X102.235 Y97.233 E1.28343
G1 X102.235 Y98.408 E1.3419
G1 X102.195 Y98.957 E1.36929
G1 X102.076 Y99.494 E1.39667
G1 X101.881 Y100.009 E1.42407
G1 X101.613 Y100.489 E1.45143
G1 X101.125 Y101.089 E1.48992
G1 X101.008 Y101.206 E1.49815
G1 X100.591 Y101.566 E1.52557
G1 X100.127 Y101.861 E1.55293
G1 X99.625 Y102.087 E1.58033
G1 X99.096 Y102.237 E1.60769
G1 X98.327 Y102.316 E1.64616
G1 X86.673 Y102.316 E2.22613
G1 X86.124 Y102.276 E2.25352
G1 X85.587 Y102.157 E2.2809
G1 X85.072 Y101.962 E2.3083
G1 X84.592 Y101.694 E2.33566
G1 X83.992 Y101.206 E2.37415
G1 X83.875 Y101.089 E2.38238
G1 X83.515 Y100.672 E2.4098
G1 X83.22 Y100.208 E2.43716
G1 X82.994 Y99.706 E2.46456
G1 X82.844 Y99.177 E2.49192
G1 X82.765 Y98.408 E2.53039
G1 X82.765 Y97.233 E2.58887
G1 X82.805 Y96.684 E2.61626
G1 X82.924 Y96.147 E2.64363
G1 X83.119 Y95.632 E2.67104
G1 X83.387 Y95.152 E2.6984
G1 X83.875 Y94.552 E2.73689
G1 X83.992 Y94.435 E2.74512
G1 X84.409 Y94.075 E2.77254
G1 X84.873 Y93.78 E2.7999
G1 X85.375 Y93.554 E2.8273
G1 X85.904 Y93.404 E2.85466
G1 X86.673 Y93.325 E2.89313
G1 X88.107 Y93.325 E2.96449
G1 X88.108 Y93.323 E2.96461
G1 X87.85 Y92.934 E2.98784
G1 X87.569 Y92.406 E3.0176
G1 X87.284 Y91.71 E3.05503
G1 X87.117 Y91.151 E3.08406
G1 X86.975 Y90.425 E3.12088
G1 X86.919 Y89.837 E3.15027
G1 X86.922 Y89.094 E3.18725
G1 X86.982 Y88.505 E3.21671
G1 X87.129 Y87.777 E3.25367
G1 X87.302 Y87.213 E3.28303
G1 X87.59 Y86.525 E3.32015
G1 X87.87 Y86.006 E3.3495
G1 X88.281 Y85.394 E3.38618
G1 X88.657 Y84.938 E3.4156
M204 S5000
G0 F2400 X88.965 Y85.192
M204 S200
G1 F1200 X89.442 Y84.718 E3.44906
G1 X89.897 Y84.348 E3.47825
G1 X90.443 Y83.986 E3.51085
G1 X90.971 Y83.705 E3.54061
G1 X91.594 Y83.449 E3.57413
G1 X92.153 Y83.282 E3.60317
G1 X92.803 Y83.155 E3.63613
G1 X93.393 Y83.099 E3.66562
G1 X94.058 Y83.102 E3.69871
G1 X94.646 Y83.162 E3.72813
G1 X95.294 Y83.292 E3.76102
G1 X95.853 Y83.463 E3.79011
G1 X96.468 Y83.72 E3.82328
G1 X96.996 Y84.004 E3.85312
G1 X97.545 Y84.372 E3.88601
G1 X97.998 Y84.745 E3.91521
G1 X98.477 Y85.228 E3.94906
G1 X98.85 Y85.688 E3.97853
G1 X99.206 Y86.224 E4.01056
G1 X99.483 Y86.742 E4.03979
G1 X99.743 Y87.374 E4.0738
G1 X99.911 Y87.938 E4.10308
G1 X100.037 Y88.585 E4.13589
G1 X100.093 Y89.175 E4.16538
G1 X100.091 Y89.84 E4.19848
G1 X100.031 Y90.429 E4.22794
G1 X99.9 Y91.074 E4.26069
G1 X99.728 Y91.638 E4.29004
G1 X99.468 Y92.262 E4.32368
G1 X99.187 Y92.782 E4.35309
G1 X98.821 Y93.326 E4.38572
G1 X98.483 Y93.736 E4.41217
G1 X98.846 Y93.764 E4.43028
G1 X99.353 Y93.883 E4.4562
G1 X99.835 Y94.078 E4.48208
G1 X100.283 Y94.344 E4.50801
G1 X100.726 Y94.717 E4.53683
G1 X100.843 Y94.834 E4.54506
G1 X101.181 Y95.23 E4.57097
G1 X101.456 Y95.672 E4.59688
G1 X101.659 Y96.151 E4.62277
G1 X101.787 Y96.656 E4.64869
G1 X101.836 Y97.233 E4.67751
G1 X101.836 Y98.408 E4.73599
G1 X101.796 Y98.927 E4.76189
G1 X101.677 Y99.434 E4.78781
G1 X101.482 Y99.916 E4.81368
G1 X101.216 Y100.364 E4.83961
G1 X100.843 Y100.807 E4.86843
G1 X100.726 Y100.924 E4.87667
G1 X100.33 Y101.262 E4.90258
G1 X99.888 Y101.537 E4.92848
G1 X99.409 Y101.74 E4.95437
G1 X98.904 Y101.868 E4.9803
G1 X98.327 Y101.917 E5.00912
G1 X86.673 Y101.917 E5.58908
G1 X86.154 Y101.877 E5.61499
G1 X85.647 Y101.758 E5.6409
G1 X85.165 Y101.563 E5.66678
G1 X84.717 Y101.297 E5.69271
G1 X84.274 Y100.924 E5.72153
G1 X84.157 Y100.807 E5.72976
G1 X83.819 Y100.411 E5.75567
G1 X83.544 Y99.969 E5.78158
G1 X83.341 Y99.49 E5.80747
G1 X83.213 Y98.985 E5.8334
G1 X83.164 Y98.408 E5.86221
G1 X83.164 Y97.233 E5.92069
G1 X83.204 Y96.714 E5.94659
G1 X83.323 Y96.207 E5.97251
G1 X83.518 Y95.725 E5.99838
G1 X83.784 Y95.277 E6.02431
G1 X84.157 Y94.834 E6.05313
G1 X84.274 Y94.717 E6.06137
G1 X84.67 Y94.379 E6.08728
G1 X85.112 Y94.104 E6.11318
G1 X85.591 Y93.901 E6.13907
G1 X86.096 Y93.773 E6.165
G1 X86.673 Y93.724 E6.19382
G1 X88.384 Y93.724 E6.27897
G1 X88.553 Y93.274 E6.30289
G1 X88.203 Y92.747 E6.33437
G1 X87.922 Y92.219 E6.36414
G1 X87.666 Y91.596 E6.39766
G1 X87.499 Y91.037 E6.42669
G1 X87.372 Y90.388 E6.4596
G1 X87.316 Y89.8 E6.489
G1 X87.318 Y89.134 E6.52214
G1 X87.378 Y88.545 E6.5516
G1 X87.51 Y87.894 E6.58466
G1 X87.683 Y87.33 E6.61402
G1 X87.941 Y86.714 E6.64725
G1 X88.221 Y86.195 E6.6766
G1 X88.589 Y85.648 E6.70941
G1 X88.965 Y85.192 E6.73882
M204 S5000
G0 F2400 X89.273 Y85.446
M204 S200
G1 F1200 X89.694 Y85.028 E6.76835
G1 X90.149 Y84.658 E6.79753
G1 X90.631 Y84.338 E6.82632
G1 X91.159 Y84.057 E6.85609
G1 X91.708 Y83.831 E6.88564
G1 X92.267 Y83.664 E6.91467
G1 X92.841 Y83.552 E6.94377
G1 X93.431 Y83.496 E6.97327
G1 X94.018 Y83.498 E7.00248
G1 X94.606 Y83.558 E7.03189
G1 X95.178 Y83.674 E7.06094
G1 X95.737 Y83.845 E7.09003
G1 X96.279 Y84.071 E7.11925
G1 X96.807 Y84.355 E7.14909
G1 X97.291 Y84.68 E7.1781
G1 X97.744 Y85.053 E7.20731
G1 X98.167 Y85.479 E7.23718
G1 X98.54 Y85.939 E7.26665
G1 X98.854 Y86.413 E7.29495
G1 X99.131 Y86.931 E7.32418
G1 X99.36 Y87.488 E7.35415
G1 X99.528 Y88.052 E7.38344
G1 X99.64 Y88.623 E7.4124
G1 X99.696 Y89.213 E7.44189
G1 X99.694 Y89.799 E7.47105
G1 X99.634 Y90.388 E7.50052
G1 X99.519 Y90.958 E7.52945
G1 X99.347 Y91.522 E7.5588
G1 X99.117 Y92.072 E7.58847
G1 X98.836 Y92.592 E7.61788
G1 X98.513 Y93.073 E7.64671
G1 X98.138 Y93.528 E7.67606
G1 X97.85 Y93.813 E7.69622
G1 X97.85 Y94.123 E7.71165
G1 X98.327 Y94.123 E7.73539
G1 X98.814 Y94.163 E7.7597
G1 X99.289 Y94.282 E7.78407
G1 X99.737 Y94.476 E7.80837
G1 X100.148 Y94.741 E7.8327
G1 X100.443 Y95 E7.85224
G1 X100.56 Y95.117 E7.86048
G1 X100.877 Y95.489 E7.8848
G1 X101.128 Y95.909 E7.90915
G1 X101.308 Y96.363 E7.93345
G1 X101.411 Y96.841 E7.95779
G1 X101.437 Y97.233 E7.97734
G1 X101.437 Y98.408 E8.03581
G1 X101.397 Y98.895 E8.06013
G1 X101.278 Y99.37 E8.0845
G1 X101.084 Y99.818 E8.10879
G1 X100.819 Y100.229 E8.13313
G1 X100.56 Y100.524 E8.15267
G1 X100.443 Y100.641 E8.1609
G1 X100.071 Y100.958 E8.18522
G1 X99.651 Y101.209 E8.20957
G1 X99.197 Y101.389 E8.23388
G1 X98.719 Y101.492 E8.25821
G1 X98.327 Y101.518 E8.27776
G1 X86.673 Y101.518 E8.85773
G1 X86.186 Y101.478 E8.88205
G1 X85.711 Y101.359 E8.90642
G1 X85.263 Y101.165 E8.93071
G1 X84.852 Y100.9 E8.95505
G1 X84.557 Y100.641 E8.97458
G1 X84.44 Y100.524 E8.98282
G1 X84.123 Y100.152 E9.00714
G1 X83.872 Y99.732 E9.03149
G1 X83.692 Y99.278 E9.05579
G1 X83.589 Y98.8 E9.08013
G1 X83.563 Y98.408 E9.09968
G1 X83.563 Y97.233 E9.15815
G1 X83.603 Y96.746 E9.18247
G1 X83.722 Y96.271 E9.20684
G1 X83.916 Y95.823 E9.23114
G1 X84.181 Y95.412 E9.25547
G1 X84.44 Y95.117 E9.27501
G1 X84.557 Y95 E9.28324
G1 X84.929 Y94.683 E9.30757
G1 X85.349 Y94.432 E9.33192
G1 X85.803 Y94.252 E9.35622
G1 X86.281 Y94.149 E9.38055
G1 X86.673 Y94.123 E9.4001
G1 X88.66 Y94.123 E9.49899
G1 X89.006 Y93.203 E9.5479
G1 X88.873 Y93.039 E9.55841
G1 X88.555 Y92.559 E9.58707
G1 X88.274 Y92.031 E9.61683
G1 X88.048 Y91.482 E9.64638
G1 X87.881 Y90.923 E9.67541
G1 X87.769 Y90.35 E9.70447
G1 X87.713 Y89.762 E9.73386
G1 X87.715 Y89.175 E9.76307
G1 X87.775 Y88.586 E9.79254
G1 X87.892 Y88.011 E9.82174
G1 X88.065 Y87.447 E9.8511
G1 X88.292 Y86.904 E9.88039
G1 X88.572 Y86.385 E9.90973
G1 X88.897 Y85.902 E9.9387
G1 X89.273 Y85.446 E9.96812
M204 S5000
G0 F2400 X89.581 Y85.7
M204 S200
G1 F1200 X89.945 Y85.337 E9.9937
G1 X90.4 Y84.967 E10.02289
G1 X90.818 Y84.69 E10.04784
G1 X91.346 Y84.409 E10.07761
G1 X91.822 Y84.214 E10.1032
G1 X92.381 Y84.047 E10.13224
G1 X92.879 Y83.95 E10.15749
G1 X93.469 Y83.894 E10.18698
G1 X93.977 Y83.895 E10.21226
G1 X94.565 Y83.955 E10.24168
G1 X95.061 Y84.055 E10.26686
G1 X95.62 Y84.226 E10.29595
G1 X96.09 Y84.423 E10.32131
G1 X96.618 Y84.707 E10.35115
G1 X97.038 Y84.988 E10.37629
G1 X97.491 Y85.361 E10.4055
G1 X97.857 Y85.73 E10.43136
G1 X98.23 Y86.19 E10.46083
G1 X98.502 Y86.601 E10.48536
G1 X98.779 Y87.119 E10.51459
G1 X98.978 Y87.601 E10.54054
G1 X99.146 Y88.165 E10.56983
G1 X99.242 Y88.661 E10.59497
G1 X99.298 Y89.251 E10.62447
G1 X99.297 Y89.759 E10.64975
G1 X99.237 Y90.348 E10.67921
G1 X99.137 Y90.842 E10.70429
G1 X98.965 Y91.406 E10.73364
G1 X98.766 Y91.882 E10.75931
G1 X98.485 Y92.402 E10.78873
G1 X98.205 Y92.819 E10.81372
G1 X97.83 Y93.274 E10.84307
G1 X97.462 Y93.638 E10.86882
G1 X97.451 Y93.647 E10.86953
G1 X97.451 Y94.522 E10.91308
G1 X98.327 Y94.522 E10.95667
G1 X98.78 Y94.562 E10.9793
G1 X99.22 Y94.68 E11.00197
G1 X99.632 Y94.874 E11.02464
G1 X100.161 Y95.282 E11.05788
G1 X100.278 Y95.399 E11.06612
G1 X100.571 Y95.748 E11.08879
G1 X100.797 Y96.142 E11.1114
G1 X100.952 Y96.57 E11.13405
G1 X101.038 Y97.233 E11.16732
G1 X101.038 Y98.408 E11.2258
G1 X100.998 Y98.861 E11.24843
G1 X100.88 Y99.301 E11.2711
G1 X100.686 Y99.713 E11.29376
G1 X100.278 Y100.242 E11.32701
G1 X100.161 Y100.359 E11.33524
G1 X99.812 Y100.652 E11.35792
G1 X99.418 Y100.878 E11.38052
G1 X98.99 Y101.033 E11.40318
G1 X98.327 Y101.119 E11.43645
G1 X86.673 Y101.119 E12.01642
G1 X86.22 Y101.079 E12.03905
G1 X85.78 Y100.961 E12.06172
G1 X85.368 Y100.767 E12.08438
G1 X84.839 Y100.359 E12.11763
G1 X84.722 Y100.242 E12.12586
G1 X84.429 Y99.893 E12.14854
G1 X84.203 Y99.499 E12.17114
G1 X84.048 Y99.071 E12.1938
G1 X83.962 Y98.408 E12.22707
G1 X83.962 Y97.233 E12.28554
G1 X84.002 Y96.78 E12.30817
G1 X84.12 Y96.34 E12.33084
G1 X84.314 Y95.928 E12.35351
G1 X84.722 Y95.399 E12.38675
G1 X84.839 Y95.282 E12.39499
G1 X85.188 Y94.989 E12.41766
G1 X85.582 Y94.763 E12.44027
G1 X86.01 Y94.608 E12.46292
G1 X86.673 Y94.522 E12.49619
G1 X88.937 Y94.522 E12.60886
G1 X89.46 Y93.128 E12.68296
G1 X89.183 Y92.787 E12.70482
G1 X88.907 Y92.372 E12.72962
G1 X88.626 Y91.844 E12.75939
G1 X88.431 Y91.368 E12.78499
G1 X88.264 Y90.809 E12.81402
G1 X88.167 Y90.312 E12.83922
G1 X88.111 Y89.724 E12.86862
G1 X88.112 Y89.215 E12.89395
G1 X88.172 Y88.626 E12.92341
G1 X88.273 Y88.128 E12.9487
G1 X88.446 Y87.564 E12.97806
G1 X88.643 Y87.093 E13.00346
G1 X88.923 Y86.574 E13.03281
G1 X89.205 Y86.156 E13.0579
G1 X89.581 Y85.7 E13.08732
M204 S5000
G0 F2400 X89.888 Y85.954
M204 S200
G1 F1200 X90.197 Y85.647 E13.10899
G1 X90.652 Y85.277 E13.13818
G1 X91.006 Y85.042 E13.15932
G1 X91.534 Y84.761 E13.18909
G1 X91.937 Y84.596 E13.21076
G1 X92.496 Y84.429 E13.2398
G1 X92.917 Y84.347 E13.26114
G1 X93.507 Y84.291 E13.29063
G1 X93.937 Y84.292 E13.31203
G1 X94.525 Y84.352 E13.34145
G1 X94.944 Y84.437 E13.36272
G1 X95.503 Y84.608 E13.39181
G1 X95.901 Y84.774 E13.41328
G1 X96.429 Y85.058 E13.44311
G1 X96.784 Y85.297 E13.46441
G1 X97.237 Y85.67 E13.49361
G1 X97.547 Y85.982 E13.5155
G1 X97.92 Y86.442 E13.54497
G1 X98.151 Y86.789 E13.56572
G1 X98.428 Y87.307 E13.59495
G1 X98.596 Y87.715 E13.61691
G1 X98.764 Y88.279 E13.64619
G1 X98.845 Y88.699 E13.66748
G1 X98.901 Y89.289 E13.69697
G1 X98.9 Y89.718 E13.71832
G1 X98.84 Y90.307 E13.74779
G1 X98.756 Y90.725 E13.76901
G1 X98.584 Y91.289 E13.79835
G1 X98.415 Y91.693 E13.82014
G1 X98.134 Y92.213 E13.84956
G1 X97.897 Y92.565 E13.87068
G1 X97.522 Y93.02 E13.90002
G1 X97.211 Y93.328 E13.9218
G1 X97.052 Y93.457 E13.93199
G1 X97.052 Y94.921 E14.00485
G1 X98.327 Y94.921 E14.0683
G1 X98.744 Y94.961 E14.08915
G1 X99.145 Y95.079 E14.10995
G1 X99.517 Y95.272 E14.1308
G1 X99.879 Y95.564 E14.15395
G1 X99.996 Y95.681 E14.16218
G1 X100.263 Y96.004 E14.18304
G1 X100.463 Y96.371 E14.20384
G1 X100.59 Y96.77 E14.22468
G1 X100.639 Y97.233 E14.24785
G1 X100.639 Y98.408 E14.30632
G1 X100.599 Y98.825 E14.32717
G1 X100.481 Y99.226 E14.34797
G1 X100.288 Y99.598 E14.36883
G1 X99.996 Y99.96 E14.39197
G1 X99.879 Y100.077 E14.40021
G1 X99.556 Y100.344 E14.42106
G1 X99.189 Y100.544 E14.44186
G1 X98.79 Y100.671 E14.4627
G1 X98.327 Y100.72 E14.48587
G1 X86.673 Y100.72 E15.06584
G1 X86.256 Y100.68 E15.08668
G1 X85.855 Y100.562 E15.10749
G1 X85.483 Y100.369 E15.12834
G1 X85.121 Y100.077 E15.15149
G1 X85.004 Y99.96 E15.15972
G1 X84.737 Y99.637 E15.18058
G1 X84.537 Y99.27 E15.20138
G1 X84.41 Y98.871 E15.22221
G1 X84.361 Y98.408 E15.24538
G1 X84.361 Y97.233 E15.30386
G1 X84.401 Y96.816 E15.32471
G1 X84.519 Y96.415 E15.34551
G1 X84.712 Y96.043 E15.36636
G1 X85.004 Y95.681 E15.38951
G1 X85.121 Y95.564 E15.39774
G1 X85.444 Y95.297 E15.4186
G1 X85.811 Y95.097 E15.4394
G1 X86.21 Y94.97 E15.46024
G1 X86.673 Y94.921 E15.48341
G1 X89.212 Y94.921 E15.60976
G1 X89.917 Y93.046 E15.70945
G1 X89.863 Y92.992 E15.71325
G1 X89.493 Y92.536 E15.74247
G1 X89.259 Y92.184 E15.76351
G1 X88.978 Y91.656 E15.79327
G1 X88.813 Y91.253 E15.81495
G1 X88.646 Y90.694 E15.84398
G1 X88.564 Y90.274 E15.86528
G1 X88.508 Y89.686 E15.89467
G1 X88.509 Y89.256 E15.91607
G1 X88.569 Y88.667 E15.94553
G1 X88.655 Y88.245 E15.96697
G1 X88.828 Y87.681 E15.99632
G1 X88.994 Y87.283 E16.01778
G1 X89.274 Y86.764 E16.04713
G1 X89.512 Y86.41 E16.06836
G1 X89.888 Y85.954 E16.09777
M204 S5000
G0 F2400 X90.196 Y86.207
M204 S200
G1 F1200 X90.449 Y85.957 E16.11547
G1 X90.904 Y85.587 E16.14466
G1 X91.193 Y85.395 E16.16193
G1 X91.721 Y85.114 E16.19169
G1 X92.051 Y84.978 E16.20945
G1 X92.61 Y84.811 E16.23849
G1 X92.954 Y84.744 E16.25593
G1 X93.544 Y84.688 E16.28542
G1 X93.896 Y84.689 E16.30294
G1 X94.484 Y84.749 E16.33235
G1 X94.827 Y84.819 E16.34978
G1 X95.386 Y84.99 E16.37887
G1 X95.712 Y85.125 E16.39643
G1 X96.24 Y85.409 E16.42626
G1 X96.531 Y85.605 E16.44372
G1 X96.984 Y85.978 E16.47292
G1 X97.237 Y86.233 E16.4908
G1 X97.61 Y86.693 E16.52027
G1 X97.799 Y86.977 E16.53725
G1 X98.076 Y87.495 E16.56648
G1 X98.213 Y87.829 E16.58445
G1 X98.381 Y88.393 E16.61374
G1 X98.448 Y88.736 E16.63113
G1 X98.504 Y89.326 E16.66062
G1 X98.503 Y89.678 E16.67814
G1 X98.443 Y90.267 E16.7076
G1 X98.374 Y90.609 E16.72497
G1 X98.202 Y91.173 E16.75431
G1 X98.064 Y91.503 E16.77211
G1 X97.783 Y92.023 E16.80152
G1 X97.589 Y92.311 E16.81881
G1 X97.214 Y92.766 E16.84815
G1 X96.96 Y93.019 E16.86599
G1 X96.653 Y93.268 E16.88566
G1 X96.653 Y95.32 E16.98778
G1 X98.327 Y95.32 E17.07109
G1 X98.703 Y95.36 E17.0899
G1 X99.063 Y95.478 E17.10876
G1 X99.39 Y95.668 E17.12758
G1 X99.597 Y95.846 E17.14116
G1 X99.714 Y95.963 E17.1494
G1 X99.952 Y96.257 E17.16822
G1 X100.123 Y96.595 E17.18707
G1 X100.219 Y96.961 E17.2059
G1 X100.24 Y97.233 E17.21948
G1 X100.24 Y98.408 E17.27796
G1 X100.2 Y98.784 E17.29677
G1 X100.082 Y99.144 E17.31563
G1 X99.892 Y99.471 E17.33445
G1 X99.714 Y99.678 E17.34803
G1 X99.597 Y99.795 E17.35627
G1 X99.303 Y100.033 E17.37509
G1 X98.965 Y100.204 E17.39394
G1 X98.599 Y100.3 E17.41277
G1 X98.327 Y100.321 E17.42635
G1 X86.673 Y100.321 E18.00632
G1 X86.297 Y100.281 E18.02513
G1 X85.937 Y100.163 E18.04399
G1 X85.61 Y99.973 E18.06281
G1 X85.403 Y99.795 E18.07639
G1 X85.286 Y99.678 E18.08463
G1 X85.048 Y99.384 E18.10345
G1 X84.877 Y99.046 E18.1223
G1 X84.781 Y98.68 E18.14113
