;FLAVOR:Marlin
;TIME:382
;Filament used: 0.150048m
;Layer height: 0.2
;Generated with Cura_SteamEngine 2.7.0
M190 S60
M104 S220
M109 S220
G21 ;metric values
G90 ;absolute positioning
M82 ;set extruder to absolute mode
M107 ;start with the fan off
G92 E0 ;zero the extruded length
G1 F200 E3 ;extrude 3mm of feed stock
G92 E0 ;zero the extruded length again
G1 F9000
M117 Printing...
;LAYER_COUNT:83
;LAYER:0
M107
M204 S5000
G0 F2400 X82.955 Y89.28 Z0.3
G0 X83.444 Y88.943
M204 S200
;TYPE:SKIRT
G1 F1200 X84.108 Y88.559 E0.03817
G1 X84.603 Y88.319 E0.06555
G1 X85.053 Y88.172 E0.08911
G1 X85.95 Y87.939 E0.13523
G1 X86.333 Y87.86 E0.15469
G1 X88.679 Y87.503 E0.27278
G1 X88.929 Y87.474 E0.28531
G1 X99.385 Y86.588 E0.80752
G1 X99.935 Y86.581 E0.83489
G1 X100.481 Y86.654 E0.86231
G1 X101.01 Y86.806 E0.8897
G1 X101.511 Y87.032 E0.91705
G1 X101.975 Y87.329 E0.94447
G1 X102.265 Y87.569 E0.9632
G1 X102.395 Y87.688 E0.97197
G1 X102.773 Y88.088 E0.99936
G1 X103.089 Y88.538 E1.02672
G1 X103.336 Y89.03 E1.05412
G1 X103.51 Y89.552 E1.0815
G1 X103.606 Y90.094 E1.1089
G1 X103.626 Y90.484 E1.12833
G1 X103.626 Y94.502 E1.32829
G1 X103.586 Y95.051 E1.35568
G1 X103.467 Y95.588 E1.38306
G1 X103.272 Y96.103 E1.41046
G1 X103.004 Y96.583 E1.43782
G1 X102.669 Y97.02 E1.46522
G1 X102.394 Y97.299 E1.48472
G1 X102.265 Y97.417 E1.49342
G1 X101.833 Y97.758 E1.52081
G1 X101.356 Y98.033 E1.54821
G1 X100.844 Y98.236 E1.57562
G1 X100.309 Y98.363 E1.60298
G1 X99.761 Y98.411 E1.63036
G1 X99.378 Y98.397 E1.64943
G1 X88.365 Y97.442 E2.19955
G1 X88.124 Y97.413 E2.21163
G1 X87.084 Y97.255 E2.26398
G1 X87.085 Y97.252 E2.26414
G1 X86.884 Y97.228 E2.27421
G1 X85.538 Y96.949 E2.34262
G1 X84.779 Y96.707 E2.38227
G1 X83.925 Y96.331 E2.4287
G1 X83.439 Y96.073 E2.45609
G1 X82.995 Y95.747 E2.4835
G1 X82.603 Y95.361 E2.51088
G1 X82.309 Y94.98 E2.53483
G1 X82.096 Y94.664 E2.55379
G1 X81.823 Y94.186 E2.58119
G1 X81.621 Y93.674 E2.60858
G1 X81.496 Y93.138 E2.63597
G1 X81.449 Y92.59 E2.66334
G1 X81.483 Y92.041 E2.69071
G1 X81.628 Y91.394 E2.72371
G1 X81.73 Y91.074 E2.74042
G1 X81.935 Y90.563 E2.76782
G1 X82.211 Y90.087 E2.79521
G1 X82.554 Y89.656 E2.82262
G1 X82.955 Y89.28 E2.84998
G1 X83.444 Y88.943 E2.87953
M204 S5000
G0 F2400 X83.644 Y89.289
M204 S200
G1 F1200 X84.308 Y88.905 E2.9177
G1 X84.777 Y88.679 E2.94361
G1 X85.153 Y88.558 E2.96327
G1 X86.05 Y88.325 E3.00939
G1 X86.393 Y88.255 E3.02681
G1 X88.739 Y87.898 E3.1449
G1 X88.963 Y87.871 E3.15613
G1 X99.419 Y86.985 E3.67834
G1 X99.939 Y86.981 E3.70422
G1 X100.454 Y87.057 E3.73013
G1 X100.952 Y87.21 E3.75606
G1 X101.42 Y87.438 E3.78196
G1 X101.995 Y87.863 E3.81755
G1 X102.125 Y87.982 E3.82632
G1 X102.481 Y88.362 E3.85223
G1 X102.775 Y88.792 E3.87815
G1 X102.999 Y89.261 E3.90402
G1 X103.149 Y89.76 E3.92995
G1 X103.227 Y90.484 E3.96619
G1 X103.227 Y94.502 E4.16615
G1 X103.187 Y95.021 E4.19205
G1 X103.068 Y95.528 E4.21797
G1 X102.873 Y96.01 E4.24384
G1 X102.607 Y96.458 E4.26977
G1 X102.124 Y97.005 E4.30609
G1 X101.995 Y97.123 E4.31479
G1 X101.586 Y97.444 E4.34066
G1 X101.131 Y97.698 E4.36659
G1 X100.644 Y97.88 E4.39247
G1 X100.134 Y97.985 E4.41838
G1 X99.413 Y97.999 E4.45427
G1 X88.4 Y97.044 E5.00439
G1 X88.184 Y97.019 E5.01521
G1 X87.313 Y96.887 E5.05905
G1 X87.251 Y96.884 E5.06214
G1 X86.965 Y96.837 E5.07657
G1 X85.619 Y96.558 E5.14498
G1 X84.94 Y96.341 E5.18045
G1 X84.086 Y95.965 E5.22689
G1 X83.627 Y95.72 E5.25278
G1 X83.211 Y95.407 E5.27869
G1 X82.848 Y95.034 E5.30459
G1 X82.64 Y94.757 E5.32183
G1 X82.427 Y94.441 E5.34079
G1 X82.17 Y93.988 E5.36671
G1 X81.986 Y93.502 E5.39257
G1 X81.878 Y92.992 E5.41852
G1 X81.849 Y92.473 E5.44438
G1 X81.9 Y91.955 E5.47029
G1 X82.008 Y91.515 E5.49283
G1 X82.11 Y91.195 E5.50955
G1 X82.306 Y90.713 E5.53544
G1 X82.573 Y90.266 E5.56135
G1 X82.905 Y89.865 E5.58726
G1 X83.295 Y89.52 E5.61318
G1 X83.644 Y89.289 E5.634
M204 S5000
G0 F2400 X83.844 Y89.634
M204 S200
G1 F1200 X84.508 Y89.25 E5.67218
G1 X84.949 Y89.041 E5.69646
G1 X85.254 Y88.944 E5.71239
G1 X86.151 Y88.711 E5.75851
G1 X86.453 Y88.649 E5.77385
G1 X88.799 Y88.292 E5.89195
G1 X88.996 Y88.269 E5.90182
G1 X99.452 Y87.383 E6.42403
G1 X99.941 Y87.381 E6.44837
G1 X100.424 Y87.46 E6.47272
G1 X100.887 Y87.615 E6.49702
G1 X101.319 Y87.845 E6.52138
G1 X101.726 Y88.157 E6.5469
G1 X101.856 Y88.276 E6.55567
G1 X102.188 Y88.635 E6.58
G1 X102.458 Y89.043 E6.60435
G1 X102.658 Y89.489 E6.62867
G1 X102.782 Y89.962 E6.65301
G1 X102.828 Y90.484 E6.67909
G1 X102.828 Y94.502 E6.87905
G1 X102.788 Y94.989 E6.90336
G1 X102.669 Y95.464 E6.92773
G1 X102.475 Y95.912 E6.95203
G1 X102.21 Y96.323 E6.97636
G1 X101.855 Y96.71 E7.0025
G1 X101.726 Y96.828 E7.0112
G1 X101.34 Y97.128 E7.03553
G1 X100.91 Y97.36 E7.05984
G1 X100.447 Y97.52 E7.08422
G1 X99.965 Y97.602 E7.10855
G1 X99.447 Y97.602 E7.13433
G1 X88.434 Y96.647 E7.68446
G1 X88.243 Y96.624 E7.69403
G1 X87.337 Y96.486 E7.73964
G1 X87.046 Y96.447 E7.75425
G1 X85.7 Y96.168 E7.82266
G1 X85.101 Y95.976 E7.85396
G1 X84.247 Y95.6 E7.9004
G1 X83.817 Y95.367 E7.92474
G1 X83.431 Y95.068 E7.94903
G1 X82.971 Y94.534 E7.98411
G1 X82.758 Y94.218 E8.00307
G1 X82.519 Y93.792 E8.02738
G1 X82.352 Y93.332 E8.05174
G1 X82.263 Y92.851 E8.07608
G1 X82.253 Y92.362 E8.10042
G1 X82.322 Y91.878 E8.12475
G1 X82.388 Y91.636 E8.13723
G1 X82.49 Y91.316 E8.15395
G1 X82.676 Y90.864 E8.17827
G1 X82.934 Y90.448 E8.20263
G1 X83.255 Y90.08 E8.22693
G1 X83.632 Y89.769 E8.25126
G1 X83.844 Y89.634 E8.26376
M204 S5000
G0 F2400 X84.043 Y89.979
M204 S200
G1 F1200 X84.707 Y89.595 E8.30194
G1 X85.12 Y89.403 E8.3246
G1 X85.354 Y89.33 E8.3368
G1 X86.251 Y89.097 E8.38292
G1 X86.513 Y89.044 E8.39622
G1 X88.859 Y88.687 E8.51432
G1 X89.03 Y88.666 E8.52289
G1 X99.486 Y87.78 E9.0451
G1 X99.941 Y87.782 E9.06775
G1 X100.389 Y87.863 E9.0904
G1 X100.816 Y88.021 E9.11306
G1 X101.208 Y88.251 E9.13568
G1 X101.456 Y88.452 E9.15157
G1 X101.586 Y88.571 E9.16034
G1 X101.894 Y88.906 E9.18298
G1 X102.138 Y89.29 E9.20563
G1 X102.311 Y89.711 E9.22828
G1 X102.408 Y90.156 E9.25094
G1 X102.429 Y90.484 E9.2673
G1 X102.429 Y94.502 E9.46726
G1 X102.389 Y94.955 E9.48989
G1 X102.271 Y95.395 E9.51256
G1 X102.077 Y95.807 E9.53522
G1 X101.815 Y96.178 E9.55782
G1 X101.586 Y96.416 E9.57426
G1 X101.457 Y96.534 E9.58296
G1 X101.095 Y96.811 E9.60565
G1 X100.691 Y97.02 E9.62828
G1 X100.257 Y97.155 E9.6509
G1 X99.805 Y97.212 E9.67357
G1 X99.482 Y97.204 E9.68965
G1 X88.469 Y96.249 E10.23978
G1 X88.303 Y96.23 E10.24809
G1 X87.263 Y96.072 E10.30044
G1 X87.263 Y96.071 E10.30049
G1 X87.127 Y96.056 E10.3073
G1 X85.781 Y95.777 E10.37571
G1 X85.262 Y95.611 E10.40283
G1 X84.408 Y95.235 E10.44926
G1 X84.009 Y95.016 E10.47191
G1 X83.655 Y94.73 E10.49456
G1 X83.302 Y94.311 E10.52183
G1 X83.089 Y93.995 E10.54079
G1 X82.869 Y93.597 E10.56342
G1 X82.721 Y93.166 E10.5861
G1 X82.652 Y92.716 E10.60876
G1 X82.662 Y92.261 E10.63141
G1 X82.769 Y91.757 E10.65705
G1 X82.871 Y91.437 E10.67376
G1 X83.046 Y91.017 E10.6964
G1 X83.293 Y90.635 E10.71904
G1 X83.602 Y90.301 E10.74169
G1 X84.043 Y89.979 E10.76886
M204 S5000
G0 F2400 X84.243 Y90.325
M204 S200
G1 F1200 X84.907 Y89.941 E10.80703
G1 X85.454 Y89.717 E10.83645
G1 X86.351 Y89.484 E10.88257
G1 X86.573 Y89.438 E10.89385
G1 X88.919 Y89.081 E11.01195
G1 X89.064 Y89.064 E11.01921
G1 X99.52 Y88.178 E11.54142
G1 X99.938 Y88.182 E11.56223
G1 X100.348 Y88.266 E11.58305
G1 X100.735 Y88.427 E11.60391
G1 X101.187 Y88.746 E11.63145
G1 X101.317 Y88.865 E11.64022
G1 X101.597 Y89.176 E11.66104
G1 X101.814 Y89.534 E11.68188
G1 X101.958 Y89.927 E11.7027
G1 X102.03 Y90.484 E11.73065
G1 X102.03 Y94.502 E11.93061
G1 X101.99 Y94.919 E11.95146
G1 X101.872 Y95.32 E11.97226
G1 X101.679 Y95.692 E11.99312
G1 X101.317 Y96.122 E12.02109
G1 X101.188 Y96.24 E12.02979
G1 X100.853 Y96.491 E12.05062
G1 X100.477 Y96.675 E12.07145
G1 X100.073 Y96.784 E12.09228
G1 X99.516 Y96.807 E12.12002
G1 X88.503 Y95.852 E12.67015
G1 X88.363 Y95.835 E12.67716
G1 X87.323 Y95.677 E12.72951
G1 X87.323 Y95.674 E12.72966
G1 X87.207 Y95.665 E12.73545
G1 X85.861 Y95.386 E12.80386
G1 X85.423 Y95.246 E12.82675
G1 X84.569 Y94.87 E12.87318
G1 X84.203 Y94.665 E12.89406
G1 X83.883 Y94.395 E12.9149
G1 X83.633 Y94.088 E12.9346
G1 X83.42 Y93.772 E12.95356
G1 X83.22 Y93.404 E12.97441
G1 X83.094 Y93.005 E12.99523
G1 X83.045 Y92.589 E13.01607
G1 X83.077 Y92.172 E13.03689
G1 X83.149 Y91.878 E13.05195
G1 X83.251 Y91.558 E13.06867
G1 X83.415 Y91.174 E13.08945
G1 X83.65 Y90.827 E13.1103
G1 X83.946 Y90.531 E13.13113
G1 X84.243 Y90.325 E13.14912
M204 S5000
G0 F2400 X84.443 Y90.67
M204 S200
G1 F1200 X85.107 Y90.286 E13.18729
G1 X85.554 Y90.103 E13.21133
G1 X86.451 Y89.87 E13.25745
G1 X86.633 Y89.832 E13.2667
G1 X88.979 Y89.475 E13.3848
G1 X89.097 Y89.461 E13.39071
G1 X99.553 Y88.575 E13.91292
G1 X99.932 Y88.583 E13.93179
G1 X100.3 Y88.67 E13.95061
G1 X100.642 Y88.833 E13.96946
G1 X100.918 Y89.04 E13.98663
G1 X101.048 Y89.159 E13.9954
G1 X101.298 Y89.443 E14.01423
G1 X101.484 Y89.773 E14.03308
G1 X101.597 Y90.134 E14.05191
G1 X101.631 Y90.484 E14.06941
G1 X101.631 Y94.502 E14.26937
G1 X101.591 Y94.878 E14.28818
G1 X101.473 Y95.238 E14.30704
G1 X101.283 Y95.565 E14.32586
G1 X101.047 Y95.827 E14.34341
G1 X100.918 Y95.945 E14.35211
G1 X100.614 Y96.17 E14.37093
G1 X100.269 Y96.326 E14.38977
G1 X99.899 Y96.406 E14.40861
G1 X99.551 Y96.409 E14.42593
G1 X88.538 Y95.454 E14.97605
G1 X88.423 Y95.441 E14.98181
G1 X87.383 Y95.283 E15.03416
G1 X87.383 Y95.28 E15.03431
G1 X87.288 Y95.275 E15.03905
G1 X85.942 Y94.996 E15.10745
G1 X85.583 Y94.881 E15.12621
G1 X84.729 Y94.505 E15.17265
G1 X84.401 Y94.317 E15.19146
G1 X84.119 Y94.064 E15.21032
G1 X83.964 Y93.865 E15.22287
G1 X83.751 Y93.549 E15.24184
G1 X83.573 Y93.214 E15.26071
G1 X83.47 Y92.85 E15.27954
G1 X83.445 Y92.473 E15.29834
G1 X83.529 Y92 E15.32225
G1 X83.631 Y91.68 E15.33897
G1 X83.783 Y91.333 E15.35782
G1 X84.005 Y91.026 E15.37667
G1 X84.443 Y90.67 E15.40476
M204 S5000
G0 F2400 X84.643 Y91.016
M204 S200
G1 F1200 X85.307 Y90.632 E15.44293
G1 X85.655 Y90.489 E15.46166
G1 X86.552 Y90.256 E15.50778
G1 X86.693 Y90.227 E15.51494
G1 X89.039 Y89.87 E15.63304
G1 X89.131 Y89.859 E15.63765
G1 X99.587 Y88.973 E16.15986
G1 X99.921 Y88.985 E16.17649
G1 X100.242 Y89.075 E16.19308
G1 X100.648 Y89.335 E16.21707
G1 X100.778 Y89.454 E16.22585
G1 X100.996 Y89.707 E16.24247
G1 X101.147 Y90.004 E16.25905
G1 X101.232 Y90.484 E16.28331
G1 X101.232 Y94.502 E16.48326
G1 X101.192 Y94.833 E16.49986
G1 X101.075 Y95.146 E16.51648
G1 X100.778 Y95.533 E16.54076
G1 X100.649 Y95.651 E16.54946
G1 X100.378 Y95.845 E16.56605
G1 X100.068 Y95.969 E16.58266
G1 X99.585 Y96.012 E16.6068
G1 X88.572 Y95.057 E17.15692
G1 X88.483 Y95.046 E17.16138
G1 X87.443 Y94.888 E17.21373
G1 X87.443 Y94.887 E17.21378
G1 X87.369 Y94.884 E17.21747
G1 X86.023 Y94.605 E17.28588
G1 X85.744 Y94.516 E17.30045
G1 X84.89 Y94.14 E17.34689
G1 X84.603 Y93.97 E17.36349
G1 X84.295 Y93.642 E17.38588
G1 X84.082 Y93.326 E17.40484
G1 X83.929 Y93.029 E17.42147
G1 X83.852 Y92.704 E17.43809
G1 X83.854 Y92.37 E17.45471
G1 X83.909 Y92.121 E17.4674
G1 X84.011 Y91.801 E17.48412
G1 X84.15 Y91.497 E17.50075
G1 X84.356 Y91.235 E17.51734
G1 X84.643 Y91.016 E17.53531
M204 S5000
G0 F2400 X84.842 Y91.361
M204 S200
G1 F1200 X85.506 Y90.977 E17.57348
G1 X85.755 Y90.875 E17.58687
G1 X86.652 Y90.642 E17.63299
G1 X86.753 Y90.621 E17.63812
G1 X89.099 Y90.264 E17.75622
G1 X89.165 Y90.257 E17.75952
G1 X99.621 Y89.371 E18.28173
G1 X99.902 Y89.387 E18.29574
G1 X100.168 Y89.481 E18.30978
G1 X100.379 Y89.629 E18.32261
G1 X100.509 Y89.748 E18.33138
G1 X100.688 Y89.966 E18.34541
G1 X100.799 Y90.225 E18.35944
G1 X100.833 Y90.484 E18.37244
G1 X100.833 Y94.502 E18.57239
G1 X100.793 Y94.781 E18.58642
G1 X100.677 Y95.038 E18.60045
G1 X100.509 Y95.238 E18.61345
G1 X100.38 Y95.356 E18.62215
G1 X100.147 Y95.515 E18.63619
G1 X99.879 Y95.603 E18.65023
G1 X99.62 Y95.614 E18.66313
G1 X88.607 Y94.659 E19.21325
G1 X88.543 Y94.652 E19.21646
G1 X87.506 Y94.494 E19.26866
G1 X87.45 Y94.493 E19.27145
G1 X86.104 Y94.214 E19.33985
G1 X85.905 Y94.15 E19.35026
G1 X85.051 Y93.774 E19.39669
G1 X84.812 Y93.626 E19.41068
G1 X84.625 Y93.419 E19.42457
G1 X84.412 Y93.103 E19.44353
G1 X84.289 Y92.849 E19.45758
G1 X84.242 Y92.571 E19.47161
G1 X84.289 Y92.242 E19.48815
G1 X84.391 Y91.922 E19.50486
G1 X84.514 Y91.668 E19.5189
G1 X84.703 Y91.459 E19.53293
G1 X84.842 Y91.361 E19.54139
M204 S5000
G0 F2400 X85.042 Y91.706
M204 S200
G1 F1200 X85.706 Y91.322 E19.57956
G1 X85.855 Y91.261 E19.58758
G1 X86.752 Y91.028 E19.6337
G1 X86.813 Y91.016 E19.63679
G1 X89.159 Y90.659 E19.75488
G1 X89.198 Y90.654 E19.75684
G1 X99.654 Y89.768 E20.27905
G1 X99.871 Y89.79 E20.28991
G1 X100.109 Y89.923 E20.30348
G1 X100.239 Y90.042 E20.31225
G1 X100.371 Y90.216 E20.32312
G1 X100.434 Y90.484 E20.33682
G1 X100.434 Y94.502 E20.53677
G1 X100.394 Y94.716 E20.54761
G1 X100.239 Y94.944 E20.56133
G1 X100.11 Y95.062 E20.57003
G1 X99.925 Y95.177 E20.58087
G1 X99.654 Y95.217 E20.5945
G1 X88.641 Y94.262 E21.14463
G1 X88.603 Y94.257 E21.14653
G1 X87.617 Y94.107 E21.19617
G1 X87.531 Y94.103 E21.20045
G1 X86.185 Y93.824 E21.26886
G1 X86.066 Y93.785 E21.27509
G1 X85.212 Y93.409 E21.32153
G1 X85.031 Y93.287 E21.33239
G1 X84.956 Y93.196 E21.33826
G1 X84.743 Y92.88 E21.35722
G1 X84.656 Y92.68 E21.36808
G1 X84.669 Y92.363 E21.38387
G1 X84.771 Y92.043 E21.40058
G1 X84.874 Y91.851 E21.41142
G1 X85.042 Y91.706 E21.42247
M204 S5000
G1 F1500 E19.42247
G0 F2400 X85.188 Y91.498
G0 X85.447 Y91.353
G0 X85.906 Y91.668
M204 S200
G1 F1500 E21.42247
G1 F1200 X85.956 Y91.647 E21.42517
G1 X86.853 Y91.414 E21.47129
G1 X86.873 Y91.41 E21.4723
G1 X89.219 Y91.053 E21.5904
G1 X89.232 Y91.052 E21.59105
G1 X99.688 Y90.166 E22.11326
G1 X99.84 Y90.217 E22.12124
G1 X99.97 Y90.336 E22.13001
G1 X100.035 Y90.484 E22.13805
G1 X100.035 Y94.502 E22.33801
G1 X99.97 Y94.65 E22.34605
G1 X99.841 Y94.768 E22.35476
G1 X99.689 Y94.819 E22.36273
G1 X88.676 Y93.864 E22.91286
G1 X88.663 Y93.863 E22.91351
G1 X87.655 Y93.71 E22.96425
G1 X87.612 Y93.712 E22.96639
G1 X86.266 Y93.433 E23.0348
G1 X86.226 Y93.42 E23.03689
G1 X85.372 Y93.044 E23.08333
G1 X85.287 Y92.973 E23.08884
G1 X85.074 Y92.657 E23.1078
G1 X85.049 Y92.484 E23.1165
G1 X85.151 Y92.164 E23.13321
G1 X85.242 Y92.052 E23.1404
G1 X85.906 Y91.668 E23.17857
M204 S5000
G0 F2400 X85.597 Y92.266
M204 S200
;TYPE:WALL-OUTER
G1 F1200 X85.639 Y92.235 E23.18117
G1 X85.795 Y92.143 E23.19018
G1 X86.067 Y92.031 E23.20482
G1 X86.431 Y91.925 E23.22369
G1 X86.942 Y91.803 E23.24983
G1 X87.712 Y91.66 E23.2888
G1 X88.229 Y91.585 E23.3148
G1 X89.271 Y91.449 E23.3671
G1 X91.42 Y91.234 E23.47458
G1 X94.278 Y90.995 E23.6173
G1 X99.422 Y90.587 E23.8741
G1 X99.636 Y90.571 E23.88478
G1 X99.636 Y90.785 E23.89152
G1 X99.636 Y90.786 E23.89157
G1 X99.636 Y94.2 E24.06147
G1 X99.636 Y94.201 E24.06152
G1 X99.636 Y94.415 E24.07217
G1 X99.422 Y94.398 E24.07894
G1 X95.184 Y94.061 E24.29051
G1 X91.418 Y93.75 E24.47856
G1 X89.346 Y93.546 E24.58218
G1 X88.718 Y93.468 E24.61367
G1 X87.711 Y93.324 E24.66429
G1 X87.047 Y93.203 E24.69788
G1 X86.364 Y93.047 E24.73275
G1 X86.06 Y92.951 E24.74861
G1 X85.798 Y92.844 E24.7627
G1 X85.676 Y92.777 E24.76962
G1 X85.6 Y92.723 E24.77426
G1 X85.585 Y92.712 E24.77519
G1 X85.507 Y92.636 E24.78061
G1 X85.477 Y92.607 E24.78268
G1 X85.439 Y92.52 E24.78741
G1 X85.438 Y92.46 E24.7904
G1 X85.491 Y92.357 E24.79616
G1 X85.504 Y92.345 E24.79704
G1 X85.563 Y92.29 E24.80105
G1 X85.597 Y92.266 E24.80313
M204 S5000
G0 F2400 X85.639 Y92.235
G0 X85.766 Y92.16
G0 X86.09 Y92.493
G0 X92.768 Y92.094
G0 X93.265 Y92.096
M204 S200
G1 F1200 X93.262 Y92.688 E24.83259
G1 X93.262 Y92.888 E24.84254
G1 X93.462 Y92.888 E24.84899
G1 X95.586 Y92.889 E24.95469
G1 X95.785 Y92.889 E24.96459
G1 X95.785 Y92.69 E24.971
G1 X95.785 Y92.096 E25.00056
G1 X93.265 Y92.096 E25.12597
M204 S5000
G0 F2400 X93.264 Y92.296
G0 X92.869 Y91.698
M204 S200
;TYPE:WALL-INNER
G1 F1200 X92.869 Y91.815 E25.13179
G1 X92.862 Y93.17 E25.19922
G1 X92.862 Y93.286 E25.205
G1 X95.217 Y93.286 E25.32219
G1 X95.485 Y93.286 E25.33553
G1 X95.984 Y93.287 E25.36036
G1 X96.183 Y93.287 E25.37027
G1 X96.183 Y93.088 E25.37667
G1 X96.183 Y91.698 E25.44585
G1 X95.487 Y91.698 E25.48049
G1 X94.311 Y91.698 E25.53901
