;Generated from tpge-xcar-cover1.stl 423b854fb90e7c62631da21fc9b76667279934b6
;Generated with Cura_SteamEngine 15.04
M140 S55.0
M109 T0 S210.0
T0
M190 S55.0

;Basic settings: Layer height: 0.15 Walls: 1.2 Fill: 50
;Print time: ?print_time?
;Filament used: ?filament_amount?m ?filament_weight?g
;Filament cost: ?filament_cost?
;M190 S55 ;Uncomment to add your own bed temperature line
;M109 S210 ;Uncomment to add your own temperature line
G21        ;metric values
G90        ;absolute positioning
M82        ;set extruder to absolute mode
M107       ;start with the fan off
G28 X0 Y0  ;move X/Y to min endstops
G28 Z0     ;move Z to min endstops
G1 Z5.0 F9000 ;move the platform down 15mm
G92 E0                  ;zero the extruded length
G1 F200 E3              ;extrude 3mm of feed stock
G92 E0                  ;zero the extruded length again
G1 F9000
;Put printing message on LCD screen
M117 Printing...

;Layer count: 49
;LAYER:0
M107
G0 F9000 X85.386 Y90.665 Z0.300
G0 X84.976 Y91.101
;TYPE:SKIRT
G1 F1200 X85.386 Y90.665 E0.02986
G1 X86.837 Y89.925 E0.11112
G1 X88.103 Y89.721 E0.17510
G1 X97.699 Y89.721 E0.65384
G1 X97.701 Y86.967 E0.79124
G1 X97.907 Y85.662 E0.85715
G1 X98.638 Y84.227 E0.93750
G1 X99.777 Y83.088 E1.01786
G1 X101.209 Y82.358 E1.09805
G1 X102.516 Y82.150 E1.16408
G1 X111.281 Y82.150 E1.60137
G1 X112.214 Y82.297 E1.64849
G1 X112.796 Y82.407 E1.67804
G1 X113.812 Y82.925 E1.73494
G1 X114.336 Y83.200 E1.76446
G1 X115.568 Y84.433 E1.85142
G1 X116.079 Y85.436 E1.90758
G1 X116.368 Y85.986 E1.93858
G1 X116.594 Y87.439 E2.01194
G1 X116.600 Y88.339 E2.05684
G1 X116.600 Y111.532 E3.21394
G1 X116.414 Y112.712 E3.27354
G1 X116.318 Y113.309 E3.30371
G1 X115.662 Y114.595 E3.37573
G1 X115.387 Y115.145 E3.40641
G1 X113.907 Y116.625 E3.51083
G1 X112.579 Y117.303 E3.58522
G1 X112.040 Y117.572 E3.61528
G1 X110.327 Y117.843 E3.70180
G1 X109.323 Y117.850 E3.75189
G1 X88.719 Y117.850 E4.77983
G1 X87.787 Y117.703 E4.82690
G1 X87.206 Y117.593 E4.85640
G1 X86.190 Y117.075 E4.91330
G1 X85.666 Y116.800 E4.94282
G1 X84.434 Y115.567 E5.02978
G1 X83.923 Y114.564 E5.08594
G1 X83.636 Y114.017 E5.11676
G1 X83.407 Y112.564 E5.19015
G1 X83.401 Y111.663 E5.23510
G1 X83.401 Y94.434 E6.09466
G1 X83.605 Y93.158 E6.15912
G1 X84.322 Y91.752 E6.23786
G1 X84.976 Y91.101 E6.28390
G0 F9000 X85.282 Y91.360
G1 F1200 X85.630 Y90.990 E6.30924
G1 X86.963 Y90.310 E6.38390
G1 X88.135 Y90.121 E6.44313
G1 X98.099 Y90.121 E6.94023
G1 X98.101 Y86.998 E7.09604
G1 X98.292 Y85.787 E7.15720
G1 X98.966 Y84.465 E7.23124
G1 X100.015 Y83.416 E7.30525
G1 X101.334 Y82.743 E7.37912
G1 X102.547 Y82.550 E7.44040
G1 X111.250 Y82.550 E7.87460
G1 X112.146 Y82.691 E7.91985
G1 X112.665 Y82.790 E7.94621
G1 X113.628 Y83.280 E8.00011
G1 X114.096 Y83.526 E8.02649
G1 X115.240 Y84.671 E8.10724
G1 X115.725 Y85.623 E8.16055
G1 X115.983 Y86.113 E8.18817
G1 X116.194 Y87.471 E8.25674
G1 X116.200 Y88.341 E8.30014
G1 X116.200 Y111.500 E9.45555
G1 X116.019 Y112.649 E9.51358
G1 X115.933 Y113.183 E9.54057
G1 X115.293 Y114.439 E9.61089
G1 X115.058 Y114.909 E9.63711
G1 X113.669 Y116.298 E9.73511
G1 X112.398 Y116.946 E9.80629
G1 X111.917 Y117.186 E9.83311
G1 X110.294 Y117.443 E9.91509
G1 X109.322 Y117.450 E9.96358
G1 X88.751 Y117.450 E10.98987
G1 X87.856 Y117.309 E11.03508
G1 X87.337 Y117.210 E11.06144
G1 X86.374 Y116.720 E11.11534
G1 X85.906 Y116.474 E11.14172
G1 X84.762 Y115.329 E11.22247
G1 X84.277 Y114.377 E11.27577
G1 X84.020 Y113.889 E11.30329
G1 X83.807 Y112.532 E11.37182
G1 X83.801 Y111.661 E11.41528
G1 X83.801 Y94.466 E12.27314
G1 X83.990 Y93.284 E12.33286
G1 X84.650 Y91.990 E12.40533
G1 X85.282 Y91.360 E12.44985
G1 F2400 E7.94985
G0 F9000 X88.089 Y94.493
;TYPE:WALL-INNER
G1 F2400 E12.44985
G1 F1200 X88.174 Y94.407 E12.45588
G1 X88.286 Y94.351 E12.46213
G1 X88.469 Y94.321 E12.47138
G1 X98.680 Y94.321 E12.98081
G1 X99.748 Y94.152 E13.03475
G1 X100.606 Y93.714 E13.08281
G1 X100.784 Y93.623 E13.09279
G1 X101.604 Y92.803 E13.15064
G1 X102.029 Y91.967 E13.19743
G1 X102.058 Y91.919 E13.20023
G1 X102.137 Y91.730 E13.21045
G1 X102.299 Y90.717 E13.26163
G1 X102.301 Y87.330 E13.43061
G1 X102.337 Y87.099 E13.44227
G1 X102.406 Y86.964 E13.44984
G1 X102.514 Y86.856 E13.45746
G1 X102.649 Y86.787 E13.46502
G1 X102.883 Y86.750 E13.47684
G1 X105.102 Y86.750 E13.58755
G1 X105.016 Y86.794 E13.59237
G1 X104.344 Y87.466 E13.63978
G1 X103.913 Y88.312 E13.68715
G1 X103.763 Y89.250 E13.73454
G1 X103.913 Y90.189 E13.78198
G1 X104.344 Y91.035 E13.82935
G1 X105.016 Y91.707 E13.87676
G1 X105.862 Y92.138 E13.92413
G1 X106.801 Y92.288 E13.97157
G1 X107.739 Y92.138 E14.01896
G1 X108.585 Y91.707 E14.06633
G1 X109.257 Y91.035 E14.11375
G1 X109.688 Y90.189 E14.16111
G1 X109.838 Y89.250 E14.20856
G1 X109.688 Y88.312 E14.25595
G1 X109.257 Y87.466 E14.30332
G1 X108.585 Y86.794 E14.35073
G1 X108.499 Y86.750 E14.35555
G1 X110.921 Y86.750 E14.47638
G1 X111.305 Y86.810 E14.49577
G1 X111.581 Y86.951 E14.51124
G1 X111.800 Y87.170 E14.52669
G1 X111.940 Y87.445 E14.54208
G1 X111.996 Y87.809 E14.56046
G1 X112.000 Y88.351 E14.58750
G1 X112.000 Y111.171 E15.72599
G1 X111.891 Y111.864 E15.76099
G1 X111.607 Y112.420 E15.79214
G1 X111.169 Y112.858 E15.82304
G1 X110.616 Y113.140 E15.85401
G1 X109.947 Y113.246 E15.88780
G1 X109.304 Y113.250 E15.91988
G1 X94.900 Y113.250 E16.63850
G1 X94.986 Y113.206 E16.64332
G1 X95.658 Y112.534 E16.69074
G1 X96.089 Y111.688 E16.73810
G1 X96.239 Y110.750 E16.78550
G1 X96.089 Y109.811 E16.83294
G1 X95.658 Y108.965 E16.88031
G1 X94.986 Y108.293 E16.92772
G1 X94.140 Y107.862 E16.97509
G1 X93.202 Y107.712 E17.02248
G1 X92.263 Y107.862 E17.06992
G1 X91.417 Y108.293 E17.11729
G1 X90.745 Y108.965 E17.16470
G1 X90.314 Y109.811 E17.21207
G1 X90.164 Y110.750 E17.25951
G1 X90.314 Y111.688 E17.30690
G1 X90.745 Y112.534 E17.35427
G1 X91.417 Y113.206 E17.40169
G1 X91.503 Y113.250 E17.40651
G1 X89.081 Y113.250 E17.52734
G1 X88.697 Y113.190 E17.54673
G1 X88.421 Y113.049 E17.56219
G1 X88.202 Y112.830 E17.57764
G1 X88.062 Y112.555 E17.59304
G1 X88.005 Y112.188 E17.61157
G1 X88.001 Y111.651 E17.63836
G1 X88.001 Y94.797 E18.47921
G1 X88.032 Y94.604 E18.48896
G1 X88.089 Y94.493 E18.49519
G0 F9000 X87.601 Y94.765
G1 F1200 X87.647 Y94.477 E18.50974
G1 X87.759 Y94.257 E18.52205
G1 X87.938 Y94.078 E18.53468
G1 X88.158 Y93.966 E18.54700
G1 X88.436 Y93.921 E18.56105
G1 X98.648 Y93.921 E19.07053
G1 X99.623 Y93.767 E19.11977
G1 X100.424 Y93.358 E19.16464
G1 X100.546 Y93.296 E19.17147
G1 X101.277 Y92.565 E19.22305
G1 X101.682 Y91.768 E19.26765
G1 X101.749 Y91.620 E19.27576
G1 X101.899 Y90.685 E19.32300
G1 X101.901 Y87.299 E19.49193
G1 X101.952 Y86.974 E19.50834
G1 X102.079 Y86.725 E19.52229
G1 X102.275 Y86.529 E19.53611
G1 X102.524 Y86.402 E19.55006
G1 X102.851 Y86.350 E19.56658
G1 X110.952 Y86.350 E19.97074
G1 X111.430 Y86.425 E19.99488
G1 X111.820 Y86.624 E20.01672
G1 X112.127 Y86.931 E20.03838
G1 X112.325 Y87.320 E20.06016
G1 X112.396 Y87.778 E20.08328
G1 X112.400 Y88.351 E20.11187
G1 X112.400 Y111.201 E21.25186
G1 X112.276 Y111.988 E21.29161
G1 X111.935 Y112.658 E21.32912
G1 X111.409 Y113.184 E21.36623
G1 X110.740 Y113.525 E21.40369
G1 X109.979 Y113.645 E21.44213
G1 X109.307 Y113.650 E21.47565
G1 X89.050 Y113.650 E22.48628
G1 X88.572 Y113.575 E22.51042
G1 X88.182 Y113.376 E22.53226
G1 X87.875 Y113.069 E22.55392
G1 X87.677 Y112.680 E22.57570
G1 X87.605 Y112.221 E22.59888
G1 X87.601 Y111.651 E22.62732
G1 X87.601 Y94.765 E23.46976
G0 F9000 X92.388 Y108.247
G1 F1200 X91.655 Y108.620 E23.51079
G1 X91.072 Y109.203 E23.55193
G1 X90.699 Y109.936 E23.59296
G1 X90.569 Y110.750 E23.63409
G1 X90.699 Y111.563 E23.67516
G1 X91.072 Y112.296 E23.71619
G1 X91.655 Y112.879 E23.75733
G1 X92.388 Y113.252 E23.79836
G1 X93.202 Y113.382 E23.83948
G1 X94.015 Y113.252 E23.88056
G1 X94.748 Y112.879 E23.92159
G1 X95.331 Y112.296 E23.96273
G1 X95.704 Y111.563 E24.00376
G1 X95.834 Y110.750 E24.04483
G1 X95.704 Y109.936 E24.08596
G1 X95.331 Y109.203 E24.12699
G1 X94.748 Y108.620 E24.16813
G1 X94.015 Y108.247 E24.20916
G1 X93.202 Y108.117 E24.25023
G1 X92.388 Y108.247 E24.29136
G0 F9000 X105.254 Y91.380
G1 F1200 X105.987 Y91.753 E24.33239
G1 X106.801 Y91.883 E24.37352
G1 X107.614 Y91.753 E24.41459
G1 X108.347 Y91.380 E24.45562
G1 X108.930 Y90.797 E24.49676
G1 X109.303 Y90.064 E24.53779
G1 X109.433 Y89.250 E24.57891
G1 X109.303 Y88.437 E24.61999
G1 X108.930 Y87.704 E24.66102
G1 X108.347 Y87.121 E24.70216
G1 X107.614 Y86.748 E24.74319
G1 X106.801 Y86.618 E24.78426
G1 X105.987 Y86.748 E24.82539
G1 X105.254 Y87.121 E24.86642
G1 X104.671 Y87.704 E24.90756
G1 X104.298 Y88.437 E24.94859
G1 X104.168 Y89.250 E24.98966
G1 X104.298 Y90.064 E25.03079
G1 X104.671 Y90.797 E25.07182
G1 X105.254 Y91.380 E25.11295
G0 F9000 X105.492 Y91.052
;TYPE:WALL-OUTER
G1 F1200 X106.112 Y91.368 E25.14767
G1 X106.801 Y91.478 E25.18248
G1 X107.489 Y91.368 E25.21724
G1 X108.109 Y91.052 E25.25196
G1 X108.602 Y90.559 E25.28674
G1 X108.918 Y89.939 E25.32146
G1 X109.028 Y89.250 E25.35627
G1 X108.918 Y88.562 E25.39103
G1 X108.602 Y87.942 E25.42575
G1 X108.109 Y87.449 E25.46053
G1 X107.489 Y87.133 E25.49525
G1 X106.801 Y87.023 E25.53001
G1 X106.112 Y87.133 E25.56482
G1 X105.492 Y87.449 E25.59954
G1 X104.999 Y87.942 E25.63432
G1 X104.683 Y88.562 E25.66904
G1 X104.573 Y89.250 E25.70380
G1 X104.683 Y89.939 E25.73861
G1 X104.999 Y90.559 E25.77333
G1 X105.492 Y91.052 E25.80811
G0 F9000 X105.281 Y91.264
G0 X101.794 Y90.699
G0 X101.499 Y90.653
G1 F1200 X101.501 Y87.268 E25.97699
G1 X101.567 Y86.848 E25.99820
G1 X101.751 Y86.487 E26.01842
G1 X102.037 Y86.201 E26.03860
G1 X102.398 Y86.017 E26.05881
G1 X102.819 Y85.950 E26.08008
G1 X110.982 Y85.950 E26.48733
G1 X111.556 Y86.040 E26.51632
G1 X112.058 Y86.296 E26.54443
G1 X112.454 Y86.692 E26.57237
G1 X112.710 Y87.195 E26.60053
G1 X112.796 Y87.748 E26.62845
G1 X112.800 Y88.351 E26.65854
G1 X112.800 Y111.232 E27.80007
G1 X112.661 Y112.116 E27.84472
G1 X112.263 Y112.895 E27.88836
G1 X111.646 Y113.513 E27.93193
G1 X110.868 Y113.910 E27.97551
G1 X110.012 Y114.045 E28.01874
G1 X109.310 Y114.050 E28.05376
G1 X89.019 Y114.050 E29.06609
G1 X88.446 Y113.960 E29.09502
G1 X87.944 Y113.704 E29.12314
G1 X87.548 Y113.308 E29.15108
G1 X87.292 Y112.805 E29.17923
G1 X87.205 Y112.252 E29.20716
G1 X87.201 Y111.651 E29.23715
G1 X87.201 Y94.733 E30.08119
G1 X87.262 Y94.352 E30.10044
G1 X87.432 Y94.018 E30.11914
G1 X87.699 Y93.751 E30.13798
G1 X88.033 Y93.581 E30.15667
G1 X88.404 Y93.521 E30.17542
G1 X98.617 Y93.521 E30.68495
G1 X99.498 Y93.382 E30.72945
G1 X100.307 Y92.969 E30.77477
G1 X100.949 Y92.327 E30.82006
G1 X101.332 Y91.573 E30.86225
G1 X101.362 Y91.510 E30.86574
G1 X101.499 Y90.653 E30.90903
G0 F9000 X101.794 Y90.699
G0 X101.679 Y91.771
G0 X94.025 Y108.366
G0 X93.890 Y108.632
G1 F1200 X93.202 Y108.522 E30.94379
G1 X92.513 Y108.632 E30.97860
G1 X91.893 Y108.948 E31.01332
G1 X91.400 Y109.441 E31.04811
G1 X91.084 Y110.061 E31.08282
G1 X90.974 Y110.750 E31.11763
G1 X91.084 Y111.438 E31.15239
G1 X91.400 Y112.058 E31.18711
G1 X91.893 Y112.551 E31.22190
G1 X92.513 Y112.867 E31.25661
G1 X93.202 Y112.977 E31.29142
G1 X93.890 Y112.867 E31.32618
G1 X94.510 Y112.551 E31.36090
G1 X95.003 Y112.058 E31.39569
G1 X95.319 Y111.438 E31.43040
G1 X95.429 Y110.750 E31.46516
G1 X95.319 Y110.061 E31.49997
G1 X95.003 Y109.441 E31.53469
G1 X94.510 Y108.948 E31.56948
G1 X93.890 Y108.632 E31.60419
G0 F9000 X93.806 Y107.665
;TYPE:SKIN
G1 F1200 X88.142 Y102.001 E32.00382
G0 F9000 X88.142 Y102.567
G1 F1200 X93.151 Y107.576 E32.35723
G0 F9000 X92.663 Y107.654
G1 F1200 X88.142 Y103.132 E32.67625
G0 F9000 X88.142 Y103.698
G1 F1200 X92.185 Y107.741 E32.96150
G0 F9000 X91.811 Y107.933
G1 F1200 X88.142 Y104.264 E33.22037
G0 F9000 X88.142 Y104.829
G1 F1200 X91.436 Y108.124 E33.45281
G0 F9000 X91.128 Y108.381
G1 F1200 X88.142 Y105.396 E33.66346
G0 F9000 X88.142 Y105.962
G1 F1200 X90.845 Y108.664 E33.85413
G0 F9000 X90.584 Y108.969
G1 F1200 X88.142 Y106.527 E34.02643
G0 F9000 X88.142 Y107.093
G1 F1200 X90.393 Y109.344 E34.18525
G0 F9000 X90.202 Y109.718
G1 F1200 X88.142 Y107.659 E34.33056
G0 F9000 X88.142 Y108.224
G1 F1200 X90.110 Y110.192 E34.46941
G0 F9000 X90.032 Y110.679
G1 F1200 X88.143 Y108.791 E34.60266
G0 F9000 X88.143 Y109.356
G1 F1200 X90.114 Y111.327 E34.74172
G0 F9000 X90.414 Y112.193
G1 F1200 X88.143 Y109.922 E34.90195
G0 F9000 X88.143 Y110.488
G1 F1200 X90.764 Y113.108 E35.08684
G0 F9000 X90.198 Y113.108
G1 F1200 X88.143 Y111.053 E35.23183
G0 F9000 X88.143 Y111.619
G1 F1200 X89.632 Y113.108 E35.33689
G0 F9000 X89.062 Y113.103
G1 F1200 X88.146 Y112.188 E35.40148
G0 F9000 X93.202 Y113.379
G0 X95.568 Y112.821
G1 F1200 X95.855 Y113.108 E35.42173
G0 F9000 X96.421 Y113.108
G1 F1200 X95.824 Y112.512 E35.46382
G0 F9000 X96.015 Y112.137
G1 F1200 X96.986 Y113.108 E35.53233
G0 F9000 X97.552 Y113.108
G1 F1200 X96.207 Y111.763 E35.62723
G0 F9000 X96.295 Y111.285
G1 F1200 X98.117 Y113.108 E35.75581
G0 F9000 X98.683 Y113.108
G1 F1200 X96.373 Y110.798 E35.91880
G0 F9000 X96.284 Y110.143
G1 F1200 X99.248 Y113.108 E36.12796
G0 F9000 X99.814 Y113.108
G1 F1200 X95.966 Y109.260 E36.39946
G0 F9000 X94.689 Y107.982
G1 F1200 X88.141 Y101.435 E36.86142
G0 F9000 X88.141 Y100.869
G1 F1200 X100.379 Y113.107 E37.72487
G0 F9000 X100.945 Y113.107
G1 F1200 X88.141 Y100.303 E38.62827
G0 F9000 X88.141 Y99.738
G1 F1200 X101.510 Y113.107 E39.57152
G0 F9000 X102.076 Y113.107
G1 F1200 X88.141 Y99.172 E40.55471
G0 F9000 X88.141 Y98.606
G1 F1200 X102.642 Y113.107 E41.57783
G0 F9000 X103.207 Y113.106
G1 F1200 X88.140 Y98.040 E42.64086
G0 F9000 X88.140 Y97.474
G1 F1200 X103.772 Y113.106 E43.74378
G0 F9000 X104.338 Y113.106
G1 F1200 X88.140 Y96.908 E44.88664
G0 F9000 X88.140 Y96.343
G1 F1200 X104.904 Y113.106 E46.06939
G0 F9000 X105.469 Y113.105
G1 F1200 X88.140 Y95.777 E47.29201
G0 F9000 X88.140 Y95.211
G1 F1200 X106.034 Y113.105 E48.55453
G0 F9000 X106.600 Y113.105
G1 F1200 X88.162 Y94.667 E49.85543
G0 F9000 X88.521 Y94.460
G1 F1200 X107.166 Y113.105 E51.17093
G0 F9000 X107.731 Y113.105
G1 F1200 X89.086 Y94.460 E52.48644
G0 F9000 X89.652 Y94.460
G1 F1200 X108.296 Y113.105 E53.80191
G0 F9000 X108.862 Y113.105
G1 F1200 X90.218 Y94.460 E55.11738
G0 F9000 X90.784 Y94.460
G1 F1200 X109.428 Y113.105 E56.43285
G0 F9000 X109.985 Y113.096
G1 F1200 X91.349 Y94.460 E57.74772
G0 F9000 X91.915 Y94.460
G1 F1200 X110.474 Y113.019 E59.05716
G0 F9000 X110.871 Y112.851
G1 F1200 X92.481 Y94.460 E60.35471
G0 F9000 X93.046 Y94.460
G1 F1200 X111.207 Y112.621 E61.63606
G0 F9000 X111.490 Y112.338
G1 F1200 X93.612 Y94.460 E62.89745
G0 F9000 X94.178 Y94.460
G1 F1200 X111.682 Y111.965 E64.13249
G0 F9000 X111.803 Y111.520
G1 F1200 X94.743 Y94.460 E65.33617
G0 F9000 X95.309 Y94.460
G1 F1200 X111.859 Y111.010 E66.50386
G0 F9000 X111.859 Y110.445
G1 F1200 X95.875 Y94.460 E67.63165
G0 F9000 X96.440 Y94.460
G1 F1200 X111.859 Y109.879 E68.71954
G0 F9000 X111.859 Y109.313
G1 F1200 X97.006 Y94.460 E69.76750
G0 F9000 X97.572 Y94.460
G1 F1200 X111.859 Y108.748 E70.77556
G0 F9000 X111.859 Y108.182
G1 F1200 X98.137 Y94.460 E71.74373
G0 F9000 X98.702 Y94.459
G1 F1200 X111.859 Y107.616 E72.67202
G0 F9000 X111.858 Y107.050
G1 F1200 X99.190 Y94.382 E73.56582
G0 F9000 X99.679 Y94.305
G1 F1200 X111.858 Y106.484 E74.42511
G0 F9000 X111.858 Y105.918
G1 F1200 X100.080 Y94.140 E75.25611
G0 F9000 X100.455 Y93.949
G1 F1200 X111.858 Y105.353 E76.06069
G0 F9000 X111.858 Y104.787
G1 F1200 X100.829 Y93.758 E76.83885
G0 F9000 X101.121 Y93.484
G1 F1200 X111.858 Y104.221 E77.59640
G0 F9000 X111.858 Y103.656
G1 F1200 X101.404 Y93.201 E78.33402
G0 F9000 X101.686 Y92.918
G1 F1200 X111.857 Y103.089 E79.05164
G0 F9000 X111.857 Y102.524
G1 F1200 X101.887 Y92.553 E79.75511
G0 F9000 X102.077 Y92.178
G1 F1200 X111.857 Y101.958 E80.44515
G0 F9000 X111.857 Y101.392
G1 F1200 X102.261 Y91.795 E81.12223
G0 F9000 X102.345 Y91.314
G1 F1200 X111.857 Y100.827 E81.79339
G0 F9000 X111.857 Y100.261
G1 F1200 X102.423 Y90.826 E82.45904
G0 F9000 X102.438 Y90.276
G1 F1200 X111.857 Y99.695 E83.12361
G0 F9000 X111.857 Y99.129
G1 F1200 X102.438 Y89.710 E83.78817
G0 F9000 X102.438 Y89.144
G1 F1200 X104.038 Y90.744 E83.90106
G0 F9000 X103.717 Y89.858
G1 F1200 X102.439 Y88.579 E83.99126
