;Generated from tpge-xcar-cover2.stl 4ea63dfb7fa800d41d17dc2fae066754721d5537
;Generated with Cura_SteamEngine 15.04
M140 S55.0
M109 T0 S210.0
T0
M190 S55.0

;Basic settings: Layer height: 0.15 Walls: 1.2 Fill: 50
;Print time: ?print_time?
;Filament used: ?filament_amount?m ?filament_weight?g
;Filament cost: ?filament_cost?
;M190 S55 ;Uncomment to add your own bed temperature line
;M109 S210 ;Uncomment to add your own temperature line
G21        ;metric values
G90        ;absolute positioning
M82        ;set extruder to absolute mode
M107       ;start with the fan off
G28 X0 Y0  ;move X/Y to min endstops
G28 Z0     ;move Z to min endstops
G1 Z5.0 F9000 ;move the platform down 15mm
G92 E0                  ;zero the extruded length
G1 F200 E3              ;extrude 3mm of feed stock
G92 E0                  ;zero the extruded length again
G1 F9000
;Put printing message on LCD screen
M117 Printing...

;Layer count: 49
;LAYER:0
M107
G0 F9000 X70.832 Y81.328 Z0.300
;TYPE:SKIRT
G1 F1200 X72.103 Y80.680 E0.07118
G1 X72.584 Y80.440 E0.09799
G1 X74.212 Y80.182 E0.18023
G1 X76.170 Y80.176 E0.27791
G1 X125.752 Y80.176 E2.75157
G1 X126.901 Y80.358 E2.80961
G1 X127.433 Y80.444 E2.83650
G1 X128.689 Y81.084 E2.90682
G1 X129.159 Y81.319 E2.93304
G1 X130.548 Y82.708 E3.03104
G1 X131.196 Y83.979 E3.10222
G1 X131.436 Y84.460 E3.12904
G1 X131.693 Y86.079 E3.21082
G1 X131.700 Y86.884 E3.25098
G1 X131.700 Y112.126 E4.51031
G1 X131.559 Y113.021 E4.55551
G1 X131.460 Y113.540 E4.58187
G1 X130.970 Y114.503 E4.63578
G1 X130.724 Y114.971 E4.66216
G1 X129.579 Y116.115 E4.74291
G1 X128.627 Y116.600 E4.79621
G1 X128.139 Y116.857 E4.82373
G1 X126.779 Y117.071 E4.89241
G1 X125.655 Y117.076 E4.94849
G1 X101.079 Y117.076 E6.17459
G1 X96.934 Y118.484 E6.39299
G1 X92.099 Y119.448 E6.63896
G1 X91.784 Y119.508 E6.65496
G1 X86.800 Y119.822 E6.90410
G1 X86.483 Y119.825 E6.91992
G1 X81.559 Y119.482 E7.16617
G1 X76.428 Y118.449 E7.42730
G1 X71.737 Y116.827 E7.67493
G1 X71.316 Y116.670 E7.69734
G1 X70.575 Y116.219 E7.74062
G1 X70.175 Y115.984 E7.76377
G1 X69.158 Y114.854 E7.83961
G1 X68.719 Y113.934 E7.89047
G1 X68.496 Y113.489 E7.91530
G1 X68.304 Y112.200 E7.98032
G1 X68.300 Y111.352 E8.02263
G1 X68.300 Y86.124 E9.28126
G1 X68.482 Y84.975 E9.33930
G1 X68.568 Y84.443 E9.36618
G1 X69.208 Y83.187 E9.43651
G1 X69.443 Y82.717 E9.46273
G1 X70.832 Y81.328 E9.56073
G1 F2400 E5.06073
G0 F9000 X73.332 Y84.768
;TYPE:WALL-INNER
G1 F2400 E9.56073
G1 F1200 X73.884 Y84.487 E9.59163
G1 X74.552 Y84.381 E9.62537
G1 X76.178 Y84.376 E9.70650
G1 X125.419 Y84.376 E12.16314
G1 X126.115 Y84.486 E12.19829
G1 X126.670 Y84.770 E12.22940
G1 X127.108 Y85.208 E12.26030
G1 X127.389 Y85.760 E12.29120
G1 X127.496 Y86.431 E12.32510
G1 X127.500 Y111.796 E13.59057
G1 X127.440 Y112.180 E13.60996
G1 X127.299 Y112.456 E13.62542
G1 X127.080 Y112.675 E13.64087
G1 X126.805 Y112.815 E13.65627
G1 X126.439 Y112.872 E13.67475
G1 X125.643 Y112.876 E13.71446
G1 X100.384 Y112.876 E14.97464
G1 X95.843 Y114.419 E15.21391
G1 X91.292 Y115.326 E15.44542
G1 X86.649 Y115.623 E15.67754
G1 X86.614 Y115.624 E15.67929
G1 X82.116 Y115.310 E15.90424
G1 X77.536 Y114.388 E16.13732
G1 X73.168 Y112.878 E16.36789
G1 X72.867 Y112.697 E16.38542
G1 X72.685 Y112.495 E16.39898
G1 X72.553 Y112.218 E16.41429
G1 X72.503 Y111.881 E16.43129
G1 X72.500 Y111.344 E16.45808
G1 X72.500 Y86.457 E17.69970
G1 X72.610 Y85.761 E17.73485
G1 X72.894 Y85.206 E17.76595
G1 X73.332 Y84.768 E17.79686
G0 F9000 X81.613 Y86.738
G1 F1200 X81.463 Y87.677 E17.84430
G1 X81.613 Y88.615 E17.89169
G1 X82.044 Y89.461 E17.93906
G1 X82.716 Y90.133 E17.98647
G1 X83.562 Y90.564 E18.03384
G1 X84.500 Y90.714 E18.08123
G1 X85.439 Y90.564 E18.12867
G1 X86.285 Y90.133 E18.17604
G1 X86.957 Y89.461 E18.22346
G1 X87.388 Y88.615 E18.27082
G1 X87.538 Y87.677 E18.31822
G1 X87.388 Y86.738 E18.36566
G1 X86.957 Y85.892 E18.41303
G1 X86.285 Y85.220 E18.46044
G1 X85.439 Y84.789 E18.50781
G1 X84.500 Y84.639 E18.55525
G1 X83.562 Y84.789 E18.60264
G1 X82.716 Y85.220 E18.65001
G1 X82.044 Y85.892 E18.69742
G1 X81.613 Y86.738 E18.74479
G0 F9000 X84.500 Y106.538
G1 F1200 X83.562 Y106.688 E18.79218
G1 X82.716 Y107.119 E18.83955
G1 X82.044 Y107.791 E18.88696
G1 X81.613 Y108.637 E18.93433
G1 X81.463 Y109.575 E18.98172
G1 X81.613 Y110.514 E19.02917
G1 X82.044 Y111.360 E19.07653
G1 X82.716 Y112.032 E19.12395
G1 X83.562 Y112.463 E19.17132
G1 X84.500 Y112.613 E19.21871
G1 X85.439 Y112.463 E19.26615
G1 X86.285 Y112.032 E19.31352
G1 X86.957 Y111.360 E19.36093
G1 X87.388 Y110.514 E19.40830
G1 X87.538 Y109.575 E19.45574
G1 X87.388 Y108.637 E19.50313
G1 X86.957 Y107.791 E19.55050
G1 X86.285 Y107.119 E19.59791
G1 X85.439 Y106.688 E19.64528
G1 X84.500 Y106.538 E19.69272
G0 F9000 X112.462 Y109.575
G1 F1200 X112.612 Y110.514 E19.74016
G1 X113.043 Y111.360 E19.78753
G1 X113.715 Y112.032 E19.83495
G1 X114.561 Y112.463 E19.88232
G1 X115.500 Y112.613 E19.92976
G1 X116.438 Y112.463 E19.97715
G1 X117.284 Y112.032 E20.02452
G1 X117.956 Y111.360 E20.07193
G1 X118.387 Y110.514 E20.11930
G1 X118.537 Y109.575 E20.16674
G1 X118.387 Y108.637 E20.21413
G1 X117.956 Y107.791 E20.26150
G1 X117.284 Y107.119 E20.30891
G1 X116.438 Y106.688 E20.35628
G1 X115.500 Y106.538 E20.40367
G1 X114.561 Y106.688 E20.45111
G1 X113.715 Y107.119 E20.49848
G1 X113.043 Y107.791 E20.54590
G1 X112.612 Y108.637 E20.59327
G1 X112.462 Y109.575 E20.64066
G0 F9000 X115.500 Y90.714
G1 F1200 X116.438 Y90.564 E20.68805
G1 X117.284 Y90.133 E20.73542
G1 X117.956 Y89.461 E20.78283
G1 X118.387 Y88.615 E20.83020
G1 X118.537 Y87.677 E20.87759
G1 X118.387 Y86.738 E20.92503
G1 X117.956 Y85.892 E20.97240
G1 X117.284 Y85.220 E21.01981
G1 X116.438 Y84.789 E21.06718
G1 X115.500 Y84.639 E21.11457
G1 X114.561 Y84.789 E21.16202
G1 X113.715 Y85.220 E21.20938
G1 X113.043 Y85.892 E21.25680
G1 X112.612 Y86.738 E21.30417
G1 X112.462 Y87.677 E21.35161
G1 X112.612 Y88.615 E21.39900
G1 X113.043 Y89.461 E21.44637
G1 X113.715 Y90.133 E21.49378
G1 X114.561 Y90.564 E21.54115
G1 X115.500 Y90.714 E21.58859
G0 F9000 X115.500 Y90.309
G1 F1200 X116.313 Y90.179 E21.62967
G1 X117.046 Y89.806 E21.67070
G1 X117.629 Y89.223 E21.71183
G1 X118.002 Y88.490 E21.75286
G1 X118.132 Y87.677 E21.79394
G1 X118.002 Y86.863 E21.83507
G1 X117.629 Y86.130 E21.87610
G1 X117.046 Y85.547 E21.91723
G1 X116.313 Y85.174 E21.95826
G1 X115.500 Y85.044 E21.99934
G1 X114.686 Y85.174 E22.04046
G1 X113.953 Y85.547 E22.08150
G1 X113.370 Y86.130 E22.12263
G1 X112.997 Y86.863 E22.16366
G1 X112.867 Y87.677 E22.20479
G1 X112.997 Y88.490 E22.24586
G1 X113.370 Y89.223 E22.28690
G1 X113.953 Y89.806 E22.32803
G1 X114.686 Y90.179 E22.36906
G1 X115.500 Y90.309 E22.41019
G0 F9000 X117.044 Y89.803
G0 X125.450 Y83.976
G1 F1200 X126.238 Y84.101 E22.44999
G1 X126.908 Y84.442 E22.48750
G1 X127.434 Y84.968 E22.52461
G1 X127.775 Y85.637 E22.56207
G1 X127.895 Y86.398 E22.60051
G1 X127.900 Y86.898 E22.62545
G1 X127.900 Y111.827 E23.86917
G1 X127.825 Y112.305 E23.89331
G1 X127.626 Y112.695 E23.91515
G1 X127.319 Y113.002 E23.93681
G1 X126.930 Y113.200 E23.95859
G1 X126.471 Y113.272 E23.98177
G1 X125.645 Y113.276 E24.02298
G1 X100.450 Y113.276 E25.27996
G1 X95.945 Y114.807 E25.51734
G1 X91.375 Y115.718 E25.74983
G1 X91.312 Y115.730 E25.75302
G1 X86.659 Y116.023 E25.98562
G1 X86.603 Y116.024 E25.98842
G1 X82.063 Y115.707 E26.21547
G1 X77.429 Y114.774 E26.45130
G1 X73.024 Y113.252 E26.68382
G1 X72.983 Y113.236 E26.68601
G1 X72.609 Y113.008 E26.70786
G1 X72.350 Y112.720 E26.72719
G1 X72.165 Y112.333 E26.74859
G1 X72.103 Y111.914 E26.76972
G1 X72.100 Y111.344 E26.79816
G1 X72.100 Y86.426 E28.04132
G1 X72.225 Y85.638 E28.08113
G1 X72.566 Y84.968 E28.11863
G1 X73.092 Y84.442 E28.15575
G1 X73.761 Y84.101 E28.19321
G1 X74.520 Y83.981 E28.23155
G1 X76.177 Y83.976 E28.31421
G1 X125.450 Y83.976 E30.77245
G0 F9000 X116.313 Y107.073
G1 F1200 X115.500 Y106.943 E30.81353
G1 X114.686 Y107.073 E30.85466
G1 X113.953 Y107.446 E30.89569
G1 X113.370 Y108.029 E30.93682
G1 X112.997 Y108.762 E30.97785
G1 X112.867 Y109.575 E31.01893
G1 X112.997 Y110.389 E31.06005
G1 X113.370 Y111.122 E31.10109
G1 X113.953 Y111.705 E31.14222
G1 X114.686 Y112.078 E31.18325
G1 X115.500 Y112.208 E31.22438
G1 X116.313 Y112.078 E31.26545
G1 X117.046 Y111.705 E31.30649
G1 X117.629 Y111.122 E31.34762
G1 X118.002 Y110.389 E31.38865
G1 X118.132 Y109.575 E31.42978
G1 X118.002 Y108.762 E31.47085
G1 X117.629 Y108.029 E31.51188
G1 X117.046 Y107.446 E31.55302
G1 X116.313 Y107.073 E31.59405
G0 F9000 X87.133 Y109.575
G1 F1200 X87.003 Y108.762 E31.63513
G1 X86.630 Y108.029 E31.67616
G1 X86.047 Y107.446 E31.71729
G1 X85.314 Y107.073 E31.75832
G1 X84.500 Y106.943 E31.79945
G1 X83.687 Y107.073 E31.84053
G1 X82.954 Y107.446 E31.88156
G1 X82.371 Y108.029 E31.92269
G1 X81.998 Y108.762 E31.96372
G1 X81.868 Y109.575 E32.00480
G1 X81.998 Y110.389 E32.04592
G1 X82.371 Y111.122 E32.08696
G1 X82.954 Y111.705 E32.12809
G1 X83.687 Y112.078 E32.16912
G1 X84.500 Y112.208 E32.21020
G1 X85.314 Y112.078 E32.25132
G1 X86.047 Y111.705 E32.29236
G1 X86.630 Y111.122 E32.33349
G1 X87.003 Y110.389 E32.37452
G1 X87.133 Y109.575 E32.41565
G0 F9000 X84.500 Y90.309
G1 F1200 X85.314 Y90.179 E32.45677
G1 X86.047 Y89.806 E32.49780
G1 X86.630 Y89.223 E32.53894
G1 X87.003 Y88.490 E32.57997
G1 X87.133 Y87.677 E32.62105
G1 X87.003 Y86.863 E32.66217
G1 X86.630 Y86.130 E32.70320
G1 X86.047 Y85.547 E32.74434
G1 X85.314 Y85.174 E32.78537
G1 X84.500 Y85.044 E32.82649
G1 X83.687 Y85.174 E32.86757
G1 X82.954 Y85.547 E32.90860
G1 X82.371 Y86.130 E32.94974
G1 X81.998 Y86.863 E32.99077
G1 X81.868 Y87.677 E33.03189
G1 X81.998 Y88.490 E33.07297
G1 X82.371 Y89.223 E33.11400
G1 X82.954 Y89.806 E33.15513
G1 X83.687 Y90.179 E33.19617
G1 X84.500 Y90.309 E33.23724
G0 F9000 X84.500 Y89.904
;TYPE:WALL-OUTER
G1 F1200 X85.189 Y89.794 E33.27205
G1 X85.809 Y89.478 E33.30677
G1 X86.302 Y88.985 E33.34155
G1 X86.618 Y88.365 E33.37627
G1 X86.728 Y87.677 E33.41103
G1 X86.618 Y86.988 E33.44584
G1 X86.302 Y86.368 E33.48056
G1 X85.809 Y85.875 E33.51534
G1 X85.189 Y85.559 E33.55006
G1 X84.500 Y85.449 E33.58487
G1 X83.812 Y85.559 E33.61963
G1 X83.192 Y85.875 E33.65435
G1 X82.699 Y86.368 E33.68913
G1 X82.383 Y86.988 E33.72385
G1 X82.273 Y87.677 E33.75866
G1 X82.383 Y88.365 E33.79342
G1 X82.699 Y88.985 E33.82814
G1 X83.192 Y89.478 E33.86292
G1 X83.812 Y89.794 E33.89764
G1 X84.500 Y89.904 E33.93240
G0 F9000 X84.454 Y90.199
G0 X82.956 Y89.803
G0 X74.511 Y83.881
G0 X74.487 Y83.581
G1 F1200 X125.482 Y83.576 E36.47655
G1 X126.366 Y83.716 E36.52120
G1 X127.145 Y84.114 E36.56485
G1 X127.763 Y84.731 E36.60842
G1 X128.160 Y85.509 E36.65199
G1 X128.295 Y86.364 E36.69518
G1 X128.300 Y86.898 E36.72182
G1 X128.300 Y111.858 E37.96708
G1 X128.210 Y112.431 E37.99602
G1 X127.954 Y112.933 E38.02413
G1 X127.558 Y113.329 E38.05207
G1 X127.055 Y113.585 E38.08023
G1 X126.503 Y113.672 E38.10811
G1 X100.515 Y113.676 E39.40465
G1 X96.053 Y115.193 E39.63978
G1 X91.448 Y116.111 E39.87404
G1 X91.365 Y116.127 E39.87826
G1 X86.671 Y116.423 E40.11291
G1 X86.591 Y116.424 E40.11690
G1 X82.010 Y116.105 E40.34600
G1 X77.323 Y115.161 E40.58453
G1 X72.885 Y113.627 E40.81880
G1 X72.811 Y113.599 E40.82275
G1 X72.351 Y113.319 E40.84961
G1 X72.012 Y112.942 E40.87491
G1 X71.779 Y112.453 E40.90193
G1 X71.703 Y111.940 E40.92780
G1 X71.700 Y86.394 E42.20230
G1 X71.840 Y85.510 E42.24695
G1 X72.238 Y84.731 E42.29059
G1 X72.855 Y84.113 E42.33416
G1 X73.633 Y83.716 E42.37774
G1 X74.487 Y83.581 E42.42087
G0 F9000 X74.511 Y83.881
G0 X83.678 Y107.191
G0 X83.812 Y107.458
G1 F1200 X83.192 Y107.774 E42.45559
G1 X82.699 Y108.267 E42.49038
G1 X82.383 Y108.887 E42.52509
G1 X82.273 Y109.575 E42.55985
G1 X82.383 Y110.264 E42.59466
G1 X82.699 Y110.884 E42.62938
G1 X83.192 Y111.377 E42.66416
G1 X83.812 Y111.693 E42.69888
G1 X84.500 Y111.803 E42.73364
G1 X85.189 Y111.693 E42.76845
G1 X85.809 Y111.377 E42.80317
G1 X86.302 Y110.884 E42.83795
G1 X86.618 Y110.264 E42.87267
G1 X86.728 Y109.575 E42.90748
G1 X86.618 Y108.887 E42.94224
G1 X86.302 Y108.267 E42.97696
G1 X85.809 Y107.774 E43.01174
G1 X85.189 Y107.458 E43.04646
G1 X84.500 Y107.348 E43.08127
G1 X83.812 Y107.458 E43.11603
G0 F9000 X83.678 Y107.191
G0 X85.312 Y107.076
G0 X112.977 Y109.529
G0 X113.272 Y109.575
G1 F1200 X113.382 Y110.264 E43.15084
G1 X113.698 Y110.884 E43.18556
G1 X114.191 Y111.377 E43.22034
G1 X114.811 Y111.693 E43.25506
G1 X115.500 Y111.803 E43.28987
G1 X116.188 Y111.693 E43.32463
G1 X116.808 Y111.377 E43.35935
G1 X117.301 Y110.884 E43.39413
G1 X117.617 Y110.264 E43.42885
G1 X117.727 Y109.575 E43.46366
G1 X117.617 Y108.887 E43.49842
G1 X117.301 Y108.267 E43.53314
G1 X116.808 Y107.774 E43.56792
G1 X116.188 Y107.458 E43.60264
G1 X115.500 Y107.348 E43.63740
G1 X114.811 Y107.458 E43.67221
G1 X114.191 Y107.774 E43.70693
G1 X113.698 Y108.267 E43.74171
G1 X113.382 Y108.887 E43.77643
G1 X113.272 Y109.575 E43.81119
G0 F9000 X112.977 Y109.529
G0 X115.454 Y90.199
G0 X115.500 Y89.904
G1 F1200 X116.188 Y89.794 E43.84595
G1 X116.808 Y89.478 E43.88067
G1 X117.301 Y88.985 E43.91545
G1 X117.617 Y88.365 E43.95017
G1 X117.727 Y87.677 E43.98493
G1 X117.617 Y86.988 E44.01974
G1 X117.301 Y86.368 E44.05446
G1 X116.808 Y85.875 E44.08924
G1 X116.188 Y85.559 E44.12396
G1 X115.500 Y85.449 E44.15872
G1 X114.811 Y85.559 E44.19353
G1 X114.191 Y85.875 E44.22825
G1 X113.698 Y86.368 E44.26303
G1 X113.382 Y86.988 E44.29775
G1 X113.272 Y87.677 E44.33256
G1 X113.382 Y88.365 E44.36732
G1 X113.698 Y88.985 E44.40204
G1 X114.191 Y89.478 E44.43682
G1 X114.811 Y89.794 E44.47154
G1 X115.500 Y89.904 E44.50635
G0 F9000 X115.457 Y90.850
;TYPE:SKIN
G1 F1200 X127.358 Y102.751 E45.34603
G0 F9000 X127.358 Y103.316
G1 F1200 X114.783 Y90.741 E46.23326
G0 F9000 X113.820 Y90.344
G1 F1200 X127.358 Y103.882 E47.18844
G0 F9000 X127.358 Y104.448
G1 F1200 X107.427 Y84.517 E48.59468
G0 F9000 X106.862 Y84.518
G1 F1200 X127.358 Y105.013 E50.04075
G0 F9000 X127.358 Y105.579
G1 F1200 X106.297 Y84.518 E51.52672
G0 F9000 X105.731 Y84.518
G1 F1200 X127.358 Y106.145 E53.05262
G0 F9000 X127.358 Y106.710
G1 F1200 X105.165 Y84.518 E54.61842
G0 F9000 X104.600 Y84.518
G1 F1200 X127.359 Y107.277 E56.22419
G0 F9000 X127.359 Y107.842
G1 F1200 X104.034 Y84.518 E57.86986
G0 F9000 X103.468 Y84.518
G1 F1200 X127.359 Y108.408 E59.55546
G0 F9000 X127.359 Y108.974
G1 F1200 X102.903 Y84.518 E61.28097
G0 F9000 X102.337 Y84.518
G1 F1200 X127.359 Y109.540 E63.04640
G0 F9000 X127.359 Y110.105
G1 F1200 X101.771 Y84.518 E64.85174
G0 F9000 X101.206 Y84.518
G1 F1200 X127.359 Y110.671 E66.69697
G0 F9000 X127.359 Y111.237
G1 F1200 X100.640 Y84.518 E68.58214
G0 F9000 X100.074 Y84.518
G1 F1200 X127.357 Y111.800 E70.50707
G0 F9000 X127.245 Y112.254
G1 F1200 X99.509 Y84.519 E72.46396
G0 F9000 X98.944 Y84.519
G1 F1200 X126.988 Y112.563 E74.44262
G0 F9000 X126.568 Y112.709
G1 F1200 X98.378 Y84.519 E76.43157
G0 F9000 X97.812 Y84.519
G1 F1200 X126.025 Y112.731 E78.42212
G0 F9000 X125.459 Y112.731
G1 F1200 X97.246 Y84.519 E80.41266
G0 F9000 X96.681 Y84.519
G1 F1200 X124.894 Y112.731 E82.40321
G0 F9000 X124.329 Y112.732
G1 F1200 X96.115 Y84.519 E84.39382
G0 F9000 X95.549 Y84.519
G1 F1200 X123.763 Y112.732 E86.38444
G0 F9000 X123.197 Y112.732
G1 F1200 X94.984 Y84.519 E88.37502
G0 F9000 X94.418 Y84.519
G1 F1200 X116.446 Y106.546 E89.92918
G0 F9000 X115.772 Y106.438
G1 F1200 X93.852 Y84.519 E91.47571
G0 F9000 X93.287 Y84.519
G1 F1200 X115.208 Y106.440 E93.02236
G0 F9000 X114.721 Y106.519
G1 F1200 X92.721 Y84.519 E94.57458
G0 F9000 X92.156 Y84.519
G1 F1200 X114.299 Y106.662 E96.13689
G0 F9000 X113.924 Y106.853
G1 F1200 X91.590 Y84.519 E97.71267
G0 F9000 X91.025 Y84.519
G1 F1200 X113.569 Y107.064 E99.30331
G0 F9000 X113.286 Y107.347
G1 F1200 X90.459 Y84.519 E100.91391
G0 F9000 X89.893 Y84.519
G1 F1200 X113.004 Y107.630 E102.54452
G0 F9000 X112.788 Y107.980
G1 F1200 X89.328 Y84.519 E104.19978
G0 F9000 X88.762 Y84.519
G1 F1200 X112.597 Y108.354 E105.88147
G0 F9000 X112.448 Y108.771
G1 F1200 X88.196 Y84.519 E107.59258
G0 F9000 X87.631 Y84.519
G1 F1200 X112.369 Y109.258 E109.33801
G0 F9000 X112.356 Y109.810
G1 F1200 X87.065 Y84.519 E111.12243
G0 F9000 X86.499 Y84.519
G1 F1200 X112.465 Y110.485 E112.95447
G0 F9000 X112.452 Y112.735
