;FLAVOR:Marlin
;TIME:392
;Filament used: 0.148696m
;Layer height: 0.15
;Generated with Cura_SteamEngine 2.7.0
M190 S60
M104 S220
M109 S220
G21 ;metric values
G90 ;absolute positioning
M82 ;set extruder to absolute mode
M107 ;start with the fan off
G92 E0 ;zero the extruded length
G1 F200 E3 ;extrude 3mm of feed stock
G92 E0 ;zero the extruded length again
G1 F9000
M301 P26.92 I2.54 D71.46 ;set PID tuning for E0
M117 Printing...
;LAYER_COUNT:32
;LAYER:0
M107
G0 F2400 X85.143 Y84.472 Z0.3
G0 X84.717 Y84.921
;TYPE:SKIRT
G1 F1200 X85.143 Y84.472 E0.0308
G1 X85.624 Y84.082 E0.06162
G1 X86.113 Y83.776 E0.09033
G1 X88.459 Y82.502 E0.22318
G1 X89.021 Y82.243 E0.25398
G1 X89.58 Y82.065 E0.28317
G1 X90.337 Y81.875 E0.32201
G1 X90.946 Y81.764 E0.35282
G1 X91.626 Y81.733 E0.38669
G1 X93.81 Y81.788 E0.49542
G1 X94.426 Y81.843 E0.52619
G1 X94.987 Y81.965 E0.55476
G1 X96.04 Y82.261 E0.6092
G1 X96.624 Y82.467 E0.64002
G1 X97.312 Y82.829 E0.67871
G1 X99.644 Y84.309 E0.81616
G1 X100.144 Y84.673 E0.84694
G1 X100.593 Y85.1 E0.87777
G1 X100.984 Y85.58 E0.90858
G1 X101.336 Y86.159 E0.9423
G1 X102.468 Y88.353 E1.06516
G1 X102.716 Y88.92 E1.09596
G1 X102.823 Y89.255 E1.11346
G1 X103.128 Y90.341 E1.1696
G1 X103.257 Y90.947 E1.20043
G1 X103.306 Y91.564 E1.23123
G1 X103.287 Y92.079 E1.25688
G1 X103.033 Y94.829 E1.39432
G1 X102.936 Y95.441 E1.42516
G1 X102.761 Y96.035 E1.45597
G1 X102.406 Y96.794 E1.49767
G1 X101.189 Y98.892 E1.61837
G1 X100.845 Y99.405 E1.64911
G1 X100.453 Y99.916 E1.68116
G1 X100.046 Y100.382 E1.71195
G1 X99.581 Y100.791 E1.74277
G1 X98.967 Y101.195 E1.77935
G1 X96.758 Y102.415 E1.90493
G1 X96.198 Y102.679 E1.93574
G1 X95.718 Y102.839 E1.96092
G1 X94.641 Y103.137 E2.01653
G1 X94.035 Y103.264 E2.04735
G1 X93.418 Y103.311 E2.07814
G1 X92.983 Y103.296 E2.0998
G1 X90.384 Y103.09 E2.22955
G1 X89.771 Y103.001 E2.26037
G1 X89.175 Y102.835 E2.29116
G1 X88.605 Y102.592 E2.322
G1 X88.159 Y102.336 E2.34759
G1 X86.622 Y101.342 E2.43868
G1 X86.124 Y100.973 E2.46953
G1 X85.754 Y100.624 E2.49484
G1 X84.065 Y98.852 E2.61667
G1 X83.577 Y98.249 E2.65527
G1 X82.822 Y97.144 E2.72187
G1 X82.507 Y96.611 E2.75268
G1 X82.262 Y96.042 E2.78351
G1 X82.144 Y95.657 E2.80355
G1 X81.862 Y94.584 E2.85876
G1 X81.743 Y93.976 E2.8896
G1 X81.708 Y93.161 E2.93019
G1 X81.794 Y91.143 E3.03071
G1 X81.861 Y90.527 E3.06155
G1 X81.946 Y90.134 E3.08156
G1 X82.232 Y89.04 E3.13783
G1 X82.427 Y88.452 E3.16866
G1 X82.812 Y87.7 E3.2107
G1 X83.903 Y85.965 E3.3127
G1 X84.278 Y85.448 E3.34448
G1 X84.717 Y84.921 E3.37862
G0 F2400 X85.024 Y85.177
G1 F1200 X85.433 Y84.748 E3.40811
G1 X85.896 Y84.378 E3.43761
G1 X86.304 Y84.127 E3.46145
G1 X88.65 Y82.853 E3.5943
G1 X89.188 Y82.606 E3.62376
G1 X89.678 Y82.452 E3.64932
G1 X90.435 Y82.262 E3.68816
G1 X91.018 Y82.157 E3.71764
G1 X91.616 Y82.131 E3.74743
G1 X93.8 Y82.186 E3.85615
G1 X94.39 Y82.241 E3.88564
G1 X94.879 Y82.349 E3.91056
G1 X95.932 Y82.645 E3.965
G1 X96.49 Y82.844 E3.99448
G1 X97.098 Y83.166 E4.02872
G1 X99.43 Y84.646 E4.16617
G1 X99.908 Y84.996 E4.19565
G1 X100.334 Y85.408 E4.22515
G1 X100.702 Y85.873 E4.25466
G1 X100.982 Y86.342 E4.28184
G1 X102.114 Y88.536 E4.4047
G1 X102.349 Y89.08 E4.43419
G1 X102.439 Y89.363 E4.44897
G1 X102.744 Y90.449 E4.50511
G1 X102.866 Y91.029 E4.5346
G1 X102.908 Y91.621 E4.56414
G1 X102.889 Y92.042 E4.58511
G1 X102.635 Y94.792 E4.72255
G1 X102.541 Y95.378 E4.75208
G1 X102.369 Y95.945 E4.78157
G1 X102.06 Y96.594 E4.81734
G1 X100.843 Y98.692 E4.93805
G1 X100.529 Y99.162 E4.96618
G1 X100.137 Y99.673 E4.99823
G1 X99.745 Y100.118 E5.02774
G1 X99.297 Y100.506 E5.05723
G1 X98.774 Y100.846 E5.08828
G1 X96.565 Y102.066 E5.21386
G1 X96.028 Y102.317 E5.24336
G1 X95.612 Y102.455 E5.26517
G1 X94.535 Y102.753 E5.32078
G1 X93.954 Y102.872 E5.3503
G1 X93.363 Y102.912 E5.37978
G1 X93.015 Y102.898 E5.39711
G1 X90.416 Y102.692 E5.52685
G1 X89.829 Y102.606 E5.55638
G1 X89.26 Y102.441 E5.58586
G1 X88.718 Y102.201 E5.61536
G1 X88.375 Y102.001 E5.63512
G1 X86.838 Y101.007 E5.72621
G1 X86.363 Y100.652 E5.75572
G1 X86.043 Y100.349 E5.77765
G1 X84.354 Y98.577 E5.89948
G1 X83.907 Y98.024 E5.93487
G1 X83.152 Y96.919 E6.00147
G1 X82.851 Y96.408 E6.03098
G1 X82.622 Y95.861 E6.06049
G1 X82.529 Y95.556 E6.07636
G1 X82.247 Y94.483 E6.13157
G1 X82.136 Y93.901 E6.16106
G1 X82.107 Y93.178 E6.19707
G1 X82.193 Y91.16 E6.29758
G1 X82.258 Y90.571 E6.32707
G1 X82.332 Y90.235 E6.3442
G1 X82.618 Y89.141 E6.40047
G1 X82.806 Y88.579 E6.42996
G1 X83.15 Y87.912 E6.46731
G1 X84.241 Y86.177 E6.5693
G1 X84.585 Y85.704 E6.59841
G1 X85.024 Y85.177 E6.63254
G0 F2400 X85.33 Y85.432
G1 F1200 X85.722 Y85.025 E6.66067
G1 X86.167 Y84.676 E6.68881
G1 X86.494 Y84.478 E6.70783
G1 X88.84 Y83.204 E6.84069
G1 X89.355 Y82.97 E6.86884
G1 X89.775 Y82.839 E6.89073
G1 X90.532 Y82.649 E6.92957
G1 X91.088 Y82.551 E6.95767
G1 X91.606 Y82.53 E6.98347
G1 X93.79 Y82.585 E7.09219
G1 X94.352 Y82.639 E7.12029
G1 X94.771 Y82.733 E7.14166
G1 X95.824 Y83.029 E7.19609
G1 X96.356 Y83.22 E7.22422
G1 X96.884 Y83.502 E7.25401
G1 X99.216 Y84.982 E7.39146
G1 X99.671 Y85.318 E7.41961
G1 X100.074 Y85.715 E7.44776
G1 X100.416 Y86.164 E7.47585
G1 X100.627 Y86.525 E7.49666
G1 X101.759 Y88.719 E7.61952
G1 X102.055 Y89.471 E7.65974
G1 X102.36 Y90.557 E7.71588
G1 X102.474 Y91.111 E7.74403
G1 X102.509 Y91.675 E7.77215
G1 X102.492 Y92.006 E7.78864
G1 X102.238 Y94.756 E7.92608
G1 X102.146 Y95.313 E7.95417
G1 X101.977 Y95.853 E7.98233
G1 X101.715 Y96.394 E8.01225
G1 X100.498 Y98.492 E8.13295
G1 X100.212 Y98.919 E8.15853
G1 X99.82 Y99.43 E8.19058
G1 X99.445 Y99.853 E8.21871
G1 X99.015 Y100.219 E8.24681
G1 X98.581 Y100.497 E8.27246
G1 X96.372 Y101.717 E8.39804
G1 X95.859 Y101.954 E8.42617
G1 X95.505 Y102.07 E8.4447
G1 X94.428 Y102.368 E8.50032
G1 X93.874 Y102.48 E8.52844
G1 X93.046 Y102.501 E8.56966
G1 X90.447 Y102.295 E8.69941
G1 X89.888 Y102.21 E8.72755
G1 X89.347 Y102.048 E8.75565
G1 X88.592 Y101.666 E8.79776
G1 X87.055 Y100.672 E8.88885
G1 X86.603 Y100.332 E8.917
G1 X86.332 Y100.073 E8.93565
G1 X84.643 Y98.301 E9.05748
G1 X84.236 Y97.798 E9.08968
G1 X83.481 Y96.693 E9.15628
G1 X83.196 Y96.205 E9.1844
G1 X82.915 Y95.454 E9.22431
G1 X82.633 Y94.381 E9.27952
G1 X82.529 Y93.826 E9.30762
G1 X82.506 Y93.195 E9.33904
G1 X82.592 Y91.177 E9.43956
G1 X82.656 Y90.615 E9.46771
G1 X82.718 Y90.336 E9.48193
G1 X83.004 Y89.242 E9.53821
G1 X83.185 Y88.706 E9.56636
G1 X83.488 Y88.125 E9.59897
G1 X84.579 Y86.39 E9.70097
G1 X84.891 Y85.959 E9.72744
G1 X85.33 Y85.432 E9.76158
G0 F2400 X85.637 Y85.687
G1 F1200 X86.01 Y85.302 E9.78826
G1 X86.436 Y84.977 E9.81492
G1 X86.684 Y84.828 E9.82932
G1 X89.03 Y83.554 E9.96217
G1 X89.519 Y83.334 E9.98886
G1 X89.872 Y83.226 E10.00723
G1 X90.629 Y83.036 E10.04607
G1 X91.157 Y82.945 E10.07273
G1 X91.596 Y82.929 E10.09459
G1 X93.78 Y82.984 E10.20332
G1 X94.313 Y83.038 E10.22998
G1 X94.663 Y83.117 E10.24783
G1 X95.716 Y83.413 E10.30227
G1 X96.22 Y83.596 E10.32895
G1 X96.671 Y83.839 E10.35445
G1 X99.003 Y85.319 E10.4919
G1 X99.433 Y85.64 E10.5186
G1 X99.81 Y86.02 E10.54524
G1 X100.127 Y86.453 E10.57195
G1 X100.272 Y86.708 E10.58655
G1 X101.404 Y88.902 E10.70941
G1 X101.671 Y89.579 E10.74562
G1 X101.976 Y90.665 E10.80176
G1 X102.082 Y91.19 E10.82842
G1 X102.095 Y91.969 E10.86719
G1 X101.841 Y94.719 E11.00463
G1 X101.752 Y95.248 E11.03132
G1 X101.585 Y95.757 E11.05798
G1 X101.37 Y96.194 E11.08222
G1 X100.153 Y98.292 E11.20292
G1 X99.896 Y98.677 E11.22596
G1 X99.504 Y99.188 E11.25801
G1 X99.146 Y99.588 E11.28472
G1 X98.734 Y99.93 E11.31137
G1 X98.388 Y100.147 E11.33169
G1 X96.179 Y101.367 E11.45728
G1 X95.692 Y101.591 E11.48395
G1 X95.399 Y101.686 E11.49928
G1 X94.322 Y101.984 E11.55489
G1 X93.796 Y102.088 E11.58158
G1 X93.078 Y102.103 E11.61732
G1 X90.479 Y101.897 E11.74706
G1 X89.949 Y101.815 E11.77375
G1 X89.437 Y101.655 E11.80045
G1 X88.809 Y101.331 E11.83561
G1 X87.272 Y100.337 E11.92671
G1 X86.844 Y100.013 E11.95342
G1 X86.621 Y99.798 E11.96884
G1 X84.932 Y98.026 E12.09066
G1 X84.565 Y97.573 E12.11968
G1 X83.81 Y96.468 E12.18628
G1 X83.542 Y96.004 E12.21294
G1 X83.301 Y95.353 E12.24749
G1 X83.019 Y94.28 E12.3027
G1 X82.922 Y93.752 E12.32942
G1 X82.904 Y93.212 E12.3563
G1 X82.99 Y91.194 E12.45682
G1 X83.104 Y90.437 E12.49492
G1 X83.39 Y89.343 E12.55119
G1 X83.564 Y88.835 E12.57792
G1 X83.825 Y88.337 E12.6059
G1 X84.916 Y86.602 E12.70789
G1 X85.198 Y86.214 E12.73176
G1 X85.637 Y85.687 E12.7659
G0 F2400 X85.943 Y85.943
G1 F1200 X86.297 Y85.581 E12.79109
G1 X86.875 Y85.179 E12.82613
G1 X89.221 Y83.905 E12.95898
G1 X89.683 Y83.699 E12.98416
G1 X89.969 Y83.613 E12.99902
G1 X90.726 Y83.423 E13.03786
G1 X91.225 Y83.339 E13.06304
G1 X91.586 Y83.328 E13.08102
G1 X93.77 Y83.383 E13.18974
G1 X94.272 Y83.436 E13.21486
G1 X94.555 Y83.501 E13.22931
G1 X95.608 Y83.797 E13.28374
G1 X96.082 Y83.972 E13.30889
G1 X96.457 Y84.176 E13.33013
G1 X98.789 Y85.656 E13.46759
G1 X99.193 Y85.96 E13.49275
G1 X99.544 Y86.324 E13.51791
G1 X99.918 Y86.891 E13.55172
G1 X101.05 Y89.085 E13.67458
G1 X101.287 Y89.687 E13.70677
G1 X101.592 Y90.773 E13.76291
G1 X101.69 Y91.269 E13.78807
G1 X101.697 Y91.932 E13.82107
G1 X101.443 Y94.682 E13.95851
G1 X101.357 Y95.18 E13.98366
G1 X101.194 Y95.659 E14.00884
G1 X101.025 Y95.994 E14.02751
G1 X99.808 Y98.092 E14.14821
G1 X99.579 Y98.434 E14.16869
G1 X99.187 Y98.945 E14.20074
G1 X98.849 Y99.32 E14.22587
G1 X98.455 Y99.638 E14.25107
G1 X98.195 Y99.798 E14.26626
G1 X95.986 Y101.018 E14.39184
G1 X95.292 Y101.301 E14.42914
G1 X94.215 Y101.599 E14.48475
G1 X93.719 Y101.695 E14.50989
G1 X93.109 Y101.705 E14.54025
G1 X90.51 Y101.499 E14.67
G1 X90.011 Y101.419 E14.69515
G1 X89.53 Y101.262 E14.72033
G1 X89.025 Y100.996 E14.74874
G1 X87.488 Y100.002 E14.83983
G1 X86.91 Y99.523 E14.87718
G1 X85.221 Y97.751 E14.99901
G1 X84.895 Y97.348 E15.02481
G1 X84.14 Y96.243 E15.09141
G1 X83.888 Y95.805 E15.11656
G1 X83.687 Y95.251 E15.14588
G1 X83.405 Y94.178 E15.2011
G1 X83.316 Y93.681 E15.22622
G1 X83.303 Y93.229 E15.24873
G1 X83.389 Y91.211 E15.34924
G1 X83.49 Y90.538 E15.38311
G1 X83.776 Y89.444 E15.43938
G1 X83.942 Y88.966 E15.46457
G1 X84.163 Y88.55 E15.48801
G1 X85.254 Y86.815 E15.59
G1 X85.504 Y86.47 E15.61121
G1 X85.943 Y85.943 E15.64534
G0 F2400 X88.478 Y88.357
;TYPE:SUPPORT
G1 F1200 X88.364 Y88.342 E15.65106
G1 X88.508 Y88.161 E15.66257
G1 X88.56 Y88.149 E15.66523
G1 X88.588 Y88.381 E15.67686
G1 X88.478 Y88.357 E15.68246
G1 F1500 E14.68246
G0 F2400 X88.793 Y87.383
G0 X89.035 Y86.993
G0 X89.767 Y86.599
G0 X90.226 Y86.607
G0 X91.171 Y86.977
G1 F1500 E15.68246
G1 F1200 X91.035 Y86.86 E15.69139
G1 X91.242 Y86.803 E15.70207
G1 X91.171 Y86.977 E15.71143
G1 F1500 E14.71143
G0 F2400 X91.85 Y86.213
G0 X92.256 Y85.998
G0 X93.1 Y86.026
G0 X93.498 Y86.278
G0 X94.113 Y87.052
G1 F1500 E15.71143
G1 F1200 X94.046 Y86.878 E15.7207
G1 X94.258 Y86.937 E15.73166
G1 X94.113 Y87.052 E15.74087
G1 F1500 E14.74087
G0 F2400 X95.085 Y86.73
G0 X95.539 Y86.748
G0 X96.251 Y87.188
G0 X96.471 Y87.598
G0 X96.643 Y88.476
G1 F1500 E15.74087
G1 F1200 X96.667 Y88.295 E15.74995
G1 X96.923 Y88.475 E15.76553
G1 X96.966 Y88.552 E15.76992
G1 X96.74 Y88.569 E15.78119
G1 X96.618 Y88.589 E15.78735
G1 X96.643 Y88.476 E15.79311
G1 F1500 E14.79311
G0 F2400 X97.617 Y88.793
G0 X98.007 Y89.035
G0 X98.401 Y89.767
G0 X98.393 Y90.226
G0 X98.023 Y91.171
G1 F1500 E15.79311
G1 F1200 X98.146 Y91.028 E15.80249
G1 X98.206 Y91.246 E15.81375
G1 X98.023 Y91.171 E15.82359
G1 F1500 E14.82359
G0 F2400 X98.787 Y91.85
G0 X99.002 Y92.256
G0 X98.974 Y93.1
G0 X98.722 Y93.498
G0 X98.114 Y94.152
G1 F1500 E15.82359
G1 F1200 X98.084 Y94.291 E15.83066
G1 X98.052 Y94.239 E15.8337
G1 X97.948 Y94.113 E15.84183
G1 X98.15 Y94.036 E15.85259
G1 X98.132 Y94.134 E15.85755
G1 X98.114 Y94.152 E15.85882
G1 F1500 E14.85882
G0 F2400 X98.27 Y95.085
G0 X98.252 Y95.539
G0 X97.817 Y96.244
G0 X96.551 Y96.82
G1 F1500 E15.85882
G1 F1200 X96.44 Y96.847 E15.8645
G1 X96.412 Y96.621 E15.87583
G1 X96.669 Y96.664 E15.8888
G1 X96.551 Y96.82 E15.89854
G1 F1500 E14.89854
G0 F2400 X96.207 Y97.617
G0 X95.965 Y98.007
G0 X95.233 Y98.401
G0 X94.774 Y98.393
G0 X93.782 Y98.148
G1 F1500 E15.89854
G1 F1200 X93.829 Y98.023 E15.90518
G1 X93.976 Y98.149 E15.91482
G1 X93.751 Y98.211 E15.92643
G1 X93.782 Y98.148 E15.92993
G1 F1500 E14.92993
G0 F2400 X93.15 Y98.787
G0 X92.744 Y99.002
G0 X91.9 Y98.974
G0 X91.502 Y98.722
G0 X90.817 Y98.083
G1 F1500 E15.92993
G1 F1200 X90.741 Y98.062 E15.93385
G1 X90.887 Y97.947 E15.9431
G1 X90.967 Y98.156 E15.95424
G1 X90.88 Y98.143 E15.95861
G1 X90.817 Y98.083 E15.96294
G1 F1500 E14.96294
G0 F2400 X89.915 Y98.27
G0 X89.461 Y98.252
G0 X88.749 Y97.812
G0 X86.993 Y95.965
G0 X86.599 Y95.233
G0 X86.607 Y94.774
G0 X86.977 Y93.829
G1 F1500 E15.96294
G1 F1200 X86.854 Y93.972 E15.97233
G1 X86.797 Y93.756 E15.98345
G1 X86.977 Y93.829 E15.99311
G1 F1500 E14.99311
G0 F2400 X86.213 Y93.15
G0 X85.998 Y92.744
G0 X86.026 Y91.9
G0 X86.278 Y91.502
G0 X87.052 Y90.887
G1 F1500 E15.99311
G1 F1200 X86.879 Y90.953 E16.00233
G1 X86.937 Y90.738 E16.01341
G1 X87.052 Y90.887 E16.02278
G1 F1500 E15.02278
G0 F2400 X87.552 Y91.039
G0 X89.137 Y91.326
G0 X90.359 Y90.04
G0 X91.206 Y89.506
G0 X92.172 Y89.254
G0 X93.17 Y89.307
G0 X94.104 Y89.66
G0 X94.882 Y90.272
G0 X95.131 Y90.558
G0 X95.495 Y91.657
;TYPE:WALL-INNER
G1 F1500 E16.02278
G1 F1200 X95.494 Y91.423 E16.03442
G1 X95.567 Y91.656
G1 X95.625 Y91.907 E16.04308
G1 X95.735 Y92.588 E16.07741
G1 X95.574 Y93.319 E16.11466
G1 X95.495 Y93.57 E16.12775
G1 X95.495 Y93.319
G1 X95.495 Y92.588 E16.14218
G1 X95.495 Y91.907 E16.15458
G1 X95.495 Y91.657
G0 F2400 X95.954 Y91.557
G1 F1200 X96.016 Y91.823 E16.16817
G1 X96.141 Y92.601 E16.20738
G1 X95.96 Y93.422 E16.24922
G1 X95.882 Y93.675 E16.2624
G1 X95.596 Y94.419 E16.30206
G1 X95.361 Y94.673 E16.31928
G1 X95.074 Y94.984 E16.34034
G1 X95.029 Y95.033 E16.34365
G1 X94.85 Y95.202 E16.35591
G1 X94.802 Y95.241 E16.35898
G1 X94.545 Y95.449 E16.37544
G1 X94.361 Y95.598 E16.38722
G1 X94.222 Y95.71 E16.3961
G1 X94.058 Y95.761 E16.40465
G1 X93.852 Y95.825 E16.41539
G1 X93.682 Y95.878 E16.42425
G1 X93.437 Y95.955 E16.43703
G1 X93.345 Y95.976 E16.44172
G1 X93.171 Y96.017 E16.45062
G1 X92.997 Y96.044 E16.45938
G1 X92.671 Y96.097 E16.47582
G1 X92.399 Y96.141 E16.48953
G1 X92.197 Y96.097 E16.49982
G1 X91.875 Y96.025 E16.51624
G1 X91.57 Y95.957 E16.53179
G1 X91.526 Y95.944 E16.53408
G1 X91.325 Y95.882 E16.54454
G1 X91.191 Y95.831 E16.55168
G1 X90.885 Y95.713 E16.568
G1 X90.581 Y95.596 E16.58421
G1 X90.464 Y95.488 E16.59213
G1 X90.221 Y95.264 E16.60858
G1 X89.978 Y95.039 E16.62506
G1 X89.967 Y95.029 E16.6258
G1 X89.794 Y94.846 E16.63833
G1 X89.722 Y94.756 E16.64407
G1 X89.514 Y94.5 E16.66048
G1 X89.408 Y94.369 E16.66887
G1 X89.288 Y94.22 E16.67839
G1 X89.238 Y94.06 E16.68673
G1 X89.154 Y93.789 E16.70085
G1 X89.056 Y93.473 E16.71732
G1 X89.045 Y93.437 E16.71919
G1 X88.983 Y93.171 E16.73278
G1 X88.972 Y93.101 E16.73631
G1 X88.92 Y92.776 E16.75269
G1 X88.888 Y92.573 E16.76292
G1 X88.859 Y92.399 E16.7717
G1 X88.896 Y92.232 E16.78021
G1 X88.951 Y91.979 E16.79309
G1 X89.023 Y91.656 E16.80956
G1 X89.043 Y91.57 E16.81396
G1 X89.119 Y91.32 E16.82696
G1 X89.13 Y91.292 E16.82846
G1 X89.249 Y90.983 E16.84493
G1 X89.344 Y90.736 E16.8581
G1 X89.404 Y90.581 E16.86638
G1 X89.519 Y90.456 E16.87483
G1 X89.663 Y90.3 E16.88539
G1 X89.887 Y90.057 E16.90184
G1 X89.971 Y89.966 E16.908
G1 X90.139 Y89.809 E16.91945
G1 X90.153 Y89.796 E16.9204
G1 X90.416 Y89.583 E16.93724
G1 X90.655 Y89.389 E16.95256
G1 X90.78 Y89.288 E16.96056
G1 X90.95 Y89.235 E16.96942
G1 X91.11 Y89.186 E16.97775
G1 X91.425 Y89.088 E16.99416
G1 X91.563 Y89.045 E17.00136
G1 X91.767 Y88.998 E17.01178
G1 X91.829 Y88.983 E17.01495
G1 X92.118 Y88.937 E17.02951
G1 X92.441 Y88.885 E17.04579
G1 X92.601 Y88.859 E17.05386
G1 X92.915 Y88.928 E17.06986
G1 X93.238 Y89 E17.08633
G1 X93.43 Y89.043 E17.09612
G1 X93.585 Y89.09 E17.10418
G1 X93.675 Y89.118 E17.10887
G1 X93.917 Y89.211 E17.12177
G1 X94.224 Y89.329 E17.13814
G1 X94.419 Y89.404 E17.14854
G1 X94.621 Y89.591 E17.16224
G1 X94.863 Y89.814 E17.17861
G1 X95.031 Y89.969 E17.18999
G1 X95.112 Y90.054 E17.19583
G1 X95.201 Y90.149 E17.20231
G1 X95.365 Y90.351 E17.21526
G1 X95.71 Y90.778 E17.24258
G1 X95.954 Y91.557 E17.2832
