;FLAVOR:Marlin
;TIME:998
;Filament used: 0.574404m
;Layer height: 0.15
;Generated with Cura_SteamEngine 2.7.0
M190 S60
M104 S220
M109 S220
G21 ;metric values
G90 ;absolute positioning
M82 ;set extruder to absolute mode
M107 ;start with the fan off
G92 E0 ;zero the extruded length
G1 F200 E3 ;extrude 3mm of feed stock
G92 E0 ;zero the extruded length again
G1 F9000
M301 P26.92 I2.54 D71.46 ;set PID tuning for E0
M117 Printing...
;LAYER_COUNT:32
;LAYER:0
M107
G0 F2400 X81.988 Y82.111 Z0.3
;TYPE:SKIRT
G1 F1200 X82.441 Y81.672 E0.03139
G1 X83.427 Y80.834 E0.09579
G1 X83.933 Y80.458 E0.12716
G1 X85.069 Y79.725 E0.19444
G1 X85.619 Y79.419 E0.22576
G1 X86.759 Y78.88 E0.28852
G1 X87.344 Y78.649 E0.31982
G1 X88.61 Y78.243 E0.38598
G1 X89.212 Y78.092 E0.41687
G1 X90.48 Y77.86 E0.48102
G1 X91.029 Y77.792 E0.50855
G1 X92.08 Y77.723 E0.56097
G1 X92.652 Y77.72 E0.58943
G1 X93.913 Y77.788 E0.65228
G1 X94.534 Y77.862 E0.6834
G1 X95.891 Y78.115 E0.7521
G1 X96.685 Y78.335 E0.7931
G1 X98.466 Y78.998 E0.88767
G1 X99.028 Y79.25 E0.91832
G1 X99.924 Y79.722 E0.96872
G1 X100.378 Y79.994 E0.99506
G1 X101.239 Y80.577 E1.04681
G1 X101.693 Y80.926 E1.07531
G1 X102.669 Y81.773 E1.13962
G1 X103.103 Y82.2 E1.16992
G1 X103.89 Y83.081 E1.2287
G1 X104.253 Y83.542 E1.25791
G1 X105.01 Y84.633 E1.32399
G1 X105.371 Y85.246 E1.35939
G1 X106.096 Y86.716 E1.44096
G1 X106.359 Y87.365 E1.47581
G1 X106.75 Y88.577 E1.53919
G1 X106.891 Y89.117 E1.56696
G1 X107.084 Y90.091 E1.61638
G1 X107.164 Y90.698 E1.64684
G1 X107.274 Y92.316 E1.72755
G1 X107.27 Y93.026 E1.76288
G1 X107.164 Y94.342 E1.82859
G1 X107.085 Y94.902 E1.85673
G1 X106.873 Y95.957 E1.91028
G1 X106.727 Y96.509 E1.9387
G1 X106.343 Y97.678 E1.99993
G1 X106.077 Y98.325 E2.03475
G1 X105.321 Y99.838 E2.11892
G1 X105.007 Y100.376 E2.14992
G1 X104.439 Y101.218 E2.20046
G1 X104.089 Y101.675 E2.22911
G1 X103.232 Y102.665 E2.29427
G1 X102.788 Y103.114 E2.3257
G1 X101.815 Y103.977 E2.39042
G1 X101.321 Y104.361 E2.42156
G1 X100.245 Y105.089 E2.48621
G1 X99.703 Y105.406 E2.51746
G1 X98.514 Y106.001 E2.58363
G1 X97.887 Y106.261 E2.61741
G1 X96.47 Y106.734 E2.69175
G1 X95.843 Y106.897 E2.72399
G1 X94.655 Y107.122 E2.78416
G1 X94.107 Y107.194 E2.81167
G1 X93.021 Y107.272 E2.86585
G1 X92.364 Y107.274 E2.89855
G1 X90.714 Y107.166 E2.98084
G1 X90.076 Y107.081 E3.01287
G1 X89.038 Y106.871 E3.06557
G1 X88.317 Y106.665 E3.10289
G1 X86.535 Y106.002 E3.19751
G1 X85.97 Y105.749 E3.22832
G1 X85.073 Y105.276 E3.27878
G1 X84.622 Y105.006 E3.30494
G1 X83.762 Y104.424 E3.35662
G1 X83.229 Y104.005 E3.39036
G1 X82.02 Y102.909 E3.47157
G1 X81.562 Y102.433 E3.50444
G1 X80.754 Y101.467 E3.56711
G1 X80.377 Y100.949 E3.599
G1 X79.654 Y99.803 E3.66643
G1 X79.363 Y99.271 E3.69661
G1 X78.859 Y98.19 E3.75596
G1 X78.641 Y97.633 E3.78573
G1 X78.25 Y96.419 E3.8492
G1 X78.103 Y95.844 E3.87874
G1 X77.878 Y94.659 E3.93876
G1 X77.806 Y94.104 E3.96661
G1 X77.727 Y92.994 E4.02199
G1 X77.736 Y92.21 E4.06101
G1 X77.924 Y90.189 E4.16202
G1 X78.018 Y89.59 E4.1922
G1 X78.212 Y88.719 E4.2366
G1 X78.354 Y88.214 E4.26271
G1 X78.706 Y87.182 E4.31697
G1 X78.927 Y86.643 E4.34596
G1 X79.459 Y85.542 E4.40682
G1 X79.79 Y84.964 E4.43996
G1 X80.673 Y83.643 E4.51904
G1 X81.101 Y83.093 E4.55372
G1 X81.988 Y82.111 E4.61957
G0 F2400 X82.284 Y82.379
G1 F1200 X82.699 Y81.976 E4.64836
G1 X83.685 Y81.138 E4.71276
G1 X84.149 Y80.793 E4.74153
G1 X85.285 Y80.06 E4.80881
G1 X85.79 Y79.78 E4.83755
G1 X86.93 Y79.241 E4.90031
G1 X87.466 Y79.029 E4.92899
G1 X88.732 Y78.623 E4.99515
G1 X89.284 Y78.485 E5.02347
G1 X90.552 Y78.253 E5.08762
G1 X91.055 Y78.19 E5.11285
G1 X92.106 Y78.121 E5.16526
G1 X92.631 Y78.118 E5.19139
G1 X93.892 Y78.186 E5.25424
G1 X94.461 Y78.254 E5.28275
G1 X95.818 Y78.507 E5.35145
G1 X96.546 Y78.709 E5.38905
G1 X98.327 Y79.372 E5.48362
G1 X98.842 Y79.603 E5.51171
G1 X99.738 Y80.075 E5.56211
G1 X100.154 Y80.324 E5.58624
G1 X101.015 Y80.907 E5.63798
G1 X101.432 Y81.227 E5.66414
G1 X102.408 Y82.074 E5.72845
G1 X102.805 Y82.466 E5.75622
G1 X103.592 Y83.347 E5.81501
G1 X103.926 Y83.769 E5.84179
G1 X104.683 Y84.86 E5.90787
G1 X105.013 Y85.422 E5.94031
G1 X105.738 Y86.892 E6.02188
G1 X105.98 Y87.487 E6.05384
G1 X106.371 Y88.699 E6.11722
G1 X106.499 Y89.194 E6.14266
G1 X106.692 Y90.168 E6.19208
G1 X106.766 Y90.725 E6.22004
G1 X106.876 Y92.343 E6.30075
G1 X106.872 Y92.994 E6.33314
G1 X106.766 Y94.31 E6.39885
G1 X106.694 Y94.823 E6.42463
G1 X106.482 Y95.878 E6.47818
G1 X106.348 Y96.384 E6.50423
G1 X105.964 Y97.553 E6.56546
G1 X105.72 Y98.146 E6.59738
G1 X104.964 Y99.659 E6.68155
G1 X104.676 Y100.153 E6.71
G1 X104.108 Y100.995 E6.76055
G1 X103.787 Y101.414 E6.78682
G1 X102.93 Y102.404 E6.85198
G1 X102.524 Y102.816 E6.88077
G1 X101.551 Y103.679 E6.94549
G1 X101.097 Y104.031 E6.97408
G1 X100.021 Y104.759 E7.03873
G1 X99.525 Y105.049 E7.06732
G1 X98.336 Y105.644 E7.13349
G1 X97.76 Y105.883 E7.16452
G1 X96.343 Y106.356 E7.23887
G1 X95.769 Y106.505 E7.26838
G1 X94.581 Y106.73 E7.32855
G1 X94.078 Y106.796 E7.3538
G1 X92.992 Y106.874 E7.40798
G1 X92.39 Y106.876 E7.43794
G1 X90.74 Y106.768 E7.52023
G1 X90.155 Y106.69 E7.5496
G1 X89.117 Y106.48 E7.6023
G1 X88.456 Y106.291 E7.63652
G1 X86.674 Y105.628 E7.73114
G1 X86.156 Y105.396 E7.75938
G1 X85.259 Y104.923 E7.80985
G1 X84.846 Y104.675 E7.83382
G1 X83.986 Y104.093 E7.8855
G1 X83.497 Y103.71 E7.91641
G1 X82.288 Y102.614 E7.99762
G1 X81.868 Y102.177 E8.02779
G1 X81.06 Y101.211 E8.09046
G1 X80.714 Y100.736 E8.1197
G1 X79.991 Y99.59 E8.18714
G1 X79.725 Y99.102 E8.2148
G1 X79.221 Y98.021 E8.27415
G1 X79.021 Y97.511 E8.30141
G1 X78.63 Y96.297 E8.36489
G1 X78.495 Y95.769 E8.39201
G1 X78.27 Y94.584 E8.45203
G1 X78.204 Y94.076 E8.47753
G1 X78.125 Y92.966 E8.53291
G1 X78.133 Y92.247 E8.56869
G1 X78.321 Y90.226 E8.6697
G1 X78.407 Y89.677 E8.69735
G1 X78.601 Y88.806 E8.74176
G1 X78.731 Y88.343 E8.76569
G1 X79.083 Y87.311 E8.81996
G1 X79.286 Y86.817 E8.84654
G1 X79.818 Y85.716 E8.90739
G1 X80.121 Y85.186 E8.93777
G1 X81.004 Y83.865 E9.01685
G1 X81.397 Y83.361 E9.04865
G1 X82.284 Y82.379 E9.11451
G0 F2400 X82.58 Y82.646
G1 F1200 X82.958 Y82.28 E9.14069
G1 X83.944 Y81.442 E9.20509
G1 X84.365 Y81.129 E9.23119
G1 X85.501 Y80.396 E9.29847
G1 X85.96 Y80.141 E9.3246
G1 X87.1 Y79.602 E9.38736
G1 X87.588 Y79.409 E9.41348
G1 X88.854 Y79.003 E9.47964
G1 X89.355 Y78.877 E9.50535
G1 X90.623 Y78.645 E9.5695
G1 X91.081 Y78.589 E9.59246
G1 X92.132 Y78.52 E9.64488
G1 X92.609 Y78.517 E9.66861
G1 X93.87 Y78.585 E9.73146
G1 X94.388 Y78.647 E9.75742
G1 X95.745 Y78.9 E9.82612
G1 X96.407 Y79.083 E9.8603
G1 X98.188 Y79.746 E9.95487
G1 X98.656 Y79.956 E9.9804
G1 X99.552 Y80.428 E10.0308
G1 X99.931 Y80.655 E10.05278
G1 X100.792 Y81.238 E10.10453
G1 X101.17 Y81.528 E10.12824
G1 X102.146 Y82.375 E10.19255
G1 X102.508 Y82.732 E10.21785
G1 X103.295 Y83.613 E10.27664
G1 X103.598 Y83.997 E10.30099
G1 X104.355 Y85.088 E10.36707
G1 X104.656 Y85.599 E10.39658
G1 X105.381 Y87.069 E10.47815
G1 X105.6 Y87.61 E10.5072
G1 X105.991 Y88.822 E10.57057
G1 X106.108 Y89.272 E10.59371
G1 X106.301 Y90.246 E10.64313
G1 X106.368 Y90.752 E10.66853
G1 X106.478 Y92.37 E10.74923
G1 X106.474 Y92.962 E10.7787
G1 X106.368 Y94.278 E10.8444
G1 X106.303 Y94.745 E10.86786
G1 X106.091 Y95.8 E10.92142
G1 X105.969 Y96.26 E10.9451
G1 X105.585 Y97.429 E11.00633
G1 X105.363 Y97.968 E11.03534
G1 X104.607 Y99.481 E11.11952
G1 X104.345 Y99.93 E11.14539
G1 X103.777 Y100.772 E11.19593
G1 X103.486 Y101.153 E11.21979
G1 X102.629 Y102.143 E11.28495
G1 X102.259 Y102.517 E11.31113
G1 X101.286 Y103.38 E11.37586
G1 X100.873 Y103.7 E11.40186
G1 X99.797 Y104.428 E11.46651
G1 X99.346 Y104.692 E11.49252
G1 X98.157 Y105.287 E11.55868
G1 X97.634 Y105.504 E11.58686
G1 X96.217 Y105.977 E11.66121
G1 X95.695 Y106.113 E11.68805
G1 X94.507 Y106.338 E11.74822
G1 X94.049 Y106.398 E11.77121
G1 X92.963 Y106.476 E11.8254
G1 X92.416 Y106.477 E11.85262
G1 X90.766 Y106.369 E11.93491
G1 X90.234 Y106.299 E11.96161
G1 X89.196 Y106.089 E12.01431
G1 X88.595 Y105.917 E12.04542
G1 X86.813 Y105.254 E12.14004
G1 X86.342 Y105.043 E12.16573
G1 X85.445 Y104.57 E12.21619
G1 X85.069 Y104.345 E12.238
G1 X84.209 Y103.763 E12.28968
G1 X83.765 Y103.414 E12.31778
G1 X82.556 Y102.318 E12.39899
G1 X82.174 Y101.921 E12.42641
G1 X81.366 Y100.955 E12.48908
G1 X81.052 Y100.523 E12.51566
G1 X80.329 Y99.377 E12.58309
G1 X80.086 Y98.933 E12.60828
G1 X79.582 Y97.852 E12.66764
G1 X79.401 Y97.389 E12.69238
G1 X79.01 Y96.175 E12.75585
G1 X78.887 Y95.695 E12.78051
G1 X78.662 Y94.51 E12.84053
G1 X78.602 Y94.048 E12.86372
G1 X78.523 Y92.938 E12.9191
G1 X78.53 Y92.284 E12.95165
G1 X78.718 Y90.263 E13.05266
G1 X78.797 Y89.764 E13.0778
G1 X78.991 Y88.893 E13.12221
G1 X79.109 Y88.471 E13.14401
G1 X79.461 Y87.439 E13.19828
G1 X79.645 Y86.991 E13.22238
G1 X80.177 Y85.89 E13.28323
G1 X80.453 Y85.407 E13.31092
G1 X81.336 Y84.086 E13.38999
G1 X81.693 Y83.628 E13.41889
G1 X82.58 Y82.646 E13.48474
G0 F2400 X82.876 Y82.914
G1 F1200 X83.216 Y82.584 E13.50832
G1 X84.202 Y81.746 E13.57272
G1 X84.582 Y81.464 E13.59627
G1 X85.718 Y80.731 E13.66355
G1 X86.131 Y80.501 E13.68707
G1 X87.271 Y79.962 E13.74983
G1 X87.71 Y79.789 E13.77331
G1 X88.976 Y79.383 E13.83947
G1 X89.427 Y79.27 E13.86261
G1 X90.695 Y79.038 E13.92676
G1 X91.107 Y78.987 E13.94742
G1 X92.158 Y78.918 E13.99984
G1 X92.588 Y78.915 E14.02124
G1 X93.849 Y78.983 E14.08408
G1 X94.315 Y79.039 E14.10744
G1 X95.672 Y79.292 E14.17614
G1 X96.268 Y79.457 E14.20691
G1 X98.049 Y80.12 E14.30149
G1 X98.47 Y80.309 E14.32445
G1 X99.366 Y80.781 E14.37485
G1 X99.707 Y80.985 E14.39463
G1 X100.568 Y81.568 E14.44637
G1 X100.909 Y81.83 E14.46777
G1 X101.885 Y82.677 E14.53208
G1 X102.21 Y82.997 E14.55478
G1 X102.997 Y83.878 E14.61357
G1 X103.27 Y84.224 E14.6355
G1 X104.027 Y85.315 E14.70159
G1 X104.298 Y85.775 E14.72816
G1 X105.023 Y87.245 E14.80973
G1 X105.22 Y87.732 E14.83587
G1 X105.611 Y88.944 E14.89925
G1 X105.716 Y89.349 E14.92007
G1 X105.909 Y90.323 E14.96948
G1 X105.97 Y90.779 E14.99238
G1 X106.08 Y92.397 E15.07308
G1 X106.076 Y92.93 E15.09961
G1 X105.97 Y94.246 E15.16531
G1 X105.911 Y94.666 E15.18642
G1 X105.699 Y95.721 E15.23997
G1 X105.59 Y96.135 E15.26128
G1 X105.206 Y97.304 E15.32251
G1 X105.006 Y97.79 E15.34866
G1 X104.25 Y99.303 E15.43284
G1 X104.015 Y99.707 E15.4561
G1 X103.447 Y100.549 E15.50664
G1 X103.184 Y100.892 E15.52815
G1 X102.327 Y101.882 E15.59331
G1 X101.994 Y102.219 E15.61689
G1 X101.021 Y103.082 E15.68162
G1 X100.65 Y103.37 E15.70499
G1 X99.574 Y104.098 E15.76964
G1 X99.168 Y104.336 E15.79306
G1 X97.979 Y104.931 E15.85923
G1 X97.508 Y105.126 E15.8846
G1 X96.091 Y105.599 E15.95894
G1 X95.621 Y105.721 E15.9831
G1 X94.433 Y105.946 E16.04328
G1 X94.021 Y106 E16.06396
G1 X92.935 Y106.078 E16.11814
G1 X92.442 Y106.079 E16.14267
G1 X90.792 Y105.971 E16.22496
G1 X90.313 Y105.908 E16.24901
G1 X89.275 Y105.698 E16.30171
G1 X88.734 Y105.543 E16.32972
G1 X86.952 Y104.88 E16.42434
G1 X86.528 Y104.691 E16.44744
G1 X85.631 Y104.218 E16.4979
G1 X85.293 Y104.015 E16.51753
G1 X84.433 Y103.433 E16.5692
G1 X84.033 Y103.118 E16.59454
G1 X82.824 Y102.022 E16.67575
G1 X82.48 Y101.665 E16.70042
G1 X81.672 Y100.699 E16.7631
G1 X81.389 Y100.31 E16.78703
G1 X80.666 Y99.164 E16.85447
G1 X80.448 Y98.765 E16.87709
G1 X79.944 Y97.684 E16.93645
G1 X79.78 Y97.266 E16.9588
G1 X79.389 Y96.052 E17.02227
G1 X79.279 Y95.62 E17.04445
G1 X79.054 Y94.435 E17.10448
G1 X79 Y94.019 E17.12535
G1 X78.921 Y92.909 E17.18073
G1 X78.927 Y92.321 E17.21
G1 X79.115 Y90.3 E17.31101
G1 X79.186 Y89.851 E17.33363
G1 X79.38 Y88.98 E17.37804
G1 X79.487 Y88.6 E17.39768
G1 X79.839 Y87.568 E17.45195
G1 X80.004 Y87.164 E17.47366
G1 X80.536 Y86.063 E17.53452
G1 X80.785 Y85.629 E17.55942
G1 X81.668 Y84.308 E17.63849
G1 X81.989 Y83.896 E17.66448
G1 X82.876 Y82.914 E17.73034
G0 F2400 X83.172 Y83.181
G1 F1200 X83.475 Y82.888 E17.75131
G1 X84.461 Y82.05 E17.81571
G1 X84.798 Y81.799 E17.83662
G1 X85.934 Y81.066 E17.9039
G1 X86.301 Y80.862 E17.9248
G1 X87.441 Y80.323 E17.98755
G1 X87.832 Y80.169 E18.00847
G1 X89.098 Y79.763 E18.07463
G1 X89.499 Y79.662 E18.09521
G1 X90.767 Y79.43 E18.15936
G1 X91.133 Y79.385 E18.17771
G1 X92.184 Y79.316 E18.23013
G1 X92.566 Y79.314 E18.24914
G1 X93.827 Y79.382 E18.31198
G1 X94.242 Y79.431 E18.33278
G1 X95.599 Y79.684 E18.40147
G1 X96.128 Y79.831 E18.4288
G1 X97.909 Y80.494 E18.52337
G1 X98.284 Y80.662 E18.54382
G1 X99.18 Y81.134 E18.59422
G1 X99.483 Y81.315 E18.61178
G1 X100.344 Y81.898 E18.66353
G1 X100.647 Y82.131 E18.68255
G1 X101.623 Y82.978 E18.74686
G1 X101.912 Y83.263 E18.76706
G1 X102.699 Y84.144 E18.82585
G1 X102.942 Y84.452 E18.84538
G1 X103.699 Y85.543 E18.91146
G1 X103.94 Y85.952 E18.93509
G1 X104.665 Y87.422 E19.01665
G1 X104.84 Y87.855 E19.0399
G1 X105.231 Y89.067 E19.10327
G1 X105.325 Y89.427 E19.12179
G1 X105.518 Y90.401 E19.1712
G1 X105.572 Y90.806 E19.19154
G1 X105.682 Y92.424 E19.27224
G1 X105.679 Y92.898 E19.29583
G1 X105.573 Y94.214 E19.36154
G1 X105.52 Y94.587 E19.38028
G1 X105.308 Y95.642 E19.43384
G1 X105.211 Y96.011 E19.45282
G1 X104.827 Y97.18 E19.51406
G1 X104.65 Y97.611 E19.53725
G1 X103.894 Y99.124 E19.62142
G1 X103.684 Y99.484 E19.64216
G1 X103.116 Y100.326 E19.6927
G1 X102.882 Y100.63 E19.71179
G1 X102.025 Y101.62 E19.77696
G1 X101.729 Y101.92 E19.79793
G1 X100.756 Y102.783 E19.86265
G1 X100.426 Y103.039 E19.88344
G1 X99.35 Y103.767 E19.94809
G1 X98.989 Y103.979 E19.96893
G1 X97.8 Y104.574 E20.03509
G1 X97.381 Y104.747 E20.05765
G1 X95.964 Y105.22 E20.13199
G1 X95.546 Y105.329 E20.15349
G1 X94.358 Y105.554 E20.21366
G1 X93.992 Y105.602 E20.23203
G1 X92.906 Y105.68 E20.28622
G1 X92.468 Y105.681 E20.30802
G1 X90.818 Y105.573 E20.39031
G1 X90.392 Y105.516 E20.41169
G1 X89.354 Y105.306 E20.4644
G1 X88.873 Y105.169 E20.48929
G1 X87.091 Y104.506 E20.58391
G1 X86.714 Y104.338 E20.60445
G1 X85.817 Y103.865 E20.65491
G1 X85.517 Y103.684 E20.67235
G1 X84.657 Y103.102 E20.72403
G1 X84.301 Y102.823 E20.74654
G1 X83.092 Y101.727 E20.82775
G1 X82.786 Y101.409 E20.84971
G1 X81.978 Y100.443 E20.91238
G1 X81.727 Y100.097 E20.93365
G1 X81.004 Y98.951 E21.00109
G1 X80.81 Y98.596 E21.02122
G1 X80.306 Y97.515 E21.08058
G1 X80.16 Y97.144 E21.10042
G1 X79.769 Y95.93 E21.16389
G1 X79.671 Y95.546 E21.18361
G1 X79.446 Y94.361 E21.24364
G1 X79.398 Y93.991 E21.2622
G1 X79.319 Y92.881 E21.31758
G1 X79.325 Y92.358 E21.34361
G1 X79.513 Y90.337 E21.44462
G1 X79.576 Y89.937 E21.46477
G1 X79.77 Y89.066 E21.50918
G1 X79.864 Y88.729 E21.52659
G1 X80.216 Y87.697 E21.58086
G1 X80.364 Y87.338 E21.60018
G1 X80.896 Y86.237 E21.66103
G1 X81.117 Y85.851 E21.68317
G1 X82 Y84.53 E21.76224
G1 X82.285 Y84.163 E21.78537
G1 X83.172 Y83.181 E21.85122
G1 F1500 E20.85122
G0 F2400 X84.865 Y85.055
G0 X84.918 Y85.114
G0 X90.383 Y91.162
G0 X90.437 Y91.221
G0 X90.599 Y91.4
;TYPE:SUPPORT
G1 F1500 E21.85122
G1 F1200 X92.5 Y90.303 E21.96045
G1 X94.401 Y91.4 E22.06967
G1 X94.401 Y93.6 E22.17916
G1 X92.5 Y94.697 E22.28838
G1 X90.599 Y93.6 E22.39761
G1 X90.599 Y91.4 E22.50709
G0 F2400 X92.199 Y90.661
G1 F1200 X92.802 Y90.661 E22.5371
G1 F1500 E21.5371
G0 F2400 X93.001 Y90.321
G0 X93.64 Y89.212
G0 X92.5 Y88.116
;TYPE:WALL-INNER
G1 F1500 E22.5371
G1 F1200 X88.704 Y90.308 E22.75525
G1 X88.704 Y94.692 E22.97342
G1 X92.5 Y96.884 E23.19156
G1 X96.296 Y94.692 E23.4097
G1 X96.296 Y90.308 E23.62788
G1 X92.5 Y88.116 E23.84602
G0 F2400 X92.173 Y84.335
G1 F1200 X92.504 Y84.197 E23.86387
G1 X92.536 Y84.22 E23.86583
G1 X92.866 Y84.344 E23.88337
G1 X93.251 Y84.362 E23.90255
G1 X93.593 Y84.265 E23.92024
G1 X93.767 Y84.391 E23.93093
G1 X94.1 Y84.501 E23.94839
G1 X94.416 Y84.519 E23.96414
G1 X94.648 Y84.472 E23.97592
G1 X94.697 Y84.532 E23.97977
G1 X95.038 Y84.749 E23.99989
G1 X95.469 Y84.855 E24.02198
G1 X95.677 Y84.817 E24.0325
G1 X95.825 Y84.993 E24.04394
G1 X96.099 Y85.182 E24.06051
G1 X96.414 Y85.29 E24.07708
G1 X96.647 Y85.301 E24.08869
G1 X96.658 Y85.329 E24.09019
G1 X96.894 Y85.616 E24.10868
G1 X97.205 Y85.817 E24.12711
G1 X97.559 Y85.92 E24.14545
G1 X97.719 Y86.205 E24.16172
G1 X98.035 Y86.496 E24.1831
G1 X98.379 Y86.628 E24.20143
G1 X98.407 Y86.755 E24.2079
G1 X98.589 Y87.076 E24.22627
G1 X98.854 Y87.322 E24.24426
G1 X99.093 Y87.443 E24.25759
G1 X99.134 Y87.66 E24.26858
