;FLAVOR:Marlin
;TIME:7059
;Filament used: 6.14275m
;Layer height: 0.15
;Generated with Cura_SteamEngine 2.7.0
M190 S60
M104 S220
M109 S220
G21 ;metric values
G90 ;absolute positioning
M82 ;set extruder to absolute mode
M107 ;start with the fan off
G92 E0 ;zero the extruded length
G1 F200 E3 ;extrude 3mm of feed stock
G92 E0 ;zero the extruded length again
G1 F9000
M301 P26.92 I2.54 D71.46 ;set PID tuning for E0
M117 Printing...
;LAYER_COUNT:46
;LAYER:0
M107
G0 F2400 X57.573 Y68.492 Z0.3
G0 X57.12 Y68.914
;TYPE:SKIRT
G1 F1200 X57.573 Y68.492 E0.03081
G1 X58.101 Y68.118 E0.06301
G1 X58.908 Y67.624 E0.1101
G1 X59.456 Y67.335 E0.14093
G1 X60.025 Y67.123 E0.17115
G1 X60.515 Y66.975 E0.19662
G1 X61.118 Y66.834 E0.22744
G1 X61.509 Y66.786 E0.24704
G1 X62.64 Y66.693 E0.30352
G1 X63.037 Y66.677 E0.32329
G1 X103.016 Y66.711 E2.31287
G1 X103.634 Y66.751 E2.34369
G1 X103.963 Y66.806 E2.36029
G1 X105.075 Y67.031 E2.41675
G1 X105.876 Y67.267 E2.4583
G1 X106.61 Y67.555 E2.49754
G1 X107.023 Y67.741 E2.52008
G1 X113.26 Y70.897 E2.86794
G1 X118.234 Y73.039 E3.13746
G1 X120.705 Y73.98 E3.26904
G1 X126.748 Y75.982 E3.58585
G1 X127.322 Y76.215 E3.61668
G1 X127.861 Y76.519 E3.64747
G1 X128.357 Y76.89 E3.6783
G1 X128.886 Y77.419 E3.71553
G1 X129.151 Y77.729 E3.73582
G1 X129.522 Y78.224 E3.76661
G1 X129.826 Y78.763 E3.7974
G1 X130.058 Y79.337 E3.82821
G1 X130.214 Y79.936 E3.85902
G1 X130.301 Y80.844 E3.90441
G1 X130.306 Y110.749 E5.39265
G1 X130.247 Y111.501 E5.43019
G1 X130.186 Y111.886 E5.44959
G1 X129.996 Y112.661 E5.4893
G1 X129.807 Y113.224 E5.51885
G1 X129.572 Y113.797 E5.54967
G1 X129.412 Y114.099 E5.56668
G1 X129.105 Y114.63 E5.5972
G1 X128.761 Y115.144 E5.62798
G1 X128.414 Y115.549 E5.65452
G1 X127.851 Y116.136 E5.695
G1 X127.395 Y116.554 E5.72579
G1 X126.888 Y116.91 E5.75662
G1 X126.552 Y117.097 E5.77575
G1 X125.477 Y117.64 E5.83569
G1 X124.908 Y117.883 E5.86648
G1 X124.1 Y118.09 E5.90799
G1 X123.515 Y118.187 E5.9375
G1 X122.735 Y118.252 E5.97645
G1 X62.379 Y118.312 E8.9801
G1 X61.761 Y118.273 E9.01091
G1 X61.361 Y118.204 E9.03111
G1 X60.301 Y117.975 E9.08508
G1 X59.706 Y117.805 E9.11588
G1 X59.137 Y117.561 E9.14669
G1 X58.802 Y117.372 E9.16583
G1 X58.023 Y116.893 E9.21134
G1 X57.518 Y116.536 E9.24212
G1 X56.939 Y115.981 E9.28203
G1 X56.362 Y115.327 E9.32543
G1 X55.983 Y114.837 E9.35626
G1 X55.676 Y114.314 E9.38644
G1 X55.389 Y113.745 E9.41816
G1 X55.146 Y113.175 E9.44899
G1 X55.002 Y112.683 E9.4745
G1 X54.822 Y111.918 E9.51361
G1 X54.72 Y111.308 E9.54439
G1 X54.695 Y110.823 E9.56856
G1 X54.671 Y75.25 E11.33887
G1 X54.689 Y74.833 E11.35964
G1 X54.819 Y73.333 E11.43457
G1 X54.912 Y72.721 E11.46537
G1 X55.083 Y72.126 E11.49618
G1 X55.269 Y71.68 E11.52023
G1 X55.725 Y70.725 E11.5729
G1 X56.027 Y70.185 E11.60369
G1 X56.568 Y69.498 E11.6472
G1 X57.12 Y68.914 E11.6872
G0 F2400 X57.41 Y69.188
G1 F1200 X57.845 Y68.785 E11.71671
G1 X58.309 Y68.458 E11.74496
G1 X59.116 Y67.964 E11.79204
G1 X59.642 Y67.689 E11.82158
G1 X60.141 Y67.505 E11.84805
G1 X60.631 Y67.357 E11.87352
G1 X61.208 Y67.224 E11.90299
G1 X61.542 Y67.184 E11.91973
G1 X62.673 Y67.091 E11.9762
G1 X63.037 Y67.076 E11.99433
G1 X103.016 Y67.11 E13.98391
G1 X103.884 Y67.197 E14.02732
G1 X104.996 Y67.422 E14.08378
G1 X105.73 Y67.639 E14.12187
G1 X106.464 Y67.927 E14.16111
G1 X106.843 Y68.097 E14.18178
G1 X113.1 Y71.263 E14.53076
G1 X118.074 Y73.405 E14.80027
G1 X120.57 Y74.356 E14.93319
G1 X126.623 Y76.361 E15.25052
G1 X127.172 Y76.585 E15.28003
G1 X127.685 Y76.881 E15.3095
G1 X128.155 Y77.243 E15.33903
G1 X128.582 Y77.678 E15.36936
G1 X128.847 Y77.988 E15.38966
G1 X129.201 Y78.463 E15.41914
G1 X129.488 Y78.982 E15.44865
G1 X129.702 Y79.535 E15.47816
G1 X129.84 Y80.111 E15.50764
G1 X129.902 Y80.844 E15.54425
G1 X129.907 Y110.749 E17.03248
G1 X129.853 Y111.438 E17.06688
G1 X129.792 Y111.823 E17.08628
G1 X129.617 Y112.534 E17.12271
G1 X129.428 Y113.097 E17.15227
G1 X129.067 Y113.899 E17.19604
G1 X128.76 Y114.43 E17.22656
G1 X128.429 Y114.922 E17.25607
G1 X128.126 Y115.273 E17.27915
G1 X127.563 Y115.86 E17.31962
G1 X127.125 Y116.259 E17.34911
G1 X126.637 Y116.595 E17.3786
G1 X126.372 Y116.741 E17.39365
G1 X125.297 Y117.284 E17.45359
G1 X124.752 Y117.515 E17.48305
G1 X124.034 Y117.697 E17.51991
G1 X123.449 Y117.794 E17.54942
G1 X122.734 Y117.853 E17.58512
G1 X62.378 Y117.913 E20.58877
G1 X61.787 Y117.874 E20.61824
G1 X61.446 Y117.814 E20.63547
G1 X60.386 Y117.585 E20.68944
G1 X59.816 Y117.421 E20.71896
G1 X59.273 Y117.182 E20.74848
G1 X59.011 Y117.033 E20.76348
G1 X58.232 Y116.554 E20.80899
G1 X57.749 Y116.21 E20.8385
G1 X57.238 Y115.717 E20.87384
G1 X56.661 Y115.063 E20.91724
G1 X56.3 Y114.593 E20.94673
G1 X56.032 Y114.134 E20.97319
G1 X55.745 Y113.565 E21.0049
G1 X55.514 Y113.019 E21.0344
G1 X55.391 Y112.592 E21.05652
G1 X55.211 Y111.827 E21.09563
G1 X55.114 Y111.242 E21.12514
G1 X55.094 Y110.823 E21.14601
G1 X55.07 Y75.25 E22.91632
G1 X55.086 Y74.867 E22.9354
G1 X55.216 Y73.367 E23.01033
G1 X55.307 Y72.782 E23.03979
G1 X55.476 Y72.213 E23.06933
G1 X55.629 Y71.852 E23.08884
G1 X56.085 Y70.897 E23.14151
G1 X56.376 Y70.381 E23.17099
G1 X56.858 Y69.772 E23.20964
G1 X57.41 Y69.188 E23.24963
G0 F2400 X57.7 Y69.462
G1 F1200 X58.116 Y69.079 E23.27777
G1 X58.518 Y68.798 E23.30218
G1 X59.325 Y68.304 E23.34927
G1 X59.826 Y68.044 E23.37736
G1 X60.256 Y67.887 E23.40014
G1 X60.746 Y67.739 E23.42561
G1 X61.574 Y67.581 E23.46756
G1 X62.705 Y67.488 E23.52403
G1 X63.036 Y67.475 E23.54052
G1 X103.015 Y67.509 E25.53009
G1 X103.805 Y67.588 E25.56961
G1 X104.917 Y67.813 E25.62607
G1 X105.584 Y68.01 E25.66068
G1 X106.318 Y68.298 E25.69992
G1 X106.663 Y68.453 E25.71874
G1 X112.927 Y71.623 E26.06811
G1 X117.934 Y73.779 E26.33941
G1 X120.442 Y74.734 E26.47296
G1 X126.497 Y76.74 E26.7904
G1 X127.02 Y76.955 E26.81854
G1 X127.507 Y77.242 E26.84667
G1 X127.949 Y77.594 E26.87479
G1 X128.279 Y77.937 E26.89848
G1 X128.544 Y78.247 E26.91877
G1 X128.88 Y78.702 E26.94692
G1 X129.148 Y79.199 E26.97502
G1 X129.344 Y79.729 E27.00314
G1 X129.463 Y80.282 E27.03129
G1 X129.503 Y80.844 E27.05933
G1 X129.508 Y110.749 E28.54757
G1 X129.459 Y111.376 E28.57887
G1 X129.398 Y111.761 E28.59827
G1 X129.239 Y112.407 E28.63137
G1 X129.05 Y112.97 E28.66093
G1 X128.721 Y113.699 E28.70073
G1 X128.414 Y114.23 E28.73125
G1 X128.097 Y114.698 E28.75938
G1 X127.838 Y114.996 E28.77903
G1 X127.275 Y115.583 E28.81951
G1 X126.856 Y115.963 E28.84766
G1 X126.193 Y116.385 E28.88677
G1 X125.118 Y116.928 E28.94671
G1 X124.596 Y117.146 E28.97486
G1 X123.969 Y117.303 E29.00702
G1 X123.384 Y117.4 E29.03654
G1 X122.734 Y117.454 E29.06899
G1 X62.378 Y117.514 E32.07264
G1 X61.814 Y117.475 E32.10078
G1 X61.53 Y117.424 E32.11513
G1 X60.47 Y117.195 E32.1691
G1 X59.927 Y117.037 E32.19725
G1 X59.22 Y116.693 E32.23637
G1 X58.441 Y116.214 E32.28188
G1 X57.982 Y115.884 E32.31002
G1 X57.537 Y115.453 E32.34085
G1 X56.96 Y114.799 E32.38425
G1 X56.617 Y114.35 E32.41237
G1 X56.388 Y113.954 E32.43513
G1 X56.101 Y113.385 E32.46685
G1 X55.883 Y112.864 E32.49495
G1 X55.779 Y112.501 E32.51375
G1 X55.599 Y111.736 E32.55286
G1 X55.509 Y111.178 E32.58098
G1 X55.493 Y110.823 E32.59867
G1 X55.469 Y75.25 E34.36898
G1 X55.484 Y74.902 E34.38631
G1 X55.614 Y73.402 E34.46124
G1 X55.702 Y72.844 E34.48935
G1 X55.869 Y72.303 E34.51753
G1 X55.989 Y72.024 E34.53264
G1 X56.445 Y71.069 E34.58531
G1 X56.724 Y70.578 E34.61341
G1 X57.148 Y70.046 E34.64727
G1 X57.7 Y69.462 E34.68726
G0 F2400 X57.989 Y69.736
G1 F1200 X58.386 Y69.375 E34.71396
G1 X58.726 Y69.138 E34.73459
G1 X59.533 Y68.644 E34.78168
G1 X60.01 Y68.399 E34.80836
G1 X60.371 Y68.269 E34.82746
G1 X60.861 Y68.121 E34.85293
G1 X61.607 Y67.979 E34.89072
G1 X62.738 Y67.886 E34.9472
G1 X63.036 Y67.874 E34.96204
G1 X103.015 Y67.908 E36.95161
G1 X103.726 Y67.979 E36.98717
G1 X104.838 Y68.204 E37.04363
G1 X105.439 Y68.382 E37.07483
G1 X106.173 Y68.67 E37.11407
G1 X106.483 Y68.809 E37.13097
G1 X112.754 Y71.982 E37.48073
G1 X117.794 Y74.153 E37.75382
G1 X120.308 Y75.11 E37.88769
G1 X126.372 Y77.119 E38.2056
G1 X126.867 Y77.325 E38.23228
G1 X127.326 Y77.602 E38.25896
G1 X127.738 Y77.944 E38.28561
G1 X127.976 Y78.196 E38.30286
G1 X128.241 Y78.506 E38.32316
G1 X128.558 Y78.939 E38.34986
G1 X128.807 Y79.414 E38.37655
G1 X128.983 Y79.92 E38.40321
G1 X129.082 Y80.447 E38.4299
G1 X129.104 Y80.844 E38.44968
G1 X129.109 Y110.749 E39.93792
G1 X129.065 Y111.313 E39.96607
G1 X129.004 Y111.698 E39.98547
G1 X128.861 Y112.28 E40.0153
G1 X128.672 Y112.843 E40.04485
G1 X128.376 Y113.499 E40.08067
G1 X128.069 Y114.03 E40.11119
G1 X127.767 Y114.473 E40.13787
G1 X127.55 Y114.72 E40.15424
G1 X126.987 Y115.307 E40.19471
G1 X126.588 Y115.665 E40.22139
G1 X126.013 Y116.028 E40.25523
G1 X124.938 Y116.571 E40.31517
G1 X124.442 Y116.777 E40.34189
G1 X123.904 Y116.91 E40.36947
G1 X123.319 Y117.007 E40.39898
G1 X122.734 Y117.055 E40.42819
G1 X62.378 Y117.115 E43.43184
G1 X61.614 Y117.034 E43.47008
G1 X60.554 Y116.805 E43.52404
G1 X60.04 Y116.653 E43.55072
G1 X59.429 Y116.353 E43.58459
G1 X58.65 Y115.874 E43.6301
G1 X58.215 Y115.56 E43.6568
G1 X57.836 Y115.189 E43.68319
G1 X57.259 Y114.535 E43.7266
G1 X56.935 Y114.108 E43.75327
G1 X56.745 Y113.775 E43.77235
G1 X56.458 Y113.206 E43.80407
G1 X56.252 Y112.71 E43.83079
G1 X56.168 Y112.409 E43.84635
G1 X55.988 Y111.644 E43.88546
G1 X55.904 Y111.115 E43.91211
G1 X55.892 Y110.822 E43.92671
G1 X55.868 Y75.249 E45.69701
G1 X55.881 Y74.936 E45.7126
G1 X56.011 Y73.436 E45.78753
G1 X56.097 Y72.907 E45.8142
G1 X56.349 Y72.196 E45.85174
G1 X56.805 Y71.241 E45.90441
G1 X57.072 Y70.776 E45.93109
G1 X57.437 Y70.32 E45.96016
G1 X57.989 Y69.736 E46.00015
G0 F2400 X58.279 Y70.01
G1 F1200 X58.655 Y69.671 E46.02535
G1 X58.934 Y69.479 E46.0422
G1 X59.741 Y68.985 E46.08929
G1 X60.192 Y68.756 E46.11446
G1 X60.487 Y68.651 E46.13004
G1 X60.977 Y68.503 E46.15552
G1 X61.64 Y68.377 E46.1891
G1 X62.771 Y68.284 E46.24558
G1 X63.036 Y68.273 E46.25878
G1 X103.015 Y68.307 E48.24835
G1 X103.647 Y68.371 E48.27996
G1 X104.759 Y68.596 E48.33642
G1 X105.293 Y68.753 E48.36412
G1 X106.027 Y69.041 E48.40336
G1 X106.303 Y69.165 E48.41842
G1 X112.588 Y72.346 E48.76898
G1 X117.643 Y74.522 E49.04286
G1 X120.16 Y75.481 E49.1769
G1 X126.246 Y77.497 E49.49596
G1 X126.712 Y77.694 E49.52114
G1 X127.141 Y77.961 E49.54628
G1 X127.672 Y78.456 E49.58241
G1 X127.937 Y78.766 E49.6027
G1 X128.235 Y79.175 E49.62789
G1 X128.464 Y79.625 E49.65302
G1 X128.619 Y80.107 E49.67821
G1 X128.705 Y80.844 E49.71514
G1 X128.71 Y110.749 E51.20338
G1 X128.671 Y111.251 E51.22843
G1 X128.61 Y111.636 E51.24783
G1 X128.483 Y112.153 E51.27433
G1 X128.294 Y112.716 E51.30388
G1 X128.03 Y113.3 E51.33577
G1 X127.723 Y113.831 E51.3663
G1 X127.436 Y114.247 E51.39145
G1 X127.262 Y114.444 E51.40453
G1 X126.699 Y115.031 E51.44501
G1 X126.322 Y115.367 E51.47014
G1 X125.833 Y115.672 E51.49882
G1 X124.758 Y116.215 E51.55875
G1 X124.29 Y116.407 E51.58393
G1 X123.838 Y116.516 E51.60707
G1 X123.253 Y116.613 E51.63658
G1 X122.733 Y116.656 E51.66254
G1 X62.377 Y116.716 E54.66619
G1 X61.698 Y116.644 E54.70017
G1 X60.638 Y116.415 E54.75414
G1 X60.154 Y116.269 E54.7793
G1 X59.638 Y116.013 E54.80796
G1 X58.859 Y115.534 E54.85347
G1 X58.45 Y115.236 E54.87866
G1 X58.135 Y114.925 E54.90069
G1 X57.558 Y114.271 E54.94409
G1 X57.255 Y113.867 E54.96922
G1 X57.101 Y113.595 E54.98478
G1 X56.814 Y113.026 E55.01649
G1 X56.556 Y112.318 E55.05399
G1 X56.376 Y111.553 E55.0931
G1 X56.291 Y110.822 E55.12972
G1 X56.267 Y75.249 E56.90003
G1 X56.279 Y74.971 E56.91388
G1 X56.409 Y73.471 E56.98881
G1 X56.492 Y72.972 E57.01398
G1 X56.709 Y72.368 E57.04592
G1 X57.165 Y71.413 E57.09859
G1 X57.419 Y70.976 E57.12374
G1 X57.727 Y70.594 E57.14816
G1 X58.279 Y70.01 E57.18815
G1 F1500 E56.18815
G0 F2400 X60 Y71.832
G0 X60.055 Y71.89
G0 X61.659 Y73.589
G0 X61.714 Y73.647
G0 X61.875 Y73.818
;TYPE:SUPPORT
G1 F1500 E57.18815
G1 F1200 X61.97 Y73.751 E57.19394
G1 X62.071 Y73.7 E57.19957
G1 X62.169 Y73.665 E57.20475
G1 X62.288 Y73.639 E57.21081
G1 X62.408 Y73.632 E57.21679
G1 X62.527 Y73.637 E57.22272
G1 X62.622 Y73.655 E57.22753
G1 X62.718 Y73.688 E57.23258
G1 X62.836 Y73.748 E57.23917
G1 X62.929 Y73.81 E57.24473
G1 X63.011 Y73.882 E57.25016
G1 X63.085 Y73.967 E57.25577
G1 X63.148 Y74.065 E57.26157
G1 X63.196 Y74.166 E57.26713
G1 X63.229 Y74.268 E57.27247
G1 X63.249 Y74.386 E57.27843
G1 X63.255 Y74.507 E57.28446
G1 X63.246 Y74.607 E57.28945
G1 X63.219 Y74.723 E57.29538
G1 X63.182 Y74.826 E57.30083
G1 X63.13 Y74.923 E57.3063
G1 X63.054 Y75.026 E57.31267
G1 X62.985 Y75.1 E57.31771
G1 X62.895 Y75.172 E57.32344
G1 X62.796 Y75.231 E57.32918
G1 X62.689 Y75.278 E57.335
G1 X62.589 Y75.306 E57.34016
G1 X62.471 Y75.323 E57.3461
G1 X62.36 Y75.324 E57.35162
G1 X62.235 Y75.309 E57.35789
G1 X62.142 Y75.285 E57.36267
G1 X62.035 Y75.24 E57.36844
G1 X61.926 Y75.176 E57.37473
G1 X61.845 Y75.113 E57.37984
G1 X61.764 Y75.03 E57.38561
G1 X61.698 Y74.942 E57.39108
G1 X61.638 Y74.834 E57.39723
G1 X61.601 Y74.737 E57.4024
G1 X61.576 Y74.636 E57.40758
G1 X61.56 Y74.502 E57.41429
G1 X61.563 Y74.391 E57.41982
G1 X61.578 Y74.296 E57.42461
G1 X61.612 Y74.181 E57.43057
G1 X61.663 Y74.072 E57.43656
G1 X61.722 Y73.978 E57.44209
G1 X61.794 Y73.892 E57.44767
G1 X61.875 Y73.818 E57.45313
G0 F2400 X61.746 Y74.662
G1 F1200 X63.068 Y74.662 E57.51892
G1 F1500 E56.51892
G0 F2400 X63.115 Y75.304
G0 X63.12 Y75.383
G0 X63.379 Y78.852
G0 X63.385 Y78.932
G0 X63.403 Y79.164
G1 F1500 E57.51892
G1 F1200 X63.596 Y79.156 E57.52853
G1 X63.835 Y79.171 E57.54045
G1 X64.03 Y79.203 E57.55028
G1 X64.234 Y79.258 E57.5608
G1 X64.431 Y79.334 E57.5713
G1 X64.628 Y79.433 E57.58228
G1 X64.81 Y79.548 E57.59299
G1 X64.963 Y79.669 E57.6027
G1 X65.118 Y79.82 E57.61347
G1 X65.261 Y79.99 E57.62452
G1 X65.388 Y80.177 E57.63577
G1 X65.474 Y80.334 E57.64468
G1 X65.56 Y80.542 E57.65588
G1 X65.628 Y80.766 E57.66753
G1 X65.665 Y80.954 E57.67707
G1 X65.685 Y81.168 E57.68776
G1 X65.682 Y81.374 E57.69802
G1 X65.657 Y81.599 E57.70928
G1 X65.613 Y81.804 E57.71972
G1 X65.55 Y82.002 E57.73006
G1 X65.468 Y82.187 E57.74013
G1 X65.357 Y82.381 E57.75125
G1 X65.228 Y82.561 E57.76227
G1 X65.089 Y82.72 E57.77278
G1 X64.942 Y82.857 E57.78278
G1 X64.769 Y82.989 E57.79361
G1 X64.594 Y83.095 E57.80379
G1 X64.384 Y83.195 E57.81537
G1 X64.197 Y83.263 E57.82527
G1 X63.984 Y83.315 E57.83618
G1 X63.782 Y83.343 E57.84633
G1 X63.577 Y83.352 E57.85654
G1 X63.335 Y83.337 E57.86861
G1 X63.145 Y83.306 E57.87819
G1 X62.946 Y83.252 E57.88845
G1 X62.733 Y83.17 E57.89981
G1 X62.556 Y83.082 E57.90964
G1 X62.358 Y82.955 E57.92135
G1 X62.21 Y82.837 E57.93077
G1 X62.054 Y82.687 E57.94154
G1 X61.915 Y82.521 E57.95232
G1 X61.794 Y82.343 E57.96303
G1 X61.698 Y82.165 E57.97309
G1 X61.61 Y81.953 E57.98451
G1 X61.549 Y81.751 E57.99502
G1 X61.509 Y81.547 E58.00536
G1 X61.49 Y81.34 E58.01571
G1 X61.493 Y81.127 E58.02631
G1 X61.518 Y80.9 E58.03767
G1 X61.562 Y80.701 E58.04781
G1 X61.625 Y80.507 E58.05797
G1 X61.712 Y80.309 E58.06873
G1 X61.812 Y80.135 E58.07872
G1 X61.941 Y79.953 E58.08982
G1 X62.092 Y79.782 E58.10117
G1 X62.24 Y79.645 E58.11121
G1 X62.394 Y79.528 E58.12083
G1 X62.586 Y79.41 E58.13205
G1 X62.799 Y79.309 E58.14378
G1 X62.976 Y79.245 E58.15314
G1 X63.173 Y79.197 E58.16324
G1 X63.403 Y79.164 E58.1748
G0 F2400 X63.996 Y79.36
G1 F1200 X63.996 Y83.148 E58.36331
G0 F2400 X65.057 Y79.995
G1 F1200 X62.117 Y79.995 E58.50962
G1 F1500 E57.50962
G0 F2400 X62.152 Y83.1
G0 X62.152 Y83.18
G0 X62.451 Y109.364
G0 X62.452 Y109.444
G0 X62.456 Y109.679
G1 F1500 E58.50962
G1 F1200 X62.591 Y109.687 E58.51635
G1 X62.684 Y109.705 E58.52106
G1 X62.795 Y109.744 E58.52692
G1 X62.895 Y109.793 E58.53246
G1 X62.987 Y109.856 E58.53801
G1 X63.068 Y109.927 E58.54337
G1 X63.148 Y110.021 E58.54951
G1 X63.208 Y110.113 E58.55498
G1 X63.255 Y110.214 E58.56052
G1 X63.292 Y110.331 E58.56663
G1 X63.309 Y110.43 E58.57163
G1 X63.315 Y110.556 E58.57791
G1 X63.305 Y110.661 E58.58316
G1 X63.28 Y110.774 E58.58892
G1 X63.24 Y110.879 E58.59451
G1 X63.188 Y110.975 E58.59994
G1 X63.116 Y111.073 E58.60599
G1 X63.039 Y111.153 E58.61152
G1 X62.95 Y111.225 E58.61722
G1 X62.854 Y111.283 E58.6228
G1 X62.755 Y111.325 E58.62815
G1 X62.638 Y111.356 E58.63417
G1 X62.525 Y111.373 E58.63986
