;FLAVOR:Marlin
;TIME:346
;Filament used: 0.114814m
;Layer height: 0.2
;Generated with Cura_SteamEngine 2.7.0
M190 S60
M104 S220
M109 S220
G21 ;metric values
G90 ;absolute positioning
M82 ;set extruder to absolute mode
M107 ;start with the fan off
G92 E0 ;zero the extruded length
G1 F200 E3 ;extrude 3mm of feed stock
G92 E0 ;zero the extruded length again
G1 F9000
M117 Printing...
;LAYER_COUNT:70
;LAYER:0
M107
M204 S5000
G0 F2400 X86.974 Y86.744 Z0.3
G0 X87.224 Y86.513
M204 S200
;TYPE:SKIRT
G1 F1200 X87.741 Y86.09 E0.03324
G1 X88.396 Y85.681 E0.07167
G1 X89.104 Y85.305 E0.11157
G1 X89.712 Y85.028 E0.14482
G1 X90.35 Y84.825 E0.17814
G1 X90.813 Y84.727 E0.20169
G1 X91.615 Y84.594 E0.24214
G1 X92.28 Y84.525 E0.27542
G1 X93.097 Y84.548 E0.31609
G1 X93.539 Y84.593 E0.3382
G1 X94.199 Y84.7 E0.37147
G1 X94.696 Y84.836 E0.39712
G1 X95.19 Y84.996 E0.42296
G1 X95.812 Y85.24 E0.45621
G1 X96.463 Y85.594 E0.49309
G1 X97.084 Y85.988 E0.52969
G1 X97.626 Y86.38 E0.56297
G1 X98.118 Y86.833 E0.59626
G1 X98.345 Y87.084 E0.6131
G1 X98.765 Y87.577 E0.64533
G1 X99.168 Y88.111 E0.67862
G1 X99.568 Y88.822 E0.71922
G1 X99.835 Y89.389 E0.75041
G1 X100.083 Y90.01 E0.78369
G1 X100.256 Y90.656 E0.81697
G1 X100.313 Y90.987 E0.83368
G1 X100.428 Y91.798 E0.87445
G1 X100.482 Y92.464 E0.9077
G1 X100.456 Y93.132 E0.94097
G1 X100.384 Y93.632 E0.96611
G1 X100.249 Y94.339 E1.00193
G1 X100.084 Y94.987 E1.0352
G1 X99.844 Y95.611 E1.06848
G1 X99.529 Y96.205 E1.10194
G1 X99.007 Y97.06 E1.15179
G1 X98.625 Y97.609 E1.18507
G1 X98.18 Y98.108 E1.21835
G1 X97.679 Y98.551 E1.25163
G1 X97.395 Y98.759 E1.26915
G1 X96.581 Y99.317 E1.31826
G1 X96.008 Y99.661 E1.35152
G1 X95.398 Y99.935 E1.3848
G1 X95.009 Y100.066 E1.40523
G1 X94.49 Y100.22 E1.43217
G1 X93.839 Y100.371 E1.46542
G1 X93.174 Y100.444 E1.49872
G1 X92.803 Y100.45 E1.51718
G1 X91.932 Y100.435 E1.56053
G1 X91.265 Y100.384 E1.59382
G1 X90.298 Y100.162 E1.6432
G1 X89.803 Y100.001 E1.6691
G1 X89.18 Y99.756 E1.70242
G1 X88.538 Y99.406 E1.73881
G1 X87.918 Y99.013 E1.77534
G1 X87.376 Y98.622 E1.8086
G1 X86.884 Y98.169 E1.84188
G1 X86.655 Y97.916 E1.85886
G1 X86.235 Y97.423 E1.89109
G1 X85.832 Y96.889 E1.92439
G1 X85.432 Y96.178 E1.96499
G1 X85.165 Y95.611 E1.99617
G1 X84.917 Y94.99 E2.02945
G1 X84.744 Y94.344 E2.06273
G1 X84.687 Y94.011 E2.07955
G1 X84.572 Y93.197 E2.12046
G1 X84.518 Y92.53 E2.15376
G1 X84.544 Y91.862 E2.18703
G1 X84.617 Y91.36 E2.21227
G1 X84.752 Y90.656 E2.24795
G1 X84.917 Y90.008 E2.28122
G1 X85.158 Y89.385 E2.31447
G1 X85.473 Y88.792 E2.34788
G1 X85.997 Y87.935 E2.39787
G1 X86.38 Y87.386 E2.43118
G1 X86.974 Y86.744 E2.47471
G1 X87.224 Y86.513 E2.49165
M204 S5000
G0 F2400 X87.494 Y86.806
M204 S200
G1 F1200 X87.994 Y86.399 E2.52374
G1 X88.583 Y86.034 E2.55822
G1 X89.291 Y85.658 E2.59811
G1 X89.878 Y85.392 E2.63019
G1 X90.493 Y85.2 E2.66225
G1 X90.878 Y85.121 E2.68181
G1 X91.68 Y84.988 E2.72226
G1 X92.321 Y84.922 E2.75433
G1 X93.056 Y84.945 E2.79093
G1 X93.498 Y84.99 E2.81304
G1 X94.134 Y85.095 E2.84512
G1 X94.573 Y85.216 E2.86778
G1 X95.067 Y85.376 E2.89362
G1 X95.666 Y85.612 E2.92566
G1 X96.249 Y85.931 E2.95873
G1 X96.87 Y86.325 E2.99533
G1 X97.392 Y86.704 E3.02743
G1 X98.042 Y87.343 E3.0728
G1 X98.462 Y87.836 E3.10503
G1 X98.848 Y88.352 E3.1371
G1 X99.207 Y88.992 E3.17361
G1 X99.474 Y89.559 E3.2048
G1 X99.712 Y90.158 E3.23688
G1 X99.918 Y91.043 E3.2821
G1 X100.033 Y91.854 E3.32286
G1 X100.083 Y92.496 E3.35491
G1 X100.054 Y93.14 E3.38699
G1 X99.992 Y93.557 E3.40797
G1 X99.857 Y94.264 E3.44379
G1 X99.697 Y94.889 E3.4759
G1 X99.461 Y95.488 E3.50794
G1 X99.188 Y95.997 E3.53668
G1 X98.666 Y96.852 E3.58653
G1 X98.297 Y97.38 E3.61859
G1 X97.865 Y97.858 E3.65065
G1 X97.169 Y98.43 E3.69549
G1 X96.355 Y98.988 E3.7446
G1 X95.802 Y99.319 E3.77667
G1 X95.213 Y99.578 E3.80869
G1 X94.896 Y99.683 E3.82531
G1 X94.377 Y99.837 E3.85225
G1 X93.749 Y99.982 E3.88433
G1 X92.81 Y100.051 E3.93118
G1 X91.939 Y100.036 E3.97454
G1 X91.296 Y99.985 E4.00664
G1 X90.421 Y99.782 E4.05134
G1 X89.926 Y99.621 E4.07724
G1 X89.327 Y99.384 E4.1093
G1 X88.752 Y99.069 E4.14193
G1 X88.132 Y98.676 E4.17846
G1 X87.61 Y98.298 E4.21053
G1 X86.958 Y97.657 E4.25603
G1 X86.538 Y97.164 E4.28826
G1 X86.152 Y96.648 E4.32033
G1 X85.793 Y96.008 E4.35685
G1 X85.526 Y95.441 E4.38804
G1 X85.288 Y94.842 E4.42012
G1 X85.082 Y93.955 E4.46543
G1 X84.967 Y93.141 E4.50635
G1 X84.917 Y92.498 E4.53844
G1 X84.946 Y91.855 E4.57047
G1 X85.009 Y91.436 E4.59156
G1 X85.144 Y90.732 E4.62723
G1 X85.304 Y90.108 E4.65929
G1 X85.541 Y89.508 E4.69139
G1 X85.814 Y89 E4.72009
G1 X86.338 Y88.143 E4.77008
G1 X86.707 Y87.615 E4.80214
G1 X87.244 Y87.037 E4.8414
G1 X87.494 Y86.806 E4.85834
M204 S5000
G0 F2400 X87.765 Y87.1
M204 S200
G1 F1200 X88.246 Y86.71 E4.88916
G1 X88.771 Y86.386 E4.91986
G1 X89.479 Y86.01 E4.95976
G1 X90.043 Y85.756 E4.99054
G1 X90.635 Y85.576 E5.02133
G1 X90.943 Y85.515 E5.03696
G1 X91.745 Y85.382 E5.07741
G1 X92.361 Y85.32 E5.10823
G1 X93.016 Y85.342 E5.14084
G1 X93.458 Y85.387 E5.16295
G1 X94.068 Y85.489 E5.19373
G1 X94.45 Y85.595 E5.21346
G1 X94.944 Y85.755 E5.2393
G1 X95.519 Y85.984 E5.2701
G1 X96.035 Y86.268 E5.29941
G1 X96.656 Y86.662 E5.33601
G1 X97.157 Y87.027 E5.36686
G1 X97.738 Y87.602 E5.40754
G1 X98.158 Y88.095 E5.43977
G1 X98.528 Y88.591 E5.47056
G1 X98.846 Y89.162 E5.50309
G1 X99.113 Y89.729 E5.53428
G1 X99.34 Y90.305 E5.56509
G1 X99.522 Y91.099 E5.60563
G1 X99.637 Y91.91 E5.64639
G1 X99.685 Y92.527 E5.67719
G1 X99.652 Y93.145 E5.70799
G1 X99.6 Y93.483 E5.72501
G1 X99.465 Y94.19 E5.76083
G1 X99.31 Y94.789 E5.79162
G1 X99.079 Y95.363 E5.82241
G1 X98.847 Y95.789 E5.84655
G1 X98.325 Y96.644 E5.8964
G1 X97.969 Y97.151 E5.92723
G1 X97.551 Y97.607 E5.95802
G1 X96.944 Y98.101 E5.99696
G1 X96.13 Y98.659 E6.04608
G1 X95.598 Y98.975 E6.07687
G1 X94.782 Y99.301 E6.1206
G1 X94.263 Y99.455 E6.14754
G1 X93.66 Y99.592 E6.17832
G1 X92.816 Y99.652 E6.22042
G1 X91.945 Y99.637 E6.26378
G1 X91.328 Y99.587 E6.29458
G1 X90.545 Y99.403 E6.33461
G1 X90.05 Y99.242 E6.36051
G1 X89.474 Y99.013 E6.39136
G1 X88.965 Y98.732 E6.42029
G1 X88.345 Y98.339 E6.45683
G1 X87.845 Y97.974 E6.48763
G1 X87.262 Y97.398 E6.52842
G1 X86.842 Y96.905 E6.56065
G1 X86.472 Y96.409 E6.59144
G1 X86.154 Y95.838 E6.62397
G1 X85.887 Y95.271 E6.65516
G1 X85.66 Y94.695 E6.68597
G1 X85.477 Y93.899 E6.72662
G1 X85.362 Y93.085 E6.76753
G1 X85.315 Y92.468 E6.79832
G1 X85.348 Y91.849 E6.82917
G1 X85.401 Y91.511 E6.8462
G1 X85.536 Y90.807 E6.88187
G1 X85.691 Y90.208 E6.91266
G1 X85.923 Y89.633 E6.94352
G1 X86.154 Y89.208 E6.96759
G1 X86.678 Y88.351 E7.01758
G1 X87.035 Y87.845 E7.0484
G1 X87.515 Y87.331 E7.0834
G1 X87.765 Y87.1 E7.10034
M204 S5000
G0 F2400 X88.036 Y87.393
M204 S200
G1 F1200 X88.497 Y87.021 E7.12982
G1 X88.958 Y86.739 E7.15671
G1 X89.666 Y86.363 E7.1966
G1 X90.207 Y86.121 E7.2261
G1 X91.009 Y85.908 E7.26739
G1 X91.811 Y85.775 E7.30785
G1 X92.401 Y85.718 E7.33735
G1 X92.975 Y85.739 E7.36593
G1 X93.417 Y85.784 E7.38804
G1 X94.002 Y85.883 E7.41757
G1 X94.327 Y85.975 E7.43438
G1 X94.821 Y86.135 E7.46022
G1 X95.371 Y86.355 E7.4897
G1 X95.822 Y86.605 E7.51536
G1 X96.443 Y86.999 E7.55196
G1 X96.921 Y87.35 E7.58147
G1 X97.434 Y87.861 E7.61751
G1 X97.854 Y88.354 E7.64974
G1 X98.207 Y88.83 E7.67923
G1 X98.485 Y89.332 E7.70779
G1 X98.752 Y89.899 E7.73898
G1 X98.968 Y90.451 E7.76848
G1 X99.127 Y91.155 E7.80439
G1 X99.242 Y91.966 E7.84516
G1 X99.286 Y92.557 E7.87465
G1 X99.208 Y93.408 E7.91718
G1 X99.073 Y94.115 E7.953
G1 X98.923 Y94.688 E7.98247
G1 X98.697 Y95.236 E8.01197
G1 X98.507 Y95.581 E8.03157
G1 X97.985 Y96.436 E8.08143
G1 X97.643 Y96.92 E8.11092
G1 X97.238 Y97.354 E8.14046
G1 X96.718 Y97.772 E8.17366
G1 X95.904 Y98.33 E8.22278
G1 X95.394 Y98.631 E8.25225
G1 X94.669 Y98.918 E8.29105
G1 X94.15 Y99.072 E8.31799
G1 X93.571 Y99.202 E8.34752
G1 X92.823 Y99.253 E8.38484
G1 X91.952 Y99.238 E8.42819
G1 X91.362 Y99.188 E8.45765
G1 X90.668 Y99.023 E8.49315
G1 X90.173 Y98.862 E8.51906
G1 X89.623 Y98.641 E8.54856
G1 X89.179 Y98.395 E8.57382
G1 X88.559 Y98.002 E8.61035
G1 X88.081 Y97.651 E8.63986
G1 X87.566 Y97.139 E8.676
G1 X87.146 Y96.646 E8.70823
G1 X86.793 Y96.17 E8.73772
G1 X86.515 Y95.668 E8.76628
G1 X86.248 Y95.101 E8.79747
G1 X86.032 Y94.549 E8.82697
G1 X85.872 Y93.843 E8.86299
G1 X85.757 Y93.029 E8.9039
G1 X85.714 Y92.438 E8.93339
G1 X85.793 Y91.586 E8.97598
G1 X85.928 Y90.882 E9.01165
G1 X86.078 Y90.309 E9.04113
G1 X86.305 Y89.761 E9.07064
G1 X86.495 Y89.416 E9.09024
G1 X87.019 Y88.559 E9.14023
G1 X87.361 Y88.076 E9.16969
G1 X87.786 Y87.624 E9.20056
G1 X88.036 Y87.393 E9.2175
M204 S5000
G0 F2400 X88.307 Y87.686
M204 S200
G1 F1200 X88.748 Y87.332 E9.24564
G1 X89.145 Y87.091 E9.26876
G1 X89.853 Y86.715 E9.30865
G1 X90.369 Y86.486 E9.33675
G1 X91.074 Y86.302 E9.37301
G1 X91.876 Y86.169 E9.41346
G1 X92.439 Y86.116 E9.4416
G1 X92.935 Y86.136 E9.46631
G1 X93.377 Y86.181 E9.48842
G1 X94.204 Y86.355 E9.53047
G1 X94.698 Y86.515 E9.55632
G1 X95.222 Y86.726 E9.58443
G1 X95.608 Y86.942 E9.60644
G1 X96.229 Y87.336 E9.64304
G1 X96.683 Y87.672 E9.67115
G1 X97.13 Y88.119 E9.70261
G1 X97.55 Y88.612 E9.73484
G1 X97.886 Y89.067 E9.76299
G1 X98.124 Y89.502 E9.78766
G1 X98.391 Y90.069 E9.81885
G1 X98.595 Y90.596 E9.84697
G1 X98.732 Y91.211 E9.87833
G1 X98.847 Y92.022 E9.91909
G1 X98.887 Y92.585 E9.94718
G1 X98.816 Y93.333 E9.98457
G1 X98.681 Y94.04 E10.02039
G1 X98.536 Y94.586 E10.04851
G1 X98.315 Y95.107 E10.07667
G1 X98.166 Y95.373 E10.09185
G1 X97.644 Y96.228 E10.1417
G1 X97.316 Y96.689 E10.16985
G1 X96.927 Y97.098 E10.19794
G1 X96.493 Y97.443 E10.22554
G1 X95.679 Y98.001 E10.27465
G1 X95.191 Y98.286 E10.30277
G1 X94.555 Y98.536 E10.33678
G1 X94.036 Y98.69 E10.36372
G1 X93.484 Y98.812 E10.39186
G1 X92.83 Y98.854 E10.42447
G1 X91.959 Y98.839 E10.46782
G1 X91.396 Y98.79 E10.49595
G1 X90.791 Y98.644 E10.52692
G1 X90.296 Y98.483 E10.55282
G1 X89.773 Y98.271 E10.58091
G1 X89.393 Y98.058 E10.60259
G1 X88.773 Y97.665 E10.63912
G1 X88.318 Y97.329 E10.66726
G1 X87.87 Y96.881 E10.69879
G1 X87.45 Y96.388 E10.73102
G1 X87.114 Y95.933 E10.75917
G1 X86.876 Y95.498 E10.78385
G1 X86.609 Y94.931 E10.81504
G1 X86.405 Y94.404 E10.84316
G1 X86.267 Y93.787 E10.87462
G1 X86.152 Y92.973 E10.91554
G1 X86.113 Y92.409 E10.94367
G1 X86.185 Y91.661 E10.98107
G1 X86.32 Y90.957 E11.01674
G1 X86.465 Y90.411 E11.04485
G1 X86.686 Y89.891 E11.07297
G1 X86.835 Y89.624 E11.08819
G1 X87.359 Y88.767 E11.13818
G1 X87.687 Y88.307 E11.16629
G1 X88.057 Y87.917 E11.19305
G1 X88.307 Y87.686 E11.20999
M204 S5000
G0 F2400 X88.578 Y87.979
M204 S200
G1 F1200 X88.997 Y87.645 E11.23665
G1 X89.332 Y87.443 E11.25612
G1 X90.04 Y87.067 E11.29602
G1 X90.531 Y86.852 E11.32269
G1 X91.139 Y86.695 E11.35394
G1 X91.941 Y86.562 E11.3944
G1 X92.475 Y86.514 E11.42108
G1 X92.895 Y86.533 E11.442
G1 X93.337 Y86.578 E11.46411
G1 X94.081 Y86.734 E11.50194
G1 X94.575 Y86.894 E11.52778
G1 X95.071 Y87.097 E11.55445
G1 X95.394 Y87.279 E11.57291
G1 X96.015 Y87.673 E11.6095
G1 X96.445 Y87.993 E11.63618
G1 X96.827 Y88.378 E11.66317
G1 X97.247 Y88.871 E11.6954
G1 X97.563 Y89.304 E11.72208
G1 X97.763 Y89.672 E11.74292
G1 X98.03 Y90.239 E11.77411
G1 X98.222 Y90.74 E11.80081
G1 X98.337 Y91.267 E11.82765
G1 X98.452 Y92.078 E11.86842
G1 X98.488 Y92.613 E11.8951
G1 X98.424 Y93.258 E11.92736
G1 X98.289 Y93.965 E11.96318
G1 X98.15 Y94.483 E11.98987
G1 X97.826 Y95.165 E12.02744
G1 X97.304 Y96.02 E12.0773
G1 X96.991 Y96.456 E12.10401
G1 X96.617 Y96.84 E12.13068
G1 X96.267 Y97.113 E12.15277
G1 X95.453 Y97.671 E12.20189
G1 X94.989 Y97.941 E12.2286
G1 X94.442 Y98.153 E12.2578
G1 X93.923 Y98.307 E12.28474
G1 X93.399 Y98.421 E12.31143
G1 X92.837 Y98.455 E12.33944
G1 X91.966 Y98.44 E12.3828
G1 X91.432 Y98.391 E12.40948
G1 X90.915 Y98.265 E12.43597
G1 X90.42 Y98.104 E12.46187
G1 X89.924 Y97.9 E12.48856
G1 X89.606 Y97.721 E12.50672
G1 X88.986 Y97.328 E12.54325
G1 X88.556 Y97.008 E12.56992
G1 X88.173 Y96.622 E12.59699
G1 X87.753 Y96.129 E12.62922
G1 X87.437 Y95.696 E12.65589
G1 X87.237 Y95.328 E12.67674
G1 X86.97 Y94.761 E12.70793
G1 X86.778 Y94.26 E12.73463
G1 X86.662 Y93.731 E12.76158
G1 X86.547 Y92.917 E12.80249
G1 X86.512 Y92.382 E12.82917
G1 X86.576 Y91.736 E12.86148
G1 X86.711 Y91.032 E12.89715
G1 X86.851 Y90.515 E12.92381
G1 X87.175 Y89.833 E12.96138
G1 X87.699 Y88.976 E13.01137
G1 X88.012 Y88.54 E13.03808
G1 X88.328 Y88.21 E13.06082
G1 X88.578 Y87.979 E13.07776
M204 S5000
G0 F2400 X88.598 Y88.503
M204 S200
G1 F1200 X88.848 Y88.272 E13.0947
G1 X89.246 Y87.959 E13.11989
G1 X89.519 Y87.796 E13.13572
G1 X90.227 Y87.42 E13.17561
G1 X90.691 Y87.219 E13.20078
G1 X91.204 Y87.089 E13.22711
G1 X92.006 Y86.956 E13.26757
G1 X92.51 Y86.913 E13.29274
G1 X92.854 Y86.929 E13.30988
G1 X93.296 Y86.974 E13.33199
G1 X93.958 Y87.114 E13.36566
G1 X94.452 Y87.274 E13.39151
G1 X94.919 Y87.467 E13.41665
G1 X95.18 Y87.616 E13.43161
G1 X95.801 Y88.01 E13.46821
G1 X96.206 Y88.314 E13.49341
G1 X96.523 Y88.637 E13.51593
G1 X96.943 Y89.13 E13.54816
G1 X97.239 Y89.539 E13.57329
G1 X97.402 Y89.842 E13.59041
G1 X97.669 Y90.409 E13.6216
G1 X97.848 Y90.882 E13.64677
G1 X97.942 Y91.323 E13.66921
G1 X98.057 Y92.134 E13.70997
G1 X98.089 Y92.638 E13.7351
G1 X98.032 Y93.183 E13.76237
G1 X97.897 Y93.89 E13.79819
G1 X97.763 Y94.378 E13.82338
G1 X97.485 Y94.957 E13.85534
G1 X96.963 Y95.812 E13.90519
G1 X96.667 Y96.222 E13.93036
G1 X96.309 Y96.579 E13.95552
G1 X96.041 Y96.784 E13.97231
G1 X95.227 Y97.342 E14.02143
G1 X94.789 Y97.594 E14.04657
G1 X94.328 Y97.771 E14.07115
G1 X93.809 Y97.925 E14.09809
G1 X93.315 Y98.03 E14.12322
G1 X92.844 Y98.057 E14.1467
G1 X91.973 Y98.042 E14.19005
G1 X91.47 Y97.993 E14.2152
G1 X91.038 Y97.885 E14.23736
G1 X90.543 Y97.724 E14.26327
G1 X90.076 Y97.53 E14.28843
G1 X89.82 Y97.384 E14.3031
G1 X89.2 Y96.991 E14.33963
G1 X88.796 Y96.687 E14.36479
G1 X88.477 Y96.363 E14.38742
G1 X88.057 Y95.87 E14.41965
G1 X87.761 Y95.461 E14.44478
G1 X87.598 Y95.158 E14.4619
G1 X87.331 Y94.591 E14.49309
G1 X87.152 Y94.118 E14.51826
G1 X87.057 Y93.676 E14.54075
G1 X86.942 Y92.862 E14.58167
G1 X86.912 Y92.357 E14.60684
G1 X86.968 Y91.811 E14.63416
G1 X87.103 Y91.107 E14.66983
G1 X87.237 Y90.62 E14.69497
G1 X87.516 Y90.041 E14.72695
G1 X88.04 Y89.184 E14.77694
G1 X88.337 Y88.775 E14.80209
G1 X88.598 Y88.503 E14.82085
M204 S5000
G1 F1500 E12.82085
G0 F2400 X90.346 Y90.328
G0 X91.238 Y91.245
G0 X91.605 Y91.42
M204 S200
;TYPE:WALL-INNER
G1 F1500 E14.82085
G1 F1200 X91.671 Y91.368 E14.82504
G1 X91.846 Y91.259 E14.8353
G1 X91.918 Y91.224 E14.83928
G1 X92.111 Y91.152 E14.84953
G1 X92.304 Y91.11 E14.85936
G1 X92.497 Y91.098 E14.86898
G1 X92.703 Y91.111 E14.87926
G1 X92.877 Y91.149 E14.88812
G1 X93.083 Y91.224 E14.89903
G1 X93.154 Y91.259 E14.90297
G1 X93.329 Y91.368 E14.91323
G1 X93.395 Y91.42 E14.91741
G1 X93.55 Y91.569 E14.92811
G1 X93.603 Y91.632 E14.93221
G1 X93.712 Y91.794 E14.94192
G1 X93.799 Y91.969 E14.95165
G1 X93.867 Y92.18 E14.96268
G1 X93.897 Y92.354 E14.97147
G1 X93.903 Y92.538 E14.98063
G1 X93.881 Y92.749 E14.99119
G1 X93.837 Y92.926 E15.00026
G1 X93.765 Y93.107 E15.00996
G1 X93.665 Y93.281 E15.01995
G1 X93.545 Y93.437 E15.02974
G1 X93.395 Y93.58 E15.04005
G1 X93.329 Y93.632 E15.04424
G1 X93.151 Y93.743 E15.05468
G1 X93.078 Y93.779 E15.05873
G1 X92.894 Y93.847 E15.06849
G1 X92.696 Y93.89 E15.07857
G1 X92.503 Y93.902 E15.08819
G1 X92.297 Y93.889 E15.09847
G1 X92.123 Y93.851 E15.10733
G1 X91.917 Y93.776 E15.11824
G1 X91.846 Y93.741 E15.12218
G1 X91.671 Y93.632 E15.13244
G1 X91.605 Y93.58 E15.13662
G1 X91.45 Y93.431 E15.14732
G1 X91.397 Y93.368 E15.15142
G1 X91.288 Y93.206 E15.16113
G1 X91.2 Y93.03 E15.17093
G1 X91.133 Y92.82 E15.1819
G1 X91.103 Y92.646 E15.19068
G1 X91.097 Y92.464 E15.19975
G1 X91.121 Y92.245 E15.21071
G1 X91.162 Y92.078 E15.21927
G1 X91.243 Y91.879 E15.22996
G1 X91.336 Y91.718 E15.23921
G1 X91.455 Y91.563 E15.24894
G1 X91.605 Y91.42 E15.25925
M204 S5000
G0 F2400 X91.347 Y91.114
M204 S200
G1 F1200 X91.436 Y91.044 E15.26489
G1 X91.657 Y90.907 E15.27783
G1 X91.756 Y90.858 E15.28332
G1 X91.998 Y90.768 E15.29617
G1 X92.248 Y90.714 E15.3089
G1 X92.498 Y90.698 E15.32137
G1 X92.759 Y90.715 E15.33438
G1 X92.99 Y90.765 E15.34615
G1 X93.242 Y90.857 E15.3595
G1 X93.343 Y90.907 E15.36511
