;FLAVOR:Marlin
;TIME:2163
;Filament used: 1.68604m
;Layer height: 0.2
;Generated with Cura_SteamEngine 2.7.0
M190 S60
M104 S220
M109 S220
G21 ;metric values
G90 ;absolute positioning
M82 ;set extruder to absolute mode
M107 ;start with the fan off
G92 E0 ;zero the extruded length
G1 F200 E3 ;extrude 3mm of feed stock
G92 E0 ;zero the extruded length again
G1 F9000
M117 Printing...
;LAYER_COUNT:84
;LAYER:0
M107
M204 S5000
G0 F2400 X86.135 Y72.125 Z0.3
M204 S200
;TYPE:SKIRT
G1 F1200 X86.556 Y71.671 E0.03081
G1 X87.032 Y71.275 E0.06163
G1 X87.555 Y70.944 E0.09243
G1 X88.032 Y70.717 E0.11872
G1 X90.088 Y69.873 E0.22932
G1 X90.674 Y69.676 E0.26009
G1 X90.979 Y69.605 E0.27567
G1 X98.961 Y68.027 E0.68059
G1 X99.469 Y67.955 E0.70612
G1 X100.318 Y67.88 E0.74854
G1 X100.757 Y67.861 E0.7704
G1 X104.07 Y67.873 E0.93528
G1 X104.688 Y67.915 E0.9661
G1 X105.295 Y68.037 E0.99692
G1 X105.881 Y68.235 E1.0277
G1 X106.437 Y68.508 E1.05852
G1 X106.954 Y68.85 E1.08937
G1 X107.614 Y69.456 E1.13396
G1 X109.875 Y71.962 E1.30193
G1 X110.259 Y72.448 E1.33276
G1 X110.578 Y72.979 E1.36358
G1 X110.825 Y73.546 E1.39436
G1 X110.997 Y74.141 E1.42519
G1 X111.091 Y74.753 E1.456
G1 X111.11 Y75.178 E1.47717
G1 X111.109 Y76.869 E1.56132
G1 X111.079 Y77.401 E1.58784
G1 X110.596 Y81.705 E1.80338
G1 X110.487 Y82.314 E1.83417
G1 X110.301 Y82.905 E1.865
G1 X110.041 Y83.466 E1.89577
G1 X109.872 Y83.752 E1.9123
G1 X108.01 Y86.666 E2.0844
G1 X105.315 Y91.334 E2.35264
G1 X102.899 Y96.13 E2.61989
G1 X100.066 Y102.784 E2.97979
G1 X99.787 Y103.337 E3.01061
G1 X99.439 Y103.85 E3.04146
G1 X99.241 Y104.089 E3.05691
G1 X94.432 Y109.509 E3.4175
G1 X90.741 Y114.202 E3.71463
G1 X90.327 Y114.663 E3.74547
G1 X90.089 Y114.881 E3.76153
G1 X89.259 Y115.591 E3.81589
G1 X88.763 Y115.963 E3.84674
G1 X88.486 Y116.131 E3.86286
G1 X87.924 Y116.446 E3.89492
G1 X87.365 Y116.713 E3.92575
G1 X86.979 Y116.849 E3.94612
G1 X85.796 Y117.21 E4.00767
G1 X85.193 Y117.352 E4.0385
G1 X84.814 Y117.401 E4.05752
G1 X84.186 Y117.456 E4.08889
G1 X83.567 Y117.47 E4.11971
G1 X83.203 Y117.441 E4.13788
G1 X82.006 Y117.299 E4.19786
G1 X81.397 Y117.186 E4.22869
G1 X80.785 Y116.987 E4.26071
G1 X79.768 Y116.579 E4.31525
G1 X78.971 Y116.169 E4.35985
G1 X78.336 Y115.763 E4.39736
G1 X77.837 Y115.396 E4.42819
G1 X77.492 Y115.077 E4.45157
G1 X76.707 Y114.275 E4.50742
G1 X76.303 Y113.805 E4.53826
G1 X76.026 Y113.395 E4.56288
G1 X75.467 Y112.467 E4.6168
G1 X75.182 Y111.917 E4.64763
G1 X74.963 Y111.307 E4.67988
G1 X74.627 Y110.129 E4.74084
G1 X74.496 Y109.524 E4.77165
G1 X74.443 Y108.869 E4.80435
G1 X74.43 Y107.739 E4.86059
G1 X74.463 Y107.121 E4.89139
G1 X74.514 Y106.79 E4.90806
G1 X74.635 Y106.152 E4.94037
G1 X74.789 Y105.553 E4.97115
G1 X75.053 Y104.91 E5.00574
G1 X77.14 Y100.714 E5.23896
G1 X79.308 Y95.737 E5.50912
G1 X80.275 Y93.233 E5.6427
G1 X81.156 Y90.735 E5.77452
G1 X82.741 Y85.565 E6.04363
G1 X84.035 Y80.303 E6.3133
G1 X84.563 Y77.683 E6.44631
G1 X85.124 Y74.357 E6.61416
G1 X85.266 Y73.754 E6.64499
G1 X85.484 Y73.175 E6.67578
G1 X85.776 Y72.629 E6.7066
G1 X86.135 Y72.125 E6.73739
M204 S5000
G0 F2400 X86.509 Y72.299
M204 S200
G1 F1200 X86.923 Y71.875 E6.76688
G1 X87.391 Y71.511 E6.79639
G1 X87.903 Y71.213 E6.82587
G1 X88.183 Y71.086 E6.84117
G1 X90.239 Y70.242 E6.95177
G1 X91.056 Y69.996 E6.99423
G1 X99.038 Y68.418 E7.39915
G1 X99.504 Y68.352 E7.42257
G1 X100.353 Y68.277 E7.46499
G1 X100.756 Y68.26 E7.48506
G1 X104.069 Y68.272 E7.64993
G1 X104.66 Y68.314 E7.67942
G1 X105.24 Y68.435 E7.70891
G1 X105.799 Y68.634 E7.73843
G1 X106.326 Y68.905 E7.76793
G1 X106.812 Y69.245 E7.79744
G1 X107.318 Y69.724 E7.83212
G1 X109.579 Y72.23 E8.00009
G1 X109.945 Y72.695 E8.02954
G1 X110.246 Y73.206 E8.05905
G1 X110.475 Y73.753 E8.08856
G1 X110.628 Y74.326 E8.11808
G1 X110.711 Y75.178 E8.16068
G1 X110.71 Y76.869 E8.24483
G1 X110.683 Y77.356 E8.2691
G1 X110.2 Y81.66 E8.48464
G1 X110.094 Y82.244 E8.51418
G1 X109.911 Y82.807 E8.54364
G1 X109.535 Y83.537 E8.5845
G1 X107.686 Y86.43 E8.75537
G1 X104.963 Y91.147 E9.02642
G1 X102.535 Y95.966 E9.29496
G1 X99.699 Y102.628 E9.65528
G1 X99.43 Y103.157 E9.68482
G1 X98.942 Y103.824 E9.72595
G1 X94.125 Y109.253 E10.08714
G1 X90.427 Y113.955 E10.38484
G1 X89.829 Y114.578 E10.42781
G1 X88.999 Y115.288 E10.48217
G1 X88.291 Y115.783 E10.52516
G1 X87.729 Y116.098 E10.55722
G1 X87.193 Y116.352 E10.58674
G1 X86.862 Y116.468 E10.60419
G1 X85.679 Y116.829 E10.66575
G1 X85.102 Y116.963 E10.69523
G1 X84.78 Y117.003 E10.71137
G1 X84.152 Y117.058 E10.74275
G1 X83.559 Y117.07 E10.77226
G1 X83.25 Y117.044 E10.78769
G1 X82.053 Y116.902 E10.84768
G1 X81.47 Y116.793 E10.8772
G1 X80.934 Y116.617 E10.90527
G1 X79.917 Y116.209 E10.95981
G1 X79.185 Y115.833 E11.00076
G1 X78.55 Y115.427 E11.03827
G1 X78.074 Y115.074 E11.06776
G1 X77.777 Y114.798 E11.08794
G1 X76.992 Y113.996 E11.14378
G1 X76.607 Y113.545 E11.17329
G1 X76.368 Y113.189 E11.19463
G1 X75.809 Y112.261 E11.24855
G1 X75.538 Y111.734 E11.27804
G1 X75.347 Y111.198 E11.30635
G1 X75.011 Y110.02 E11.36732
G1 X74.887 Y109.44 E11.39683
G1 X74.842 Y108.865 E11.42554
G1 X74.829 Y107.735 E11.48177
G1 X74.906 Y106.865 E11.52524
G1 X75.027 Y106.227 E11.55756
G1 X75.176 Y105.653 E11.58707
G1 X75.41 Y105.088 E11.6175
G1 X77.503 Y100.88 E11.85139
G1 X79.672 Y95.899 E12.12175
G1 X80.652 Y93.362 E12.2571
G1 X81.533 Y90.866 E12.38882
G1 X83.125 Y85.672 E12.65918
G1 X84.427 Y80.38 E12.93039
G1 X84.953 Y77.768 E13.06299
G1 X85.517 Y74.423 E13.2318
G1 X85.655 Y73.847 E13.26128
G1 X85.869 Y73.294 E13.29079
G1 X86.155 Y72.775 E13.32028
G1 X86.509 Y72.299 E13.3498
M204 S5000
G0 F2400 X86.882 Y72.479
M204 S200
G1 F1200 X87.288 Y72.087 E13.37788
G1 X87.747 Y71.756 E13.40604
G1 X88.335 Y71.455 E13.43892
G1 X90.391 Y70.611 E13.54952
G1 X91.134 Y70.388 E13.58813
G1 X99.116 Y68.81 E13.99304
G1 X99.539 Y68.75 E14.0143
G1 X100.388 Y68.675 E14.05672
G1 X100.754 Y68.659 E14.07495
G1 X104.067 Y68.671 E14.23983
G1 X104.631 Y68.713 E14.26797
G1 X105.183 Y68.834 E14.29609
G1 X105.713 Y69.032 E14.32425
G1 X106.209 Y69.302 E14.35235
G1 X106.662 Y69.64 E14.38048
G1 X107.021 Y69.991 E14.40547
G1 X109.282 Y72.497 E14.57344
G1 X109.63 Y72.942 E14.60155
G1 X109.912 Y73.432 E14.62969
G1 X110.122 Y73.957 E14.65782
G1 X110.256 Y74.506 E14.68595
G1 X110.312 Y75.177 E14.71946
G1 X110.311 Y76.868 E14.80361
G1 X110.286 Y77.312 E14.82574
G1 X109.803 Y81.616 E15.04128
G1 X109.7 Y82.172 E15.06942
G1 X109.521 Y82.707 E15.09749
G1 X109.199 Y83.323 E15.13208
G1 X107.33 Y86.248 E15.30483
G1 X104.61 Y90.96 E15.57559
G1 X102.179 Y95.783 E15.84437
G1 X99.332 Y102.472 E16.20615
G1 X99.074 Y102.975 E16.23428
G1 X98.644 Y103.559 E16.27037
G1 X93.818 Y108.998 E16.63224
G1 X90.113 Y113.709 E16.9305
G1 X89.57 Y114.275 E16.96953
G1 X88.74 Y114.985 E17.02389
G1 X88.096 Y115.435 E17.06299
G1 X87.534 Y115.75 E17.09505
G1 X87.022 Y115.99 E17.12319
G1 X86.746 Y116.086 E17.13773
G1 X85.563 Y116.447 E17.19928
G1 X84.745 Y116.606 E17.24075
G1 X84.117 Y116.661 E17.27213
G1 X83.297 Y116.648 E17.31294
G1 X82.1 Y116.506 E17.37293
G1 X81.545 Y116.4 E17.40105
G1 X81.082 Y116.247 E17.42531
G1 X80.065 Y115.839 E17.47985
G1 X79.4 Y115.496 E17.51708
G1 X78.765 Y115.09 E17.55459
G1 X78.312 Y114.753 E17.58269
G1 X78.062 Y114.519 E17.59973
G1 X77.277 Y113.717 E17.65558
G1 X76.911 Y113.286 E17.68372
G1 X76.709 Y112.983 E17.70184
G1 X76.15 Y112.055 E17.75575
G1 X75.894 Y111.551 E17.78389
G1 X75.73 Y111.089 E17.80828
G1 X75.394 Y109.911 E17.86924
G1 X75.278 Y109.357 E17.89741
G1 X75.241 Y108.86 E17.92221
G1 X75.228 Y107.73 E17.97845
G1 X75.298 Y106.939 E18.01797
G1 X75.419 Y106.301 E18.05029
G1 X75.563 Y105.755 E18.07839
G1 X75.767 Y105.266 E18.10476
G1 X77.865 Y101.047 E18.33924
G1 X80.049 Y96.034 E18.61137
G1 X81.027 Y93.503 E18.7464
G1 X81.911 Y90.997 E18.87864
G1 X83.51 Y85.779 E19.15024
G1 X84.813 Y80.48 E19.4218
G1 X85.35 Y77.817 E19.55699
G1 X85.911 Y74.49 E19.7249
G1 X86.044 Y73.94 E19.75306
G1 X86.253 Y73.415 E19.78118
G1 X86.534 Y72.925 E19.80929
G1 X86.882 Y72.479 E19.83745
M204 S5000
G0 F2400 X87.253 Y72.666
M204 S200
G1 F1200 X87.652 Y72.307 E19.86416
G1 X88.099 Y72.011 E19.89084
G1 X88.486 Y71.825 E19.9122
G1 X90.542 Y70.981 E20.02281
G1 X91.211 Y70.779 E20.05759
G1 X99.193 Y69.201 E20.4625
G1 X99.574 Y69.147 E20.48165
G1 X100.423 Y69.072 E20.52407
G1 X100.753 Y69.058 E20.54051
G1 X104.066 Y69.07 E20.70538
G1 X104.601 Y69.112 E20.73209
G1 X105.123 Y69.233 E20.75875
G1 X105.622 Y69.43 E20.78545
G1 X106.086 Y69.699 E20.81214
G1 X106.504 Y70.034 E20.8388
G1 X106.725 Y70.258 E20.85446
G1 X108.986 Y72.764 E21.02243
G1 X109.315 Y73.188 E21.04914
G1 X109.577 Y73.656 E21.07583
G1 X109.766 Y74.157 E21.10248
G1 X109.879 Y74.682 E21.1292
G1 X109.913 Y75.177 E21.15389
G1 X109.912 Y76.868 E21.23805
G1 X109.89 Y77.267 E21.25793
G1 X109.407 Y81.571 E21.47347
G1 X109.307 Y82.098 E21.50016
G1 X109.131 Y82.605 E21.52687
G1 X108.863 Y83.108 E21.55523
G1 X106.997 Y86.029 E21.72773
G1 X104.254 Y90.78 E22.00074
G1 X101.812 Y95.626 E22.27079
G1 X98.964 Y102.316 E22.63264
G1 X98.718 Y102.792 E22.6593
G1 X98.345 Y103.295 E22.69047
G1 X93.514 Y108.74 E23.05272
G1 X89.8 Y113.462 E23.35169
G1 X89.31 Y113.972 E23.38689
G1 X88.48 Y114.682 E23.44124
G1 X87.901 Y115.086 E23.47638
G1 X87.339 Y115.401 E23.50844
G1 X86.629 Y115.704 E23.54686
G1 X85.446 Y116.065 E23.60841
G1 X84.71 Y116.208 E23.64572
G1 X84.082 Y116.263 E23.67709
G1 X83.344 Y116.252 E23.71382
G1 X82.147 Y116.11 E23.77381
G1 X81.621 Y116.007 E23.80048
G1 X81.231 Y115.876 E23.82096
G1 X80.214 Y115.468 E23.87549
G1 X79.615 Y115.16 E23.90901
G1 X78.98 Y114.754 E23.94652
G1 X78.551 Y114.433 E23.97318
G1 X78.347 Y114.239 E23.98719
G1 X77.562 Y113.437 E24.04304
G1 X77.217 Y113.027 E24.06971
G1 X77.051 Y112.777 E24.08464
G1 X76.492 Y111.849 E24.13856
G1 X76.25 Y111.37 E24.16526
G1 X76.114 Y110.979 E24.18587
G1 X75.778 Y109.801 E24.24683
G1 X75.67 Y109.276 E24.2735
G1 X75.64 Y108.855 E24.29451
G1 X75.627 Y107.725 E24.35074
G1 X75.69 Y107.013 E24.38632
G1 X75.811 Y106.375 E24.41863
G1 X75.95 Y105.857 E24.44532
G1 X76.125 Y105.443 E24.46769
G1 X78.22 Y101.23 E24.70184
G1 X80.421 Y96.177 E24.97613
G1 X81.4 Y93.643 E25.11132
G1 X82.288 Y91.128 E25.24405
G1 X83.896 Y85.883 E25.51706
G1 X85.203 Y80.563 E25.78969
G1 X85.74 Y77.902 E25.92478
G1 X86.304 Y74.556 E26.09365
G1 X86.432 Y74.035 E26.12035
G1 X86.636 Y73.539 E26.14704
G1 X86.912 Y73.079 E26.17373
G1 X87.253 Y72.666 E26.20039
M204 S5000
G0 F2400 X87.623 Y72.859
M204 S200
G1 F1200 X88.012 Y72.537 E26.22552
G1 X88.638 Y72.194 E26.26104
G1 X90.694 Y71.35 E26.37164
G1 X91.288 Y71.171 E26.40252
G1 X99.27 Y69.593 E26.80743
G1 X99.609 Y69.544 E26.82448
G1 X100.458 Y69.469 E26.8669
G1 X100.752 Y69.457 E26.88154
G1 X104.065 Y69.469 E27.04641
G1 X104.568 Y69.511 E27.07153
G1 X105.059 Y69.631 E27.09669
G1 X105.525 Y69.828 E27.12186
G1 X105.954 Y70.095 E27.14701
G1 X106.429 Y70.525 E27.1789
G1 X108.69 Y73.031 E27.34687
G1 X108.998 Y73.432 E27.37203
G1 X109.239 Y73.877 E27.39721
G1 X109.407 Y74.354 E27.42238
G1 X109.498 Y74.851 E27.44753
G1 X109.514 Y75.177 E27.46377
G1 X109.513 Y76.868 E27.54792
G1 X109.493 Y77.223 E27.56562
G1 X109.01 Y81.527 E27.78115
G1 X108.914 Y82.023 E27.80629
G1 X108.741 Y82.498 E27.83145
G1 X108.527 Y82.893 E27.85381
G1 X106.647 Y85.836 E28.0276
G1 X103.912 Y90.572 E28.29977
G1 X101.445 Y95.468 E28.5726
G1 X98.597 Y102.159 E28.93449
G1 X98.363 Y102.607 E28.95965
G1 X98.047 Y103.03 E28.98592
G1 X93.199 Y108.494 E29.34944
G1 X89.486 Y113.215 E29.64834
G1 X89.051 Y113.669 E29.67963
G1 X88.221 Y114.379 E29.73399
G1 X87.706 Y114.738 E29.76523
G1 X87.144 Y115.053 E29.79729
G1 X86.513 Y115.323 E29.83145
G1 X85.33 Y115.684 E29.893
G1 X84.675 Y115.811 E29.92621
G1 X84.047 Y115.866 E29.95758
G1 X83.391 Y115.856 E29.99023
G1 X82.194 Y115.714 E30.05022
G1 X81.698 Y115.615 E30.07539
G1 X81.38 Y115.506 E30.09212
G1 X80.363 Y115.098 E30.14665
G1 X79.83 Y114.824 E30.17647
G1 X79.195 Y114.418 E30.21398
G1 X78.632 Y113.96 E30.2501
G1 X77.847 Y113.158 E30.30595
G1 X77.393 Y112.571 E30.34288
G1 X76.834 Y111.643 E30.39679
G1 X76.608 Y111.191 E30.42194
G1 X76.498 Y110.87 E30.43883
G1 X76.162 Y109.692 E30.49979
G1 X76.062 Y109.196 E30.52497
G1 X76.039 Y108.851 E30.54218
G1 X76.026 Y107.721 E30.59841
G1 X76.082 Y107.088 E30.63004
G1 X76.203 Y106.45 E30.66236
G1 X76.336 Y105.962 E30.68753
G1 X76.482 Y105.621 E30.70599
G1 X78.583 Y101.396 E30.94081
G1 X80.789 Y96.332 E31.21569
G1 X81.769 Y93.794 E31.35109
G1 X82.674 Y91.23 E31.4864
G1 X84.281 Y85.99 E31.75916
G1 X85.589 Y80.668 E32.03189
G1 X86.131 Y77.981 E32.16831
G1 X86.697 Y74.622 E32.33783
G1 X86.821 Y74.132 E32.36298
G1 X87.019 Y73.667 E32.38813
G1 X87.289 Y73.239 E32.41332
G1 X87.623 Y72.859 E32.43849
M204 S5000
G0 F2400 X90.043 Y75.272
M204 S200
;TYPE:SUPPORT
G1 F1200 X91.942 Y74.5 E32.54051
G1 X92.553 Y74.5 E32.57091
G1 X92.839 Y74.486 E32.58516
G1 X93.004 Y74.466 E32.59344
G1 X92.989 Y74.699 E32.60506
G1 X92.801 Y75.057 E32.62518
G1 X92.801 Y76.687 E32.7063
G1 X92.433 Y77.148 E32.73565
G1 X92.185 Y77.473 E32.756
G1 X91.862 Y77.473 E32.77207
G1 X91.579 Y77.744 E32.79157
G1 X90.014 Y77.039 E32.87699
G1 X90.043 Y75.272 E32.96494
M204 S5000
G0 F2400 X90.4 Y75.299
M204 S200
G1 F1200 X90.4 Y77.037 E33.05143
M204 S5000
G0 F2400 X90.179 Y76.8
M204 S200
G1 F1200 X92.505 Y76.8 E33.16719
M204 S5000
G0 F2400 X92 Y77.313
M204 S200
G1 F1200 X92 Y74.66 E33.29921
M204 S5000
G0 F2400 X92.641 Y75.2
M204 S200
G1 F1200 X90.644 Y75.2 E33.39859
M204 S5000
G0 F2400 X91.2 Y74.973
M204 S200
G1 F1200 X91.2 Y77.397 E33.51923
M204 S5000
G0 F2400 X90.192 Y76
M204 S200
G1 F1200 X92.641 Y76 E33.6411
M204 S5000
G1 F1500 E31.6411
G0 F2400 X97.98 Y72.637
G0 X99.155 Y72.194
G0 X100.375 Y71.992
G0 X104.088 Y71.984
G0 X104.538 Y72.158
G0 X104.726 Y72.333
G0 X104.919 Y72.746
G0 X106.095 Y76.34
M204 S200
G1 F1500 E33.6411
G1 F1200 X105.523 Y76.34 E33.66957
G1 X105.521 Y75.042 E33.73416
G1 X106.126 Y75.304 E33.76697
G1 X106.126 Y76.371 E33.82007
G1 X106.095 Y76.34 E33.82226
M204 S5000
G0 F2400 X105.966 Y76
M204 S200
G1 F1200 X105.682 Y76 E33.83639
M204 S5000
G1 F1500 E31.83639
G0 F2400 X104.939 Y75.733
G0 X103.663 Y75.734
G0 X102.931 Y75.458
M204 S200
;TYPE:WALL-INNER
G1 F1500 E33.83639
G1 F1200 X102.368 Y75.569 E33.86495
G1 X101.812 Y75.699 E33.89336
G1 X101.261 Y75.849 E33.92178
G1 X100.716 Y76.017 E33.95016
G1 X100.177 Y76.202 E33.97852
G1 X99.644 Y76.408 E34.00696
G1 X99.12 Y76.63 E34.03528
G1 X98.604 Y76.871 E34.06362
G1 X98.093 Y77.132 E34.09218
G1 X97.596 Y77.408 E34.12047
G1 X97.107 Y77.7 E34.14881
G1 X96.626 Y78.012 E34.17734
G1 X96.158 Y78.34 E34.20578
G1 X95.704 Y78.682 E34.23407
G1 X95.259 Y79.04 E34.26249
G1 X94.827 Y79.415 E34.29096
G1 X94.41 Y79.801 E34.31924
G1 X94.005 Y80.204 E34.34767
G1 X93.614 Y80.62 E34.37609
G1 X93.239 Y81.051 E34.40452
G1 X92.879 Y81.491 E34.43281
G1 X92.533 Y81.946 E34.46126
G1 X92.204 Y82.412 E34.48964
G1 X91.891 Y82.889 E34.51804
G1 X91.594 Y83.377 E34.54647
G1 X91.316 Y83.876 E34.57489
G1 X91.054 Y84.381 E34.6032
G1 X90.809 Y84.898 E34.63168
G1 X90.584 Y85.422 E34.66006
G1 X90.376 Y85.953 E34.68844
G1 X90.186 Y86.491 E34.71683
G1 X90.015 Y87.036 E34.74526
G1 X89.863 Y87.588 E34.77375
G1 X89.732 Y88.141 E34.80203
G1 X89.619 Y88.7 E34.83041
G1 X89.524 Y89.263 E34.85883
G1 X89.449 Y89.83 E34.88729
G1 X89.396 Y90.398 E34.91568
G1 X89.36 Y90.966 E34.944
G1 X89.345 Y91.537 E34.97243
G1 X89.349 Y92.108 E35.00085
G1 X89.374 Y92.679 E35.02929
G1 X89.418 Y93.248 E35.05769
G1 X89.481 Y93.814 E35.08603
G1 X89.564 Y94.378 E35.1144
G1 X89.668 Y94.939 E35.1428
G1 X89.789 Y95.497 E35.17121
G1 X89.93 Y96.05 E35.19961
G1 X90.09 Y96.596 E35.22793
G1 X90.268 Y97.14 E35.25641
G1 X90.467 Y97.675 E35.28482
G1 X90.682 Y98.203 E35.31319
G1 X90.917 Y98.724 E35.34163
G1 X91.169 Y99.236 E35.37003
G1 X91.439 Y99.738 E35.3984
G1 X91.685 Y100.161 E35.42275
G1 X91.725 Y100.231 E35.42676
G1 X91.917 Y100.536 E35.4447
G1 X91.726 Y100.536
G1 X91.645 Y100.536 E35.44832
G1 X89.166 Y100.537 E35.57169
G1 X88.975 Y100.549 E35.58121
G1 X88.647 Y100.608 E35.5978
G1 X88.315 Y100.715 E35.61516
G1 X88 Y100.869 E35.63261
G1 X87.715 Y101.063 E35.64976
G1 X87.456 Y101.293 E35.667
G1 X87.231 Y101.562 E35.68445
