;FLAVOR:Marlin
;TIME:2371
;Filament used: 1.82524m
;Layer height: 0.2
;Generated with Cura_SteamEngine 2.7.0
M190 S60
M104 S220
M109 S220
G21 ;metric values
G90 ;absolute positioning
M82 ;set extruder to absolute mode
M107 ;start with the fan off
G92 E0 ;zero the extruded length
G1 F200 E3 ;extrude 3mm of feed stock
G92 E0 ;zero the extruded length again
G1 F9000
M117 Printing...
;LAYER_COUNT:72
;LAYER:0
M107
M204 S5000
G0 F2400 X86.895 Y71.753 Z0.3
M204 S200
;TYPE:SKIRT
G1 F1200 X87.345 Y71.328 E0.0308
G1 X87.845 Y70.964 E0.06158
G1 X88.439 Y70.645 E0.09514
G1 X89.148 Y70.326 E0.13383
G1 X89.22 Y70.295 E0.13773
G1 X90.526 Y69.733 E0.20848
G1 X91.11 Y69.525 E0.23933
G1 X91.464 Y69.439 E0.25746
G1 X96.405 Y68.432 E0.50841
G1 X98.758 Y67.873 E0.62877
G1 X99.368 Y67.769 E0.65956
G1 X99.858 Y67.743 E0.68398
G1 X104.628 Y67.735 E0.92136
G1 X105.246 Y67.774 E0.95218
G1 X105.854 Y67.892 E0.983
G1 X106.441 Y68.088 E1.0138
G1 X106.998 Y68.357 E1.04458
G1 X107.452 Y68.649 E1.07144
G1 X110.346 Y70.748 E1.24936
G1 X110.822 Y71.143 E1.28014
G1 X111.244 Y71.596 E1.31095
G1 X111.604 Y72.1 E1.34177
G1 X111.896 Y72.646 E1.37259
G1 X112.115 Y73.225 E1.40339
G1 X112.258 Y73.827 E1.43419
G1 X112.326 Y74.632 E1.47439
G1 X112.325 Y77.769 E1.63051
G1 X112.285 Y78.386 E1.66128
G1 X112.165 Y78.994 E1.69212
G1 X111.969 Y79.581 E1.72291
G1 X111.698 Y80.138 E1.75374
G1 X111.361 Y80.651 E1.78429
G1 X110.112 Y82.31 E1.88763
G1 X107.009 Y86.768 E2.15794
G1 X104.195 Y91.344 E2.42528
G1 X101.637 Y96.081 E2.69319
G1 X99.316 Y101.033 E2.96535
G1 X98.369 Y103.238 E3.08478
G1 X98.001 Y103.931 E3.12383
G1 X94.126 Y109.986 E3.48158
G1 X92.071 Y113.515 E3.68481
G1 X91.725 Y114.029 E3.71565
G1 X91.22 Y114.588 E3.75314
G1 X90.255 Y115.5 E3.81921
G1 X89.779 Y115.895 E3.84999
G1 X89.26 Y116.223 E3.88055
G1 X88.321 Y116.736 E3.9338
G1 X87.76 Y116.997 E3.96459
G1 X87.225 Y117.17 E3.99257
G1 X86.025 Y117.481 E4.05426
G1 X85.204 Y117.619 E4.09569
G1 X84.054 Y117.711 E4.15311
G1 X83.435 Y117.72 E4.18391
G1 X82.82 Y117.65 E4.21472
G1 X82.153 Y117.479 E4.24899
G1 X80.973 Y117.085 E4.3109
G1 X80.131 Y116.711 E4.35675
G1 X79.086 Y116.12 E4.41649
G1 X78.568 Y115.781 E4.4473
G1 X78.278 Y115.544 E4.46594
G1 X77.667 Y115.006 E4.50645
G1 X77.229 Y114.568 E4.53728
G1 X77.022 Y114.314 E4.55358
G1 X76.442 Y113.553 E4.6012
G1 X76.015 Y112.886 E4.64061
G1 X75.705 Y112.299 E4.67365
G1 X75.372 Y111.502 E4.71664
G1 X75.078 Y110.57 E4.76527
G1 X74.889 Y109.688 E4.81016
G1 X74.802 Y108.949 E4.84719
G1 X74.771 Y108.251 E4.88196
G1 X74.792 Y107.518 E4.91845
G1 X74.89 Y106.681 E4.96039
G1 X75.925 Y101.688 E5.21415
G1 X76.776 Y96.332 E5.48404
G1 X77.381 Y90.266 E5.78742
G1 X77.437 Y89.871 E5.80727
G1 X77.687 Y88.517 E5.87579
G1 X77.854 Y87.868 E5.90914
G1 X78.3 Y86.533 E5.97919
G1 X78.559 Y85.91 E6.01276
G1 X79.173 Y84.681 E6.08113
G1 X79.445 Y84.205 E6.10842
G1 X81.129 Y81.622 E6.26187
G1 X83.946 Y76.936 E6.53396
G1 X86.177 Y72.759 E6.76963
G1 X86.503 Y72.233 E6.80042
G1 X86.895 Y71.753 E6.83126
M204 S5000
G0 F2400 X87.221 Y71.988
M204 S200
G1 F1200 X87.658 Y71.587 E6.86078
G1 X88.144 Y71.249 E6.89024
G1 X88.603 Y71.009 E6.91602
G1 X89.312 Y70.69 E6.95471
G1 X89.378 Y70.661 E6.95829
G1 X90.684 Y70.099 E7.02905
G1 X91.243 Y69.902 E7.05855
G1 X91.544 Y69.83 E7.07395
G1 X96.481 Y68.824 E7.32469
G1 X98.85 Y68.261 E7.44587
G1 X99.435 Y68.163 E7.47539
G1 X99.859 Y68.142 E7.49651
G1 X104.629 Y68.134 E7.73389
G1 X105.22 Y68.173 E7.76337
G1 X105.801 Y68.291 E7.79287
G1 X106.361 Y68.486 E7.82238
G1 X106.889 Y68.755 E7.85187
G1 X107.218 Y68.972 E7.87149
G1 X110.112 Y71.071 E8.0494
G1 X110.567 Y71.45 E8.07887
G1 X110.967 Y71.888 E8.10839
G1 X111.305 Y72.375 E8.13789
G1 X111.574 Y72.903 E8.16738
G1 X111.769 Y73.463 E8.19689
G1 X111.888 Y74.043 E8.22636
G1 X111.927 Y74.631 E8.25568
G1 X111.926 Y77.768 E8.4118
G1 X111.886 Y78.36 E8.44132
G1 X111.767 Y78.94 E8.47079
G1 X111.57 Y79.5 E8.50033
G1 X111.3 Y80.028 E8.52984
G1 X111.042 Y80.411 E8.55283
G1 X109.798 Y82.064 E8.65578
G1 X106.671 Y86.556 E8.92816
G1 X103.849 Y91.144 E9.19622
G1 X101.274 Y95.914 E9.46598
G1 X98.961 Y100.848 E9.73716
G1 X98.002 Y103.081 E9.8581
G1 X97.665 Y103.716 E9.89388
G1 X93.78 Y109.785 E10.25249
G1 X91.726 Y113.314 E10.45569
G1 X91.394 Y113.805 E10.48519
G1 X90.946 Y114.298 E10.51834
G1 X89.981 Y115.21 E10.58442
G1 X89.524 Y115.587 E10.6139
G1 X89.069 Y115.873 E10.64064
G1 X88.13 Y116.386 E10.69389
G1 X87.592 Y116.634 E10.72337
G1 X87.125 Y116.783 E10.74777
G1 X85.925 Y117.094 E10.80946
G1 X85.173 Y117.221 E10.84741
G1 X84.023 Y117.313 E10.90483
G1 X83.43 Y117.32 E10.93434
G1 X82.842 Y117.248 E10.96382
G1 X82.279 Y117.101 E10.99278
G1 X81.099 Y116.707 E11.05469
G1 X80.327 Y116.363 E11.09675
G1 X79.282 Y115.772 E11.15649
G1 X78.787 Y115.446 E11.18599
G1 X78.541 Y115.245 E11.2018
G1 X77.93 Y114.707 E11.24231
G1 X77.339 Y114.072 E11.28548
G1 X76.759 Y113.311 E11.3331
G1 X76.368 Y112.699 E11.36924
G1 X76.058 Y112.112 E11.40228
G1 X75.753 Y111.382 E11.44165
G1 X75.459 Y110.45 E11.49029
G1 X75.285 Y109.641 E11.53147
G1 X75.198 Y108.902 E11.5685
G1 X75.17 Y108.262 E11.60038
G1 X75.191 Y107.529 E11.63687
G1 X75.281 Y106.762 E11.6753
G1 X76.317 Y101.766 E11.92922
G1 X77.172 Y96.383 E12.20047
G1 X77.778 Y90.306 E12.50439
G1 X77.829 Y89.944 E12.52258
G1 X78.079 Y88.59 E12.5911
G1 X78.233 Y87.995 E12.62169
G1 X78.679 Y86.66 E12.69174
G1 X78.916 Y86.088 E12.72255
G1 X79.53 Y84.859 E12.79092
G1 X79.78 Y84.423 E12.81593
G1 X81.461 Y81.844 E12.96913
G1 X84.291 Y77.136 E13.2425
G1 X86.529 Y72.947 E13.47885
G1 X86.843 Y72.444 E13.50836
G1 X87.221 Y71.988 E13.53784
M204 S5000
G0 F2400 X87.547 Y72.225
M204 S200
G1 F1200 X87.969 Y71.85 E13.56593
G1 X88.441 Y71.538 E13.59409
G1 X88.767 Y71.373 E13.61227
G1 X89.476 Y71.054 E13.65096
G1 X89.536 Y71.028 E13.65422
G1 X90.842 Y70.466 E13.72497
G1 X91.624 Y70.221 E13.76576
G1 X96.556 Y69.216 E14.01624
G1 X98.942 Y68.649 E14.13829
G1 X99.5 Y68.558 E14.16643
G1 X99.859 Y68.541 E14.18431
G1 X104.629 Y68.533 E14.42169
G1 X105.193 Y68.572 E14.44983
G1 X105.746 Y68.69 E14.47797
G1 X106.276 Y68.885 E14.50607
G1 X106.983 Y69.295 E14.54675
G1 X109.877 Y71.394 E14.72466
G1 X110.31 Y71.757 E14.75278
G1 X110.688 Y72.178 E14.78094
G1 X111.002 Y72.648 E14.80907
G1 X111.247 Y73.157 E14.83718
G1 X111.417 Y73.696 E14.8653
G1 X111.51 Y74.253 E14.89341
G1 X111.528 Y74.631 E14.91224
G1 X111.527 Y77.768 E15.06835
G1 X111.487 Y78.332 E15.09649
G1 X111.368 Y78.885 E15.12464
G1 X111.172 Y79.415 E15.15276
G1 X110.903 Y79.912 E15.18089
G1 X110.723 Y80.171 E15.19658
G1 X109.47 Y81.836 E15.30029
G1 X106.349 Y86.319 E15.57213
G1 X103.5 Y90.951 E15.84275
G1 X100.918 Y95.734 E16.11325
G1 X98.596 Y100.686 E16.38543
G1 X97.636 Y102.923 E16.50658
G1 X97.329 Y103.501 E16.53915
G1 X93.442 Y109.575 E16.89802
G1 X91.381 Y113.114 E17.10183
G1 X91.063 Y113.581 E17.12995
G1 X90.672 Y114.008 E17.15876
G1 X89.707 Y114.92 E17.22484
G1 X89.27 Y115.278 E17.25295
G1 X88.878 Y115.523 E17.27595
G1 X87.939 Y116.036 E17.3292
G1 X87.425 Y116.271 E17.35733
G1 X87.025 Y116.397 E17.3782
G1 X85.825 Y116.708 E17.43989
G1 X85.141 Y116.823 E17.47441
G1 X83.991 Y116.915 E17.53182
G1 X83.426 Y116.92 E17.55994
G1 X82.865 Y116.846 E17.5881
G1 X82.406 Y116.722 E17.61176
G1 X81.226 Y116.328 E17.67367
G1 X80.524 Y116.016 E17.7119
G1 X79.479 Y115.425 E17.77165
G1 X78.805 Y114.946 E17.8128
G1 X78.194 Y114.408 E17.85331
G1 X77.656 Y113.83 E17.89261
G1 X77.076 Y113.069 E17.94022
G1 X76.721 Y112.513 E17.97305
G1 X76.411 Y111.926 E18.00609
G1 X76.133 Y111.262 E18.04191
G1 X75.839 Y110.33 E18.09055
G1 X75.681 Y109.594 E18.12801
G1 X75.594 Y108.855 E18.16504
G1 X75.569 Y108.274 E18.19398
G1 X75.59 Y107.541 E18.23047
G1 X75.671 Y106.843 E18.26544
G1 X76.711 Y101.827 E18.52038
G1 X77.568 Y96.433 E18.79218
G1 X78.175 Y90.345 E19.09665
G1 X78.221 Y90.016 E19.11318
G1 X78.471 Y88.662 E19.18171
G1 X78.611 Y88.121 E19.20952
G1 X79.057 Y86.786 E19.27956
G1 X79.272 Y86.266 E19.30756
G1 X79.886 Y85.037 E19.37593
G1 X80.114 Y84.641 E19.39867
G1 X81.798 Y82.058 E19.55212
G1 X84.641 Y77.327 E19.82681
G1 X86.881 Y73.135 E20.06334
G1 X87.182 Y72.657 E20.09145
G1 X87.547 Y72.225 E20.11959
M204 S5000
G0 F2400 X87.871 Y72.465
M204 S200
G1 F1200 X88.279 Y72.117 E20.14628
G1 X88.93 Y71.737 E20.18379
G1 X89.639 Y71.418 E20.22248
G1 X89.693 Y71.394 E20.22543
G1 X90.999 Y70.832 E20.29618
G1 X91.703 Y70.612 E20.33289
G1 X96.638 Y69.606 E20.58353
G1 X99.034 Y69.037 E20.70608
G1 X99.564 Y68.953 E20.73279
G1 X99.86 Y68.94 E20.74753
G1 X104.63 Y68.932 E20.98492
G1 X105.165 Y68.971 E21.01161
G1 X105.688 Y69.089 E21.03829
G1 X106.187 Y69.284 E21.06495
G1 X106.749 Y69.618 E21.09749
G1 X109.643 Y71.717 E21.2754
G1 X110.052 Y72.063 E21.30206
G1 X110.406 Y72.466 E21.32876
G1 X110.695 Y72.917 E21.35542
G1 X110.915 Y73.407 E21.38215
G1 X111.059 Y73.923 E21.40881
G1 X111.129 Y74.631 E21.44421
G1 X111.128 Y77.768 E21.60033
G1 X111.088 Y78.303 E21.62702
G1 X110.969 Y78.826 E21.65372
G1 X110.773 Y79.325 E21.6804
G1 X110.405 Y79.931 E21.71568
G1 X109.144 Y81.607 E21.82006
G1 X106.011 Y86.108 E22.09297
G1 X103.154 Y90.752 E22.36432
G1 X100.566 Y95.546 E22.63544
G1 X98.225 Y100.539 E22.90987
G1 X97.269 Y102.766 E23.03048
G1 X96.993 Y103.286 E23.05978
G1 X93.096 Y109.375 E23.41955
G1 X91.036 Y112.913 E23.62329
G1 X90.733 Y113.355 E23.64996
G1 X90.398 Y113.718 E23.67454
G1 X89.433 Y114.63 E23.74061
G1 X89.017 Y114.968 E23.76729
G1 X88.687 Y115.172 E23.7866
G1 X87.748 Y115.685 E23.83985
G1 X87.259 Y115.907 E23.86657
G1 X86.925 Y116.011 E23.88398
G1 X85.725 Y116.322 E23.94567
G1 X85.109 Y116.426 E23.97676
G1 X83.959 Y116.518 E24.03417
G1 X83.423 Y116.52 E24.06085
G1 X82.892 Y116.443 E24.08755
G1 X82.532 Y116.344 E24.10613
G1 X81.352 Y115.95 E24.16804
G1 X80.72 Y115.669 E24.20246
G1 X79.675 Y115.078 E24.26221
G1 X79.069 Y114.646 E24.29924
G1 X78.458 Y114.108 E24.33976
G1 X77.974 Y113.589 E24.37507
G1 X77.394 Y112.828 E24.42269
G1 X77.074 Y112.327 E24.45228
G1 X76.764 Y111.74 E24.48531
G1 X76.514 Y111.142 E24.51757
G1 X76.22 Y110.21 E24.5662
G1 X76.078 Y109.548 E24.5999
G1 X75.991 Y108.809 E24.63693
G1 X75.967 Y108.285 E24.66303
G1 X75.988 Y107.552 E24.69952
G1 X76.062 Y106.924 E24.73099
G1 X77.107 Y101.885 E24.9871
G1 X77.962 Y96.501 E25.25839
G1 X78.572 Y90.385 E25.56427
G1 X78.614 Y90.089 E25.57915
G1 X78.864 Y88.735 E25.64767
G1 X78.989 Y88.248 E25.67269
G1 X79.435 Y86.913 E25.74273
G1 X79.629 Y86.445 E25.76795
G1 X80.243 Y85.216 E25.83632
G1 X80.448 Y84.859 E25.8568
G1 X82.142 Y82.261 E26.01115
G1 X84.987 Y77.528 E26.28597
G1 X87.233 Y73.323 E26.52321
G1 X87.52 Y72.87 E26.5499
G1 X87.871 Y72.465 E26.57657
M204 S5000
G0 F2400 X88.194 Y72.708
M204 S200
G1 F1200 X88.585 Y72.388 E26.60171
G1 X89.094 Y72.101 E26.63079
G1 X89.803 Y71.782 E26.66949
G1 X89.851 Y71.761 E26.67209
G1 X91.157 Y71.199 E26.74285
G1 X91.783 Y71.002 E26.77551
G1 X96.773 Y69.985 E27.02894
G1 X99.126 Y69.426 E27.1493
G1 X99.861 Y69.339 E27.18613
G1 X104.631 Y69.331 E27.42351
G1 X105.135 Y69.37 E27.44867
G1 X105.626 Y69.488 E27.4738
G1 X106.093 Y69.682 E27.49897
G1 X106.515 Y69.941 E27.52361
G1 X109.409 Y72.04 E27.70152
G1 X109.793 Y72.368 E27.72666
G1 X110.121 Y72.753 E27.75183
G1 X110.385 Y73.184 E27.77698
G1 X110.577 Y73.652 E27.80215
G1 X110.693 Y74.144 E27.82731
G1 X110.73 Y74.631 E27.85161
G1 X110.729 Y77.768 E28.00773
G1 X110.689 Y78.272 E28.03289
G1 X110.57 Y78.763 E28.05803
G1 X110.375 Y79.23 E28.08322
G1 X110.086 Y79.691 E28.11029
G1 X108.816 Y81.379 E28.21542
G1 X105.68 Y85.884 E28.48858
G1 X102.808 Y90.553 E28.76138
G1 X100.202 Y95.379 E29.03432
G1 X97.87 Y100.354 E29.30776
G1 X96.902 Y102.609 E29.42988
G1 X96.657 Y103.071 E29.45591
G1 X92.751 Y109.174 E29.8165
G1 X90.691 Y112.712 E30.02024
G1 X90.403 Y113.128 E30.04542
G1 X90.124 Y113.428 E30.06581
G1 X89.159 Y114.34 E30.13189
G1 X88.765 Y114.657 E30.15706
G1 X88.495 Y114.822 E30.1728
G1 X87.556 Y115.335 E30.22605
G1 X87.095 Y115.542 E30.2512
G1 X86.825 Y115.625 E30.26526
G1 X85.625 Y115.936 E30.32695
G1 X85.077 Y116.028 E30.3546
G1 X83.927 Y116.12 E30.41201
G1 X83.422 Y116.12 E30.43715
G1 X82.922 Y116.041 E30.46234
G1 X82.659 Y115.965 E30.47596
G1 X81.479 Y115.571 E30.53787
G1 X80.917 Y115.321 E30.56848
G1 X79.872 Y114.73 E30.62823
G1 X79.332 Y114.347 E30.66117
G1 X78.721 Y113.809 E30.70169
G1 X78.291 Y113.347 E30.7331
G1 X77.711 Y112.586 E30.78071
G1 X77.426 Y112.14 E30.80705
G1 X77.116 Y111.553 E30.84009
G1 X76.894 Y111.022 E30.86873
G1 X76.6 Y110.09 E30.91737
G1 X76.474 Y109.501 E30.94734
G1 X76.387 Y108.762 E30.98437
G1 X76.366 Y108.296 E31.00759
G1 X76.387 Y107.563 E31.04408
G1 X76.453 Y107.005 E31.07204
G1 X77.498 Y101.966 E31.32815
G1 X78.358 Y96.551 E31.601
G1 X78.969 Y90.424 E31.90743
G1 X79.006 Y90.161 E31.92065
G1 X79.256 Y88.807 E31.98917
G1 X79.368 Y88.374 E32.01143
G1 X79.814 Y87.039 E32.08147
G1 X79.986 Y86.623 E32.10387
G1 X80.6 Y85.394 E32.17224
G1 X80.782 Y85.076 E32.19048
G1 X82.486 Y82.462 E32.34576
G1 X85.337 Y77.719 E32.62116
G1 X87.585 Y73.511 E32.85858
G1 X87.857 Y73.085 E32.88374
G1 X88.194 Y72.708 E32.9089
M204 S5000
G0 F2400 X92.099 Y74.529
M204 S200
;TYPE:SUPPORT
G1 F1200 X92.461 Y74.324 E32.92961
G1 X92.528 Y74.308 E32.93303
G1 X93.024 Y74.305 E32.95772
G1 X93.495 Y74.29 E32.98117
G1 X93.541 Y74.656 E32.99953
G1 X93.368 Y75.001 E33.01873
G1 X93.367 Y76.691 E33.10284
G1 X92.622 Y77.627 E33.16237
G1 X92.385 Y77.945 E33.18211
G1 X90.586 Y77.225 E33.27854
G1 X90.585 Y76.408 E33.3192
G1 X90.601 Y75.137 E33.38246
G1 X92.099 Y74.529 E33.46291
M204 S5000
G0 F2400 X92 Y74.742
M204 S200
G1 F1200 X92 Y77.617 E33.60599
M204 S5000
G0 F2400 X91.955 Y77.6
M204 S200
G1 F1200 X92.442 Y77.6 E33.63022
M204 S5000
G0 F2400 X92.8 Y77.147
M204 S200
G1 F1200 X92.8 Y74.463 E33.76379
M204 S5000
G0 F2400 X93.207 Y75.2
M204 S200
G1 F1200 X90.871 Y75.2 E33.88004
M204 S5000
G0 F2400 X91.2 Y75.066
M204 S200
G1 F1200 X91.2 Y77.297 E33.99107
M204 S5000
G0 F2400 X90.745 Y76.8
M204 S200
G1 F1200 X93.075 Y76.8 E34.10703
M204 S5000
G0 F2400 X93.207 Y76
M204 S200
G1 F1200 X90.75 Y76 E34.2293
M204 S5000
G1 F1500 E32.2293
G0 F2400 X92.769 Y77.82
G0 X92.828 Y77.874
G0 X94.79 Y79.641
G0 X94.849 Y79.695
G0 X95.025 Y79.852
M204 S200
G1 F1500 E34.2293
G1 F1200 X95.105 Y79.78 E34.23466
G1 X95.232 Y79.698 E34.24218
G1 X95.344 Y79.653 E34.24819
G1 X95.435 Y79.631 E34.25284
G1 X95.55 Y79.619 E34.2586
G1 X95.653 Y79.623 E34.26373
G1 X95.763 Y79.642 E34.26928
G1 X95.856 Y79.672 E34.27415
G1 X95.957 Y79.721 E34.27973
G1 X96.04 Y79.777 E34.28472
G1 X96.154 Y79.883 E34.29246
G1 X96.216 Y79.969 E34.29774
G1 X96.269 Y80.069 E34.30337
G1 X96.306 Y80.17 E34.30872
G1 X96.333 Y80.312 E34.31592
G1 X96.333 Y80.43 E34.32179
G1 X96.317 Y80.541 E34.32737
G1 X96.291 Y80.635 E34.33222
G1 X96.245 Y80.737 E34.33779
G1 X96.188 Y80.83 E34.34322
G1 X96.124 Y80.906 E34.34817
G1 X96.041 Y80.98 E34.3537
G1 X95.96 Y81.035 E34.35857
G1 X95.856 Y81.086 E34.36434
G1 X95.762 Y81.116 E34.36925
G1 X95.623 Y81.141 E34.37628
G1 X95.451 Y81.129 E34.38486
G1 X95.337 Y81.102 E34.39069
G1 X95.238 Y81.061 E34.39602
G1 X95.148 Y81.01 E34.40117
G1 X95.064 Y80.943 E34.40651
G1 X94.994 Y80.871 E34.41151
G1 X94.906 Y80.747 E34.41908
G1 X94.848 Y80.609 E34.42653
G1 X94.816 Y80.443 E34.43494
G1 X94.816 Y80.327 E34.44071
G1 X94.832 Y80.218 E34.4462
G1 X94.859 Y80.121 E34.45121
G1 X94.903 Y80.021 E34.45664
G1 X94.961 Y79.928 E34.4621
G1 X95.025 Y79.852 E34.46704
M204 S5000
G0 F2400 X95.109 Y80
M204 S200
G1 F1200 X96.043 Y80 E34.51352
M204 S5000
G0 F2400 X96 Y79.959
M204 S200
G1 F1200 X96 Y80.802 E34.55548
M204 S5000
G0 F2400 X96.002 Y80.8
M204 S200
G1 F1200 X95.148 Y80.8 E34.59798
M204 S5000
G0 F2400 X95.2 Y80.846
M204 S200
G1 F1200 X95.2 Y79.909 E34.64461
M204 S5000
G1 F1500 E32.64461
G0 F2400 X94.758 Y80.954
G0 X94.727 Y81.028
G0 X93.436 Y84.084
G0 X93.405 Y84.158
G0 X93.244 Y84.541
M204 S200
G1 F1500 E34.64461
G1 F1200 X93.461 Y84.409 E34.65725
G1 X93.823 Y84.482 E34.67562
G1 X94.315 Y84.616 E34.701
G1 X94.593 Y84.708 E34.71557
G1 X95.226 Y84.955 E34.74939
G1 X95.437 Y85.012 E34.76026
G1 X95.605 Y85.036 E34.76871
G1 X95.656 Y85.122 E34.77369
G1 X95.389 Y85.566 E34.79947
G1 X95.186 Y85.936 E34.82047
G1 X94.868 Y86.598 E34.85702
