;FLAVOR:Marlin
;TIME:257
;Filament used: 0.198936m
;Layer height: 0.2
;Generated with Cura_SteamEngine 2.7.0
M190 S60
M104 S220
M109 S220
G21 ;metric values
G90 ;absolute positioning
M82 ;set extruder to absolute mode
M107 ;start with the fan off
G92 E0 ;zero the extruded length
G1 F200 E3 ;extrude 3mm of feed stock
G92 E0 ;zero the extruded length again
G1 F9000
M117 Printing...
;LAYER_COUNT:25
;LAYER:0
M107
M204 S5000
G0 F2400 X85.425 Y84.774 Z0.3
M204 S200
;TYPE:SKIRT
G1 F1200 X86.124 Y84.187 E0.04543
G1 X86.992 Y83.589 E0.09788
G1 X87.523 Y83.271 E0.12868
G1 X88.034 Y83.046 E0.15647
G1 X89.666 Y82.436 E0.24317
G1 X90.259 Y82.257 E0.274
G1 X90.964 Y82.147 E0.30951
G1 X92.306 Y82.04 E0.37651
G1 X92.925 Y82.031 E0.40731
G1 X93.312 Y82.066 E0.42665
G1 X94.422 Y82.212 E0.48237
G1 X95.108 Y82.354 E0.51723
G1 X95.759 Y82.539 E0.55091
G1 X96.342 Y82.746 E0.5817
G1 X96.675 Y82.904 E0.60004
G1 X98.012 Y83.605 E0.67517
G1 X98.541 Y83.928 E0.70601
G1 X98.947 Y84.247 E0.73171
G1 X99.831 Y85.022 E0.79021
G1 X100.418 Y85.637 E0.83252
G1 X100.966 Y86.324 E0.87626
G1 X101.47 Y87.098 E0.92222
G1 X102.057 Y88.224 E0.98541
G1 X102.307 Y88.79 E1.01621
G1 X102.421 Y89.143 E1.03467
G1 X102.722 Y90.214 E1.09003
G1 X102.875 Y91.013 E1.13052
G1 X102.959 Y91.816 E1.1707
G1 X102.984 Y92.435 E1.20153
G1 X102.963 Y92.776 E1.21853
G1 X102.823 Y94.226 E1.29102
G1 X102.724 Y94.837 E1.32183
G1 X102.581 Y95.334 E1.34756
G1 X102.181 Y96.489 E1.40839
G1 X101.841 Y97.249 E1.44983
G1 X101.541 Y97.789 E1.48057
G1 X101.108 Y98.438 E1.5194
G1 X100.197 Y99.588 E1.59241
G1 X99.782 Y100.048 E1.62324
G1 X99.408 Y100.375 E1.64796
G1 X98.565 Y101.04 E1.7014
G1 X98.056 Y101.392 E1.73219
G1 X97.784 Y101.542 E1.74765
G1 X96.831 Y102.031 E1.80096
G1 X96.088 Y102.337 E1.84095
G1 X95.12 Y102.643 E1.89147
G1 X94.361 Y102.817 E1.93022
G1 X93.677 Y102.916 E1.96461
G1 X92.86 Y102.963 E2.00534
G1 X91.568 Y102.928 E2.06966
G1 X90.952 Y102.872 E2.10044
G1 X90.561 Y102.793 E2.12029
G1 X89.467 Y102.526 E2.17634
G1 X88.876 Y102.341 E2.20715
G1 X88.397 Y102.125 E2.2333
G1 X87.008 Y101.405 E2.31116
G1 X86.478 Y101.085 E2.34197
G1 X86.051 Y100.752 E2.36892
G1 X85.168 Y99.977 E2.42739
G1 X84.73 Y99.539 E2.45821
G1 X84.425 Y99.153 E2.4827
G1 X83.595 Y97.987 E2.55392
G1 X83.269 Y97.461 E2.58472
G1 X83.078 Y97.059 E2.60687
G1 X82.644 Y96.023 E2.66277
G1 X82.427 Y95.378 E2.69663
G1 X82.263 Y94.748 E2.72903
G1 X82.143 Y94.114 E2.76114
G1 X82.06 Y93.426 E2.79563
G1 X82.025 Y92.8 E2.82683
G1 X82.034 Y91.962 E2.86854
G1 X82.091 Y91.276 E2.90279
G1 X82.213 Y90.493 E2.94223
G1 X82.421 Y89.66 E2.98496
G1 X82.82 Y88.509 E3.04558
G1 X83.06 Y87.939 E3.07636
G1 X83.325 Y87.474 E3.103
G1 X84.129 Y86.232 E3.17662
G1 X84.498 Y85.735 E3.20743
G1 X84.735 Y85.476 E3.2249
G1 X85.425 Y84.774 E3.27389
M204 S5000
G0 F2400 X85.709 Y85.054
M204 S200
G1 F1200 X86.35 Y84.515 E3.31556
G1 X87.218 Y83.917 E3.36802
G1 X87.728 Y83.614 E3.39754
G1 X88.174 Y83.419 E3.42177
G1 X89.806 Y82.809 E3.50847
G1 X90.374 Y82.64 E3.53796
G1 X90.996 Y82.545 E3.56928
G1 X92.338 Y82.438 E3.63627
G1 X92.93 Y82.431 E3.66574
G1 X93.26 Y82.462 E3.68223
G1 X94.37 Y82.608 E3.73795
G1 X94.999 Y82.737 E3.7699
G1 X95.65 Y82.922 E3.80358
G1 X96.208 Y83.123 E3.8331
G1 X96.49 Y83.258 E3.84866
G1 X97.827 Y83.959 E3.92378
G1 X98.332 Y84.269 E3.95327
G1 X98.684 Y84.547 E3.97559
G1 X99.568 Y85.322 E4.0341
G1 X100.106 Y85.886 E4.07289
G1 X100.654 Y86.573 E4.11662
G1 X101.116 Y87.282 E4.15874
G1 X101.703 Y88.408 E4.22193
G1 X101.941 Y88.951 E4.25143
G1 X102.037 Y89.251 E4.26711
G1 X102.338 Y90.322 E4.32247
G1 X102.478 Y91.055 E4.35961
G1 X102.562 Y91.858 E4.39979
G1 X102.566 Y92.738 E4.44358
G1 X102.426 Y94.188 E4.51608
G1 X102.329 Y94.772 E4.54554
G1 X102.204 Y95.204 E4.56792
G1 X101.804 Y96.359 E4.62875
G1 X101.493 Y97.055 E4.66669
G1 X101.193 Y97.595 E4.69743
G1 X100.796 Y98.19 E4.73303
G1 X99.885 Y99.34 E4.80604
G1 X99.486 Y99.779 E4.83556
G1 X99.161 Y100.062 E4.85701
G1 X98.318 Y100.727 E4.91044
G1 X97.602 Y101.187 E4.95279
G1 X96.649 Y101.676 E5.0061
G1 X95.967 Y101.957 E5.04281
G1 X94.999 Y102.263 E5.09333
G1 X94.304 Y102.422 E5.12881
G1 X93.62 Y102.521 E5.1632
G1 X92.871 Y102.564 E5.20054
G1 X91.579 Y102.529 E5.26486
G1 X90.989 Y102.473 E5.29435
G1 X90.655 Y102.406 E5.31131
G1 X89.561 Y102.139 E5.36735
G1 X88.996 Y101.96 E5.39684
G1 X88.58 Y101.771 E5.41958
G1 X87.191 Y101.051 E5.49744
G1 X86.685 Y100.743 E5.52692
G1 X86.315 Y100.452 E5.55035
G1 X85.432 Y99.677 E5.60881
G1 X85.013 Y99.257 E5.63834
G1 X84.75 Y98.922 E5.65953
G1 X83.92 Y97.756 E5.73076
G1 X83.609 Y97.251 E5.76027
G1 X83.446 Y96.905 E5.77931
G1 X83.012 Y95.869 E5.83521
G1 X82.813 Y95.278 E5.86624
G1 X82.649 Y94.648 E5.89864
G1 X82.539 Y94.067 E5.92806
G1 X82.456 Y93.379 E5.96255
G1 X82.424 Y92.805 E5.99116
G1 X82.433 Y91.967 E6.03287
G1 X82.485 Y91.337 E6.06433
G1 X82.607 Y90.554 E6.10376
G1 X82.798 Y89.791 E6.14291
G1 X83.197 Y88.64 E6.20353
G1 X83.428 Y88.094 E6.23303
G1 X83.66 Y87.691 E6.25617
G1 X84.464 Y86.449 E6.3298
G1 X85.019 Y85.756 E6.37399
G1 X85.709 Y85.054 E6.42297
M204 S5000
G0 F2400 X85.994 Y85.333
M204 S200
G1 F1200 X86.577 Y84.844 E6.46084
G1 X87.445 Y84.246 E6.5133
G1 X87.932 Y83.959 E6.54143
G1 X88.313 Y83.793 E6.56211
G1 X89.945 Y83.183 E6.64882
G1 X90.487 Y83.023 E6.67694
G1 X91.027 Y82.943 E6.70411
G1 X92.369 Y82.836 E6.7711
G1 X93.208 Y82.857 E6.81287
G1 X94.318 Y83.003 E6.86858
G1 X94.89 Y83.121 E6.89765
G1 X95.541 Y83.306 E6.93133
G1 X96.304 Y83.611 E6.97222
G1 X97.641 Y84.312 E7.04735
G1 X98.122 Y84.609 E7.07548
G1 X98.421 Y84.847 E7.0945
G1 X99.305 Y85.622 E7.15301
G1 X99.794 Y86.135 E7.18828
G1 X100.342 Y86.822 E7.23201
G1 X100.762 Y87.467 E7.27031
G1 X101.349 Y88.593 E7.33351
G1 X101.653 Y89.359 E7.37452
G1 X101.954 Y90.43 E7.42988
G1 X102.081 Y91.096 E7.46362
G1 X102.165 Y91.899 E7.5038
G1 X102.168 Y92.699 E7.54362
G1 X102.028 Y94.149 E7.61611
G1 X101.935 Y94.707 E7.64426
G1 X101.827 Y95.073 E7.66325
G1 X101.427 Y96.228 E7.72408
G1 X101.144 Y96.862 E7.75863
G1 X100.844 Y97.402 E7.78938
G1 X100.483 Y97.943 E7.82174
G1 X99.572 Y99.093 E7.89476
G1 X99.19 Y99.51 E7.9229
G1 X98.914 Y99.749 E7.94107
G1 X98.071 Y100.414 E7.9945
G1 X97.42 Y100.832 E8.033
G1 X96.467 Y101.321 E8.08631
G1 X95.847 Y101.576 E8.11967
G1 X94.879 Y101.882 E8.17019
G1 X94.247 Y102.027 E8.20246
G1 X93.563 Y102.126 E8.23686
G1 X92.882 Y102.166 E8.27081
G1 X91.59 Y102.131 E8.33513
G1 X91.027 Y102.075 E8.36328
G1 X90.75 Y102.018 E8.37736
G1 X89.656 Y101.751 E8.4334
G1 X89.118 Y101.579 E8.46151
G1 X88.764 Y101.416 E8.4809
G1 X87.375 Y100.696 E8.55876
G1 X86.893 Y100.402 E8.58686
G1 X86.578 Y100.152 E8.60687
G1 X85.695 Y99.377 E8.66534
G1 X85.297 Y98.975 E8.69349
G1 X85.075 Y98.691 E8.71143
G1 X84.245 Y97.525 E8.78266
G1 X83.951 Y97.042 E8.8108
G1 X83.814 Y96.751 E8.8268
G1 X83.38 Y95.715 E8.8827
G1 X83.199 Y95.177 E8.91095
G1 X83.035 Y94.547 E8.94335
G1 X82.935 Y94.019 E8.97009
G1 X82.852 Y93.331 E9.00458
G1 X82.823 Y92.809 E9.03059
G1 X82.832 Y91.971 E9.0723
G1 X82.88 Y91.398 E9.10091
G1 X83.002 Y90.615 E9.14035
G1 X83.175 Y89.922 E9.1759
G1 X83.574 Y88.771 E9.23652
G1 X83.796 Y88.251 E9.26466
G1 X83.995 Y87.907 E9.28444
G1 X84.799 Y86.665 E9.35807
G1 X85.304 Y86.035 E9.39825
G1 X85.994 Y85.333 E9.44723
M204 S5000
G0 F2400 X86.278 Y85.613
M204 S200
G1 F1200 X86.803 Y85.172 E9.48135
G1 X87.671 Y84.574 E9.53381
G1 X88.134 Y84.304 E9.56048
G1 X88.453 Y84.167 E9.57776
G1 X90.085 Y83.557 E9.66446
G1 X90.6 Y83.407 E9.69116
G1 X91.059 Y83.34 E9.71424
G1 X92.401 Y83.233 E9.78124
G1 X93.156 Y83.253 E9.81883
G1 X94.266 Y83.399 E9.87454
G1 X94.781 Y83.505 E9.90071
G1 X95.432 Y83.69 E9.93439
G1 X96.119 Y83.965 E9.97122
G1 X97.456 Y84.666 E10.04634
G1 X97.911 Y84.949 E10.07301
G1 X98.158 Y85.147 E10.08876
G1 X99.042 Y85.922 E10.14727
G1 X99.483 Y86.384 E10.17905
G1 X100.031 Y87.071 E10.22279
G1 X100.408 Y87.651 E10.25721
G1 X100.995 Y88.777 E10.3204
G1 X101.269 Y89.467 E10.35735
G1 X101.57 Y90.538 E10.41271
G1 X101.684 Y91.138 E10.44311
G1 X101.768 Y91.941 E10.48329
G1 X101.771 Y92.661 E10.51912
G1 X101.631 Y94.111 E10.59161
G1 X101.54 Y94.639 E10.61828
G1 X101.45 Y94.943 E10.63406
G1 X101.05 Y96.098 E10.69488
G1 X100.795 Y96.668 E10.72596
G1 X100.495 Y97.208 E10.7567
G1 X100.17 Y97.695 E10.78584
G1 X99.259 Y98.845 E10.85885
G1 X98.896 Y99.239 E10.88551
G1 X98.667 Y99.436 E10.90054
G1 X97.824 Y100.101 E10.95398
G1 X97.238 Y100.477 E10.98863
G1 X96.285 Y100.966 E11.04193
G1 X95.727 Y101.196 E11.07197
G1 X94.759 Y101.502 E11.12249
G1 X94.19 Y101.632 E11.15154
G1 X93.506 Y101.731 E11.18593
G1 X92.893 Y101.767 E11.21649
G1 X91.601 Y101.732 E11.28081
G1 X90.845 Y101.63 E11.31878
G1 X89.751 Y101.363 E11.37482
G1 X89.241 Y101.198 E11.40149
G1 X88.948 Y101.062 E11.41757
G1 X87.559 Y100.342 E11.49543
G1 X87.102 Y100.061 E11.52213
G1 X86.841 Y99.852 E11.53877
G1 X85.958 Y99.077 E11.59723
G1 X85.582 Y98.694 E11.62394
G1 X85.4 Y98.459 E11.63874
G1 X84.57 Y97.293 E11.70996
G1 X84.183 Y96.597 E11.74959
G1 X83.749 Y95.561 E11.80549
G1 X83.585 Y95.077 E11.83092
G1 X83.421 Y94.447 E11.86332
G1 X83.331 Y93.971 E11.88743
G1 X83.248 Y93.283 E11.92191
G1 X83.222 Y92.813 E11.94534
G1 X83.231 Y91.975 E11.98705
G1 X83.274 Y91.46 E12.01276
G1 X83.396 Y90.677 E12.0522
G1 X83.552 Y90.052 E12.08426
G1 X83.951 Y88.901 E12.14488
G1 X84.163 Y88.409 E12.17154
G1 X84.33 Y88.124 E12.18798
G1 X85.134 Y86.882 E12.26161
G1 X85.588 Y86.315 E12.29776
G1 X86.278 Y85.613 E12.34674
M204 S5000
G0 F2400 X86.563 Y85.893
M204 S200
G1 F1200 X87.03 Y85.501 E12.37709
G1 X87.898 Y84.903 E12.42954
G1 X88.335 Y84.65 E12.45467
G1 X88.593 Y84.541 E12.46861
G1 X90.225 Y83.931 E12.55532
G1 X90.711 Y83.791 E12.58049
G1 X91.091 Y83.738 E12.59958
G1 X92.433 Y83.631 E12.66658
G1 X93.104 Y83.648 E12.69998
G1 X94.214 Y83.794 E12.7557
G1 X94.672 Y83.889 E12.77897
G1 X95.323 Y84.074 E12.81265
G1 X95.934 Y84.318 E12.84539
G1 X97.271 Y85.019 E12.92052
G1 X97.895 Y85.447 E12.95818
G1 X98.779 Y86.222 E13.01668
G1 X99.171 Y86.633 E13.04495
G1 X99.719 Y87.32 E13.08868
G1 X100.055 Y87.836 E13.11933
G1 X100.642 Y88.962 E13.18252
G1 X100.885 Y89.575 E13.21533
G1 X101.186 Y90.646 E13.2707
G1 X101.288 Y91.179 E13.2977
G1 X101.372 Y91.982 E13.33788
G1 X101.374 Y92.623 E13.36978
G1 X101.234 Y94.073 E13.44228
G1 X101.073 Y94.812 E13.47992
G1 X100.673 Y95.967 E13.54075
G1 X100.446 Y96.474 E13.56839
G1 X100.146 Y97.014 E13.59913
G1 X99.857 Y97.447 E13.62504
G1 X98.946 Y98.597 E13.69805
G1 X98.42 Y99.122 E13.73504
G1 X97.577 Y99.787 E13.78847
G1 X97.056 Y100.122 E13.8193
G1 X96.103 Y100.611 E13.8726
G1 X95.607 Y100.815 E13.89929
G1 X94.639 Y101.121 E13.94981
G1 X94.132 Y101.237 E13.9757
G1 X93.448 Y101.336 E14.01009
G1 X92.903 Y101.368 E14.03726
G1 X91.611 Y101.333 E14.10158
G1 X90.939 Y101.243 E14.13532
G1 X89.845 Y100.976 E14.19136
G1 X89.365 Y100.817 E14.21653
G1 X89.131 Y100.708 E14.22937
G1 X87.742 Y99.988 E14.30723
G1 X87.313 Y99.721 E14.33238
G1 X87.104 Y99.552 E14.34576
G1 X86.221 Y98.777 E14.40422
G1 X85.725 Y98.228 E14.44104
G1 X84.895 Y97.062 E14.51227
G1 X84.551 Y96.442 E14.54756
G1 X84.117 Y95.406 E14.60345
G1 X83.971 Y94.976 E14.62605
G1 X83.807 Y94.346 E14.65845
G1 X83.727 Y93.923 E14.67987
G1 X83.644 Y93.235 E14.71436
G1 X83.621 Y92.818 E14.73515
G1 X83.63 Y91.98 E14.77685
G1 X83.668 Y91.521 E14.79977
G1 X83.79 Y90.738 E14.83921
G1 X83.929 Y90.183 E14.86768
G1 X84.328 Y89.032 E14.9283
G1 X84.53 Y88.569 E14.95344
G1 X84.665 Y88.341 E14.96663
G1 X85.469 Y87.099 E15.04026
G1 X85.873 Y86.595 E15.0724
G1 X86.563 Y85.893 E15.12139
M204 S5000
G1 F1500 E13.12139
G0 F2400 X88.286 Y87.731
G0 X89.161 Y88.666
G0 X89.412 Y88.951
M204 S200
;TYPE:WALL-INNER
G1 F1500 E15.12139
G1 F1200 X89.664 Y88.746 E15.13756
G1 X89.926 Y88.562 E15.15349
G1 X90.183 Y88.406 E15.16845
G1 X90.501 Y88.244 E15.18621
G1 X90.802 Y88.115 E15.20251
G1 X91.133 Y87.999 E15.21996
G1 X91.413 Y87.924 E15.23439
G1 X91.761 Y87.856 E15.25203
G1 X92.086 Y87.815 E15.26834
G1 X92.399 Y87.797 E15.28394
G1 X92.73 Y87.803 E15.30041
G1 X93.065 Y87.83 E15.31714
G1 X93.391 Y87.882 E15.33357
G1 X93.7 Y87.952 E15.34934
G1 X94.022 Y88.049 E15.36607
G1 X94.325 Y88.165 E15.38222
G1 X94.621 Y88.303 E15.39847
G1 X94.909 Y88.461 E15.41482
G1 X95.196 Y88.645 E15.43178
G1 X95.443 Y88.831 E15.44717
G1 X95.704 Y89.056 E15.46432
G1 X95.923 Y89.273 E15.47966
G1 X96.151 Y89.534 E15.49691
G1 X96.352 Y89.798 E15.51342
G1 X96.518 Y90.053 E15.52856
G1 X96.701 Y90.383 E15.54734
G1 X96.816 Y90.629 E15.56086
G1 X96.95 Y90.979 E15.57951
G1 X97.04 Y91.272 E15.59476
G1 X97.114 Y91.585 E15.61077
G1 X97.167 Y91.923 E15.62779
G1 X97.196 Y92.228 E15.64304
G1 X97.203 Y92.545 E15.65882
G1 X97.185 Y92.909 E15.67696
G1 X97.149 Y93.214 E15.69224
G1 X97.085 Y93.552 E15.70936
G1 X97.001 Y93.868 E15.72563
G1 X96.9 Y94.164 E15.7412
G1 X96.767 Y94.48 E15.75826
G1 X96.624 Y94.763 E15.77404
G1 X96.456 Y95.044 E15.79033
G1 X96.267 Y95.316 E15.80681
G1 X96.057 Y95.578 E15.82352
G1 X95.825 Y95.827 E15.84046
G1 X95.588 Y96.05 E15.85666
G1 X95.355 Y96.24 E15.87162
G1 X95.064 Y96.444 E15.8893
G1 X94.8 Y96.604 E15.90467
G1 X94.505 Y96.756 E15.92118
G1 X94.215 Y96.879 E15.93686
G1 X93.867 Y97.001 E15.95521
G1 X93.587 Y97.076 E15.96964
G1 X93.239 Y97.144 E15.98728
G1 X92.914 Y97.185 E16.00358
G1 X92.601 Y97.203 E16.01919
G1 X92.27 Y97.197 E16.03566
G1 X91.935 Y97.17 E16.05239
G1 X91.609 Y97.118 E16.06881
G1 X91.3 Y97.048 E16.08458
G1 X90.978 Y96.951 E16.10132
G1 X90.675 Y96.835 E16.11746
G1 X90.379 Y96.697 E16.13372
G1 X90.081 Y96.534 E16.15062
G1 X89.821 Y96.367 E16.166
G1 X89.544 Y96.158 E16.18327
G1 X89.303 Y95.95 E16.19911
G1 X89.055 Y95.703 E16.21653
G1 X88.854 Y95.473 E16.23173
G1 X88.648 Y95.202 E16.24867
G1 X88.482 Y94.947 E16.26381
G1 X88.299 Y94.617 E16.28259
G1 X88.183 Y94.369 E16.29622
G1 X88.05 Y94.021 E16.31476
G1 X87.96 Y93.728 E16.33001
G1 X87.886 Y93.415 E16.34602
G1 X87.833 Y93.074 E16.36319
G1 X87.804 Y92.767 E16.37854
G1 X87.797 Y92.455 E16.39407
G1 X87.815 Y92.08 E16.41275
G1 X87.851 Y91.782 E16.42769
G1 X87.913 Y91.458 E16.4441
G1 X88.007 Y91.104 E16.46233
G1 X88.102 Y90.827 E16.47691
G1 X88.227 Y90.533 E16.4928
G1 X88.378 Y90.236 E16.50938
G1 X88.551 Y89.945 E16.52623
G1 X88.733 Y89.683 E16.54211
G1 X88.944 Y89.421 E16.55885
G1 X89.168 Y89.18 E16.57522
G1 X89.412 Y88.951 E16.59188
M204 S5000
G0 F2400 X90.252 Y89.822
M204 S200
G1 F1200 X90.072 Y89.984 E16.60393
G1 X89.902 Y90.159 E16.61607
G1 X89.744 Y90.347 E16.62829
G1 X89.601 Y90.545 E16.64045
G1 X89.471 Y90.752 E16.65261
G1 X89.357 Y90.966 E16.66468
G1 X89.258 Y91.188 E16.67677
G1 X89.174 Y91.42 E16.68905
G1 X89.106 Y91.655 E16.70123
G1 X89.057 Y91.895 E16.71342
G1 X89.023 Y92.135 E16.72548
G1 X89.006 Y92.378 E16.7376
G1 X89.006 Y92.622 E16.74975
G1 X89.023 Y92.865 E16.76187
G1 X89.057 Y93.105 E16.77393
G1 X89.106 Y93.345 E16.78612
G1 X89.174 Y93.58 E16.7983
G1 X89.258 Y93.812 E16.81057
G1 X89.357 Y94.034 E16.82267
G1 X89.471 Y94.248 E16.83474
G1 X89.601 Y94.455 E16.8469
G1 X89.744 Y94.653 E16.85906
G1 X89.902 Y94.841 E16.87128
G1 X90.072 Y95.016 E16.88342
G1 X90.252 Y95.177 E16.89544
G1 X90.451 Y95.334 E16.90805
G1 X90.743 Y95.523 E16.92536
G1 X90.96 Y95.639 E16.93761
G1 X91.196 Y95.745 E16.95048
G1 X91.447 Y95.836 E16.96377
G1 X91.884 Y95.943 E16.98616
G1 X92.266 Y95.99 E17.00531
G1 X92.605 Y95.994 E17.02218
G1 X92.849 Y95.978 E17.03435
G1 X93.099 Y95.945 E17.0469
G1 X93.449 Y95.866 E17.06476
G1 X93.697 Y95.785 E17.07774
G1 X93.929 Y95.692 E17.09018
G1 X94.239 Y95.534 E17.1075
G1 X94.549 Y95.334 E17.12586
G1 X94.748 Y95.177 E17.13847
G1 X94.928 Y95.016 E17.15049
G1 X95.098 Y94.841 E17.16263
G1 X95.256 Y94.653 E17.17485
G1 X95.399 Y94.455 E17.18701
G1 X95.529 Y94.248 E17.19917
G1 X95.643 Y94.034 E17.21124
G1 X95.742 Y93.812 E17.22333
G1 X95.826 Y93.58 E17.23561
G1 X95.894 Y93.345 E17.24779
G1 X95.943 Y93.105 E17.25998
G1 X95.977 Y92.865 E17.27204
G1 X95.994 Y92.622 E17.28416
G1 X95.994 Y92.378 E17.29631
G1 X95.977 Y92.135 E17.30843
G1 X95.943 Y91.895 E17.32049
G1 X95.894 Y91.655 E17.33268
G1 X95.826 Y91.42 E17.34486
G1 X95.742 Y91.188 E17.35714
G1 X95.643 Y90.966 E17.36923
G1 X95.529 Y90.752 E17.3813
G1 X95.399 Y90.545 E17.39346
G1 X95.256 Y90.347 E17.40562
