;FLAVOR:Marlin
;TIME:1572
;Filament used: 1.04263m
;Layer height: 0.2
;Generated with Cura_SteamEngine 2.7.0
M190 S60
M104 S220
M109 S220
G21 ;metric values
G90 ;absolute positioning
M82 ;set extruder to absolute mode
M107 ;start with the fan off
G92 E0 ;zero the extruded length
G1 F200 E3 ;extrude 3mm of feed stock
G92 E0 ;zero the extruded length again
G1 F9000
M117 Printing...
;LAYER_COUNT:50
;LAYER:0
M107
M204 S5000
G0 F2400 X80.843 Y79.611 Z0.3
M204 S200
;TYPE:SKIRT
G1 F1200 X81.444 Y79.099 E0.03929
G1 X83.288 Y77.772 E0.15235
G1 X83.975 Y77.36 E0.19222
G1 X85.736 Y76.495 E0.28985
G1 X86.371 Y76.238 E0.32395
G1 X87.923 Y75.735 E0.40514
G1 X88.656 Y75.559 E0.44265
G1 X90.949 Y75.198 E0.55817
G1 X91.765 Y75.141 E0.59888
G1 X93.739 Y75.17 E0.69712
G1 X94.462 Y75.235 E0.73325
G1 X96.311 Y75.545 E0.82655
G1 X97.062 Y75.734 E0.86509
G1 X99.062 Y76.414 E0.97022
G1 X99.761 Y76.716 E1.00811
G1 X101.481 Y77.626 E1.10495
G1 X102.091 Y78.01 E1.14082
G1 X103.56 Y79.097 E1.23176
G1 X104.088 Y79.55 E1.26638
G1 X105.389 Y80.843 E1.35767
G1 X105.901 Y81.444 E1.39696
G1 X107.229 Y83.29 E1.51013
G1 X107.641 Y83.978 E1.55004
G1 X108.503 Y85.734 E1.64738
G1 X108.759 Y86.365 E1.68127
G1 X109.264 Y87.919 E1.76259
G1 X109.441 Y88.655 E1.80026
G1 X109.802 Y90.949 E1.91583
G1 X109.859 Y91.765 E1.95654
G1 X109.83 Y93.739 E2.05478
G1 X109.765 Y94.462 E2.09091
G1 X109.455 Y96.311 E2.18421
G1 X109.266 Y97.062 E2.22275
G1 X108.586 Y99.062 E2.32788
G1 X108.283 Y99.763 E2.36588
G1 X107.372 Y101.483 E2.46274
G1 X106.991 Y102.089 E2.49836
G1 X105.905 Y103.558 E2.58928
G1 X105.45 Y104.088 E2.62404
G1 X104.157 Y105.389 E2.71532
G1 X103.556 Y105.901 E2.75461
G1 X101.712 Y107.228 E2.86767
G1 X101.025 Y107.64 E2.90754
G1 X99.264 Y108.505 E3.00518
G1 X98.629 Y108.762 E3.03927
G1 X97.077 Y109.265 E3.12046
G1 X96.344 Y109.441 E3.15797
G1 X94.051 Y109.802 E3.27349
G1 X93.235 Y109.859 E3.3142
G1 X91.261 Y109.83 E3.41245
G1 X90.538 Y109.765 E3.44857
G1 X88.689 Y109.455 E3.54187
G1 X88.012 Y109.29 E3.57655
G1 X86.407 Y108.773 E3.66047
G1 X85.703 Y108.483 E3.69836
G1 X83.573 Y107.4 E3.81727
G1 X82.867 Y106.96 E3.85867
G1 X81.302 Y105.785 E3.95606
G1 X80.782 Y105.333 E3.99035
G1 X79.569 Y104.114 E4.07593
G1 X79.112 Y103.582 E4.11083
G1 X78.009 Y102.09 E4.20317
G1 X77.603 Y101.436 E4.24148
G1 X76.571 Y99.433 E4.35361
G1 X76.277 Y98.73 E4.39153
G1 X75.74 Y97.092 E4.47732
G1 X75.568 Y96.399 E4.51285
G1 X75.224 Y94.369 E4.61532
G1 X75.157 Y93.568 E4.65532
G1 X75.157 Y91.456 E4.76042
G1 X75.221 Y90.678 E4.79927
G1 X75.548 Y88.689 E4.89958
G1 X75.739 Y87.923 E4.93887
G1 X76.414 Y85.938 E5.04321
G1 X76.715 Y85.24 E5.08104
G1 X77.625 Y83.519 E5.17792
G1 X78.011 Y82.907 E5.21393
G1 X79.098 Y81.439 E5.30483
G1 X79.55 Y80.912 E5.33938
G1 X80.843 Y79.611 E5.43067
M204 S5000
G0 F2400 X81.126 Y79.892
M204 S200
G1 F1200 X81.677 Y79.423 E5.46668
G1 X83.521 Y78.096 E5.57973
G1 X84.15 Y77.718 E5.61625
G1 X85.911 Y76.853 E5.71389
G1 X86.494 Y76.617 E5.74519
G1 X88.046 Y76.114 E5.82638
G1 X88.718 Y75.953 E5.86077
G1 X91.011 Y75.592 E5.97629
G1 X91.76 Y75.539 E6.01366
G1 X93.734 Y75.568 E6.11191
G1 X94.396 Y75.629 E6.14499
G1 X96.245 Y75.939 E6.23829
G1 X96.933 Y76.112 E6.2736
G1 X98.933 Y76.792 E6.37872
G1 X99.574 Y77.068 E6.41345
G1 X101.294 Y77.978 E6.51029
G1 X101.853 Y78.33 E6.54317
G1 X103.322 Y79.417 E6.63411
G1 X103.807 Y79.833 E6.66591
G1 X105.108 Y81.126 E6.75719
G1 X105.577 Y81.677 E6.7932
G1 X106.905 Y83.523 E6.90637
G1 X107.283 Y84.153 E6.94293
G1 X108.145 Y85.909 E7.04028
G1 X108.38 Y86.488 E7.07138
G1 X108.885 Y88.042 E7.15269
G1 X109.047 Y88.717 E7.18724
G1 X109.408 Y91.011 E7.30281
G1 X109.461 Y91.76 E7.34017
G1 X109.432 Y93.734 E7.43842
G1 X109.371 Y94.396 E7.47151
G1 X109.061 Y96.245 E7.56481
G1 X108.888 Y96.933 E7.60011
G1 X108.208 Y98.933 E7.70524
G1 X107.931 Y99.576 E7.74008
G1 X107.02 Y101.296 E7.83694
G1 X106.67 Y101.852 E7.86964
G1 X105.584 Y103.321 E7.96055
G1 X105.167 Y103.807 E7.99242
G1 X103.874 Y105.108 E8.0837
G1 X103.323 Y105.577 E8.11971
G1 X101.479 Y106.904 E8.23277
G1 X100.85 Y107.282 E8.26929
G1 X99.089 Y108.147 E8.36693
G1 X98.506 Y108.383 E8.39823
G1 X96.954 Y108.886 E8.47942
G1 X96.282 Y109.047 E8.51381
G1 X93.989 Y109.408 E8.62933
G1 X93.24 Y109.461 E8.66669
G1 X91.266 Y109.432 E8.76494
G1 X90.604 Y109.371 E8.79803
G1 X88.755 Y109.061 E8.89133
G1 X88.134 Y108.91 E8.92313
G1 X86.529 Y108.393 E9.00705
G1 X85.884 Y108.127 E9.04177
G1 X83.754 Y107.044 E9.16068
G1 X83.107 Y106.641 E9.19862
G1 X81.542 Y105.466 E9.29601
G1 X81.065 Y105.051 E9.32747
G1 X79.852 Y103.832 E9.41305
G1 X79.433 Y103.345 E9.44503
G1 X78.33 Y101.853 E9.53736
G1 X77.957 Y101.253 E9.57252
G1 X76.925 Y99.25 E9.68465
G1 X76.656 Y98.606 E9.71939
G1 X76.119 Y96.968 E9.80517
G1 X75.962 Y96.333 E9.83772
G1 X75.618 Y94.303 E9.94019
G1 X75.556 Y93.568 E9.9769
G1 X75.556 Y91.456 E10.082
G1 X75.614 Y90.743 E10.1176
G1 X75.941 Y88.754 E10.21791
G1 X76.117 Y88.051 E10.25398
G1 X76.792 Y86.066 E10.35832
G1 X77.068 Y85.427 E10.39296
G1 X77.978 Y83.706 E10.48984
G1 X78.331 Y83.144 E10.52287
G1 X79.418 Y81.676 E10.61377
G1 X79.833 Y81.193 E10.64546
G1 X81.126 Y79.892 E10.73674
M204 S5000
G0 F2400 X81.409 Y80.174
M204 S200
G1 F1200 X81.91 Y79.747 E10.7695
G1 X83.754 Y78.42 E10.88256
G1 X84.326 Y78.077 E10.91575
G1 X86.087 Y77.212 E11.01339
G1 X86.617 Y76.997 E11.04186
G1 X88.169 Y76.494 E11.12305
G1 X88.78 Y76.348 E11.15431
G1 X91.073 Y75.987 E11.26983
G1 X91.754 Y75.938 E11.3038
G1 X93.728 Y75.967 E11.40205
G1 X94.33 Y76.022 E11.43214
G1 X96.179 Y76.332 E11.52544
G1 X96.805 Y76.49 E11.55757
G1 X98.805 Y77.17 E11.66269
G1 X99.388 Y77.421 E11.69428
G1 X101.108 Y78.331 E11.79112
G1 X101.616 Y78.651 E11.821
G1 X103.085 Y79.738 E11.91194
G1 X103.525 Y80.116 E11.94081
G1 X104.826 Y81.409 E12.03209
G1 X105.253 Y81.91 E12.06485
G1 X106.581 Y83.756 E12.17802
G1 X106.925 Y84.329 E12.21128
G1 X107.787 Y86.085 E12.30863
G1 X108 Y86.611 E12.33687
G1 X108.505 Y88.165 E12.41819
G1 X108.652 Y88.779 E12.44961
G1 X109.013 Y91.073 E12.56517
G1 X109.062 Y91.754 E12.59915
G1 X109.033 Y93.728 E12.6974
G1 X108.978 Y94.33 E12.72748
G1 X108.668 Y96.179 E12.82078
G1 X108.51 Y96.805 E12.85291
G1 X107.83 Y98.805 E12.95804
G1 X107.578 Y99.389 E12.98969
G1 X106.667 Y101.109 E13.08656
G1 X106.349 Y101.615 E13.1163
G1 X105.263 Y103.084 E13.20721
G1 X104.884 Y103.525 E13.23615
G1 X103.591 Y104.826 E13.32743
G1 X103.09 Y105.253 E13.36019
G1 X101.246 Y106.58 E13.47325
G1 X100.674 Y106.923 E13.50644
G1 X98.913 Y107.788 E13.60408
G1 X98.383 Y108.003 E13.63254
G1 X96.831 Y108.506 E13.71373
G1 X96.22 Y108.652 E13.745
G1 X93.927 Y109.013 E13.86051
G1 X93.246 Y109.062 E13.89449
G1 X91.272 Y109.033 E13.99274
G1 X90.67 Y108.978 E14.02282
G1 X88.821 Y108.668 E14.11612
G1 X88.256 Y108.53 E14.14507
G1 X86.651 Y108.013 E14.22898
G1 X86.065 Y107.772 E14.26052
G1 X83.935 Y106.689 E14.37943
G1 X83.347 Y106.322 E14.41392
G1 X81.782 Y105.147 E14.51132
G1 X81.348 Y104.77 E14.53992
G1 X80.135 Y103.551 E14.62551
G1 X79.754 Y103.108 E14.65458
G1 X78.651 Y101.616 E14.74692
G1 X78.312 Y101.07 E14.7789
G1 X77.28 Y99.067 E14.89104
G1 X77.035 Y98.481 E14.92265
G1 X76.498 Y96.843 E15.00843
G1 X76.355 Y96.266 E15.03801
G1 X76.011 Y94.236 E15.14048
G1 X75.955 Y93.568 E15.17384
G1 X75.955 Y91.456 E15.27894
G1 X76.008 Y90.807 E15.31135
G1 X76.335 Y88.818 E15.41166
G1 X76.495 Y88.18 E15.44439
G1 X77.17 Y86.195 E15.54873
G1 X77.421 Y85.613 E15.58028
G1 X78.331 Y83.892 E15.67716
G1 X78.652 Y83.382 E15.70715
G1 X79.739 Y81.914 E15.79805
G1 X80.116 Y81.475 E15.82685
G1 X81.409 Y80.174 E15.91813
M204 S5000
G0 F2400 X81.692 Y80.455
M204 S200
G1 F1200 X82.143 Y80.071 E15.94761
G1 X83.987 Y78.744 E16.06067
G1 X84.502 Y78.435 E16.09056
G1 X86.263 Y77.57 E16.18819
G1 X86.74 Y77.376 E16.21382
G1 X88.292 Y76.873 E16.29501
G1 X88.842 Y76.742 E16.32315
G1 X91.135 Y76.381 E16.43867
G1 X91.748 Y76.337 E16.46925
G1 X93.722 Y76.366 E16.5675
G1 X94.264 Y76.416 E16.59459
G1 X96.113 Y76.726 E16.68789
G1 X96.677 Y76.868 E16.71683
G1 X98.677 Y77.548 E16.82196
G1 X99.201 Y77.774 E16.85036
G1 X100.921 Y78.684 E16.94719
G1 X101.379 Y78.972 E16.97412
G1 X102.848 Y80.059 E17.06506
G1 X103.244 Y80.399 E17.09104
G1 X104.545 Y81.692 E17.18232
G1 X104.93 Y82.143 E17.21183
G1 X106.258 Y83.989 E17.325
G1 X106.567 Y84.505 E17.35493
G1 X107.429 Y86.261 E17.45228
G1 X107.621 Y86.735 E17.47773
G1 X108.126 Y88.289 E17.55905
G1 X108.258 Y88.842 E17.58734
G1 X108.619 Y91.136 E17.70291
G1 X108.663 Y91.748 E17.73344
G1 X108.634 Y93.722 E17.83169
G1 X108.584 Y94.264 E17.85878
G1 X108.274 Y96.113 E17.95208
G1 X108.132 Y96.677 E17.98102
G1 X107.452 Y98.677 E18.08615
G1 X107.225 Y99.203 E18.11466
G1 X106.314 Y100.923 E18.21152
G1 X106.028 Y101.377 E18.23822
G1 X104.942 Y102.846 E18.32914
G1 X104.601 Y103.244 E18.35522
G1 X103.308 Y104.545 E18.4465
G1 X102.857 Y104.929 E18.47598
G1 X101.013 Y106.256 E18.58904
G1 X100.498 Y106.565 E18.61893
G1 X98.737 Y107.43 E18.71656
G1 X98.26 Y107.624 E18.74219
G1 X96.708 Y108.127 E18.82338
G1 X96.158 Y108.258 E18.85152
G1 X93.865 Y108.619 E18.96704
G1 X93.252 Y108.663 E18.99762
G1 X91.278 Y108.634 E19.09587
G1 X90.736 Y108.584 E19.12296
G1 X88.887 Y108.274 E19.21626
G1 X88.379 Y108.151 E19.24227
G1 X86.774 Y107.634 E19.32618
G1 X86.246 Y107.416 E19.35461
G1 X84.116 Y106.333 E19.47353
G1 X83.586 Y106.003 E19.5046
G1 X82.021 Y104.828 E19.60199
G1 X81.631 Y104.489 E19.6277
G1 X80.418 Y103.27 E19.71328
G1 X80.075 Y102.87 E19.73951
G1 X78.972 Y101.378 E19.83184
G1 X78.667 Y100.887 E19.86061
G1 X77.635 Y98.884 E19.97274
G1 X77.414 Y98.357 E20.00118
G1 X76.877 Y96.719 E20.08697
G1 X76.749 Y96.199 E20.11362
G1 X76.405 Y94.169 E20.21608
G1 X76.354 Y93.568 E20.2461
G1 X76.354 Y91.456 E20.3512
G1 X76.402 Y90.872 E20.38036
G1 X76.729 Y88.883 E20.48068
G1 X76.873 Y88.308 E20.51017
G1 X77.548 Y86.323 E20.61451
G1 X77.773 Y85.8 E20.64285
G1 X78.683 Y84.079 E20.73973
G1 X78.973 Y83.619 E20.76679
G1 X80.06 Y82.151 E20.8577
G1 X80.399 Y81.756 E20.8836
G1 X81.692 Y80.455 E20.97488
M204 S5000
G0 F2400 X81.975 Y80.736
M204 S200
G1 F1200 X82.376 Y80.395 E21.00108
G1 X84.22 Y79.068 E21.11414
G1 X84.678 Y78.793 E21.14072
G1 X86.439 Y77.928 E21.23836
G1 X86.863 Y77.756 E21.26113
G1 X88.415 Y77.253 E21.34232
G1 X88.904 Y77.136 E21.36734
G1 X91.197 Y76.775 E21.48286
G1 X91.742 Y76.736 E21.51005
G1 X93.716 Y76.765 E21.6083
G1 X94.198 Y76.809 E21.63239
G1 X96.047 Y77.119 E21.72569
G1 X96.548 Y77.245 E21.7514
G1 X98.548 Y77.925 E21.85652
G1 X99.014 Y78.126 E21.88178
G1 X100.734 Y79.036 E21.97862
G1 X101.141 Y79.293 E22.00257
G1 X102.61 Y80.38 E22.09352
G1 X102.963 Y80.682 E22.11664
G1 X104.264 Y81.975 E22.20792
G1 X104.606 Y82.376 E22.23415
G1 X105.934 Y84.222 E22.34731
G1 X106.209 Y84.681 E22.37394
G1 X107.071 Y86.437 E22.47129
G1 X107.241 Y86.858 E22.49389
G1 X107.746 Y88.412 E22.5752
G1 X107.864 Y88.904 E22.60038
G1 X108.225 Y91.198 E22.71595
G1 X108.264 Y91.742 E22.74309
G1 X108.235 Y93.716 E22.84134
G1 X108.191 Y94.198 E22.86543
G1 X107.881 Y96.047 E22.95873
G1 X107.755 Y96.548 E22.98444
G1 X107.075 Y98.548 E23.08956
G1 X106.873 Y99.016 E23.11493
G1 X105.962 Y100.736 E23.21179
G1 X105.707 Y101.14 E23.23557
G1 X104.621 Y102.609 E23.32648
G1 X104.318 Y102.963 E23.34967
G1 X103.025 Y104.264 E23.44095
G1 X102.624 Y104.605 E23.46715
G1 X100.78 Y105.932 E23.58021
G1 X100.322 Y106.207 E23.60679
G1 X98.561 Y107.072 E23.70443
G1 X98.137 Y107.244 E23.7272
G1 X96.585 Y107.747 E23.80839
G1 X96.096 Y107.864 E23.83341
G1 X93.803 Y108.225 E23.94893
G1 X93.258 Y108.264 E23.97612
G1 X91.284 Y108.235 E24.07437
G1 X90.802 Y108.191 E24.09846
G1 X88.953 Y107.881 E24.19176
G1 X88.501 Y107.771 E24.21491
G1 X86.896 Y107.254 E24.29882
G1 X86.427 Y107.06 E24.32408
G1 X84.297 Y105.977 E24.443
G1 X83.826 Y105.684 E24.4706
G1 X82.261 Y104.509 E24.56799
G1 X81.914 Y104.207 E24.59089
G1 X80.701 Y102.988 E24.67647
G1 X80.396 Y102.633 E24.69976
G1 X79.293 Y101.141 E24.7921
G1 X79.021 Y100.705 E24.81767
G1 X77.989 Y98.702 E24.9298
G1 X77.793 Y98.233 E24.9551
G1 X77.256 Y96.595 E25.04088
G1 X77.142 Y96.133 E25.06457
G1 X76.798 Y94.103 E25.16703
G1 X76.753 Y93.568 E25.19375
G1 X76.753 Y91.456 E25.29885
G1 X76.795 Y90.937 E25.32477
G1 X77.122 Y88.948 E25.42508
G1 X77.25 Y88.437 E25.45129
G1 X77.925 Y86.452 E25.55563
G1 X78.126 Y85.986 E25.58089
G1 X79.036 Y84.265 E25.67777
G1 X79.293 Y83.857 E25.70177
G1 X80.38 Y82.389 E25.79267
G1 X80.682 Y82.037 E25.81575
G1 X81.975 Y80.736 E25.90703
M204 S5000
G1 F1500 E23.90703
G0 F2400 X83.719 Y83.723
G0 X85.193 Y83.943
G0 X85.826 Y84.679
M204 S200
;TYPE:WALL-INNER
G1 F1500 E25.90703
G1 F1200 X87.152 Y83.718 E25.98853
G1 X88.579 Y82.997 E26.0681
G1 X90.091 Y82.504 E26.14724
G1 X91.704 Y82.25 E26.2285
G1 X93.3 Y82.25 E26.30793
G1 X94.916 Y82.506 E26.38935
G1 X96.437 Y83.003 E26.46898
G1 X97.854 Y83.722 E26.54806
G1 X99.166 Y84.672 E26.62867
G1 X100.322 Y85.827 E26.70999
G1 X101.282 Y87.152 E26.79142
G1 X102.001 Y88.575 E26.87076
G1 X102.496 Y90.091 E26.95013
G1 X102.75 Y91.704 E27.03139
G1 X102.75 Y93.3 E27.11081
G1 X102.494 Y94.916 E27.19224
G1 X101.997 Y96.437 E27.27187
G1 X101.278 Y97.854 E27.35095
G1 X100.326 Y99.169 E27.43174
G1 X99.174 Y100.321 E27.51281
G1 X97.848 Y101.282 E27.59431
G1 X96.421 Y102.003 E27.67388
G1 X94.909 Y102.496 E27.75302
G1 X93.296 Y102.75 E27.83428
G1 X91.7 Y102.75 E27.91371
G1 X90.084 Y102.494 E27.99513
G1 X88.566 Y101.998 E28.07461
G1 X87.138 Y101.273 E28.1543
G1 X85.834 Y100.328 E28.23445
G1 X84.678 Y99.173 E28.31577
G1 X83.718 Y97.848 E28.3972
G1 X82.997 Y96.421 E28.47676
G1 X82.504 Y94.909 E28.55591
G1 X82.25 Y93.296 E28.63717
G1 X82.25 Y91.7 E28.71659
G1 X82.506 Y90.084 E28.79802
G1 X83.003 Y88.563 E28.87765
G1 X83.722 Y87.146 E28.95673
G1 X84.674 Y85.831 E29.03752
G1 X85.826 Y84.679 E29.11859
M204 S5000
G0 F2400 X88.613 Y87.867
M204 S200
G1 F1200 X88.3 Y88.151 E29.13963
G1 X88.006 Y88.454 E29.16064
G1 X87.735 Y88.777 E29.18162
G1 X87.487 Y89.119 E29.20264
G1 X87.264 Y89.476 E29.22359
G1 X87.065 Y89.849 E29.24463
G1 X86.894 Y90.234 E29.26559
G1 X86.749 Y90.631 E29.28663
G1 X86.634 Y91.038 E29.30768
G1 X86.546 Y91.451 E29.32869
G1 X86.487 Y91.867 E29.3496
G1 X86.457 Y92.289 E29.37065
G1 X86.457 Y92.711 E29.39165
G1 X86.487 Y93.133 E29.41271
G1 X86.546 Y93.549 E29.43362
G1 X86.634 Y93.962 E29.45463
G1 X86.749 Y94.369 E29.47568
G1 X86.894 Y94.766 E29.49671
G1 X87.065 Y95.151 E29.51768
G1 X87.264 Y95.524 E29.53872
G1 X87.487 Y95.881 E29.55967
G1 X87.735 Y96.223 E29.58069
G1 X88.006 Y96.546 E29.60167
G1 X88.3 Y96.849 E29.62268
G1 X88.613 Y97.133 E29.64371
G1 X88.946 Y97.392 E29.66471
G1 X89.295 Y97.628 E29.68568
G1 X89.662 Y97.84 E29.70677
G1 X90.041 Y98.024 E29.72773
G1 X90.433 Y98.181 E29.74875
G1 X90.832 Y98.312 E29.76965
G1 X91.242 Y98.415 E29.79069
G1 X91.658 Y98.487 E29.8117
G1 X92.078 Y98.532 E29.83272
G1 X92.5 Y98.546 E29.85373
G1 X92.922 Y98.532 E29.87474
G1 X93.342 Y98.487 E29.89576
G1 X93.758 Y98.415 E29.91677
G1 X94.168 Y98.312 E29.93781
G1 X94.567 Y98.181 E29.95871
G1 X94.959 Y98.024 E29.97973
G1 X95.338 Y97.84 E30.00069
G1 X95.705 Y97.628 E30.02178
G1 X96.054 Y97.392 E30.04275
G1 X96.387 Y97.133 E30.06374
G1 X96.7 Y96.849 E30.08478
G1 X96.994 Y96.546 E30.10579
G1 X97.265 Y96.223 E30.12677
G1 X97.513 Y95.881 E30.14779
G1 X97.736 Y95.524 E30.16874
G1 X97.935 Y95.151 E30.18978
G1 X98.106 Y94.766 E30.21075
G1 X98.251 Y94.369 E30.23178
G1 X98.366 Y93.962 E30.25283
G1 X98.454 Y93.549 E30.27384
G1 X98.513 Y93.133 E30.29475
G1 X98.543 Y92.711 E30.3158
G1 X98.543 Y92.289 E30.33681
G1 X98.513 Y91.867 E30.35786
G1 X98.454 Y91.451 E30.37877
G1 X98.366 Y91.038 E30.39978
G1 X98.251 Y90.631 E30.42083
G1 X98.106 Y90.234 E30.44186
G1 X97.935 Y89.849 E30.46283
G1 X97.736 Y89.476 E30.48387
G1 X97.513 Y89.119 E30.50482
G1 X97.265 Y88.777 E30.52584
G1 X96.994 Y88.454 E30.54682
G1 X96.7 Y88.151 E30.56783
G1 X96.387 Y87.867 E30.58887
G1 X96.054 Y87.608 E30.60986
G1 X95.705 Y87.372 E30.63083
G1 X95.338 Y87.16 E30.65192
G1 X94.959 Y86.976 E30.67288
G1 X94.567 Y86.819 E30.6939
G1 X94.168 Y86.688 E30.7148
G1 X93.758 Y86.585 E30.73584
G1 X93.342 Y86.513 E30.75685
G1 X92.922 Y86.468 E30.77787
G1 X92.5 Y86.454 E30.79888
G1 X92.078 Y86.468 E30.81989
