;FLAVOR:Marlin
;TIME:1527
;Filament used: 1.1376m
;Layer height: 0.2
;Generated with Cura_SteamEngine 2.7.0
M190 S60
M104 S220
M109 S220
G21 ;metric values
G90 ;absolute positioning
M82 ;set extruder to absolute mode
M107 ;start with the fan off
G92 E0 ;zero the extruded length
G1 F200 E3 ;extrude 3mm of feed stock
G92 E0 ;zero the extruded length again
G1 F9000
M117 Printing...
;LAYER_COUNT:52
;LAYER:0
M107
M204 S5000
G0 F2400 X80.346 Y80.101 Z0.3
M204 S200
;TYPE:SKIRT
G1 F1200 X80.679 Y79.769 E0.0234
G1 X81.257 Y79.245 E0.06223
G1 X81.673 Y78.908 E0.08887
G1 X83.067 Y77.903 E0.17439
G1 X83.659 Y77.538 E0.209
G1 X85.293 Y76.688 E0.30066
G1 X85.955 Y76.405 E0.33649
G1 X87.81 Y75.771 E0.43405
G1 X88.599 Y75.574 E0.47452
G1 X90.911 Y75.202 E0.59106
G1 X91.684 Y75.141 E0.62965
G1 X93.419 Y75.145 E0.71599
G1 X94.177 Y75.207 E0.75384
G1 X96.355 Y75.561 E0.86365
G1 X97.137 Y75.757 E0.90377
G1 X99.068 Y76.417 E1.00533
G1 X99.759 Y76.715 E1.04277
G1 X101.48 Y77.625 E1.13966
G1 X102.069 Y77.993 E1.17422
G1 X103.46 Y79.01 E1.25997
G1 X104.002 Y79.472 E1.29541
G1 X105.395 Y80.85 E1.39293
G1 X105.919 Y81.465 E1.43313
G1 X107.231 Y83.294 E1.54515
G1 X107.638 Y83.974 E1.58459
G1 X108.502 Y85.732 E1.68207
G1 X108.778 Y86.425 E1.7192
G1 X109.363 Y88.309 E1.81737
G1 X109.52 Y88.983 E1.85181
G1 X109.772 Y90.579 E1.93222
G1 X109.829 Y91.205 E1.9635
G1 X109.867 Y92.697 E2.03778
G1 X109.843 Y93.321 E2.06885
G1 X109.633 Y95.316 E2.16868
G1 X109.562 Y95.776 E2.19185
G1 X109.404 Y96.548 E2.23106
G1 X109.243 Y97.137 E2.26145
G1 X108.583 Y99.068 E2.363
G1 X108.285 Y99.758 E2.40041
G1 X107.376 Y101.478 E2.49722
G1 X107.007 Y102.068 E2.53185
G1 X105.989 Y103.46 E2.61768
G1 X105.528 Y104.002 E2.65309
G1 X104.15 Y105.395 E2.7506
G1 X103.535 Y105.919 E2.79081
G1 X101.706 Y107.231 E2.90282
G1 X101.027 Y107.638 E2.94222
G1 X99.264 Y108.505 E3.03999
G1 X98.567 Y108.782 E3.07732
G1 X96.688 Y109.364 E3.17521
G1 X96.015 Y109.521 E3.2096
G1 X94.402 Y109.775 E3.29086
G1 X93.773 Y109.832 E3.32229
G1 X92.302 Y109.868 E3.39552
G1 X91.684 Y109.843 E3.4263
G1 X89.685 Y109.633 E3.52633
G1 X89.224 Y109.562 E3.54954
G1 X88.452 Y109.404 E3.58876
G1 X87.86 Y109.242 E3.6193
G1 X85.918 Y108.577 E3.72145
G1 X85.229 Y108.279 E3.75881
G1 X83.519 Y107.374 E3.85509
G1 X82.931 Y107.006 E3.88961
G1 X81.539 Y105.988 E3.97544
G1 X80.997 Y105.527 E4.01085
G1 X79.605 Y104.15 E4.10829
G1 X79.082 Y103.537 E4.14839
G1 X77.768 Y101.707 E4.2605
G1 X77.359 Y101.024 E4.30012
G1 X76.493 Y99.26 E4.39792
G1 X76.216 Y98.564 E4.4352
G1 X75.635 Y96.687 E4.53298
G1 X75.479 Y96.015 E4.56731
G1 X75.225 Y94.402 E4.64857
G1 X75.167 Y93.722 E4.68253
G1 X75.14 Y91.749 E4.78073
G1 X75.201 Y90.922 E4.822
G1 X75.574 Y88.601 E4.93899
G1 X75.752 Y87.866 E4.97662
G1 X76.283 Y86.249 E5.06132
G1 X76.547 Y85.607 E5.09586
G1 X77.378 Y83.938 E5.18865
G1 X77.724 Y83.351 E5.22256
G1 X78.578 Y82.114 E5.29736
G1 X78.971 Y81.618 E5.32886
G1 X80.346 Y80.101 E5.43075
M204 S5000
G0 F2400 X80.642 Y80.369
M204 S200
G1 F1200 X80.947 Y80.064 E5.45221
G1 X81.525 Y79.54 E5.49104
G1 X81.907 Y79.231 E5.51549
G1 X83.301 Y78.226 E5.60101
G1 X83.843 Y77.892 E5.63269
G1 X85.477 Y77.042 E5.72436
G1 X86.084 Y76.782 E5.75722
G1 X87.939 Y76.148 E5.85478
G1 X88.663 Y75.968 E5.8919
G1 X90.975 Y75.596 E6.00844
G1 X91.683 Y75.54 E6.04378
G1 X93.418 Y75.544 E6.13013
G1 X94.113 Y75.601 E6.16483
G1 X96.291 Y75.955 E6.27464
G1 X97.008 Y76.134 E6.31142
G1 X98.939 Y76.794 E6.41297
G1 X99.572 Y77.068 E6.4473
G1 X101.293 Y77.978 E6.54418
G1 X101.833 Y78.316 E6.57589
G1 X103.224 Y79.333 E6.66164
G1 X103.721 Y79.756 E6.69412
G1 X105.114 Y81.134 E6.79163
G1 X105.595 Y81.697 E6.82848
G1 X106.907 Y83.526 E6.9405
G1 X107.28 Y84.15 E6.97668
G1 X108.144 Y85.908 E7.07416
G1 X108.397 Y86.543 E7.10818
G1 X108.982 Y88.427 E7.20635
G1 X109.126 Y89.045 E7.23793
G1 X109.378 Y90.641 E7.31834
G1 X109.431 Y91.215 E7.34703
G1 X109.469 Y92.707 E7.4213
G1 X109.446 Y93.279 E7.44979
G1 X109.236 Y95.274 E7.54962
G1 X109.171 Y95.696 E7.57087
G1 X109.013 Y96.468 E7.61008
G1 X108.866 Y97.008 E7.63793
G1 X108.206 Y98.939 E7.73949
G1 X107.932 Y99.571 E7.77377
G1 X107.023 Y101.291 E7.87059
G1 X106.685 Y101.833 E7.90237
G1 X105.667 Y103.225 E7.9882
G1 X105.244 Y103.721 E8.02064
G1 X103.866 Y105.114 E8.11815
G1 X103.303 Y105.595 E8.155
G1 X101.474 Y106.907 E8.26702
G1 X100.851 Y107.28 E8.30315
G1 X99.088 Y108.147 E8.40092
G1 X98.449 Y108.401 E8.43514
G1 X96.57 Y108.983 E8.53304
G1 X95.953 Y109.126 E8.56456
G1 X94.34 Y109.38 E8.64582
G1 X93.764 Y109.433 E8.6746
G1 X92.293 Y109.469 E8.74783
G1 X91.726 Y109.446 E8.77607
G1 X89.727 Y109.236 E8.8761
G1 X89.304 Y109.171 E8.8974
G1 X88.532 Y109.013 E8.93661
G1 X87.99 Y108.865 E8.96457
G1 X86.048 Y108.2 E9.06673
G1 X85.415 Y107.926 E9.10105
G1 X83.705 Y107.021 E9.19733
G1 X83.166 Y106.684 E9.22897
G1 X81.774 Y105.666 E9.31479
G1 X81.278 Y105.243 E9.34723
G1 X79.886 Y103.866 E9.44467
G1 X79.406 Y103.305 E9.48142
G1 X78.092 Y101.475 E9.59353
G1 X77.717 Y100.848 E9.62989
G1 X76.851 Y99.084 E9.72768
G1 X76.598 Y98.446 E9.76184
G1 X76.017 Y96.569 E9.85962
G1 X75.874 Y95.953 E9.89109
G1 X75.62 Y94.34 E9.97235
G1 X75.566 Y93.716 E10.00352
G1 X75.539 Y91.743 E10.10172
G1 X75.595 Y90.985 E10.13955
G1 X75.968 Y88.664 E10.25653
G1 X76.131 Y87.99 E10.29104
G1 X76.662 Y86.373 E10.37574
G1 X76.904 Y85.785 E10.40738
G1 X77.735 Y84.116 E10.50017
G1 X78.053 Y83.578 E10.53127
G1 X78.907 Y82.341 E10.60608
G1 X79.267 Y81.886 E10.63495
G1 X80.642 Y80.369 E10.73684
M204 S5000
G0 F2400 X80.938 Y80.637
M204 S200
G1 F1200 X81.215 Y80.36 E10.75633
G1 X81.793 Y79.836 E10.79516
G1 X82.14 Y79.555 E10.81738
G1 X83.534 Y78.55 E10.9029
G1 X84.027 Y78.246 E10.93173
G1 X85.661 Y77.396 E11.02339
G1 X86.213 Y77.16 E11.05326
G1 X88.068 Y76.526 E11.15082
G1 X88.726 Y76.362 E11.18457
G1 X91.038 Y75.99 E11.30111
G1 X91.682 Y75.939 E11.33326
G1 X93.417 Y75.943 E11.4196
G1 X94.049 Y75.995 E11.45116
G1 X96.227 Y76.349 E11.56097
G1 X96.879 Y76.512 E11.59441
G1 X98.81 Y77.172 E11.69597
G1 X99.386 Y77.421 E11.7272
G1 X101.107 Y78.331 E11.82408
G1 X101.598 Y78.638 E11.8529
G1 X102.989 Y79.655 E11.93865
G1 X103.441 Y80.04 E11.9682
G1 X104.834 Y81.418 E12.06571
G1 X105.271 Y81.93 E12.09921
G1 X106.583 Y83.759 E12.21123
G1 X106.922 Y84.326 E12.2441
G1 X107.786 Y86.084 E12.34159
G1 X108.016 Y86.661 E12.3725
G1 X108.601 Y88.545 E12.47067
G1 X108.732 Y89.107 E12.49939
G1 X108.984 Y90.703 E12.5798
G1 X109.032 Y91.225 E12.60589
G1 X109.07 Y92.717 E12.68016
G1 X109.049 Y93.238 E12.70611
G1 X108.839 Y95.233 E12.80594
G1 X108.78 Y95.616 E12.82522
G1 X108.622 Y96.388 E12.86444
G1 X108.488 Y96.879 E12.88977
G1 X107.828 Y98.81 E12.99132
G1 X107.58 Y99.385 E13.02249
G1 X106.671 Y101.105 E13.1193
G1 X106.363 Y101.597 E13.14819
G1 X105.345 Y102.989 E13.23401
G1 X104.96 Y103.441 E13.26356
G1 X103.582 Y104.834 E13.36107
G1 X103.07 Y105.271 E13.39457
G1 X101.241 Y106.583 E13.50659
G1 X100.675 Y106.922 E13.53942
G1 X98.912 Y107.789 E13.63719
G1 X98.331 Y108.02 E13.66831
G1 X96.452 Y108.602 E13.7662
G1 X95.891 Y108.732 E13.79486
G1 X94.278 Y108.986 E13.87612
G1 X93.754 Y109.034 E13.9023
G1 X92.283 Y109.07 E13.97553
G1 X91.767 Y109.049 E14.00123
G1 X89.768 Y108.839 E14.10126
G1 X89.384 Y108.78 E14.12059
G1 X88.612 Y108.622 E14.15981
G1 X88.119 Y108.487 E14.18525
G1 X86.177 Y107.822 E14.2874
G1 X85.602 Y107.574 E14.31856
G1 X83.892 Y106.669 E14.41485
G1 X83.402 Y106.362 E14.44362
G1 X82.01 Y105.344 E14.52944
G1 X81.558 Y104.959 E14.55899
G1 X80.166 Y103.582 E14.65643
G1 X79.73 Y103.072 E14.68982
G1 X78.416 Y101.242 E14.80194
G1 X78.075 Y100.672 E14.83499
G1 X77.209 Y98.908 E14.93279
G1 X76.979 Y98.328 E14.96384
G1 X76.398 Y96.451 E15.06162
G1 X76.268 Y95.891 E15.09023
G1 X76.014 Y94.278 E15.17149
G1 X75.965 Y93.711 E15.19981
G1 X75.938 Y91.738 E15.29801
G1 X75.989 Y91.049 E15.33239
G1 X76.362 Y88.728 E15.44938
G1 X76.511 Y88.115 E15.48078
G1 X77.042 Y86.498 E15.56547
G1 X77.261 Y85.963 E15.59424
G1 X78.092 Y84.294 E15.68703
G1 X78.381 Y83.805 E15.7153
G1 X79.235 Y82.568 E15.7901
G1 X79.563 Y82.154 E15.81639
G1 X80.938 Y80.637 E15.91828
M204 S5000
G0 F2400 X81.233 Y80.905
M204 S200
G1 F1200 X81.483 Y80.656 E15.93584
G1 X82.061 Y80.132 E15.97466
G1 X82.373 Y79.879 E15.99465
G1 X83.767 Y78.874 E16.08017
G1 X84.211 Y78.6 E16.10614
G1 X85.845 Y77.75 E16.1978
G1 X86.342 Y77.537 E16.22471
G1 X88.197 Y76.903 E16.32227
G1 X88.789 Y76.756 E16.35262
G1 X91.101 Y76.384 E16.46916
G1 X91.681 Y76.338 E16.49812
G1 X93.416 Y76.342 E16.58446
G1 X93.985 Y76.389 E16.61287
G1 X96.163 Y76.743 E16.72268
G1 X96.75 Y76.889 E16.75279
G1 X98.681 Y77.549 E16.85434
G1 X99.199 Y77.773 E16.88243
G1 X100.92 Y78.683 E16.97931
G1 X101.362 Y78.96 E17.00527
G1 X102.753 Y79.977 E17.09102
G1 X103.16 Y80.323 E17.1176
G1 X104.553 Y81.701 E17.21512
G1 X104.946 Y82.162 E17.24526
G1 X106.258 Y83.991 E17.35728
G1 X106.564 Y84.502 E17.38692
G1 X107.428 Y86.26 E17.4844
G1 X107.635 Y86.78 E17.51226
G1 X108.22 Y88.664 E17.61043
G1 X108.338 Y89.17 E17.63629
G1 X108.59 Y90.766 E17.7167
G1 X108.633 Y91.235 E17.74014
G1 X108.671 Y92.727 E17.81441
G1 X108.652 Y93.196 E17.83777
G1 X108.442 Y95.191 E17.9376
G1 X108.389 Y95.536 E17.95497
G1 X108.231 Y96.308 E17.99419
G1 X108.111 Y96.75 E18.01698
G1 X107.451 Y98.681 E18.11853
G1 X107.227 Y99.199 E18.14662
G1 X106.318 Y100.919 E18.24343
G1 X106.041 Y101.362 E18.26943
G1 X105.023 Y102.754 E18.35526
G1 X104.677 Y103.16 E18.3818
G1 X103.299 Y104.553 E18.47931
G1 X102.838 Y104.946 E18.50946
G1 X101.009 Y106.258 E18.62148
G1 X100.499 Y106.564 E18.65108
G1 X98.736 Y107.431 E18.74885
G1 X98.213 Y107.639 E18.77686
G1 X96.334 Y108.221 E18.87475
G1 X95.829 Y108.338 E18.90055
G1 X94.216 Y108.592 E18.98181
G1 X93.744 Y108.635 E19.0054
G1 X92.273 Y108.671 E19.07862
G1 X91.809 Y108.652 E19.10173
G1 X89.81 Y108.442 E19.20176
G1 X89.464 Y108.389 E19.21918
G1 X88.692 Y108.231 E19.2584
G1 X88.248 Y108.11 E19.2813
G1 X86.306 Y107.445 E19.38345
G1 X85.788 Y107.221 E19.41154
G1 X84.078 Y106.316 E19.50782
G1 X83.637 Y106.04 E19.53371
G1 X82.245 Y105.022 E19.61953
G1 X81.839 Y104.676 E19.64608
G1 X80.447 Y103.299 E19.74352
G1 X80.055 Y102.839 E19.7736
G1 X78.741 Y101.009 E19.88571
G1 X78.433 Y100.496 E19.91549
G1 X77.567 Y98.732 E20.01329
G1 X77.36 Y98.21 E20.04123
G1 X76.779 Y96.333 E20.13901
G1 X76.662 Y95.829 E20.16476
G1 X76.408 Y94.216 E20.24602
G1 X76.364 Y93.705 E20.27155
G1 X76.337 Y91.732 E20.36974
G1 X76.383 Y91.112 E20.40068
G1 X76.756 Y88.791 E20.51767
G1 X76.89 Y88.239 E20.54594
G1 X77.421 Y86.622 E20.63064
G1 X77.618 Y86.141 E20.65651
G1 X78.449 Y84.472 E20.74929
G1 X78.709 Y84.031 E20.77477
G1 X79.563 Y82.794 E20.84957
G1 X79.858 Y82.422 E20.8732
G1 X81.233 Y80.905 E20.97509
M204 S5000
G0 F2400 X81.529 Y81.173
M204 S200
G1 F1200 X81.751 Y80.951 E20.99071
G1 X82.329 Y80.427 E21.02954
G1 X82.607 Y80.202 E21.04734
G1 X84.001 Y79.197 E21.13286
G1 X84.395 Y78.954 E21.1559
G1 X86.029 Y78.104 E21.24756
G1 X86.471 Y77.915 E21.27148
G1 X88.326 Y77.281 E21.36904
G1 X88.853 Y77.15 E21.39606
G1 X91.165 Y76.778 E21.5126
G1 X91.68 Y76.737 E21.53831
G1 X93.415 Y76.741 E21.62465
G1 X93.921 Y76.782 E21.64992
G1 X96.099 Y77.136 E21.75973
G1 X96.621 Y77.267 E21.78651
G1 X98.552 Y77.927 E21.88807
G1 X99.013 Y78.126 E21.91306
G1 X100.734 Y79.036 E22.00994
G1 X101.127 Y79.282 E22.03301
G1 X102.518 Y80.299 E22.11876
G1 X102.879 Y80.607 E22.14238
G1 X104.272 Y81.985 E22.23989
G1 X104.622 Y82.395 E22.26672
G1 X105.934 Y84.224 E22.37874
G1 X106.206 Y84.678 E22.40507
G1 X107.07 Y86.436 E22.50256
G1 X107.254 Y86.898 E22.52731
G1 X107.839 Y88.782 E22.62548
G1 X107.944 Y89.232 E22.64848
G1 X108.196 Y90.828 E22.72888
G1 X108.234 Y91.246 E22.74977
G1 X108.272 Y92.738 E22.82405
G1 X108.255 Y93.154 E22.84477
G1 X108.045 Y95.149 E22.9446
G1 X107.998 Y95.456 E22.96005
G1 X107.84 Y96.228 E22.99927
G1 X107.733 Y96.621 E23.01954
G1 X107.073 Y98.552 E23.12109
G1 X106.874 Y99.012 E23.14604
G1 X105.965 Y100.732 E23.24285
G1 X105.719 Y101.126 E23.26597
G1 X104.701 Y102.518 E23.35179
G1 X104.393 Y102.879 E23.3754
G1 X103.015 Y104.272 E23.47292
G1 X102.605 Y104.622 E23.49974
G1 X100.776 Y105.934 E23.61176
G1 X100.323 Y106.206 E23.63806
G1 X98.56 Y107.073 E23.73583
G1 X98.095 Y107.258 E23.76073
G1 X96.216 Y107.84 E23.85862
G1 X95.767 Y107.944 E23.88156
G1 X94.154 Y108.198 E23.96282
G1 X93.734 Y108.236 E23.98381
G1 X92.263 Y108.272 E24.05704
G1 X91.851 Y108.255 E24.07756
G1 X89.852 Y108.045 E24.17759
G1 X89.544 Y107.998 E24.19309
G1 X88.772 Y107.84 E24.23231
G1 X88.377 Y107.732 E24.25268
G1 X86.435 Y107.067 E24.35484
G1 X85.975 Y106.868 E24.37978
G1 X84.265 Y105.963 E24.47606
G1 X83.873 Y105.718 E24.49907
G1 X82.481 Y104.7 E24.58489
G1 X82.12 Y104.392 E24.60851
G1 X80.728 Y103.015 E24.70595
G1 X80.379 Y102.606 E24.7327
G1 X79.065 Y100.776 E24.84482
G1 X78.791 Y100.32 E24.87129
G1 X77.925 Y98.556 E24.96909
G1 X77.741 Y98.092 E24.99393
G1 X77.16 Y96.215 E25.09171
G1 X77.056 Y95.767 E25.1146
G1 X76.802 Y94.154 E25.19586
G1 X76.763 Y93.7 E25.21854
G1 X76.736 Y91.727 E25.31673
G1 X76.777 Y91.175 E25.34428
G1 X77.15 Y88.854 E25.46127
G1 X77.269 Y88.364 E25.48636
G1 X77.8 Y86.747 E25.57106
G1 X77.975 Y86.319 E25.59407
G1 X78.806 Y84.65 E25.68686
G1 X79.038 Y84.258 E25.70952
G1 X79.892 Y83.021 E25.78433
G1 X80.154 Y82.69 E25.80534
G1 X81.529 Y81.173 E25.90723
M204 S5000
G1 F1500 E23.90723
G0 F2400 X83.723 Y83.72
G0 X85.192 Y83.946
G0 X85.834 Y84.672
M204 S200
;TYPE:WALL-INNER
G1 F1500 E25.90723
G1 F1200 X87.146 Y83.722 E25.98784
G1 X88.563 Y83.003 E26.06692
G1 X90.084 Y82.506 E26.14655
G1 X91.7 Y82.25 E26.22797
G1 X93.296 Y82.25 E26.3074
G1 X94.909 Y82.504 E26.38866
G1 X96.421 Y82.997 E26.4678
G1 X97.848 Y83.718 E26.54737
G1 X99.174 Y84.679 E26.62886
G1 X100.326 Y85.831 E26.70994
G1 X101.278 Y87.146 E26.79073
G1 X101.997 Y88.563 E26.86981
G1 X102.494 Y90.084 E26.94944
G1 X102.75 Y91.7 E27.03086
G1 X102.75 Y93.296 E27.11029
G1 X102.496 Y94.909 E27.19155
G1 X102.003 Y96.421 E27.27069
G1 X101.282 Y97.848 E27.35026
G1 X100.321 Y99.174 E27.43176
G1 X99.173 Y100.323 E27.51259
G1 X97.862 Y101.273 E27.59316
G1 X96.436 Y101.997 E27.67275
G1 X94.916 Y102.494 E27.75233
G1 X93.3 Y102.75 E27.83375
G1 X91.704 Y102.75 E27.91318
G1 X90.091 Y102.496 E27.99444
G1 X88.579 Y102.003 E28.07359
G1 X87.152 Y101.282 E28.15315
G1 X85.826 Y100.321 E28.23465
G1 X84.674 Y99.169 E28.31572
G1 X83.722 Y97.854 E28.39652
G1 X83.003 Y96.437 E28.47559
G1 X82.506 Y94.916 E28.55522
G1 X82.25 Y93.3 E28.63665
G1 X82.25 Y91.704 E28.71607
G1 X82.504 Y90.091 E28.79733
G1 X82.999 Y88.575 E28.8767
G1 X83.718 Y87.152 E28.95604
G1 X84.678 Y85.827 E29.03747
G1 X85.834 Y84.672 E29.11879
M204 S5000
G0 F2400 X90.316 Y89.705
M204 S200
G1 F1200 X90.126 Y89.866 E29.13118
G1 X89.949 Y90.038 E29.14347
G1 X89.786 Y90.218 E29.15555
G1 X89.626 Y90.42 E29.16838
G1 X89.432 Y90.721 E29.1862
G1 X89.309 Y90.951 E29.19918
G1 X89.167 Y91.286 E29.21728
G1 X89.058 Y91.642 E29.23581
G1 X88.986 Y92.009 E29.25442
G1 X88.956 Y92.368 E29.27235
G1 X88.956 Y92.619 E29.28484
G1 X88.972 Y92.877 E29.29771
G1 X89.03 Y93.23 E29.31551
G1 X89.09 Y93.475 E29.32806
G1 X89.167 Y93.71 E29.34037
G1 X89.259 Y93.941 E29.35274
G1 X89.374 Y94.179 E29.3659
G1 X89.621 Y94.574 E29.38908
G1 X89.786 Y94.782 E29.4023
G1 X89.949 Y94.962 E29.41438
G1 X90.126 Y95.134 E29.42666
G1 X90.316 Y95.295 E29.43906
G1 X90.518 Y95.44 E29.45143
G1 X90.726 Y95.57 E29.46364
G1 X90.945 Y95.688 E29.47602
G1 X91.173 Y95.788 E29.48841
G1 X91.404 Y95.873 E29.50066
G1 X91.641 Y95.94 E29.51291
G1 X91.882 Y95.992 E29.52518
G1 X92.129 Y96.027 E29.5376
G1 X92.377 Y96.044 E29.54997
G1 X92.623 Y96.044 E29.56221
G1 X92.871 Y96.027 E29.57458
G1 X93.118 Y95.992 E29.587
G1 X93.359 Y95.94 E29.59927
G1 X93.596 Y95.873 E29.61152
G1 X93.827 Y95.788 E29.62377
G1 X94.055 Y95.688 E29.63616
G1 X94.274 Y95.57 E29.64854
G1 X94.482 Y95.44 E29.66075
G1 X94.684 Y95.295 E29.67312
G1 X94.874 Y95.134 E29.68552
G1 X95.051 Y94.962 E29.6978
G1 X95.214 Y94.781 E29.70992
G1 X95.367 Y94.587 E29.72222
G1 X95.507 Y94.382 E29.73457
G1 X95.633 Y94.165 E29.74706
G1 X95.741 Y93.94 E29.75948
G1 X95.833 Y93.711 E29.77176
G1 X95.909 Y93.478 E29.78396
G1 X95.97 Y93.237 E29.79633
