;FLAVOR:Marlin
;TIME:2369
;Filament used: 2.23333m
;Layer height: 0.2
;Generated with Cura_SteamEngine 2.7.0
M190 S60
M104 S220
M109 S220
G21 ;metric values
G90 ;absolute positioning
M82 ;set extruder to absolute mode
M107 ;start with the fan off
G92 E0 ;zero the extruded length
G1 F200 E3 ;extrude 3mm of feed stock
G92 E0 ;zero the extruded length again
G1 F9000
M117 Printing...
;LAYER_COUNT:47
;LAYER:0
M107
M204 S5000
G0 F2400 X66.463 Y68.01 Z0.3
M204 S200
;TYPE:SKIRT
G1 F1200 X66.924 Y67.597 E0.0308
G1 X67.496 Y67.21 E0.06517
G1 X70.982 Y65.204 E0.26533
G1 X71.537 Y64.931 E0.29611
G1 X72.123 Y64.731 E0.32692
G1 X72.73 Y64.608 E0.35774
G1 X73.374 Y64.565 E0.38986
G1 X113.245 Y64.564 E2.37406
G1 X113.863 Y64.604 E2.40488
G1 X114.47 Y64.723 E2.43566
G1 X115.057 Y64.92 E2.46648
G1 X115.614 Y65.19 E2.49728
G1 X116.132 Y65.53 E2.52812
G1 X116.63 Y65.962 E2.56093
G1 X120.454 Y69.771 E2.82953
G1 X120.615 Y69.939 E2.84111
G1 X121.075 Y70.444 E2.8751
G1 X121.461 Y70.928 E2.90591
G1 X121.782 Y71.457 E2.9367
G1 X122.032 Y72.024 E2.96754
G1 X122.207 Y72.618 E2.99836
G1 X122.304 Y73.229 E3.02915
G1 X122.325 Y73.673 E3.05127
G1 X122.336 Y115.64 E5.13978
G1 X122.296 Y116.258 E5.1706
G1 X122.177 Y116.865 E5.20138
G1 X121.981 Y117.452 E5.23218
G1 X121.711 Y118.009 E5.26298
G1 X121.371 Y118.527 E5.29382
G1 X120.967 Y118.996 E5.32462
G1 X120.506 Y119.41 E5.35546
G1 X119.996 Y119.76 E5.38624
G1 X119.445 Y120.042 E5.41704
G1 X118.862 Y120.251 E5.44786
G1 X118.257 Y120.383 E5.47868
G1 X117.539 Y120.437 E5.51451
G1 X80.222 Y120.43 E7.37161
G1 X79.677 Y120.399 E7.39878
G1 X78.429 Y120.256 E7.46129
G1 X77.799 Y120.141 E7.49316
G1 X77.028 Y119.946 E7.53274
G1 X76.202 Y119.654 E7.57634
G1 X74.824 Y119.021 E7.6518
G1 X74.279 Y118.727 E7.68262
G1 X73.912 Y118.473 E7.70483
G1 X72.509 Y117.4 E7.79273
G1 X72.043 Y116.993 E7.82352
G1 X71.659 Y116.563 E7.85221
G1 X70.723 Y115.378 E7.92736
G1 X70.259 Y114.669 E7.96953
G1 X69.753 Y113.724 E8.02287
G1 X69.461 Y113.064 E8.05879
G1 X69.111 Y112.078 E8.11086
G1 X68.922 Y111.381 E8.1468
G1 X68.724 Y110.353 E8.1989
G1 X68.638 Y109.54 E8.23958
G1 X68.537 Y104.366 E8.49712
G1 X68.23 Y98.949 E8.76713
G1 X67.623 Y93.606 E9.03474
G1 X66.712 Y88.294 E9.30295
G1 X65.216 Y81.912 E9.62916
G1 X65.113 Y81.301 E9.66
G1 X65.089 Y80.815 E9.68422
G1 X65.092 Y71.365 E10.1545
G1 X65.132 Y70.748 E10.18527
G1 X65.252 Y70.14 E10.21611
G1 X65.448 Y69.553 E10.24691
G1 X65.719 Y68.996 E10.27773
G1 X66.059 Y68.479 E10.30853
G1 X66.463 Y68.01 E10.33933
M204 S5000
G0 F2400 X66.856 Y68.183
M204 S200
G1 F1200 X67.311 Y67.804 E10.3688
G1 X67.695 Y67.556 E10.39155
G1 X71.181 Y65.55 E10.59171
G1 X71.713 Y65.29 E10.62117
G1 X72.276 Y65.103 E10.6507
G1 X72.859 Y64.994 E10.68021
G1 X73.374 Y64.964 E10.70589
G1 X113.245 Y64.963 E12.69009
G1 X113.836 Y65.003 E12.71956
G1 X114.417 Y65.122 E12.74908
G1 X114.976 Y65.318 E12.77856
G1 X115.504 Y65.588 E12.80807
G1 X115.991 Y65.926 E12.83757
G1 X116.348 Y66.245 E12.8614
G1 X120.172 Y70.054 E13.13
G1 X120.32 Y70.208 E13.14063
G1 X120.78 Y70.713 E13.17462
G1 X121.148 Y71.177 E13.2041
G1 X121.451 Y71.687 E13.23362
G1 X121.683 Y72.232 E13.26309
G1 X121.839 Y72.804 E13.2926
G1 X121.926 Y73.673 E13.33606
G1 X121.937 Y115.64 E15.42457
G1 X121.897 Y116.231 E15.45405
G1 X121.778 Y116.812 E15.48356
G1 X121.582 Y117.371 E15.51304
G1 X121.313 Y117.899 E15.54253
G1 X120.975 Y118.386 E15.57203
G1 X120.574 Y118.823 E15.60155
G1 X120.119 Y119.202 E15.63102
G1 X119.616 Y119.517 E15.66055
G1 X119.076 Y119.761 E15.69004
G1 X118.508 Y119.93 E15.71953
G1 X117.922 Y120.021 E15.74905
G1 X117.539 Y120.038 E15.76813
G1 X80.222 Y120.031 E17.62522
G1 X79.722 Y120.002 E17.65015
G1 X78.474 Y119.859 E17.71266
G1 X77.897 Y119.754 E17.74185
G1 X77.126 Y119.559 E17.78143
G1 X76.369 Y119.292 E17.82137
G1 X74.991 Y118.659 E17.89684
G1 X74.47 Y118.375 E17.92637
G1 X74.155 Y118.156 E17.94546
G1 X72.752 Y117.083 E18.03336
G1 X72.306 Y116.692 E18.06288
G1 X71.973 Y116.315 E18.08791
G1 X71.037 Y115.13 E18.16306
G1 X70.611 Y114.481 E18.20169
G1 X70.105 Y113.536 E18.25504
G1 X69.837 Y112.931 E18.28797
G1 X69.487 Y111.945 E18.34004
G1 X69.313 Y111.306 E18.373
G1 X69.115 Y110.278 E18.4251
G1 X69.037 Y109.532 E18.46242
G1 X68.936 Y104.363 E18.71971
G1 X68.627 Y98.916 E18.99122
G1 X68.017 Y93.545 E19.26023
G1 X67.104 Y88.22 E19.52909
G1 X65.604 Y81.821 E19.85618
G1 X65.508 Y81.236 E19.88568
G1 X65.488 Y80.816 E19.9066
G1 X65.491 Y71.366 E20.37689
G1 X65.531 Y70.774 E20.40642
G1 X65.65 Y70.194 E20.43588
G1 X65.847 Y69.634 E20.46542
G1 X66.117 Y69.106 E20.49494
G1 X66.455 Y68.62 E20.5244
G1 X66.856 Y68.183 E20.55391
M204 S5000
G0 F2400 X66.85 Y68.768
M204 S200
G1 F1200 X67.247 Y68.365 E20.58206
G1 X67.894 Y67.902 E20.62166
G1 X71.38 Y65.896 E20.82181
G1 X71.889 Y65.649 E20.84997
G1 X72.427 Y65.477 E20.87808
G1 X72.984 Y65.382 E20.9062
G1 X73.374 Y65.363 E20.92563
G1 X113.245 Y65.362 E22.90983
G1 X113.809 Y65.402 E22.93797
G1 X114.361 Y65.521 E22.96607
G1 X114.891 Y65.717 E22.99419
G1 X115.389 Y65.985 E23.02233
G1 X115.843 Y66.321 E23.05044
G1 X116.066 Y66.527 E23.06555
G1 X119.89 Y70.336 E23.33415
G1 X120.025 Y70.477 E23.34387
G1 X120.485 Y70.982 E23.37786
G1 X120.835 Y71.425 E23.40596
G1 X121.119 Y71.914 E23.4341
G1 X121.331 Y72.438 E23.46223
G1 X121.467 Y72.986 E23.49033
G1 X121.527 Y73.673 E23.52465
G1 X121.538 Y115.64 E25.61316
G1 X121.498 Y116.204 E25.64129
G1 X121.379 Y116.756 E25.6694
G1 X121.184 Y117.287 E25.69755
G1 X120.915 Y117.784 E25.72567
G1 X120.579 Y118.238 E25.75378
G1 X120.183 Y118.641 E25.7819
G1 X119.733 Y118.984 E25.81005
G1 X119.24 Y119.26 E25.83817
G1 X118.713 Y119.463 E25.86628
G1 X118.162 Y119.59 E25.89442
G1 X117.539 Y119.639 E25.92552
G1 X80.222 Y119.632 E27.78261
G1 X79.768 Y119.606 E27.80525
G1 X78.52 Y119.463 E27.86776
G1 X77.995 Y119.367 E27.89432
G1 X77.224 Y119.172 E27.9339
G1 X76.535 Y118.929 E27.97025
G1 X75.157 Y118.296 E28.04572
G1 X74.661 Y118.024 E28.07387
G1 X74.397 Y117.839 E28.08992
G1 X72.994 Y116.766 E28.17781
G1 X72.571 Y116.391 E28.20595
G1 X72.286 Y116.068 E28.22738
G1 X71.35 Y114.883 E28.30253
G1 X70.962 Y114.292 E28.33772
G1 X70.456 Y113.347 E28.39106
G1 X70.213 Y112.797 E28.42099
G1 X69.863 Y111.811 E28.47305
G1 X69.705 Y111.23 E28.50302
G1 X69.507 Y110.202 E28.55512
G1 X69.436 Y109.524 E28.58904
G1 X69.335 Y104.359 E28.84613
G1 X69.024 Y98.866 E29.11993
G1 X68.413 Y93.487 E29.38934
G1 X67.497 Y88.143 E29.65917
G1 X65.993 Y81.73 E29.98697
G1 X65.903 Y81.172 E30.0151
G1 X65.887 Y80.816 E30.03283
G1 X65.89 Y71.366 E30.50312
G1 X65.93 Y70.802 E30.53125
G1 X66.049 Y70.249 E30.55941
G1 X66.245 Y69.719 E30.58753
G1 X66.514 Y69.222 E30.61565
G1 X66.85 Y68.768 E30.64376
M204 S5000
G0 F2400 X67.245 Y68.924
M204 S200
G1 F1200 X67.637 Y68.559 E30.67041
G1 X68.093 Y68.248 E30.69788
G1 X71.579 Y66.242 E30.89804
G1 X72.062 Y66.01 E30.9247
G1 X72.575 Y65.852 E30.95142
G1 X73.105 Y65.772 E30.97809
G1 X73.374 Y65.762 E30.99149
G1 X113.245 Y65.761 E32.97569
G1 X113.78 Y65.801 E33.00239
G1 X114.302 Y65.92 E33.02903
G1 X114.802 Y66.115 E33.05574
G1 X115.267 Y66.382 E33.08242
G1 X115.785 Y66.81 E33.11586
G1 X119.609 Y70.619 E33.38446
G1 X119.73 Y70.745 E33.39316
G1 X120.19 Y71.25 E33.42715
G1 X120.52 Y71.673 E33.45385
G1 X120.784 Y72.139 E33.4805
G1 X120.976 Y72.64 E33.50721
G1 X121.092 Y73.164 E33.53391
G1 X121.128 Y73.673 E33.55931
G1 X121.139 Y115.64 E35.64782
G1 X121.099 Y116.175 E35.67451
G1 X120.98 Y116.698 E35.70121
G1 X120.785 Y117.197 E35.72787
G1 X120.518 Y117.662 E35.75455
G1 X120.185 Y118.082 E35.78123
G1 X119.793 Y118.448 E35.80792
G1 X119.351 Y118.751 E35.83459
G1 X118.868 Y118.986 E35.86132
G1 X118.357 Y119.146 E35.88796
G1 X117.827 Y119.229 E35.91466
G1 X117.539 Y119.24 E35.929
G1 X80.222 Y119.233 E37.7861
G1 X79.813 Y119.21 E37.80649
G1 X78.565 Y119.067 E37.869
G1 X78.093 Y118.98 E37.89289
G1 X77.322 Y118.785 E37.93246
G1 X76.702 Y118.566 E37.96519
G1 X75.324 Y117.933 E38.04065
G1 X74.64 Y117.522 E38.08037
G1 X73.237 Y116.449 E38.16826
G1 X72.836 Y116.092 E38.19498
G1 X72.599 Y115.821 E38.2129
G1 X71.663 Y114.636 E38.28805
G1 X71.314 Y114.104 E38.31971
G1 X70.808 Y113.159 E38.37306
G1 X70.589 Y112.664 E38.4
G1 X70.239 Y111.678 E38.45206
G1 X70.097 Y111.155 E38.47903
G1 X69.899 Y110.127 E38.53113
G1 X69.835 Y109.517 E38.56166
G1 X69.733 Y104.329 E38.81989
G1 X69.423 Y98.851 E39.09294
G1 X68.807 Y93.425 E39.3647
G1 X67.889 Y88.069 E39.63513
G1 X66.381 Y81.639 E39.96381
G1 X66.298 Y81.109 E39.99051
G1 X66.286 Y80.816 E40.0051
G1 X66.289 Y71.366 E40.47538
G1 X66.329 Y70.831 E40.50208
G1 X66.448 Y70.308 E40.52877
G1 X66.644 Y69.809 E40.55545
G1 X66.911 Y69.344 E40.58214
G1 X67.245 Y68.924 E40.60884
M204 S5000
G0 F2400 X67.638 Y69.091
M204 S200
G1 F1200 X68.025 Y68.765 E40.63403
G1 X68.292 Y68.593 E40.64983
G1 X71.778 Y66.587 E40.84999
G1 X72.235 Y66.371 E40.87514
G1 X72.72 Y66.229 E40.90029
G1 X73.374 Y66.161 E40.93301
G1 X113.245 Y66.16 E42.91721
G1 X113.749 Y66.2 E42.94237
G1 X114.24 Y66.319 E42.96752
G1 X114.707 Y66.513 E42.99268
G1 X115.137 Y66.779 E43.01784
G1 X115.503 Y67.093 E43.04184
G1 X119.327 Y70.902 E43.31044
G1 X119.435 Y71.014 E43.31819
G1 X119.895 Y71.519 E43.35218
G1 X120.205 Y71.919 E43.37737
G1 X120.448 Y72.362 E43.40251
G1 X120.618 Y72.838 E43.42767
G1 X120.711 Y73.335 E43.45283
G1 X120.729 Y73.673 E43.46967
G1 X120.74 Y115.64 E45.55818
G1 X120.7 Y116.144 E45.58334
G1 X120.582 Y116.636 E45.60852
G1 X120.387 Y117.102 E45.63366
G1 X120.121 Y117.532 E45.65882
G1 X119.791 Y117.915 E45.68398
G1 X119.405 Y118.241 E45.70913
G1 X118.972 Y118.503 E45.73431
G1 X118.503 Y118.693 E45.75949
G1 X118.011 Y118.806 E45.78462
G1 X117.539 Y118.841 E45.80817
G1 X80.222 Y118.834 E47.66527
G1 X79.859 Y118.813 E47.68336
G1 X78.611 Y118.67 E47.74588
G1 X78.19 Y118.593 E47.76718
G1 X77.419 Y118.398 E47.80675
G1 X76.868 Y118.204 E47.83582
G1 X75.49 Y117.571 E47.91129
G1 X74.882 Y117.205 E47.94661
G1 X73.479 Y116.132 E48.03451
G1 X73.103 Y115.794 E48.05967
G1 X72.912 Y115.573 E48.0742
G1 X71.976 Y114.388 E48.14935
G1 X71.666 Y113.916 E48.17746
G1 X71.16 Y112.971 E48.2308
G1 X70.965 Y112.53 E48.2548
G1 X70.615 Y111.544 E48.30687
G1 X70.489 Y111.079 E48.33084
G1 X70.291 Y110.051 E48.38294
G1 X70.234 Y109.509 E48.41006
G1 X70.132 Y104.325 E48.6681
G1 X69.82 Y98.82 E48.9425
G1 X69.202 Y93.367 E49.2156
G1 X68.279 Y87.988 E49.4872
G1 X66.769 Y81.547 E49.81643
G1 X66.685 Y80.816 E49.85305
G1 X66.688 Y71.366 E50.32334
G1 X66.728 Y70.862 E50.3485
G1 X66.847 Y70.371 E50.37364
G1 X67.042 Y69.904 E50.39882
G1 X67.308 Y69.474 E50.42399
G1 X67.638 Y69.091 E50.44915
M204 S5000
G0 F2400 X70.354 Y71.956
M204 S200
;TYPE:SUPPORT
G1 F1200 X70.708 Y71.956 E50.46676
G1 X70.708 Y80.244 E50.87922
G1 X70.353 Y80.244 E50.89689
G1 X70.075 Y80.521 E50.91642
G1 X70.077 Y71.679 E51.35644
G1 X70.354 Y71.956 E51.37594
M204 S5000
G0 F2400 X70.237 Y74.648
M204 S200
G1 F1200 X70.548 Y74.648 E51.39142
M204 S5000
G0 F2400 X70.548 Y77.314
M204 S200
G1 F1200 X70.236 Y77.314 E51.40694
M204 S5000
G0 F2400 X70.236 Y79.98
M204 S200
G1 F1200 X70.548 Y79.98 E51.42247
M204 S5000
G1 F1500 E49.42247
G0 F2400 X72.705 Y79.98
G0 X73.987 Y79.98
G0 X78.562 Y76.196
M204 S200
;TYPE:WALL-INNER
G1 F1500 E51.42247
G1 F1200 X78.818 Y76.604 E51.44644
G1 X79.137 Y76.966 E51.47045
G1 X79.516 Y77.269 E51.4946
G1 X79.941 Y77.504 E51.51877
G1 X80.396 Y77.66 E51.5427
G1 X80.868 Y77.74 E51.56653
G1 X81.359 Y77.737 E51.59096
G1 X81.83 Y77.652 E51.61478
G1 X82.285 Y77.492 E51.63878
G1 X82.707 Y77.252 E51.66294
G1 X83.082 Y76.946 E51.68703
G1 X83.398 Y76.583 E51.71098
G1 X83.65 Y76.171 E51.73502
G1 X83.83 Y75.721 E51.75914
G1 X83.929 Y75.244 E51.78338
G1 X83.944 Y74.762 E51.80738
G1 X83.881 Y74.286 E51.83127
G1 X83.738 Y73.825 E51.85529
G1 X83.518 Y73.395 E51.87933
G1 X83.229 Y73.007 E51.90341
G1 X82.878 Y72.674 E51.92749
G1 X82.478 Y72.405 E51.95147
G1 X82.035 Y72.209 E51.97558
G1 X81.566 Y72.089 E51.99967
G1 X81.083 Y72.053 E52.02378
G1 X80.603 Y72.096 E52.04776
G1 X80.139 Y72.219 E52.07165
G1 X79.699 Y72.42 E52.09572
G1 X79.3 Y72.693 E52.11978
G1 X78.953 Y73.028 E52.14378
G1 X78.666 Y73.417 E52.16784
G1 X78.451 Y73.852 E52.19199
G1 X78.311 Y74.315 E52.21606
G1 X78.254 Y74.795 E52.24012
G1 X78.277 Y75.274 E52.26398
G1 X78.379 Y75.746 E52.28801
G1 X78.562 Y76.196 E52.31219
M204 S5000
G0 F2400 X74.366 Y70.346
M204 S200
G1 F1200 X112.838 Y70.346 E54.22677
G1 X116.554 Y74.062 E54.48829
G1 X116.554 Y114.654 E56.50838
G1 X112.667 Y114.654 E56.70181
G1 X112.562 Y114.654 E56.70704
G1 X112.13 Y114.654 E56.72854
G1 X111.68 Y114.654 E56.75093
G1 X111.22 Y114.654 E56.77382
G1 X110.77 Y114.654 E56.79622
G1 X110.338 Y114.654 E56.81772
G1 X110.233 Y114.654 E56.82294
G1 X80.409 Y114.654 E58.30715
G1 X79.428 Y114.576 E58.35612
G1 X78.522 Y114.359 E58.40249
G1 X77.643 Y113.995 E58.44983
G1 X76.843 Y113.504 E58.49654
G1 X76.126 Y112.894 E58.54339
G1 X75.516 Y112.177 E58.59024
G1 X75.025 Y111.377 E58.63695
G1 X74.661 Y110.498 E58.6843
G1 X74.444 Y109.592 E58.73066
G1 X74.366 Y108.613 E58.77954
G1 X74.366 Y70.346 E60.68391
M204 S5000
G0 F2400 X79.386 Y76.704
G0 X93.625 Y87.633
M204 S200
G1 F1200 X93.247 Y88.144 E60.71554
G1 X92.96 Y88.713 E60.74726
G1 X92.776 Y89.319 E60.77878
G1 X92.693 Y89.95 E60.81045
G1 X92.721 Y90.587 E60.84218
G1 X92.855 Y91.207 E60.87375
G1 X93.091 Y91.797 E60.90537
G1 X93.425 Y92.34 E60.9371
G1 X93.846 Y92.817 E60.96876
G1 X94.34 Y93.216 E61.00036
G1 X94.895 Y93.527 E61.03202
G1 X95.495 Y93.739 E61.06369
G1 X96.122 Y93.846 E61.09534
G1 X96.758 Y93.846 E61.12699
G1 X97.385 Y93.739 E61.15865
G1 X97.985 Y93.527 E61.19032
G1 X98.54 Y93.216 E61.22198
G1 X99.034 Y92.817 E61.25358
G1 X99.455 Y92.34 E61.28524
G1 X99.789 Y91.797 E61.31696
G1 X100.025 Y91.207 E61.34859
G1 X100.159 Y90.587 E61.38015
G1 X100.187 Y89.95 E61.41189
G1 X100.104 Y89.319 E61.44356
G1 X99.92 Y88.713 E61.47508
G1 X99.633 Y88.144 E61.50679
G1 X99.255 Y87.633 E61.53842
G1 X98.796 Y87.192 E61.5701
G1 X98.267 Y86.836 E61.60183
G1 X97.689 Y86.575 E61.63339
G1 X97.075 Y86.414 E61.66498
G1 X96.44 Y86.361 E61.69669
G1 X95.805 Y86.414 E61.7284
G1 X95.191 Y86.575 E61.75999
G1 X94.613 Y86.836 E61.79155
G1 X94.084 Y87.192 E61.82329
G1 X93.625 Y87.633 E61.85496
M204 S5000
G0 F2400 X82.889 Y103.413
M204 S200
G1 F1200 X82.489 Y103.142 E61.87901
G1 X82.049 Y102.945 E61.903
G1 X81.583 Y102.821 E61.927
G1 X81.1 Y102.781 E61.95111
G1 X80.617 Y102.821 E61.97523
G1 X80.151 Y102.945 E61.99923
G1 X79.711 Y103.142 E62.02322
G1 X79.311 Y103.413 E62.04727
G1 X78.96 Y103.747 E62.07138
G1 X78.674 Y104.136 E62.09541
G1 X78.455 Y104.568 E62.11951
G1 X78.316 Y105.03 E62.14352
G1 X78.253 Y105.508 E62.16751
G1 X78.274 Y105.992 E62.19162
G1 X78.375 Y106.464 E62.21564
G1 X78.555 Y106.913 E62.23972
G1 X78.809 Y107.326 E62.26385
G1 X79.129 Y107.687 E62.28785
G1 X79.51 Y107.996 E62.31227
G1 X79.976 Y108.247 E62.33861
G1 X80.43 Y108.398 E62.36242
G1 X80.883 Y108.471 E62.38525
G1 X81.345 Y108.469 E62.40824
G1 X81.817 Y108.387 E62.43209
G1 X82.273 Y108.227 E62.45614
G1 X82.696 Y107.991 E62.48024
G1 X83.071 Y107.687 E62.50426
G1 X83.391 Y107.326 E62.52827
G1 X83.645 Y106.913 E62.5524
G1 X83.825 Y106.464 E62.57647
G1 X83.926 Y105.992 E62.6005
G1 X83.947 Y105.508 E62.6246
G1 X83.884 Y105.03 E62.6486
G1 X83.745 Y104.568 E62.67261
G1 X83.526 Y104.136 E62.69671
G1 X83.24 Y103.747 E62.72074
G1 X82.889 Y103.413 E62.74485
M204 S5000
G0 F2400 X108.812 Y111.28
M204 S200
G1 F1200 X108.753 Y111.736 E62.76773
G1 X108.773 Y112.193 E62.7905
G1 X108.869 Y112.64 E62.81325
G1 X109.039 Y113.064 E62.83598
G1 X109.279 Y113.456 E62.85886
G1 X109.583 Y113.8 E62.8817
G1 X109.938 Y114.086 E62.90439
G1 X110.247 Y114.259 E62.92201
G1 X110.338 Y114.31 E62.92686
G1 X110.77 Y114.461 E62.94249
G1 X111.22 Y114.54 E62.95137
G1 X111.68 Y114.54 E62.95791
G1 X112.13 Y114.461 E62.9668
G1 X112.562 Y114.31 E62.98242
G1 X112.653 Y114.259 E62.98727
G1 X112.962 Y114.086 E63.00489
G1 X113.317 Y113.8 E63.02758
G1 X113.621 Y113.456 E63.05042
G1 X113.861 Y113.064 E63.0733
G1 X114.031 Y112.64 E63.09603
G1 X114.127 Y112.193 E63.11878
G1 X114.147 Y111.736 E63.14155
G1 X114.088 Y111.28 E63.16443
G1 X113.955 Y110.844 E63.18712
G1 X113.749 Y110.435 E63.20991
