;FLAVOR:Marlin
;TIME:484
;Filament used: 0.220888m
;Layer height: 0.2
;Generated with Cura_SteamEngine 2.7.0
M190 S60
M104 S220
M109 S220
G21 ;metric values
G90 ;absolute positioning
M82 ;set extruder to absolute mode
M107 ;start with the fan off
G92 E0 ;zero the extruded length
G1 F200 E3 ;extrude 3mm of feed stock
G92 E0 ;zero the extruded length again
G1 F9000
M117 Printing...
;LAYER_COUNT:45
;LAYER:0
M107
M204 S5000
G0 F2400 X85.288 Y85.17 Z0.3
M204 S200
;TYPE:SKIRT
G1 F1200 X86.167 Y84.374 E0.05901
G1 X86.651 Y83.989 E0.08979
G1 X87.273 Y83.624 E0.12568
G1 X88.648 Y82.949 E0.20191
G1 X89.22 Y82.712 E0.23272
G1 X89.925 Y82.531 E0.26895
G1 X91.518 Y82.249 E0.34945
G1 X92.133 Y82.181 E0.38025
G1 X92.903 Y82.208 E0.41859
G1 X94.456 Y82.387 E0.49639
G1 X95.065 Y82.497 E0.52718
G1 X95.78 Y82.736 E0.5647
G1 X97.237 Y83.354 E0.64346
G1 X97.79 Y83.632 E0.67427
G1 X98.402 Y84.058 E0.71137
G1 X99.616 Y85.052 E0.78946
G1 X100.069 Y85.474 E0.82027
G1 X100.538 Y86.057 E0.8575
G1 X101.419 Y87.346 E0.9352
G1 X101.734 Y87.878 E0.96597
G1 X102.02 Y88.568 E1.00314
G1 X102.512 Y90.08 E1.08227
G1 X102.665 Y90.68 E1.11309
G1 X102.745 Y91.436 E1.15092
G1 X102.787 Y93.013 E1.22943
G1 X102.764 Y93.632 E1.26025
G1 X102.631 Y94.363 E1.29723
G1 X102.231 Y95.881 E1.37535
G1 X102.035 Y96.468 E1.40615
G1 X101.692 Y97.148 E1.44405
G1 X100.871 Y98.5 E1.52277
G1 X100.517 Y99.008 E1.55358
G1 X100.011 Y99.548 E1.59041
G1 X98.86 Y100.602 E1.66808
G1 X98.377 Y100.99 E1.69891
G1 X97.737 Y101.369 E1.73592
G1 X96.317 Y102.067 E1.81467
G1 X95.745 Y102.304 E1.84548
G1 X95.007 Y102.491 E1.88337
G1 X93.452 Y102.756 E1.96187
G1 X92.836 Y102.82 E1.99269
G1 X92.095 Y102.792 E2.02959
G1 X90.538 Y102.612 E2.10759
G1 X89.929 Y102.502 E2.13839
G1 X89.214 Y102.262 E2.17592
G1 X87.761 Y101.645 E2.25448
G1 X87.208 Y101.367 E2.28528
G1 X86.598 Y100.942 E2.32228
G1 X85.384 Y99.948 E2.40037
G1 X84.931 Y99.526 E2.43118
G1 X84.461 Y98.941 E2.46852
G1 X83.577 Y97.646 E2.54655
G1 X83.262 Y97.113 E2.57736
G1 X82.977 Y96.424 E2.61447
G1 X82.488 Y94.919 E2.69322
G1 X82.335 Y94.319 E2.72403
G1 X82.255 Y93.569 E2.76157
G1 X82.212 Y92.002 E2.83958
G1 X82.235 Y91.383 E2.87041
G1 X82.367 Y90.654 E2.90728
G1 X82.764 Y89.139 E2.98522
G1 X82.959 Y88.552 E3.016
G1 X83.282 Y87.902 E3.05212
G1 X83.911 Y86.845 E3.11333
G1 X84.34 Y86.237 E3.15036
G1 X84.815 Y85.664 E3.1874
G1 X85.288 Y85.17 E3.22144
M204 S5000
G0 F2400 X85.556 Y85.466
M204 S200
G1 F1200 X86.435 Y84.67 E3.28045
G1 X86.9 Y84.302 E3.30996
G1 X87.448 Y83.982 E3.34154
G1 X88.823 Y83.307 E3.41777
G1 X89.372 Y83.082 E3.4473
G1 X89.995 Y82.924 E3.47928
G1 X91.588 Y82.642 E3.55979
G1 X92.177 Y82.579 E3.58927
G1 X92.857 Y82.604 E3.62314
G1 X94.41 Y82.783 E3.70093
G1 X94.993 Y82.89 E3.73043
G1 X95.624 Y83.103 E3.76357
G1 X97.081 Y83.721 E3.84234
G1 X97.61 Y83.989 E3.87185
G1 X98.15 Y84.367 E3.90465
G1 X99.364 Y85.361 E3.98273
G1 X99.796 Y85.766 E4.0122
G1 X100.208 Y86.282 E4.04506
G1 X101.089 Y87.571 E4.12276
G1 X101.39 Y88.082 E4.15228
G1 X101.64 Y88.691 E4.18504
G1 X102.132 Y90.203 E4.26417
G1 X102.277 Y90.778 E4.29368
G1 X102.346 Y91.447 E4.32715
G1 X102.388 Y93.024 E4.40565
G1 X102.364 Y93.616 E4.43514
G1 X102.245 Y94.261 E4.46778
G1 X101.845 Y95.779 E4.5459
G1 X101.656 Y96.341 E4.57541
G1 X101.351 Y96.941 E4.60891
G1 X100.53 Y98.293 E4.68762
G1 X100.189 Y98.778 E4.71713
G1 X99.742 Y99.254 E4.74962
G1 X98.591 Y100.308 E4.82729
G1 X98.127 Y100.678 E4.85683
G1 X97.561 Y101.011 E4.88951
G1 X96.141 Y101.709 E4.96825
G1 X95.592 Y101.934 E4.99778
G1 X94.94 Y102.098 E5.03123
G1 X93.385 Y102.363 E5.10973
G1 X92.795 Y102.422 E5.13924
G1 X92.141 Y102.396 E5.17181
G1 X90.584 Y102.216 E5.24982
G1 X90.001 Y102.108 E5.27932
G1 X89.37 Y101.895 E5.31247
G1 X87.917 Y101.278 E5.39102
G1 X87.389 Y101.01 E5.42049
G1 X86.85 Y100.633 E5.45323
G1 X85.636 Y99.639 E5.53131
G1 X85.204 Y99.234 E5.56078
G1 X84.79 Y98.716 E5.59378
G1 X83.906 Y97.421 E5.67181
G1 X83.606 Y96.91 E5.7013
G1 X83.356 Y96.301 E5.73406
G1 X82.867 Y94.796 E5.81281
G1 X82.722 Y94.221 E5.84232
G1 X82.654 Y93.558 E5.87549
G1 X82.611 Y91.991 E5.9535
G1 X82.634 Y91.398 E5.98303
G1 X82.753 Y90.755 E6.01558
G1 X83.15 Y89.24 E6.09352
G1 X83.338 Y88.678 E6.12301
G1 X83.624 Y88.106 E6.15483
G1 X84.253 Y87.049 E6.21604
G1 X84.647 Y86.492 E6.25
G1 X85.122 Y85.919 E6.28704
G1 X85.556 Y85.466 E6.31826
M204 S5000
G0 F2400 X85.823 Y85.762
M204 S200
G1 F1200 X86.702 Y84.966 E6.37727
G1 X87.147 Y84.617 E6.40542
G1 X87.624 Y84.34 E6.43287
G1 X88.999 Y83.665 E6.50909
G1 X89.523 Y83.453 E6.53722
G1 X90.064 Y83.317 E6.56499
G1 X91.657 Y83.035 E6.64549
G1 X92.219 Y82.976 E6.67362
G1 X92.812 Y83 E6.70315
G1 X94.365 Y83.179 E6.78095
G1 X94.92 Y83.284 E6.80906
G1 X95.468 Y83.47 E6.83786
G1 X96.925 Y84.088 E6.91662
G1 X97.429 Y84.345 E6.94477
G1 X97.897 Y84.676 E6.9733
G1 X99.111 Y85.67 E7.05138
G1 X99.522 Y86.058 E7.07951
G1 X99.879 Y86.507 E7.10806
G1 X100.76 Y87.796 E7.18576
G1 X101.045 Y88.284 E7.21388
G1 X101.261 Y88.815 E7.24241
G1 X101.753 Y90.327 E7.32154
G1 X101.889 Y90.875 E7.34964
G1 X101.948 Y91.458 E7.3788
G1 X101.99 Y93.035 E7.45731
G1 X101.965 Y93.599 E7.4854
G1 X101.859 Y94.16 E7.51381
G1 X101.459 Y95.678 E7.59194
G1 X101.277 Y96.213 E7.62006
G1 X101.01 Y96.734 E7.64919
G1 X100.189 Y98.086 E7.72791
G1 X99.863 Y98.547 E7.75601
G1 X99.472 Y98.96 E7.78431
G1 X98.321 Y100.014 E7.86198
G1 X97.878 Y100.365 E7.89011
G1 X97.385 Y100.653 E7.91852
G1 X95.965 Y101.351 E7.99727
G1 X95.441 Y101.564 E8.02541
G1 X94.873 Y101.704 E8.05453
G1 X93.318 Y101.969 E8.13303
G1 X92.755 Y102.025 E8.16118
G1 X92.187 Y102 E8.18948
G1 X90.63 Y101.82 E8.26748
G1 X90.074 Y101.715 E8.29564
G1 X89.526 Y101.528 E8.32445
G1 X88.073 Y100.911 E8.40301
G1 X87.57 Y100.654 E8.43112
G1 X87.103 Y100.324 E8.45958
G1 X85.889 Y99.33 E8.53766
G1 X85.478 Y98.942 E8.56579
G1 X85.12 Y98.491 E8.59445
G1 X84.236 Y97.196 E8.67248
G1 X83.951 Y96.708 E8.7006
G1 X83.736 Y96.177 E8.72911
G1 X83.247 Y94.672 E8.80786
G1 X83.11 Y94.124 E8.83597
G1 X83.053 Y93.547 E8.86483
G1 X83.01 Y91.98 E8.94284
G1 X83.034 Y91.415 E8.97098
G1 X83.139 Y90.857 E8.99924
G1 X83.536 Y89.342 E9.07718
G1 X83.717 Y88.806 E9.10533
G1 X83.967 Y88.31 E9.13297
G1 X84.596 Y87.253 E9.19419
G1 X84.954 Y86.746 E9.22507
G1 X85.429 Y86.173 E9.26211
G1 X85.823 Y85.762 E9.29045
M204 S5000
G0 F2400 X86.091 Y86.057
M204 S200
G1 F1200 X86.97 Y85.261 E9.34946
G1 X87.393 Y84.932 E9.37613
G1 X87.8 Y84.698 E9.39949
G1 X89.175 Y84.023 E9.47572
G1 X89.673 Y83.824 E9.50241
G1 X90.134 Y83.71 E9.52604
G1 X91.727 Y83.428 E9.60655
G1 X92.26 Y83.374 E9.63321
G1 X92.766 Y83.397 E9.65842
G1 X94.319 Y83.576 E9.73622
G1 X94.846 Y83.677 E9.76292
G1 X95.312 Y83.838 E9.78746
G1 X96.769 Y84.456 E9.86622
G1 X97.246 Y84.701 E9.8929
G1 X97.644 Y84.984 E9.91721
G1 X98.858 Y85.978 E9.99529
G1 X99.246 Y86.348 E10.02197
G1 X99.549 Y86.732 E10.04631
G1 X100.43 Y88.021 E10.12401
G1 X100.699 Y88.485 E10.1507
G1 X100.881 Y88.938 E10.175
G1 X101.373 Y90.45 E10.25413
G1 X101.501 Y90.971 E10.28083
G1 X101.549 Y91.468 E10.30568
G1 X101.591 Y93.045 E10.38418
G1 X101.565 Y93.581 E10.41089
G1 X101.473 Y94.058 E10.43507
G1 X101.073 Y95.576 E10.51319
G1 X100.898 Y96.083 E10.53988
G1 X100.669 Y96.527 E10.56474
G1 X99.848 Y97.879 E10.64346
G1 X99.537 Y98.315 E10.67011
G1 X99.203 Y98.665 E10.69419
G1 X98.052 Y99.719 E10.77185
G1 X97.63 Y100.051 E10.79858
G1 X97.209 Y100.295 E10.82279
G1 X95.789 Y100.993 E10.90153
G1 X95.291 Y101.193 E10.92824
G1 X94.806 Y101.311 E10.95308
G1 X93.251 Y101.576 E11.03158
G1 X92.717 Y101.626 E11.05827
G1 X92.233 Y101.603 E11.08239
G1 X90.676 Y101.423 E11.16039
G1 X90.149 Y101.322 E11.18709
G1 X89.682 Y101.161 E11.21167
G1 X88.229 Y100.544 E11.29023
G1 X87.753 Y100.298 E11.3169
G1 X87.356 Y100.016 E11.34113
G1 X86.142 Y99.022 E11.41922
G1 X85.754 Y98.652 E11.4459
G1 X85.45 Y98.266 E11.47035
G1 X84.566 Y96.971 E11.54838
G1 X84.297 Y96.507 E11.57507
G1 X84.115 Y96.054 E11.59936
G1 X83.626 Y94.549 E11.67812
G1 X83.499 Y94.028 E11.7048
G1 X83.451 Y93.536 E11.7294
G1 X83.408 Y91.969 E11.80742
G1 X83.434 Y91.433 E11.83412
G1 X83.525 Y90.958 E11.85819
G1 X83.922 Y89.443 E11.93613
G1 X84.096 Y88.936 E11.96281
G1 X84.31 Y88.515 E11.98631
G1 X84.939 Y87.458 E12.04752
G1 X85.261 Y87.001 E12.07534
G1 X85.736 Y86.428 E12.11238
G1 X86.091 Y86.057 E12.13793
M204 S5000
G0 F2400 X86.359 Y86.353
M204 S200
G1 F1200 X87.238 Y85.557 E12.19695
G1 X87.638 Y85.248 E12.2221
G1 X87.976 Y85.056 E12.24145
G1 X89.351 Y84.381 E12.31768
G1 X89.821 Y84.195 E12.34283
G1 X90.203 Y84.103 E12.36238
G1 X91.796 Y83.821 E12.44289
G1 X92.299 Y83.772 E12.46804
G1 X92.72 Y83.793 E12.48902
G1 X94.273 Y83.972 E12.56682
G1 X94.77 Y84.069 E12.59202
G1 X95.157 Y84.205 E12.61243
G1 X96.614 Y84.823 E12.69119
G1 X97.062 Y85.057 E12.71635
G1 X97.391 Y85.293 E12.7365
G1 X98.605 Y86.287 E12.81458
G1 X98.97 Y86.637 E12.83975
G1 X99.22 Y86.957 E12.85995
G1 X100.101 Y88.246 E12.93765
G1 X100.352 Y88.685 E12.96282
G1 X100.502 Y89.062 E12.98301
G1 X100.994 Y90.574 E13.06214
G1 X101.112 Y91.065 E13.08727
G1 X101.15 Y91.479 E13.10796
G1 X101.192 Y93.056 E13.18647
G1 X101.165 Y93.561 E13.21164
G1 X101.087 Y93.956 E13.23167
G1 X100.687 Y95.474 E13.3098
G1 X100.52 Y95.952 E13.33499
G1 X100.328 Y96.32 E13.35565
G1 X99.507 Y97.672 E13.43437
G1 X99.211 Y98.082 E13.45953
G1 X98.933 Y98.371 E13.47949
G1 X97.782 Y99.425 E13.55716
G1 X97.383 Y99.736 E13.58233
G1 X97.033 Y99.937 E13.60242
G1 X95.613 Y100.635 E13.68116
G1 X95.143 Y100.821 E13.70632
G1 X94.739 Y100.918 E13.72699
G1 X93.184 Y101.183 E13.80549
G1 X92.68 Y101.228 E13.83067
G1 X92.279 Y101.207 E13.85066
G1 X90.722 Y101.027 E13.92866
G1 X90.225 Y100.929 E13.95387
G1 X89.838 Y100.793 E13.97428
G1 X88.385 Y100.176 E14.05284
G1 X87.937 Y99.943 E14.07797
G1 X87.609 Y99.707 E14.09808
G1 X86.395 Y98.713 E14.17616
G1 X86.03 Y98.363 E14.20133
G1 X85.779 Y98.041 E14.22165
G1 X84.895 Y96.746 E14.29968
G1 X84.644 Y96.307 E14.32484
G1 X84.495 Y95.931 E14.34497
G1 X84.006 Y94.426 E14.42372
G1 X83.888 Y93.934 E14.4489
G1 X83.85 Y93.525 E14.46934
G1 X83.807 Y91.958 E14.54735
G1 X83.833 Y91.453 E14.57252
G1 X83.911 Y91.059 E14.59251
G1 X84.308 Y89.544 E14.67045
G1 X84.474 Y89.066 E14.69563
G1 X84.653 Y88.719 E14.71506
G1 X85.282 Y87.662 E14.77627
G1 X85.568 Y87.256 E14.80099
G1 X86.043 Y86.683 E14.83803
G1 X86.359 Y86.353 E14.86076
M204 S5000
G1 F1500 E12.86076
G0 F2400 X88.764 Y88.419
G0 X89.152 Y89.756
G0 X89.766 Y90.28
M204 S200
;TYPE:WALL-INNER
G1 F1500 E14.86076
G1 F1200 X89.755 Y90.25 E14.86235
G1 X89.789 Y90.255
G1 X89.818 Y90.26 E14.86263
G1 X89.801 Y90.283
G1 X89.779 Y90.314
G1 X89.766 Y90.28
M204 S5000
G0 F2400 X89.264 Y91.112
M204 S200
G1 F1200 X89.297 Y91.107 E14.86429
G1 X89.282 Y91.138
G1 X89.27 Y91.162 E14.86441
G1 X89.254 Y91.141
G1 X89.234 Y91.115
G1 X89.264 Y91.112
M204 S5000
G0 F2400 X89.007 Y92.077
M204 S200
G1 F1200 X89.042 Y92.061 E14.86632
G1 X89.037 Y92.099
G1 X89.032 Y92.132 E14.86659
G1 X89.005 Y92.112
G1 X88.975 Y92.09
G1 X89.007 Y92.077
M204 S5000
G0 F2400 X89.062 Y93.089
M204 S200
G1 F1200 X89.07 Y93.127 E14.86853
G1 X89.036 Y93.115
G1 X89.001 Y93.102 E14.86893
G1 X89.029 Y93.079
G1 X89.056 Y93.056
G1 X89.062 Y93.089
M204 S5000
G0 F2400 X89.36 Y94.034
M204 S200
G1 F1200 X89.38 Y94.067 E14.87085
G1 X89.344 Y94.065
G1 X89.312 Y94.063 E14.87108
G1 X89.331 Y94.034
G1 X89.347 Y94.011
G1 X89.36 Y94.034
M204 S5000
G0 F2400 X89.916 Y94.888
M204 S200
G1 F1200 X89.882 Y94.896 E14.87282
G1 X89.892 Y94.865
G1 X89.903 Y94.831 E14.87322
G1 X89.926 Y94.858
G1 X89.946 Y94.882
G1 X89.916 Y94.888
M204 S5000
G0 F2400 X90.695 Y95.52
M204 S200
G1 F1200 X90.664 Y95.537 E14.87498
G1 X90.664 Y95.503
G1 X90.665 Y95.465 E14.87549
G1 X90.696 Y95.484
G1 X90.726 Y95.503
G1 X90.695 Y95.52
M204 S5000
G0 F2400 X91.585 Y95.899
M204 S200
G1 F1200 X91.576 Y95.867 E14.87715
G1 X91.607 Y95.874
G1 X91.642 Y95.882 E14.8776
G1 X91.618 Y95.907
G1 X91.594 Y95.931
G1 X91.585 Y95.899
M204 S5000
G0 F2400 X92.598 Y95.994
M204 S200
G1 F1200 X92.627 Y95.994 E14.87904
G1 X92.614 Y96.019
G1 X92.598 Y96.048 E14.8795
G1 X92.582 Y96.023
G1 X92.564 Y95.994
G1 X92.598 Y95.994
M204 S5000
G0 F2400 X93.575 Y95.819
M204 S200
G1 F1200 X93.607 Y95.809 E14.88117
G1 X93.601 Y95.841
G1 X93.593 Y95.877 E14.88165
G1 X93.568 Y95.855
G1 X93.539 Y95.829
G1 X93.575 Y95.819
M204 S5000
G0 F2400 X94.498 Y95.396
M204 S200
G1 F1200 X94.501 Y95.433 E14.8835
G1 X94.469 Y95.418
G1 X94.435 Y95.401 E14.88397
G1 X94.464 Y95.381
G1 X94.496 Y95.359
G1 X94.498 Y95.396
M204 S5000
G0 F2400 X95.199 Y94.717
M204 S200
G1 F1200 X95.221 Y94.686 E14.88586
G1 X95.234 Y94.72
G1 X95.245 Y94.75 E14.88607
G1 X95.211 Y94.745
G1 X95.182 Y94.74
G1 X95.199 Y94.717
M204 S5000
G0 F2400 X95.736 Y93.888
M204 S200
G1 F1200 X95.703 Y93.893 E14.88773
G1 X95.718 Y93.862
G1 X95.73 Y93.838 E14.88785
G1 X95.746 Y93.859
G1 X95.766 Y93.885
G1 X95.736 Y93.888
M204 S5000
G0 F2400 X95.993 Y92.923
M204 S200
G1 F1200 X95.958 Y92.939 E14.88976
G1 X95.963 Y92.901
G1 X95.968 Y92.868 E14.89003
G1 X95.995 Y92.888
G1 X96.025 Y92.91
G1 X95.993 Y92.923
M204 S5000
G0 F2400 X95.938 Y91.911
M204 S200
G1 F1200 X95.93 Y91.873 E14.89197
G1 X95.964 Y91.885
G1 X95.999 Y91.898 E14.89237
G1 X95.971 Y91.921
G1 X95.944 Y91.944
G1 X95.938 Y91.911
M204 S5000
G0 F2400 X95.64 Y90.966
M204 S200
G1 F1200 X95.62 Y90.933 E14.89429
G1 X95.656 Y90.935
G1 X95.688 Y90.937 E14.89452
G1 X95.669 Y90.966
G1 X95.653 Y90.989
G1 X95.64 Y90.966
M204 S5000
G0 F2400 X95.084 Y90.112
M204 S200
G1 F1200 X95.118 Y90.104 E14.89626
G1 X95.108 Y90.135
G1 X95.097 Y90.169 E14.89666
G1 X95.074 Y90.142
G1 X95.054 Y90.118
G1 X95.084 Y90.112
M204 S5000
G0 F2400 X94.305 Y89.48
M204 S200
G1 F1200 X94.336 Y89.463 E14.89842
G1 X94.336 Y89.497
G1 X94.335 Y89.535 E14.89893
G1 X94.304 Y89.516
G1 X94.274 Y89.497
G1 X94.305 Y89.48
M204 S5000
G0 F2400 X93.415 Y89.101
M204 S200
G1 F1200 X93.424 Y89.133 E14.90059
G1 X93.393 Y89.126
G1 X93.358 Y89.118 E14.90104
G1 X93.382 Y89.093
G1 X93.406 Y89.069
G1 X93.415 Y89.101
M204 S5000
G0 F2400 X92.402 Y89.006
M204 S200
G1 F1200 X92.373 Y89.006 E14.90248
G1 X92.386 Y88.981
G1 X92.402 Y88.952 E14.90294
G1 X92.418 Y88.977
G1 X92.436 Y89.006
G1 X92.402 Y89.006
M204 S5000
G0 F2400 X91.425 Y89.181
M204 S200
G1 F1200 X91.393 Y89.191 E14.90461
G1 X91.399 Y89.159
G1 X91.407 Y89.123 E14.90509
G1 X91.432 Y89.145
G1 X91.461 Y89.171
G1 X91.425 Y89.181
M204 S5000
G0 F2400 X90.502 Y89.604
M204 S200
G1 F1200 X90.499 Y89.567 E14.90694
G1 X90.531 Y89.582
G1 X90.565 Y89.599 E14.90741
G1 X90.536 Y89.619
G1 X90.504 Y89.641
G1 X90.502 Y89.604
M204 S5000
G0 F2400 X90.124 Y89.906
M204 S200
G1 F1200 X90.05 Y88.908 E14.95721
G1 X90.952 Y89.342 E15.00703
G1 X91.162 Y88.364 E15.05681
G1 X91.904 Y89.034 E15.10656
G1 X92.381 Y88.154 E15.15637
G1 X92.905 Y89.008 E15.20624
G1 X93.61 Y88.297 E15.25606
G1 X93.873 Y89.263 E15.30589
G1 X94.749 Y88.779 E15.35569
G1 X94.729 Y89.781 E15.40557
G1 X95.706 Y89.565 E15.45536
G1 X95.405 Y90.518 E15.5051
G1 X96.404 Y90.587 E15.55493
G1 X95.846 Y91.417 E15.60471
G1 X96.785 Y91.764 E15.65452
G1 X96.014 Y92.405 E15.70442
G1 X96.817 Y93.001 E15.75419
G1 X95.899 Y93.399 E15.80398
G1 X96.501 Y94.197 E15.85373
G1 X95.509 Y94.319 E15.90347
G1 X95.863 Y95.256 E15.95331
G1 X94.876 Y95.094 E16.00309
G1 X94.95 Y96.092 E16.05289
G1 X94.048 Y95.658 E16.10271
G1 X93.838 Y96.636 E16.15249
G1 X93.096 Y95.966 E16.20224
G1 X92.619 Y96.846 E16.25205
G1 X92.095 Y95.992 E16.30191
G1 X91.39 Y96.703 E16.35174
G1 X91.127 Y95.737 E16.40157
G1 X90.251 Y96.221 E16.45137
G1 X90.271 Y95.219 E16.50125
G1 X89.294 Y95.435 E16.55104
G1 X89.595 Y94.482 E16.60078
G1 X88.596 Y94.413 E16.65061
G1 X89.154 Y93.583 E16.70038
G1 X88.215 Y93.236 E16.7502
G1 X88.986 Y92.595 E16.8001
G1 X88.183 Y91.999 E16.84987
G1 X89.101 Y91.601 E16.89966
G1 X88.499 Y90.803 E16.94941
G1 X89.491 Y90.681 E16.99914
G1 X89.137 Y89.744 E17.04899
G1 X90.124 Y89.906 E17.09877
M204 S5000
G0 F2400 X90.52 Y90.116
M204 S200
G1 F1200 X90.156 Y90.474 E17.12418
G1 X89.854 Y90.887 E17.14964
G1 X89.624 Y91.346 E17.17519
G1 X89.474 Y91.835 E17.20064
G1 X89.407 Y92.342 E17.22609
G1 X89.423 Y92.852 E17.25148
G1 X89.522 Y93.355 E17.277
G1 X89.705 Y93.833 E17.30247
