; G-Code generated by Simplify3D(R) Version 3.1.0
; 3 6, 2017 at 3:44:07 ODP.
; Settings Summary
;   processName,wing2per
;   applyToModels,cessna_152_V_stabilizer,cessna_152_V_stabilizer_tip
;   profileName,Default (modified)
;   profileVersion,2016-04-14 15:44:02
;   baseProfile,Default
;   printMaterial,
;   printQuality,
;   printExtruders,
;   extruderName,Primary Extruder
;   extruderToolheadNumber,0
;   extruderDiameter,0.4
;   extruderAutoWidth,0
;   extruderWidth,0.42
;   extrusionMultiplier,1.02
;   extruderUseRetract,1
;   extruderRetractionDistance,0.8
;   extruderExtraRestartDistance,0.12
;   extruderRetractionZLift,0
;   extruderRetractionSpeed,1800
;   extruderUseCoasting,1
;   extruderCoastingDistance,0.2
;   extruderUseWipe,1
;   extruderWipeDistance,2
;   primaryExtruder,0
;   layerHeight,0.25
;   topSolidLayers,0
;   bottomSolidLayers,0
;   perimeterOutlines,2
;   printPerimetersInsideOut,1
;   startPointOption,3
;   startPointOriginX,200
;   startPointOriginY,0
;   startPointOriginZ,-300
;   sequentialIslands,0
;   spiralVaseMode,0
;   firstLayerHeightPercentage,90
;   firstLayerWidthPercentage,110
;   firstLayerUnderspeed,0.5
;   useRaft,0
;   raftExtruder,0
;   raftLayers,3
;   raftOffset,3
;   raftSeparationDistance,0.14
;   raftInfill,85
;   disableRaftBaseLayers,0
;   useSkirt,1
;   skirtExtruder,0
;   skirtLayers,1
;   skirtOutlines,1
;   skirtOffset,1.4
;   usePrimePillar,0
;   primePillarExtruder,999
;   primePillarWidth,12
;   primePillarLocation,7
;   primePillarSpeedMultiplier,1
;   useOozeShield,0
;   oozeShieldExtruder,999
;   oozeShieldOffset,2
;   oozeShieldOutlines,1
;   oozeShieldSidewallShape,1
;   oozeShieldSidewallAngle,30
;   oozeShieldSpeedMultiplier,1
;   infillExtruder,0
;   internalInfillPattern,Rectilinear
;   externalInfillPattern,Rectilinear
;   infillPercentage,0
;   outlineOverlapPercentage,15
;   infillExtrusionWidthPercentage,100
;   minInfillLength,5
;   infillLayerInterval,1
;   infillAngles,45,-45
;   overlapInfillAngles,0
;   generateSupport,0
;   supportExtruder,0
;   supportInfillPercentage,30
;   supportExtraInflation,0
;   denseSupportLayers,0
;   denseSupportInfillPercentage,70
;   supportLayerInterval,1
;   supportHorizontalPartOffset,0.3
;   supportUpperSeparationLayers,1
;   supportLowerSeparationLayers,1
;   supportType,0
;   supportGridSpacing,4
;   maxOverhangAngle,45
;   supportAngles,0
;   temperatureName,Primary Extruder,Heated Bed
;   temperatureNumber,0,1
;   temperatureSetpointCount,1,1
;   temperatureSetpointLayers,1,1
;   temperatureSetpointTemperatures,230,55
;   temperatureStabilizeAtStartup,1,1
;   temperatureHeatedBed,0,1
;   temperatureRelayBetweenLayers,0,0
;   temperatureRelayBetweenLoops,0,0
;   fanLayers,1
;   fanSpeeds,0
;   blipFanToFullPower,1
;   adjustSpeedForCooling,1
;   minSpeedLayerTime,15
;   minCoolingSpeedSlowdown,30
;   increaseFanForCooling,0
;   minFanLayerTime,45
;   maxCoolingFanSpeed,100
;   increaseFanForBridging,0
;   bridgingFanSpeed,100
;   use5D,1
;   relativeEdistances,0
;   allowEaxisZeroing,1
;   independentExtruderAxes,0
;   includeM10123,0
;   stickySupport,1
;   applyToolheadOffsets,0
;   gcodeXoffset,0
;   gcodeYoffset,0
;   gcodeZoffset,0
;   overrideMachineDefinition,1
;   machineTypeOverride,0
;   strokeXoverride,195
;   strokeYoverride,195
;   strokeZoverride,150
;   originOffsetXoverride,0
;   originOffsetYoverride,0
;   originOffsetZoverride,0
;   homeXdirOverride,-1
;   homeYdirOverride,-1
;   homeZdirOverride,-1
;   flipXoverride,1
;   flipYoverride,-1
;   flipZoverride,1
;   toolheadOffsets,0,0|0,0|0,0|0,0|0,0|0,0
;   overrideFirmwareConfiguration,1
;   firmwareTypeOverride,RepRap (Marlin/Repetier/Sprinter)
;   GPXconfigOverride,r2
;   baudRateOverride,115200
;   overridePrinterModels,0
;   printerModelsOverride
;   startingGcode,G28,
;   layerChangeGcode,
;   retractionGcode,
;   toolChangeGcode,
;   endingGcode,M104 S0 ; turn off extruder,M140 S0 ; turn off bed,G28 X0 ; home X axis,M84 ; disable motors,M107 ; turn off fan
;   exportFileFormat,gcode
;   celebration,0
;   celebrationSong,Random Song
;   postProcessing,
;   defaultSpeed,3600
;   outlineUnderspeed,0.7
;   solidInfillUnderspeed,0.8
;   supportUnderspeed,0.8
;   rapidXYspeed,7800
;   rapidZspeed,1002
;   minBridgingArea,5
;   bridgingExtraInflation,0
;   bridgingExtrusionMultiplier,1
;   bridgingSpeedMultiplier,0.3
;   filamentDiameter,1.75
;   filamentPricePerKg,1000
;   filamentDensity,1.25
;   useMinPrintHeight,1
;   minPrintHeight,0
;   useMaxPrintHeight,1
;   maxPrintHeight,1
;   useDiaphragm,0
;   diaphragmLayerInterval,20
;   robustSlicing,1
;   mergeAllIntoSolid,0
;   onlyRetractWhenCrossingOutline,0
;   retractBetweenLayers,0
;   useRetractionMinTravel,0
;   retractionMinTravel,3
;   retractWhileWiping,0
;   onlyWipeOutlines,1
;   avoidCrossingOutline,0
;   maxMovementDetourFactor,3
;   toolChangeRetractionDistance,0
;   toolChangeExtraRestartDistance,0
;   toolChangeRetractionSpeed,360
;   allowThinWallGapFill,1
;   thinWallAllowedOverlapPercentage,10
;   horizontalSizeCompensation,0
G90
M82
M106 S0
M140 S55
M190 S55
M104 S230 T0
M109 S230 T0
G28
G92 E0
G1 E-0.8000 F1800
G1 Z0.225 F1002
; layer 1, Z = 0.225
T0
; tool H0.250 W0.462
; skirt
G1 X73.233 Y55.416 F7800
G1 E0.1200 F540
G92 E0
G1 X73.236 Y55.412 E0.0003 F1800
G1 X73.282 Y55.353 E0.0039
G1 X73.286 Y55.349 E0.0042
G1 X73.797 Y54.765 E0.0422
G1 X73.801 Y54.760 E0.0425
G1 X73.863 Y54.697 E0.0468
G1 X73.867 Y54.693 E0.0471
G1 X74.515 Y54.107 E0.0899
G1 X74.520 Y54.102 E0.0903
G1 X74.597 Y54.042 E0.0951
G1 X74.602 Y54.038 E0.0954
G1 X75.373 Y53.505 E0.1413
G1 X75.379 Y53.501 E0.1416
G1 X75.466 Y53.449 E0.1466
G1 X75.472 Y53.445 E0.1469
G1 X76.346 Y53.001 E0.1950
G1 X76.352 Y52.998 E0.1953
G1 X76.442 Y52.960 E0.2001
G1 X76.449 Y52.957 E0.2004
G1 X77.386 Y52.626 E0.2491
G1 X77.392 Y52.624 E0.2494
G1 X77.482 Y52.598 E0.2540
G1 X77.488 Y52.596 E0.2543
G1 X78.420 Y52.391 E0.3010
G1 X78.425 Y52.390 E0.3013
G1 X78.493 Y52.379 E0.3047
G1 X78.498 Y52.378 E0.3049
G1 X78.981 Y52.318 E0.3288
G1 X78.985 Y52.317 E0.3290
G1 X79.046 Y52.312 E0.3320
G1 X79.050 Y52.312 E0.3322
G1 X79.934 Y52.274 E0.3755
G1 X79.939 Y52.274 E0.3757
G1 X80.010 Y52.275 E0.3792
G1 X80.015 Y52.275 E0.3794
G1 X80.883 Y52.319 E0.4220
G1 X80.889 Y52.320 E0.4223
G1 X80.968 Y52.328 E0.4262
G1 X80.973 Y52.329 E0.4265
G1 X81.810 Y52.461 E0.4680
G1 X81.816 Y52.462 E0.4683
G1 X81.907 Y52.483 E0.4728
G1 X81.913 Y52.484 E0.4732
G1 X82.688 Y52.708 E0.5127
G1 X82.694 Y52.710 E0.5129
G1 X82.771 Y52.737 E0.5169
G1 X82.776 Y52.739 E0.5172
G1 X83.475 Y53.026 E0.5543
G1 X83.480 Y53.028 E0.5545
G1 X83.540 Y53.056 E0.5577
G1 X83.544 Y53.058 E0.5580
G1 X84.180 Y53.387 E0.5930
G1 X84.184 Y53.389 E0.5933
G1 X84.249 Y53.427 E0.5969
G1 X84.253 Y53.430 E0.5972
G1 X84.827 Y53.803 E0.6307
G1 X84.832 Y53.807 E0.6310
G1 X84.905 Y53.861 E0.6355
G1 X84.910 Y53.865 E0.6358
G1 X85.411 Y54.285 E0.6678
G1 X85.416 Y54.290 E0.6681
G1 X85.490 Y54.360 E0.6731
G1 X85.494 Y54.365 E0.6735
G1 X85.922 Y54.836 E0.7046
G1 X85.926 Y54.841 E0.7049
G1 X85.985 Y54.914 E0.7095
G1 X85.989 Y54.919 E0.7099
G1 X86.331 Y55.407 E0.7390
G1 X86.334 Y55.411 E0.7393
G1 X86.373 Y55.473 E0.7429
G1 X86.376 Y55.478 E0.7431
G1 X86.753 Y56.144 E0.7807
G1 X86.755 Y56.148 E0.7809
G1 X86.785 Y56.207 E0.7841
G1 X86.787 Y56.211 E0.7843
G1 X87.083 Y56.863 E0.8194
G1 X87.090 Y56.883 E0.8204
G1 X87.158 Y57.181 E0.8354
G1 X87.161 Y57.202 E0.8364
G1 X87.343 Y65.410 E1.2386
G1 X87.344 Y65.416 E1.2388
G1 X87.480 Y74.080 E1.6632
G1 X87.480 Y74.087 E1.6636
G1 X87.519 Y80.240 E1.9649
G1 X87.519 Y80.247 E1.9652
G1 X87.503 Y86.240 E2.2587
G1 X87.503 Y86.257 E2.2595
G1 X87.225 Y97.652 E2.8177
G1 X87.225 Y97.663 E2.8183
G1 X87.010 Y103.186 E3.0889
G1 X87.009 Y103.198 E3.0895
G1 X86.845 Y106.210 E3.2372
G1 X86.844 Y106.224 E3.2378
G1 X86.429 Y112.022 E3.5225
G1 X86.429 Y112.023 E3.5226
G1 X86.427 Y112.045 E3.5237
G1 X86.427 Y112.047 E3.5237
G1 X86.186 Y114.433 E3.6412
G1 X86.183 Y114.454 E3.6422
G1 X85.713 Y118.125 E3.8234
G1 X85.710 Y118.148 E3.8244
G1 X85.306 Y120.729 E3.9523
G1 X85.305 Y120.731 E3.9524
G1 X85.301 Y120.753 E3.9535
G1 X85.301 Y120.755 E3.9536
G1 X84.830 Y123.262 E4.0785
G1 X84.830 Y123.263 E4.0786
G1 X84.825 Y123.289 E4.0799
G1 X84.824 Y123.291 E4.0800
G1 X84.331 Y125.490 E4.1904
G1 X84.331 Y125.492 E4.1905
G1 X84.324 Y125.519 E4.1918
G1 X84.324 Y125.521 E4.1919
G1 X84.081 Y126.442 E4.2386
G1 X84.080 Y126.445 E4.2387
G1 X84.071 Y126.477 E4.2404
G1 X84.070 Y126.479 E4.2405
G1 X83.614 Y127.943 E4.3156
G1 X83.612 Y127.946 E4.3158
G1 X83.597 Y127.992 E4.3181
G1 X83.595 Y127.995 E4.3183
G1 X83.172 Y129.098 E4.3762
G1 X83.170 Y129.102 E4.3764
G1 X83.148 Y129.154 E4.3792
G1 X83.146 Y129.158 E4.3794
G1 X82.745 Y130.005 E4.4253
G1 X82.742 Y130.009 E4.4255
G1 X82.707 Y130.074 E4.4291
G1 X82.705 Y130.079 E4.4294
G1 X82.296 Y130.760 E4.4683
G1 X82.292 Y130.766 E4.4686
G1 X82.238 Y130.844 E4.4733
G1 X82.234 Y130.850 E4.4736
G1 X81.806 Y131.392 E4.5075
G1 X81.801 Y131.398 E4.5078
G1 X81.726 Y131.479 E4.5133
G1 X81.720 Y131.485 E4.5137
G1 X81.441 Y131.748 E4.5325
G1 X81.432 Y131.756 E4.5330
G1 X81.297 Y131.857 E4.5413
G1 X81.288 Y131.863 E4.5419
G1 X80.754 Y132.177 E4.5722
G1 X80.737 Y132.186 E4.5731
G1 X80.480 Y132.279 E4.5865
G1 X80.462 Y132.284 E4.5874
G1 X79.866 Y132.387 E4.6170
G1 X79.849 Y132.388 E4.6179
G1 X79.592 Y132.388 E4.6305
G1 X79.574 Y132.387 E4.6313
G1 X78.979 Y132.284 E4.6609
G1 X78.960 Y132.279 E4.6619
G1 X78.704 Y132.186 E4.6752
G1 X78.687 Y132.177 E4.6762
G1 X78.153 Y131.863 E4.7065
G1 X78.143 Y131.857 E4.7071
G1 X78.009 Y131.756 E4.7153
G1 X78.000 Y131.748 E4.7159
G1 X77.720 Y131.485 E4.7347
G1 X77.715 Y131.479 E4.7351
G1 X77.640 Y131.398 E4.7405
G1 X77.635 Y131.392 E4.7409
G1 X77.207 Y130.850 E4.7747
G1 X77.203 Y130.844 E4.7750
G1 X77.149 Y130.765 E4.7797
G1 X77.145 Y130.760 E4.7801
G1 X76.736 Y130.079 E4.8190
G1 X76.733 Y130.074 E4.8192
G1 X76.698 Y130.009 E4.8229
G1 X76.696 Y130.005 E4.8231
G1 X76.295 Y129.158 E4.8690
G1 X76.293 Y129.154 E4.8692
G1 X76.270 Y129.102 E4.8720
G1 X76.269 Y129.098 E4.8722
G1 X75.848 Y128.001 E4.9297
G1 X75.847 Y127.999 E4.9299
G1 X75.835 Y127.965 E4.9316
G1 X75.834 Y127.963 E4.9317
G1 X75.605 Y127.271 E4.9674
G1 X75.604 Y127.268 E4.9676
G1 X75.594 Y127.234 E4.9693
G1 X75.593 Y127.232 E4.9694
G1 X75.121 Y125.537 E5.0556
G1 X75.120 Y125.535 E5.0557
G1 X75.111 Y125.497 E5.0576
G1 X75.110 Y125.495 E5.0577
G1 X74.616 Y123.291 E5.1684
G1 X74.616 Y123.289 E5.1685
G1 X74.611 Y123.263 E5.1697
G1 X74.610 Y123.262 E5.1698
G1 X74.139 Y120.752 E5.2949
G1 X74.139 Y120.750 E5.2950
G1 X74.134 Y120.723 E5.2963
G1 X74.134 Y120.722 E5.2964
G1 X73.556 Y116.881 E5.4866
G1 X73.553 Y116.860 E5.4876
G1 X73.257 Y114.450 E5.6065
G1 X73.255 Y114.432 E5.6073
G1 X73.014 Y112.050 E5.7245
G1 X73.012 Y112.032 E5.7253
G1 X72.796 Y109.297 E5.8597
G1 X72.795 Y109.281 E5.8604
G1 X72.432 Y103.207 E6.1584
G1 X72.431 Y103.192 E6.1591
G1 X72.258 Y99.024 E6.3634
G1 X72.258 Y99.013 E6.3639
G1 X72.026 Y90.665 E6.7729
G1 X72.026 Y90.661 E6.7730
G1 X71.958 Y87.727 E6.9168
G1 X71.958 Y87.713 E6.9174
G1 X71.920 Y81.772 E7.2083
G1 X71.920 Y81.761 E7.2089
G1 X71.999 Y71.084 E7.7319
G1 X71.999 Y71.073 E7.7324
G1 X72.280 Y57.172 E8.4133
G1 X72.284 Y57.147 E8.4146
G1 X72.382 Y56.787 E8.4328
G1 X72.392 Y56.764 E8.4341
G1 X72.815 Y56.011 E8.4764
G1 X72.817 Y56.007 E8.4766
G1 X72.860 Y55.939 E8.4806
G1 X72.864 Y55.934 E8.4808
G1 X73.135 Y55.553 E8.5038
G1 X73.233 Y55.416 F1800
G92 E0
G1 E-0.8000 F1800
G1 X90.281 Y55.819 F7800
G1 E0.1200 F1800
G92 E0
G1 X90.286 Y55.791 E0.0014 F1800
G1 X90.398 Y55.407 E0.0210
G1 X90.409 Y55.382 E0.0223
G1 X90.922 Y54.543 E0.0705
G1 X90.926 Y54.537 E0.0708
G1 X90.985 Y54.454 E0.0758
G1 X90.989 Y54.449 E0.0761
G1 X91.433 Y53.903 E0.1106
G1 X91.436 Y53.900 E0.1108
G1 X91.481 Y53.850 E0.1141
G1 X91.484 Y53.846 E0.1143
G1 X91.786 Y53.536 E0.1356
G1 X91.790 Y53.533 E0.1358
G1 X91.839 Y53.487 E0.1391
G1 X91.842 Y53.484 E0.1393
G1 X92.516 Y52.906 E0.1828
G1 X92.520 Y52.903 E0.1830
G1 X92.575 Y52.860 E0.1864
G1 X92.579 Y52.857 E0.1867
G1 X92.999 Y52.559 E0.2119
G1 X93.003 Y52.556 E0.2122
G1 X93.062 Y52.519 E0.2156
G1 X93.066 Y52.516 E0.2158
G1 X93.960 Y52.000 E0.2664
G1 X93.966 Y51.997 E0.2667
G1 X94.049 Y51.955 E0.2712
G1 X94.054 Y51.953 E0.2715
G1 X95.076 Y51.519 E0.3259
G1 X95.082 Y51.517 E0.3262
G1 X95.162 Y51.488 E0.3304
G1 X95.168 Y51.486 E0.3307
G1 X96.262 Y51.163 E0.3865
G1 X96.267 Y51.161 E0.3868
G1 X96.344 Y51.143 E0.3907
G1 X96.350 Y51.142 E0.3910
G1 X97.447 Y50.940 E0.4456
G1 X97.452 Y50.939 E0.4459
G1 X97.528 Y50.929 E0.4496
G1 X97.533 Y50.929 E0.4499
G1 X98.596 Y50.843 E0.5021
G1 X98.601 Y50.843 E0.5023
G1 X98.664 Y50.840 E0.5055
G1 X98.669 Y50.840 E0.5057
G1 X99.697 Y50.845 E0.5560
G1 X99.701 Y50.845 E0.5563
G1 X99.762 Y50.847 E0.5592
G1 X99.767 Y50.848 E0.5595
G1 X100.761 Y50.933 E0.6083
G1 X100.766 Y50.933 E0.6086
G1 X100.840 Y50.943 E0.6122
G1 X100.845 Y50.944 E0.6125
G1 X101.791 Y51.120 E0.6596
G1 X101.797 Y51.121 E0.6599
G1 X101.887 Y51.144 E0.6645
G1 X101.894 Y51.145 E0.6648
G1 X103.134 Y51.539 E0.7285
G1 X103.139 Y51.540 E0.7288
G1 X103.210 Y51.567 E0.7325
G1 X103.215 Y51.569 E0.7328
G1 X103.967 Y51.894 E0.7729
G1 X103.972 Y51.896 E0.7731
G1 X104.032 Y51.926 E0.7764
G1 X104.037 Y51.928 E0.7767
G1 X104.707 Y52.293 E0.8141
G1 X104.713 Y52.296 E0.8144
G1 X104.785 Y52.341 E0.8186
G1 X104.790 Y52.344 E0.8189
G1 X105.366 Y52.748 E0.8533
G1 X105.370 Y52.751 E0.8536
G1 X105.428 Y52.796 E0.8572
G1 X105.432 Y52.800 E0.8574
G1 X105.715 Y53.042 E0.8756
G1 X105.719 Y53.045 E0.8759
G1 X105.774 Y53.099 E0.8797
G1 X105.778 Y53.102 E0.8799
G1 X106.236 Y53.585 E0.9125
G1 X106.240 Y53.589 E0.9128
G1 X106.296 Y53.656 E0.9171
G1 X106.300 Y53.661 E0.9174
G1 X106.681 Y54.170 E0.9486
G1 X106.684 Y54.175 E0.9488
G1 X106.725 Y54.235 E0.9524
G1 X106.728 Y54.239 E0.9526
G1 X107.014 Y54.711 E0.9797
G1 X107.017 Y54.716 E0.9799
G1 X107.051 Y54.779 E0.9835
G1 X107.054 Y54.784 E0.9837
G1 X107.398 Y55.497 E1.0225
G1 X107.406 Y55.518 E1.0236
G1 X107.481 Y55.834 E1.0395
G1 X107.484 Y55.856 E1.0406
G1 X107.746 Y68.878 E1.6785
G1 X107.746 Y68.884 E1.6788
G1 X107.860 Y77.523 E2.1020
G1 X107.860 Y77.531 E2.1023
G1 X107.886 Y86.586 E2.5458
G1 X107.886 Y86.594 E2.5462
G1 X107.861 Y90.098 E2.7178
G1 X107.861 Y90.109 E2.7183
G1 X107.791 Y93.592 E2.8889
G1 X107.791 Y93.599 E2.8892
G1 X107.507 Y103.585 E3.3785
G1 X107.507 Y103.589 E3.3787
G1 X107.400 Y106.800 E3.5360
G1 X107.399 Y106.811 E3.5365
G1 X107.159 Y111.937 E3.7878
G1 X107.159 Y111.946 E3.7883
G1 X106.938 Y115.730 E3.9739
G1 X106.937 Y115.743 E3.9745
G1 X106.570 Y120.656 E4.2157
G1 X106.570 Y120.657 E4.2158
G1 X106.568 Y120.680 E4.2169
G1 X106.568 Y120.682 E4.2170
G1 X106.283 Y123.378 E4.3498
G1 X106.281 Y123.395 E4.3506
G1 X105.930 Y126.138 E4.4860
G1 X105.928 Y126.158 E4.4869
G1 X105.242 Y130.655 E4.7096
G1 X105.241 Y130.656 E4.7097
G1 X105.237 Y130.683 E4.7111
G1 X105.236 Y130.685 E4.7111
G1 X104.677 Y133.636 E4.8583
G1 X104.676 Y133.638 E4.8583
G1 X104.671 Y133.664 E4.8596
G1 X104.671 Y133.666 E4.8597
G1 X104.084 Y136.255 E4.9898
G1 X104.083 Y136.258 E4.9899
G1 X104.073 Y136.295 E4.9918
G1 X104.073 Y136.298 E4.9920
G1 X103.512 Y138.286 E5.0931
G1 X103.511 Y138.289 E5.0933
G1 X103.501 Y138.323 E5.0950
G1 X103.500 Y138.326 E5.0952
G1 X103.229 Y139.135 E5.1370
G1 X103.228 Y139.137 E5.1371
G1 X103.216 Y139.171 E5.1389
G1 X103.215 Y139.174 E5.1390
G1 X102.716 Y140.456 E5.2064
G1 X102.714 Y140.460 E5.2066
G1 X102.691 Y140.513 E5.2094
G1 X102.689 Y140.517 E5.2096
G1 X102.215 Y141.503 E5.2632
G1 X102.213 Y141.508 E5.2635
G1 X102.177 Y141.573 E5.2671
G1 X102.175 Y141.578 E5.2674
G1 X101.694 Y142.367 E5.3126
G1 X101.690 Y142.372 E5.3130
G1 X101.635 Y142.451 E5.3177
G1 X101.631 Y142.456 E5.3180
G1 X101.132 Y143.080 E5.3571
G1 X101.127 Y143.086 E5.3575
G1 X101.052 Y143.166 E5.3629
G1 X101.046 Y143.172 E5.3633
G1 X100.732 Y143.464 E5.3843
G1 X100.723 Y143.471 E5.3849
G1 X100.590 Y143.570 E5.3930
G1 X100.580 Y143.577 E5.3935
G1 X99.980 Y143.927 E5.4276
G1 X99.963 Y143.935 E5.4285
G1 X99.710 Y144.028 E5.4417
