; G-Code generated by Simplify3D(R) Version 3.1.0
; 3 6, 2017 at 3:57:57 ODP.
; Settings Summary
;   processName,aileron
;   applyToModels,cessna_152_elevator
;   profileName,Default (modified)
;   profileVersion,2016-04-14 15:44:02
;   baseProfile,Default
;   printMaterial,
;   printQuality,
;   printExtruders,
;   extruderName,Primary Extruder
;   extruderToolheadNumber,0
;   extruderDiameter,0.4
;   extruderAutoWidth,0
;   extruderWidth,0.42
;   extrusionMultiplier,1.02
;   extruderUseRetract,1
;   extruderRetractionDistance,0.8
;   extruderExtraRestartDistance,0.08
;   extruderRetractionZLift,0
;   extruderRetractionSpeed,1800
;   extruderUseCoasting,1
;   extruderCoastingDistance,0.2
;   extruderUseWipe,1
;   extruderWipeDistance,2
;   primaryExtruder,0
;   layerHeight,0.25
;   topSolidLayers,2
;   bottomSolidLayers,4
;   perimeterOutlines,1
;   printPerimetersInsideOut,1
;   startPointOption,3
;   startPointOriginX,200
;   startPointOriginY,0
;   startPointOriginZ,-300
;   sequentialIslands,0
;   spiralVaseMode,0
;   firstLayerHeightPercentage,90
;   firstLayerWidthPercentage,103
;   firstLayerUnderspeed,0.5
;   useRaft,0
;   raftExtruder,0
;   raftLayers,3
;   raftOffset,3
;   raftSeparationDistance,0.14
;   raftInfill,85
;   disableRaftBaseLayers,0
;   useSkirt,1
;   skirtExtruder,0
;   skirtLayers,1
;   skirtOutlines,1
;   skirtOffset,1.4
;   usePrimePillar,0
;   primePillarExtruder,999
;   primePillarWidth,12
;   primePillarLocation,7
;   primePillarSpeedMultiplier,1
;   useOozeShield,0
;   oozeShieldExtruder,999
;   oozeShieldOffset,2
;   oozeShieldOutlines,1
;   oozeShieldSidewallShape,1
;   oozeShieldSidewallAngle,30
;   oozeShieldSpeedMultiplier,1
;   infillExtruder,0
;   internalInfillPattern,Rectilinear
;   externalInfillPattern,Rectilinear
;   infillPercentage,0
;   outlineOverlapPercentage,15
;   infillExtrusionWidthPercentage,100
;   minInfillLength,5
;   infillLayerInterval,1
;   infillAngles,45,-45
;   overlapInfillAngles,0
;   generateSupport,0
;   supportExtruder,0
;   supportInfillPercentage,30
;   supportExtraInflation,0
;   denseSupportLayers,0
;   denseSupportInfillPercentage,70
;   supportLayerInterval,1
;   supportHorizontalPartOffset,0.3
;   supportUpperSeparationLayers,1
;   supportLowerSeparationLayers,1
;   supportType,0
;   supportGridSpacing,4
;   maxOverhangAngle,45
;   supportAngles,0
;   temperatureName,Primary Extruder,Heated Bed
;   temperatureNumber,0,1
;   temperatureSetpointCount,1,1
;   temperatureSetpointLayers,1,1
;   temperatureSetpointTemperatures,230,55
;   temperatureStabilizeAtStartup,1,1
;   temperatureHeatedBed,0,1
;   temperatureRelayBetweenLayers,0,0
;   temperatureRelayBetweenLoops,0,0
;   fanLayers,1
;   fanSpeeds,0
;   blipFanToFullPower,1
;   adjustSpeedForCooling,1
;   minSpeedLayerTime,15
;   minCoolingSpeedSlowdown,30
;   increaseFanForCooling,0
;   minFanLayerTime,45
;   maxCoolingFanSpeed,100
;   increaseFanForBridging,0
;   bridgingFanSpeed,100
;   use5D,1
;   relativeEdistances,0
;   allowEaxisZeroing,1
;   independentExtruderAxes,0
;   includeM10123,0
;   stickySupport,1
;   applyToolheadOffsets,0
;   gcodeXoffset,0
;   gcodeYoffset,0
;   gcodeZoffset,0
;   overrideMachineDefinition,1
;   machineTypeOverride,0
;   strokeXoverride,195
;   strokeYoverride,195
;   strokeZoverride,150
;   originOffsetXoverride,0
;   originOffsetYoverride,0
;   originOffsetZoverride,0
;   homeXdirOverride,-1
;   homeYdirOverride,-1
;   homeZdirOverride,-1
;   flipXoverride,1
;   flipYoverride,-1
;   flipZoverride,1
;   toolheadOffsets,0,0|0,0|0,0|0,0|0,0|0,0
;   overrideFirmwareConfiguration,1
;   firmwareTypeOverride,RepRap (Marlin/Repetier/Sprinter)
;   GPXconfigOverride,r2
;   baudRateOverride,115200
;   overridePrinterModels,0
;   printerModelsOverride
;   startingGcode,G28,
;   layerChangeGcode,
;   retractionGcode,
;   toolChangeGcode,
;   endingGcode,M104 S0 ; turn off extruder,M140 S0 ; turn off bed,G28 X0 ; home X axis,M84 ; disable motors,M107 ; turn off fan
;   exportFileFormat,gcode
;   celebration,0
;   celebrationSong,Random Song
;   postProcessing,
;   defaultSpeed,3600
;   outlineUnderspeed,0.7
;   solidInfillUnderspeed,0.8
;   supportUnderspeed,0.8
;   rapidXYspeed,7800
;   rapidZspeed,1002
;   minBridgingArea,5
;   bridgingExtraInflation,0
;   bridgingExtrusionMultiplier,1
;   bridgingSpeedMultiplier,0.3
;   filamentDiameter,1.75
;   filamentPricePerKg,1000
;   filamentDensity,1.25
;   useMinPrintHeight,0
;   minPrintHeight,0
;   useMaxPrintHeight,0
;   maxPrintHeight,1
;   useDiaphragm,0
;   diaphragmLayerInterval,20
;   robustSlicing,1
;   mergeAllIntoSolid,0
;   onlyRetractWhenCrossingOutline,0
;   retractBetweenLayers,0
;   useRetractionMinTravel,0
;   retractionMinTravel,3
;   retractWhileWiping,0
;   onlyWipeOutlines,1
;   avoidCrossingOutline,0
;   maxMovementDetourFactor,3
;   toolChangeRetractionDistance,0
;   toolChangeExtraRestartDistance,0
;   toolChangeRetractionSpeed,360
;   allowThinWallGapFill,1
;   thinWallAllowedOverlapPercentage,10
;   horizontalSizeCompensation,0
G90
M82
M106 S0
M140 S55
M190 S55
M104 S230 T0
M109 S230 T0
G28
G92 E0
G1 E-0.8000 F1800
G1 Z0.225 F1002
; layer 1, Z = 0.225
T0
; tool H0.250 W0.433
; skirt
G1 X63.962 Y65.163 F7800
G1 E0.0800 F540
G92 E0
G1 X64.034 Y65.132 E0.0036 F1800
G1 X65.921 Y65.044 E0.0902
G1 X65.999 Y65.072 E0.0940
G1 X66.914 Y65.889 E0.1503
G1 X66.950 Y65.963 E0.1541
G1 X67.356 Y72.160 E0.4389
G1 X68.030 Y82.117 E0.8966
G1 X68.806 Y92.914 E1.3931
G1 X70.645 Y116.993 E2.5006
G1 X70.645 Y117.010 E2.5013
G1 X70.626 Y117.248 E2.5123
G1 X70.623 Y117.264 E2.5131
G1 X70.432 Y118.042 E2.5498
G1 X70.430 Y118.050 E2.5502
G1 X70.391 Y118.167 E2.5558
G1 X70.388 Y118.175 E2.5562
G1 X70.051 Y118.962 E2.5955
G1 X70.047 Y118.972 E2.5960
G1 X69.973 Y119.105 E2.6030
G1 X69.967 Y119.115 E2.6035
G1 X69.380 Y119.961 E2.6507
G1 X69.376 Y119.966 E2.6510
G1 X69.319 Y120.039 E2.6553
G1 X69.315 Y120.044 E2.6555
G1 X68.944 Y120.459 E2.6811
G1 X68.941 Y120.463 E2.6813
G1 X68.892 Y120.513 E2.6845
G1 X68.889 Y120.516 E2.6847
G1 X68.496 Y120.881 E2.7093
G1 X68.491 Y120.886 E2.7096
G1 X68.419 Y120.945 E2.7139
G1 X68.414 Y120.949 E2.7142
G1 X68.004 Y121.245 E2.7374
G1 X67.999 Y121.249 E2.7377
G1 X67.915 Y121.301 E2.7422
G1 X67.909 Y121.305 E2.7425
G1 X67.491 Y121.530 E2.7643
G1 X67.485 Y121.534 E2.7646
G1 X67.396 Y121.575 E2.7691
G1 X67.390 Y121.577 E2.7695
G1 X66.971 Y121.737 E2.7900
G1 X66.965 Y121.739 E2.7903
G1 X66.878 Y121.766 E2.7945
G1 X66.872 Y121.768 E2.7948
G1 X66.441 Y121.875 E2.8151
G1 X66.433 Y121.877 E2.8155
G1 X66.317 Y121.896 E2.8209
G1 X66.309 Y121.897 E2.8213
G1 X65.515 Y121.967 E2.8578
G1 X65.504 Y121.967 E2.8583
G1 X65.349 Y121.965 E2.8654
G1 X65.338 Y121.964 E2.8659
G1 X64.551 Y121.871 E2.9023
G1 X64.543 Y121.870 E2.9027
G1 X64.437 Y121.849 E2.9076
G1 X64.429 Y121.847 E2.9080
G1 X64.007 Y121.734 E2.9280
G1 X64.001 Y121.732 E2.9283
G1 X63.917 Y121.704 E2.9324
G1 X63.911 Y121.702 E2.9326
G1 X63.498 Y121.537 E2.9531
G1 X63.491 Y121.534 E2.9534
G1 X63.402 Y121.491 E2.9579
G1 X63.396 Y121.488 E2.9583
G1 X62.982 Y121.256 E2.9800
G1 X62.976 Y121.252 E2.9804
G1 X62.890 Y121.197 E2.9850
G1 X62.885 Y121.192 E2.9854
G1 X62.480 Y120.887 E3.0086
G1 X62.474 Y120.883 E3.0089
G1 X62.401 Y120.819 E3.0134
G1 X62.396 Y120.814 E3.0137
G1 X62.011 Y120.437 E3.0384
G1 X62.008 Y120.433 E3.0387
G1 X61.959 Y120.380 E3.0420
G1 X61.955 Y120.377 E3.0422
G1 X61.595 Y119.948 E3.0679
G1 X61.591 Y119.943 E3.0682
G1 X61.535 Y119.867 E3.0725
G1 X61.531 Y119.862 E3.0728
G1 X60.969 Y118.992 E3.1203
G1 X60.963 Y118.983 E3.1208
G1 X60.893 Y118.846 E3.1278
G1 X60.889 Y118.836 E3.1283
G1 X60.577 Y118.033 E3.1679
G1 X60.574 Y118.025 E3.1683
G1 X60.539 Y117.906 E3.1739
G1 X60.537 Y117.898 E3.1743
G1 X60.376 Y117.128 E3.2104
G1 X60.374 Y117.114 E3.2110
G1 X60.360 Y116.915 E3.2202
G1 X60.360 Y116.901 E3.2208
G1 X61.261 Y101.738 E3.9175
G1 X61.852 Y91.228 E4.4003
G1 X62.436 Y80.171 E4.9081
G1 X63.109 Y66.056 E5.5561
G1 X63.140 Y65.984 E5.5597
G1 X63.821 Y65.305 E5.6039
G1 X63.962 Y65.163 F1800
G92 E0
G1 E-0.8000 F1800
G1 X86.768 Y95.842 F7800
G1 E0.0800 F1800
G92 E0
G1 X86.839 Y95.812 E0.0035 F1800
G1 X93.170 Y95.564 E0.2941
G1 X93.246 Y95.592 E0.2978
G1 X94.150 Y96.395 E0.3533
G1 X94.186 Y96.468 E0.3570
G1 X95.349 Y111.203 E1.0349
G1 X96.414 Y125.038 E1.6712
G1 X96.414 Y125.055 E1.6720
G1 X96.395 Y125.293 E1.6830
G1 X96.392 Y125.310 E1.6837
G1 X96.172 Y126.207 E1.7261
G1 X96.171 Y126.213 E1.7264
G1 X96.147 Y126.292 E1.7302
G1 X96.145 Y126.298 E1.7304
G1 X95.973 Y126.768 E1.7534
G1 X95.971 Y126.774 E1.7537
G1 X95.939 Y126.848 E1.7574
G1 X95.937 Y126.853 E1.7576
G1 X95.693 Y127.348 E1.7829
G1 X95.690 Y127.353 E1.7832
G1 X95.650 Y127.425 E1.7870
G1 X95.647 Y127.430 E1.7873
G1 X95.315 Y127.951 E1.8156
G1 X95.312 Y127.955 E1.8158
G1 X95.275 Y128.007 E1.8187
G1 X95.273 Y128.011 E1.8189
G1 X94.879 Y128.525 E1.8487
G1 X94.877 Y128.529 E1.8488
G1 X94.838 Y128.575 E1.8516
G1 X94.836 Y128.578 E1.8518
G1 X94.395 Y129.067 E1.8820
G1 X94.392 Y129.071 E1.8822
G1 X94.345 Y129.119 E1.8853
G1 X94.341 Y129.122 E1.8855
G1 X93.866 Y129.563 E1.9152
G1 X93.862 Y129.568 E1.9155
G1 X93.794 Y129.624 E1.9196
G1 X93.789 Y129.628 E1.9199
G1 X93.298 Y129.987 E1.9477
G1 X93.293 Y129.990 E1.9481
G1 X93.213 Y130.041 E1.9524
G1 X93.207 Y130.045 E1.9527
G1 X92.708 Y130.321 E1.9789
G1 X92.702 Y130.324 E1.9792
G1 X92.616 Y130.365 E1.9836
G1 X92.609 Y130.368 E1.9839
G1 X92.107 Y130.567 E2.0086
G1 X92.101 Y130.570 E2.0089
G1 X92.014 Y130.598 E2.0131
G1 X92.008 Y130.600 E2.0134
G1 X91.510 Y130.731 E2.0370
G1 X91.505 Y130.732 E2.0373
G1 X91.424 Y130.749 E2.0411
G1 X91.419 Y130.750 E2.0413
G1 X90.924 Y130.824 E2.0643
G1 X90.918 Y130.824 E2.0645
G1 X90.836 Y130.832 E2.0683
G1 X90.830 Y130.832 E2.0686
G1 X90.335 Y130.851 E2.0913
G1 X90.330 Y130.852 E2.0916
G1 X90.248 Y130.850 E2.0953
G1 X90.242 Y130.850 E2.0956
G1 X89.750 Y130.815 E2.1182
G1 X89.744 Y130.815 E2.1185
G1 X89.666 Y130.805 E2.1221
G1 X89.660 Y130.804 E2.1223
G1 X89.173 Y130.718 E2.1450
G1 X89.168 Y130.717 E2.1453
G1 X89.096 Y130.701 E2.1487
G1 X89.091 Y130.700 E2.1489
G1 X88.600 Y130.562 E2.1723
G1 X88.594 Y130.560 E2.1726
G1 X88.506 Y130.530 E2.1769
G1 X88.500 Y130.527 E2.1772
G1 X87.999 Y130.317 E2.2021
G1 X87.992 Y130.314 E2.2024
G1 X87.900 Y130.268 E2.2071
G1 X87.894 Y130.265 E2.2075
G1 X87.394 Y129.969 E2.2341
G1 X87.388 Y129.965 E2.2344
G1 X87.301 Y129.905 E2.2392
G1 X87.295 Y129.901 E2.2396
G1 X86.807 Y129.511 E2.2682
G1 X86.802 Y129.506 E2.2686
G1 X86.729 Y129.439 E2.2731
G1 X86.724 Y129.435 E2.2734
G1 X86.259 Y128.950 E2.3042
G1 X86.255 Y128.946 E2.3045
G1 X86.210 Y128.894 E2.3076
G1 X86.207 Y128.891 E2.3078
G1 X85.783 Y128.359 E2.3390
G1 X85.781 Y128.356 E2.3392
G1 X85.748 Y128.311 E2.3417
G1 X85.746 Y128.308 E2.3419
G1 X85.372 Y127.761 E2.3723
G1 X85.370 Y127.758 E2.3725
G1 X85.341 Y127.712 E2.3750
G1 X85.339 Y127.709 E2.3752
G1 X85.029 Y127.175 E2.4035
G1 X85.026 Y127.170 E2.4037
G1 X84.995 Y127.110 E2.4068
G1 X84.993 Y127.106 E2.4071
G1 X84.761 Y126.608 E2.4322
G1 X84.759 Y126.602 E2.4325
G1 X84.722 Y126.508 E2.4371
G1 X84.720 Y126.501 E2.4375
G1 X84.599 Y126.111 E2.4562
G1 X84.076 Y126.226 E2.4808
G1 X82.067 Y126.878 E2.5776
G1 X74.723 Y129.523 E2.9356
G1 X74.721 Y129.524 E2.9357
G1 X74.695 Y129.533 E2.9370
G1 X74.693 Y129.533 E2.9371
G1 X73.141 Y130.028 E3.0118
G1 X73.137 Y130.029 E3.0120
G1 X73.083 Y130.044 E3.0145
G1 X73.080 Y130.045 E3.0147
G1 X72.034 Y130.295 E3.0640
G1 X72.026 Y130.297 E3.0644
G1 X71.907 Y130.316 E3.0699
G1 X71.898 Y130.317 E3.0703
G1 X71.155 Y130.372 E3.1045
G1 X71.140 Y130.372 E3.1052
G1 X70.933 Y130.359 E3.1147
G1 X70.919 Y130.357 E3.1154
G1 X70.384 Y130.248 E3.1404
G1 X70.376 Y130.246 E3.1408
G1 X70.261 Y130.213 E3.1463
G1 X70.253 Y130.210 E3.1466
G1 X69.790 Y130.036 E3.1693
G1 X69.782 Y130.032 E3.1698
G1 X69.656 Y129.971 E3.1762
G1 X69.648 Y129.966 E3.1766
G1 X69.216 Y129.705 E3.1997
G1 X69.208 Y129.699 E3.2002
G1 X69.090 Y129.611 E3.2069
G1 X69.082 Y129.605 E3.2074
G1 X68.700 Y129.255 E3.2312
G1 X68.693 Y129.249 E3.2316
G1 X68.599 Y129.145 E3.2380
G1 X68.593 Y129.137 E3.2385
G1 X68.271 Y128.709 E3.2631
G1 X68.266 Y128.702 E3.2635
G1 X68.200 Y128.598 E3.2691
G1 X68.196 Y128.591 E3.2695
G1 X67.920 Y128.064 E3.2967
G1 X67.916 Y128.054 E3.2973
G1 X67.857 Y127.903 E3.3047
G1 X67.853 Y127.893 E3.3052
G1 X67.674 Y127.237 E3.3364
G1 X67.671 Y127.225 E3.3369
G1 X67.645 Y127.047 E3.3452
G1 X67.643 Y127.035 E3.3457
G1 X67.621 Y126.266 E3.3810
G1 X67.621 Y126.254 E3.3815
G1 X67.636 Y126.085 E3.3894
G1 X67.637 Y126.073 E3.3899
G1 X67.810 Y125.209 E3.4303
G1 X67.812 Y125.200 E3.4307
G1 X67.854 Y125.062 E3.4374
G1 X67.857 Y125.052 E3.4378
G1 X68.253 Y124.085 E3.4857
G1 X68.257 Y124.077 E3.4862
G1 X68.320 Y123.955 E3.4925
G1 X68.325 Y123.947 E3.4929
G1 X69.076 Y122.776 E3.5567
G1 X69.079 Y122.770 E3.5570
G1 X69.134 Y122.695 E3.5612
G1 X69.138 Y122.690 E3.5615
G1 X70.367 Y121.211 E3.6498
G1 X70.370 Y121.208 E3.6499
G1 X70.408 Y121.165 E3.6526
G1 X70.411 Y121.162 E3.6527
G1 X72.260 Y119.252 E3.7747
G1 X72.262 Y119.250 E3.7748
G1 X72.285 Y119.228 E3.7763
G1 X72.286 Y119.226 E3.7764
G1 X77.838 Y113.960 E4.1273
G1 X80.673 Y110.985 E4.3158
G1 X82.981 Y108.054 E4.4869
G1 X84.403 Y105.329 E4.6279
G1 X85.220 Y102.680 E4.7550
G1 X85.643 Y100.016 E4.8787
G1 X85.913 Y96.700 E5.0313
G1 X85.946 Y96.631 E5.0348
G1 X86.625 Y95.979 E5.0780
G1 X86.768 Y95.842 F1800
G92 E0
G1 E-0.8000 F1800
G1 X101.609 Y96.469 F7800
G1 E0.0800 F1800
G92 E0
G1 X101.645 Y96.396 E0.0037 F1800
G1 X102.549 Y95.592 E0.0592
G1 X102.626 Y95.564 E0.0629
G1 X108.957 Y95.812 E0.3535
G1 X109.028 Y95.842 E0.3571
G1 X109.850 Y96.631 E0.4093
G1 X109.883 Y96.700 E0.4128
G1 X110.153 Y100.016 E0.5654
G1 X110.576 Y102.680 E0.6891
G1 X111.393 Y105.329 E0.8163
G1 X112.815 Y108.054 E0.9572
G1 X115.123 Y110.985 E1.1283
G1 X117.958 Y113.960 E1.3168
G1 X123.510 Y119.226 E1.6677
G1 X123.511 Y119.228 E1.6678
G1 X123.534 Y119.250 E1.6693
G1 X123.536 Y119.252 E1.6694
G1 X125.385 Y121.162 E1.7914
G1 X125.388 Y121.165 E1.7916
G1 X125.426 Y121.208 E1.7942
G1 X125.429 Y121.211 E1.7944
G1 X126.658 Y122.690 E1.8826
G1 X126.662 Y122.695 E1.8829
G1 X126.717 Y122.770 E1.8871
G1 X126.720 Y122.776 E1.8874
G1 X127.471 Y123.947 E1.9512
G1 X127.476 Y123.955 E1.9517
G1 X127.539 Y124.077 E1.9579
G1 X127.543 Y124.085 E1.9584
G1 X127.939 Y125.052 E2.0063
G1 X127.942 Y125.062 E2.0068
G1 X127.984 Y125.200 E2.0134
G1 X127.986 Y125.209 E2.0138
G1 X128.159 Y126.073 E2.0542
G1 X128.160 Y126.085 E2.0548
G1 X128.175 Y126.254 E2.0626
G1 X128.175 Y126.266 E2.0631
G1 X128.153 Y127.035 E2.0984
G1 X128.151 Y127.047 E2.0990
G1 X128.125 Y127.225 E2.1072
G1 X128.122 Y127.237 E2.1078
G1 X127.943 Y127.893 E2.1389
G1 X127.939 Y127.903 E2.1395
G1 X127.880 Y128.054 E2.1469
G1 X127.876 Y128.064 E2.1474
G1 X127.600 Y128.591 E2.1747
G1 X127.596 Y128.598 E2.1750
G1 X127.530 Y128.702 E2.1807
G1 X127.525 Y128.709 E2.1810
G1 X127.203 Y129.137 E2.2056
G1 X127.197 Y129.145 E2.2061
G1 X127.103 Y129.249 E2.2125
G1 X127.096 Y129.255 E2.2130
G1 X126.714 Y129.605 E2.2367
G1 X126.706 Y129.611 E2.2372
G1 X126.588 Y129.699 E2.2439
G1 X126.580 Y129.705 E2.2444
G1 X126.148 Y129.966 E2.2675
G1 X126.140 Y129.971 E2.2680
G1 X126.014 Y130.032 E2.2744
G1 X126.006 Y130.036 E2.2748
G1 X125.543 Y130.210 E2.2975
G1 X125.535 Y130.213 E2.2979
G1 X125.420 Y130.246 E2.3034
G1 X125.412 Y130.248 E2.3037
G1 X124.877 Y130.357 E2.3287
G1 X124.863 Y130.359 E2.3294
G1 X124.656 Y130.372 E2.3389
G1 X124.641 Y130.372 E2.3396
G1 X123.898 Y130.317 E2.3738
G1 X123.889 Y130.316 E2.3742
G1 X123.770 Y130.297 E2.3797
G1 X123.762 Y130.295 E2.3801
G1 X122.716 Y130.045 E2.4294
G1 X122.713 Y130.044 E2.4296
G1 X122.659 Y130.029 E2.4321
G1 X122.655 Y130.028 E2.4323
G1 X121.103 Y129.533 E2.5070
G1 X121.101 Y129.533 E2.5071
G1 X121.075 Y129.524 E2.5084
G1 X121.073 Y129.523 E2.5085
G1 X113.728 Y126.878 E2.8665
G1 X111.721 Y126.226 E2.9633
G1 X111.197 Y126.111 E2.9879
G1 X111.076 Y126.501 E3.0067
G1 X111.074 Y126.508 E3.0070
G1 X111.037 Y126.602 E3.0116
G1 X111.035 Y126.608 E3.0119
G1 X110.803 Y127.106 E3.0371
G1 X110.801 Y127.110 E3.0373
